for cam/3.portrait-Florida2.cube
#Created by: Adobe Photoshop Export Color Lookup Plugin
#Copyright: (C) Copyright 2026 汉图
TITLE "Ricotta调色优化.psd"
#LUT size
LUT_3D_SIZE 7
#data domain
#LUT data points
DOMAIN_MIN 0.000000 0.000000 0.000000
DOMAIN_MAX 0.909091 0.909091 0.909091
0.042358 0.008545 0.000519
0.117828 0.008545 0.000519
0.406128 0.011292 0.000793
0.621246 0.014404 0.001160
0.755280 0.016479 0.001434
0.849792 0.024780 0.001587
0.925262 0.063599 0.001587
0.042358 0.083984 0.000519
0.117828 0.083984 0.000519
0.410034 0.086823 0.000793
0.620697 0.089874 0.001160
0.754059 0.094238 0.001404
0.849792 0.124176 0.001587
0.925262 0.158630 0.001587
0.042450 0.159454 0.000702
0.118469 0.159546 0.002441
0.265717 0.179138 0.000977
0.617706 0.229248 0.001129
0.752319 0.242645 0.001404
0.849792 0.257141 0.001587
0.925262 0.279053 0.001587
0.045837 0.330231 0.036255
0.152588 0.327637 0.040405
0.283386 0.313019 0.045258
0.467590 0.364685 0.044403
0.725616 0.415375 0.002747
0.849579 0.424347 0.001556
0.925262 0.435089 0.004089
0.120575 0.512207 0.077026
0.240173 0.514496 0.081268
0.382202 0.504547 0.090698
0.479919 0.493988 0.097443
0.625275 0.540558 0.096832
0.817749 0.583282 0.052856
0.925720 0.598175 0.048645
0.231323 0.677917 0.132294
0.326019 0.677643 0.134644
0.450592 0.677826 0.147736
0.550781 0.663605 0.153351
0.636139 0.661224 0.161133
0.755493 0.697357 0.165558
0.908264 0.737885 0.130310
0.316986 0.829956 0.209076
0.401184 0.829712 0.210327
0.506134 0.831909 0.223114
0.607788 0.828094 0.234314
0.695801 0.821655 0.243835
0.779572 0.826385 0.259857
0.883118 0.852173 0.269989
0.042358 0.008545 0.075958
0.117828 0.008545 0.075958
0.381287 0.010864 0.076172
0.610992 0.014160 0.076569
0.749847 0.016266 0.076843
0.849792 0.038391 0.077057
0.925262 0.070526 0.077057
0.042358 0.083984 0.075958
0.117828 0.083984 0.075958
0.393158 0.086548 0.076202
0.611603 0.089630 0.076569
0.749329 0.108551 0.076843
0.849792 0.135376 0.077057
0.925262 0.164642 0.077057
0.043304 0.171600 0.085419
0.119080 0.170105 0.089691
0.303833 0.200043 0.085266
0.612762 0.239716 0.076569
0.747009 0.249725 0.076843
0.849792 0.263519 0.077057
0.925262 0.283630 0.077057
0.046417 0.348785 0.122559
0.172821 0.350098 0.125427
0.311340 0.335510 0.131439
0.483734 0.381073 0.127899
0.725189 0.423340 0.090240
0.848419 0.434509 0.088318
0.925446 0.441406 0.090424
0.147675 0.528442 0.165283
0.249420 0.527649 0.165527
0.394104 0.521332 0.175293
0.492523 0.507660 0.181244
0.630402 0.548767 0.180145
0.817841 0.588409 0.137848
0.925812 0.603210 0.134125
0.238556 0.685059 0.216858
0.327850 0.683685 0.216553
0.450623 0.684479 0.227661
0.556030 0.671783 0.235107
0.641052 0.667633 0.242035
0.757599 0.701263 0.246643
0.908783 0.740936 0.212921
0.316254 0.831970 0.289124
0.398987 0.831329 0.288818
0.501373 0.832489 0.297729
0.609009 0.832703 0.315063
0.698181 0.825531 0.324524
0.781372 0.828979 0.338898
0.883575 0.853485 0.349274
0.042358 0.008545 0.151459
0.119995 0.008759 0.161652
0.393463 0.009674 0.154938
0.572479 0.010620 0.153839
0.741150 0.015900 0.152252
0.848755 0.049835 0.152496
0.925262 0.083710 0.152496
0.043518 0.084137 0.156799
0.121033 0.084351 0.167755
0.390289 0.085083 0.165192
0.582092 0.094971 0.161743
0.741180 0.116302 0.152252
0.848938 0.152252 0.152496
0.925262 0.178101 0.152496
0.044342 0.175690 0.176025
0.120239 0.196411 0.183197
0.359985 0.244049 0.194702
0.594116 0.261902 0.183411
0.735291 0.272766 0.174225
0.846436 0.284912 0.166656
0.925415 0.301147 0.163391
0.047150 0.373474 0.220337
0.129944 0.386902 0.224030
0.370758 0.401733 0.236725
0.518280 0.423065 0.230408
0.725525 0.447754 0.202484
0.842407 0.452789 0.198090
0.925659 0.456085 0.192657
0.110596 0.548798 0.259796
0.249695 0.554291 0.264191
0.410370 0.559845 0.273438
0.524200 0.544922 0.280640
0.644592 0.572784 0.279724
0.819458 0.605438 0.242279
0.925995 0.620148 0.242310
0.224182 0.696442 0.307343
0.328064 0.698151 0.310913
0.445740 0.698181 0.314331
0.566284 0.692719 0.326172
0.653412 0.684082 0.332458
0.762848 0.711304 0.337189
0.910095 0.747986 0.306610
0.310303 0.838593 0.378357
0.399780 0.839386 0.381409
0.493561 0.838287 0.380463
0.607330 0.840698 0.397888
0.702118 0.833252 0.409515
0.785095 0.834534 0.422211
0.884430 0.856293 0.433319
0.048889 0.009247 0.271545
0.125671 0.009399 0.285980
0.419220 0.009857 0.314819
0.607819 0.010956 0.287598
0.709351 0.061981 0.282440
0.835327 0.089630 0.274902
0.925598 0.103241 0.260803
0.049408 0.084778 0.277283
0.121613 0.085297 0.290283
0.406738 0.085236 0.322296
0.602173 0.103180 0.297577
0.705353 0.168976 0.292358
0.835571 0.191376 0.284332
0.925598 0.191132 0.262115
0.045807 0.194122 0.281433
0.121521 0.212128 0.288940
0.353546 0.250305 0.324615
0.585693 0.281738 0.323669
0.704865 0.317719 0.317383
0.837372 0.310547 0.292938
0.925751 0.321899 0.278900
0.047089 0.362976 0.316833
0.186554 0.381775 0.325043
0.372070 0.423920 0.340973
0.555542 0.477386 0.364594
0.711365 0.480194 0.345825
0.832458 0.477783 0.327484
0.925964 0.477051 0.311890
0.102448 0.558258 0.375610
0.226044 0.566315 0.377686
0.389008 0.586487 0.384216
0.557892 0.602081 0.396881
0.666565 0.608490 0.396149
0.822998 0.632233 0.371033
0.925903 0.641388 0.372009
0.179565 0.704926 0.410767
0.285370 0.708649 0.412170
0.425110 0.716736 0.416931
0.570374 0.722595 0.428284
0.672760 0.711548 0.435730
0.772278 0.729065 0.440704
0.912842 0.760345 0.415985
0.263000 0.842773 0.467499
0.357422 0.844543 0.469482
0.476257 0.847748 0.475586
0.594788 0.848907 0.482513
0.706299 0.846954 0.500305
0.791046 0.843567 0.511108
0.886200 0.861267 0.523376
0.047485 0.023773 0.404816
0.172913 0.034515 0.419403
0.374176 0.018585 0.453979
0.640808 0.023834 0.477295
0.737885 0.061188 0.427673
0.821136 0.152893 0.422119
0.921021 0.215332 0.438416
0.054901 0.119354 0.407959
0.195862 0.133362 0.421600
0.376099 0.120392 0.454651
0.634888 0.103607 0.482422
0.733154 0.172729 0.436157
0.817474 0.253235 0.431061
0.921082 0.300903 0.441925
0.078583 0.231323 0.407867
0.209320 0.249512 0.418121
0.377625 0.282379 0.450287
0.599670 0.276093 0.491364
0.721375 0.334778 0.460510
0.809845 0.383575 0.455688
0.921722 0.399536 0.449371
0.102539 0.367462 0.419403
0.215515 0.380096 0.424042
0.370758 0.415527 0.437286
0.548950 0.476288 0.486328
0.707306 0.502075 0.495605
0.809143 0.515778 0.482819
0.923981 0.506012 0.454987
0.181366 0.543457 0.466644
0.283325 0.552277 0.470673
0.414276 0.574890 0.481750
0.556549 0.610321 0.503082
0.692963 0.651520 0.535248
0.816589 0.648682 0.512085
0.923553 0.644745 0.489014
0.215057 0.708984 0.532867
0.308563 0.712524 0.534088
0.424377 0.721466 0.536407
0.554565 0.738708 0.544250
0.689850 0.752502 0.555725
0.786652 0.754700 0.561676
0.917297 0.776581 0.544586
0.230255 0.841370 0.577454
0.320435 0.843140 0.577637
0.430634 0.848877 0.579407
0.564575 0.857849 0.584442
0.698151 0.862701 0.593903
0.799438 0.857178 0.608643
0.889404 0.869080 0.621826
0.160126 0.094513 0.558563
0.272614 0.108124 0.570099
0.408417 0.101318 0.596008
0.596252 0.062775 0.641296
0.766937 0.116791 0.632324
0.842163 0.168030 0.582520
0.919647 0.237762 0.571289
0.165771 0.180573 0.555359
0.276917 0.196075 0.566498
0.407928 0.190308 0.592010
0.588654 0.144958 0.636841
0.764801 0.196594 0.635651
0.839508 0.266968 0.589661
0.918121 0.326660 0.577698
0.176025 0.284515 0.549042
0.279053 0.298676 0.558167
0.418884 0.329651 0.584869
0.572021 0.311920 0.627808
0.751801 0.339966 0.646881
0.833008 0.387909 0.603333
0.913879 0.433380 0.593567
0.136322 0.381989 0.534912
0.245605 0.394928 0.542725
0.398315 0.433899 0.564117
0.557343 0.485748 0.608490
0.722687 0.490784 0.657990
0.824677 0.524811 0.628967
0.907898 0.549164 0.615723
0.175201 0.527313 0.560272
0.270935 0.533936 0.562897
0.390686 0.550995 0.569702
0.526184 0.581116 0.584351
0.684601 0.640656 0.644104
0.814087 0.660248 0.661316
0.906464 0.665314 0.644043
0.235626 0.686035 0.609772
0.325897 0.690857 0.612488
0.435669 0.703003 0.619568
0.560089 0.724213 0.634674
0.686890 0.753571 0.661255
0.806519 0.788391 0.705994
0.914886 0.783905 0.678589
0.269073 0.841888 0.696991
0.354980 0.844238 0.699066
0.456451 0.850159 0.703217
0.567871 0.858765 0.707672
0.683258 0.869812 0.712097
0.803162 0.880188 0.720154
0.896393 0.881897 0.732269
0.271667 0.195374 0.718384
0.361633 0.200134 0.726532
0.463531 0.191193 0.744232
0.593811 0.161591 0.777252
0.751648 0.148224 0.798462
0.850708 0.189148 0.782257
0.926422 0.246582 0.734467
0.268005 0.272278 0.712616
0.361389 0.282166 0.720764
0.460693 0.270386 0.739166
0.588318 0.237701 0.772186
0.746765 0.219666 0.796204
0.850769 0.281647 0.782410
0.926453 0.334045 0.737579
0.258362 0.354675 0.699982
0.352356 0.366638 0.708710
0.464172 0.383362 0.729980
0.583405 0.367462 0.764252
0.731812 0.342499 0.796356
0.850952 0.396576 0.788879
0.926056 0.435486 0.746460
0.211029 0.424957 0.683716
0.312897 0.437958 0.688385
0.442413 0.470856 0.703583
0.571747 0.501099 0.741516
0.704895 0.483856 0.788452
0.847656 0.515778 0.801300
0.924133 0.549225 0.763123
0.155487 0.517792 0.665863
0.245239 0.521667 0.667511
0.367645 0.536591 0.676239
0.522064 0.573700 0.704865
0.681580 0.631195 0.762085
0.826935 0.644318 0.816315
0.919098 0.671478 0.791534
0.199036 0.665833 0.707153
0.285919 0.668365 0.707825
0.389832 0.675476 0.710083
0.510284 0.689514 0.716095
0.640411 0.713287 0.729492
0.798218 0.774017 0.802887
0.913513 0.792419 0.829132
0.266205 0.821838 0.771851
0.350464 0.823822 0.772949
0.448914 0.829620 0.776764
0.560303 0.840576 0.785095
0.678619 0.856049 0.798309
0.797485 0.877075 0.822540
0.909515 0.903748 0.867584
