for cam/3.portrait-Florida2.cube
#Created by: Adobe Photoshop Export Color Lookup Plugin
#Copyright: (C) Copyright 2026 汉图
TITLE "Ricotta调色优化.psd"
#LUT size
LUT_3D_SIZE 4
#data domain
DOMAIN_MIN 0.0 0.0 0.0
DOMAIN_MAX 1.0 1.0 1.0
#LUT data points
0.042358 0.008545 0.000519
0.454224 0.011932 0.000854
0.799011 0.017120 0.001556
0.970520 0.093201 0.001587
0.042969 0.184265 0.006470
0.311127 0.214539 0.008453
0.795624 0.282471 0.001495
0.970520 0.329285 0.001587
0.168365 0.582184 0.097717
0.435303 0.574585 0.113861
0.679169 0.605804 0.123718
0.971283 0.678406 0.096283
0.373169 0.921417 0.287048
0.567322 0.923218 0.301819
0.768341 0.923676 0.342133
0.960663 0.949066 0.386414
0.043884 0.008698 0.173218
0.444275 0.009949 0.179565
0.785431 0.030884 0.167572
0.970551 0.111023 0.168457
0.045044 0.211456 0.203583
0.408569 0.294220 0.226532
0.779022 0.317719 0.201874
0.970825 0.350006 0.191925
0.152496 0.614777 0.298950
0.452606 0.622559 0.311371
0.695099 0.633606 0.322174
0.971497 0.694336 0.306213
0.360992 0.925995 0.467438
0.553589 0.926147 0.470337
0.769623 0.927460 0.514221
0.960327 0.949646 0.558044
0.083160 0.048401 0.464111
0.425842 0.044342 0.518127
0.782166 0.102478 0.488739
0.971375 0.261597 0.505890
0.114014 0.271515 0.462311
0.426971 0.335297 0.508789
0.766602 0.388031 0.523621
0.971680 0.455933 0.516479
0.209381 0.603424 0.523926
0.450775 0.632416 0.539337
0.740387 0.709656 0.603638
0.971832 0.703156 0.552277
0.261597 0.921478 0.671753
0.469299 0.927338 0.671967
0.753876 0.940521 0.689606
0.961182 0.953766 0.745422
0.321625 0.250183 0.817169
0.516968 0.237457 0.841858
0.797791 0.192932 0.886993
0.971863 0.279907 0.846039
0.307831 0.424377 0.802856
0.513062 0.439758 0.829132
0.780365 0.385254 0.884369
0.972015 0.488342 0.859772
0.220001 0.611420 0.783112
0.415527 0.616638 0.788940
0.743225 0.706848 0.880280
0.972412 0.736969 0.903015
0.325897 0.921509 0.909760
0.511780 0.925995 0.913177
0.733826 0.941345 0.927063
0.970123 0.969360 0.964508
