for cam/3.portrait-Florida2.cube
#Created by: Adobe Photoshop Export Color Lookup Plugin
#Copyright: (C) Copyright 2026 汉图
TITLE "Ricotta调色优化.psd"
#LUT size
LUT_3D_SIZE 34
#data domain
DOMAIN_MIN 0.0 0.0 0.0
DOMAIN_MAX 1.0 1.0 1.0
#LUT data points
0.042358 0.008545 0.000519
0.057434 0.008545 0.000519
0.072540 0.008545 0.000519
0.087646 0.008545 0.000519
0.102722 0.008545 0.000519
0.117828 0.008545 0.000519
0.178131 0.008881 0.000549
0.240479 0.009430 0.000610
0.299500 0.010040 0.000671
0.354919 0.010712 0.000732
0.406128 0.011292 0.000793
0.454224 0.011932 0.000854
0.500214 0.012573 0.000916
0.544342 0.013214 0.001007
0.585022 0.013855 0.001068
0.621246 0.014404 0.001160
0.653442 0.014954 0.001221
0.682190 0.015411 0.001251
0.708344 0.015839 0.001312
0.732483 0.016174 0.001373
0.755280 0.016479 0.001434
0.777618 0.016846 0.001465
0.799011 0.017120 0.001556
0.818420 0.017365 0.001556
0.834686 0.017639 0.001587
0.849792 0.024780 0.001587
0.864868 0.031830 0.001587
0.879974 0.039429 0.001587
0.895050 0.046906 0.001587
0.910156 0.055145 0.001587
0.925262 0.063599 0.001587
0.940338 0.072540 0.001587
0.955444 0.082306 0.001587
0.970520 0.093201 0.001587
0.042358 0.023621 0.000519
0.057434 0.023621 0.000519
0.072540 0.023621 0.000519
0.087646 0.023621 0.000519
0.102722 0.023621 0.000519
0.117828 0.023621 0.000519
0.178680 0.023987 0.000549
0.241180 0.024506 0.000610
0.300171 0.025146 0.000671
0.355438 0.025818 0.000732
0.406158 0.026398 0.000793
0.454071 0.027039 0.000854
0.499969 0.027679 0.000916
0.544159 0.028290 0.001007
0.584625 0.028961 0.001068
0.620728 0.029510 0.001160
0.652863 0.030029 0.001190
0.681732 0.030518 0.001251
0.707855 0.030884 0.001312
0.732025 0.031219 0.001373
0.755005 0.031555 0.001404
0.777283 0.031891 0.001465
0.798584 0.032196 0.001526
0.818146 0.032440 0.001556
0.834686 0.035004 0.001587
0.849792 0.041870 0.001587
0.864868 0.048798 0.001587
0.879974 0.056122 0.001587
0.895050 0.063568 0.001587
0.910156 0.071533 0.001587
0.925262 0.079926 0.001587
0.940338 0.088745 0.001587
0.955444 0.098267 0.001587
0.970520 0.109222 0.001587
0.042358 0.038727 0.000519
0.057434 0.038727 0.000519
0.072540 0.038727 0.000519
0.087646 0.038727 0.000519
0.102722 0.038727 0.000519
0.117828 0.038727 0.000519
0.180237 0.039093 0.000549
0.242584 0.039642 0.000610
0.301361 0.040253 0.000671
0.356476 0.040924 0.000732
0.406891 0.041504 0.000793
0.454559 0.042114 0.000854
0.500275 0.042755 0.000916
0.544281 0.043396 0.001007
0.584686 0.044037 0.001068
0.620605 0.044586 0.001160
0.652679 0.045135 0.001190
0.681488 0.045593 0.001251
0.707550 0.045959 0.001312
0.731689 0.046295 0.001373
0.754822 0.046661 0.001404
0.777039 0.046967 0.001465
0.798309 0.047272 0.001526
0.817993 0.047516 0.001556
0.834686 0.053070 0.001587
0.849792 0.059570 0.001587
0.864868 0.066315 0.001587
0.879974 0.073486 0.001587
0.895050 0.080841 0.001587
0.910156 0.088745 0.001587
0.925262 0.097015 0.001587
0.940338 0.105652 0.001587
0.955444 0.115234 0.001587
0.970520 0.125793 0.001587
0.042358 0.053802 0.000519
0.057434 0.053802 0.000519
0.072540 0.053802 0.000519
0.087646 0.053802 0.000519
0.102722 0.053802 0.000519
0.117828 0.053802 0.000519
0.181671 0.054199 0.000549
0.244293 0.054749 0.000610
0.303436 0.055389 0.000671
0.358185 0.056030 0.000732
0.408142 0.056610 0.000793
0.455750 0.057220 0.000854
0.501312 0.057861 0.000916
0.544739 0.058502 0.001007
0.584869 0.059143 0.001068
0.620575 0.059692 0.001160
0.652496 0.060211 0.001190
0.681091 0.060638 0.001251
0.707153 0.061035 0.001312
0.731293 0.061371 0.001373
0.754395 0.061737 0.001404
0.776550 0.062042 0.001465
0.797821 0.062347 0.001526
0.817780 0.065857 0.001556
0.834686 0.071991 0.001587
0.849792 0.078247 0.001587
0.864868 0.084991 0.001587
0.879974 0.092010 0.001587
0.895050 0.099304 0.001587
0.910156 0.107025 0.001587
0.925262 0.115173 0.001587
0.940338 0.123749 0.001587
0.955444 0.132965 0.001587
0.970520 0.143555 0.001587
0.042358 0.068909 0.000519
0.057434 0.068909 0.000519
0.072540 0.068909 0.000519
0.087646 0.068909 0.000519
0.102722 0.068909 0.000519
0.117828 0.068909 0.000519
0.179962 0.069275 0.000549
0.246124 0.069855 0.000610
0.304718 0.070526 0.000671
0.359070 0.071136 0.000732
0.408936 0.071716 0.000793
0.456207 0.072357 0.000854
0.501740 0.072968 0.000916
0.545074 0.073608 0.001007
0.584839 0.074249 0.001068
0.620392 0.074799 0.001160
0.652252 0.075287 0.001190
0.680847 0.075745 0.001251
0.706879 0.076111 0.001312
0.731049 0.076477 0.001373
0.754120 0.076813 0.001404
0.776245 0.077118 0.001465
0.797424 0.080933 0.001495
0.817474 0.086670 0.001556
0.834686 0.092621 0.001587
0.849792 0.098785 0.001587
0.864868 0.105194 0.001587
0.879974 0.111786 0.001587
0.895050 0.118927 0.001587
0.910156 0.126587 0.001587
0.925262 0.134552 0.001587
0.940338 0.142883 0.001587
0.955444 0.151855 0.001587
0.970520 0.162079 0.001587
0.042358 0.083984 0.000519
0.057434 0.083984 0.000519
0.072540 0.083984 0.000519
0.087646 0.083984 0.000519
0.102722 0.083984 0.000519
0.117828 0.083984 0.000519
0.132904 0.083984 0.000519
0.239258 0.084869 0.000610
0.305969 0.085632 0.000671
0.360016 0.086243 0.000732
0.410034 0.086823 0.000793
0.457428 0.087433 0.000854
0.502838 0.088074 0.000916
0.546051 0.088715 0.001007
0.585541 0.089355 0.001068
0.620697 0.089874 0.001160
0.652374 0.090393 0.001190
0.680756 0.090820 0.001251
0.706665 0.091187 0.001312
0.730927 0.091553 0.001373
0.754059 0.094238 0.001404
0.776062 0.099121 0.001465
0.797302 0.104156 0.001495
0.819366 0.112274 0.001556
0.834686 0.118286 0.001587
0.849792 0.124176 0.001587
0.864868 0.130280 0.001587
0.879974 0.136993 0.001587
0.895050 0.143860 0.001587
0.910156 0.150909 0.001587
0.925262 0.158630 0.001587
0.940338 0.166748 0.001587
0.955444 0.175812 0.001587
0.970520 0.185577 0.001587
0.042358 0.099091 0.000519
0.057434 0.099091 0.000519
0.072540 0.099091 0.000519
0.087646 0.099091 0.000519
0.102722 0.099091 0.000519
0.117828 0.099091 0.000519
0.132904 0.099091 0.000519
0.196716 0.099487 0.000549
0.293701 0.100525 0.000641
0.361603 0.101349 0.000732
0.413086 0.101959 0.000793
0.461151 0.102631 0.000854
0.507050 0.103271 0.000946
0.549713 0.103912 0.001007
0.588348 0.104523 0.001099
0.622589 0.105042 0.001160
0.653534 0.105530 0.001221
0.681458 0.109161 0.001251
0.707336 0.112762 0.001312
0.731628 0.116791 0.001373
0.754730 0.121155 0.001404
0.776825 0.125641 0.001465
0.798065 0.130585 0.001526
0.818695 0.135925 0.001556
0.834656 0.142975 0.001587
0.849792 0.148743 0.001587
0.864868 0.154785 0.001587
0.879974 0.160980 0.001587
0.895050 0.167297 0.001587
0.910156 0.174164 0.001587
0.925262 0.181396 0.001587
0.940338 0.189087 0.001587
0.955444 0.197815 0.001587
0.970520 0.207489 0.001587
0.042358 0.114197 0.000519
0.057434 0.114197 0.000519
0.072540 0.114197 0.000519
0.087646 0.114197 0.000519
0.102722 0.114197 0.000519
0.117828 0.114197 0.000519
0.132904 0.114197 0.000519
0.148010 0.114197 0.000519
0.247162 0.114990 0.000610
0.341675 0.116119 0.000702
0.407806 0.116974 0.000793
0.461365 0.117737 0.000854
0.508270 0.118408 0.000946
0.551300 0.122894 0.001007
0.589539 0.127563 0.001099
0.623322 0.131653 0.001160
0.653809 0.135223 0.001221
0.681549 0.138550 0.001251
0.707336 0.142181 0.001312
0.731628 0.145630 0.001373
0.754608 0.149261 0.001404
0.776764 0.153442 0.001465
0.798004 0.157837 0.001526
0.818329 0.162872 0.001556
0.834595 0.167877 0.001587
0.849792 0.173340 0.001587
0.864868 0.178802 0.001587
0.879974 0.184631 0.001587
0.895050 0.190704 0.001587
0.910156 0.197021 0.001587
0.925262 0.203827 0.001587
0.940338 0.211029 0.001587
0.955444 0.219208 0.001587
0.970520 0.228851 0.001587
0.042358 0.129272 0.000519
0.057434 0.129272 0.000519
0.072540 0.129272 0.000519
0.087646 0.129272 0.000519
0.102722 0.129272 0.000519
0.117828 0.129272 0.000519
0.132904 0.129272 0.000519
0.148010 0.129272 0.000519
0.163086 0.129272 0.000519
0.292389 0.130493 0.000641
0.382294 0.137543 0.000732
0.451538 0.143158 0.000824
0.505188 0.148346 0.000916
0.549805 0.153809 0.001007
0.588776 0.158813 0.001099
0.622986 0.162964 0.001160
0.653595 0.166290 0.001221
0.681183 0.169281 0.001251
0.706757 0.172150 0.001312
0.730896 0.175262 0.001373
0.753967 0.178558 0.001404
0.776031 0.182129 0.001465
0.797394 0.186279 0.001495
0.817657 0.190460 0.001556
0.834564 0.195068 0.001587
0.849792 0.199738 0.001587
0.864868 0.204803 0.001587
0.879974 0.210144 0.001587
0.895050 0.215485 0.001587
0.910156 0.221313 0.001587
0.925262 0.227661 0.001587
0.940338 0.234283 0.001587
0.955444 0.242065 0.001587
0.970520 0.251617 0.001587
0.042358 0.144379 0.000519
0.057434 0.144379 0.000519
0.072540 0.144379 0.000519
0.087646 0.144379 0.000519
0.102722 0.144379 0.000519
0.117828 0.144379 0.000519
0.132904 0.144379 0.000519
0.148010 0.144379 0.000519
0.163086 0.144379 0.000519
0.214935 0.146149 0.000549
0.334015 0.163696 0.000671
0.420319 0.173248 0.000793
0.489166 0.180573 0.000885
0.544922 0.186523 0.001007
0.586304 0.191315 0.001068
0.621460 0.195770 0.001160
0.652618 0.199310 0.001190
0.680481 0.202423 0.001251
0.705994 0.204529 0.001312
0.730194 0.206848 0.001373
0.753296 0.209595 0.001404
0.775360 0.212646 0.001465
0.796722 0.216034 0.001495
0.816986 0.219604 0.001556
0.834625 0.223969 0.001587
0.849792 0.227905 0.001587
0.864868 0.232300 0.001587
0.879974 0.236969 0.001587
0.895050 0.241699 0.001587
0.910156 0.246918 0.001587
0.925262 0.252655 0.001587
0.940338 0.258820 0.001587
0.955444 0.266235 0.001587
0.970520 0.275635 0.001587
0.042450 0.159454 0.000702
0.057526 0.159454 0.000671
0.072723 0.159485 0.000885
0.087952 0.159485 0.001251
0.103271 0.159515 0.001801
0.118469 0.159546 0.002441
0.133728 0.159576 0.003204
0.148987 0.159576 0.004425
0.164368 0.159607 0.006195
0.179474 0.159607 0.006439
0.265717 0.179138 0.000977
0.373352 0.199646 0.000702
0.456970 0.211151 0.000824
0.523590 0.220001 0.000946
0.577728 0.225647 0.001038
0.617706 0.229248 0.001129
0.650116 0.232697 0.001190
0.678589 0.236176 0.001251
0.704742 0.238586 0.001312
0.729248 0.240875 0.001343
0.752319 0.242645 0.001404
0.774506 0.244873 0.001465
0.795929 0.247406 0.001495
0.816345 0.250458 0.001556
0.834686 0.253906 0.001587
0.849792 0.257141 0.001587
0.864868 0.260864 0.001587
0.879974 0.264801 0.001587
0.895050 0.269043 0.001587
0.910156 0.273895 0.001587
0.925262 0.279053 0.001587
0.940338 0.284424 0.001587
0.955444 0.291718 0.001587
0.970520 0.301117 0.001587
0.042969 0.184265 0.006470
0.058044 0.183319 0.006409
0.073212 0.182404 0.006805
0.088318 0.180908 0.007324
0.103485 0.179047 0.008148
0.118683 0.177063 0.009064
0.133850 0.175842 0.009705
0.148987 0.174805 0.010559
0.164154 0.174835 0.011566
0.179382 0.175964 0.013367
0.194489 0.190063 0.013733
0.311127 0.214539 0.008453
0.412292 0.238739 0.000732
0.494354 0.252747 0.000885
0.556824 0.261902 0.000977
0.606201 0.266846 0.001099
0.646027 0.268707 0.001190
0.676117 0.270996 0.001251
0.703278 0.274017 0.001312
0.728333 0.276733 0.001343
0.751892 0.279175 0.001404
0.774139 0.280762 0.001465
0.795624 0.282471 0.001495
0.816223 0.284271 0.001556
0.834686 0.287109 0.001587
0.849792 0.289612 0.001587
0.864868 0.292450 0.001587
0.879974 0.295441 0.001587
0.895050 0.299042 0.001587
0.910156 0.303162 0.001587
0.925262 0.307678 0.001587
0.940338 0.312897 0.001587
0.955444 0.319641 0.001587
0.970520 0.329285 0.001587
0.043701 0.220520 0.012939
0.058807 0.220062 0.012970
0.073822 0.218903 0.013336
0.088837 0.217072 0.013794
0.104004 0.214996 0.014587
0.119171 0.212372 0.015625
0.134369 0.209900 0.016815
0.149536 0.208466 0.017609
0.164703 0.207581 0.018738
0.179871 0.208099 0.020233
0.195129 0.210205 0.022766
0.255249 0.226166 0.023193
0.353973 0.252563 0.016907
0.451752 0.281952 0.009399
0.529938 0.296173 0.000916
0.587158 0.304260 0.001007
0.632263 0.308167 0.001129
0.669495 0.309601 0.001221
0.700348 0.310852 0.001282
0.727325 0.312866 0.001343
0.751465 0.316010 0.001404
0.774261 0.318420 0.001465
0.795898 0.320404 0.001495
0.816559 0.321533 0.001556
0.834198 0.322784 0.001556
0.849792 0.324432 0.001587
0.864868 0.326385 0.001587
0.879974 0.328735 0.001587
0.895050 0.331421 0.001587
0.910156 0.334869 0.001587
0.925262 0.338776 0.001587
0.940338 0.343384 0.001587
0.955444 0.350128 0.001587
0.970520 0.359894 0.001587
0.044525 0.258270 0.020630
0.059631 0.257629 0.020630
0.074707 0.257538 0.021423
0.089722 0.256287 0.022217
0.104736 0.254425 0.023132
0.119781 0.251831 0.024170
0.134888 0.247986 0.024994
0.154816 0.245422 0.026215
0.181610 0.243988 0.027191
0.204773 0.243561 0.028564
0.226685 0.244385 0.030243
0.248962 0.247101 0.033173
0.307068 0.264221 0.033844
0.395508 0.292236 0.027069
0.484009 0.319580 0.017120
0.556458 0.333313 0.006012
0.610016 0.340637 0.001068
0.652771 0.343842 0.001160
0.688599 0.345245 0.001221
0.719696 0.345795 0.001312
0.747772 0.346619 0.001373
0.771393 0.349396 0.001434
0.793762 0.352997 0.001495
0.814972 0.355377 0.001556
0.833496 0.356476 0.001556
0.849792 0.357483 0.001587
0.864868 0.358612 0.001587
0.879974 0.360474 0.001587
0.895050 0.362732 0.001587
0.910156 0.365448 0.001587
0.925262 0.369202 0.001587
0.940338 0.373596 0.001587
0.955444 0.379761 0.001587
0.970520 0.389252 0.001587
0.045227 0.294342 0.028442
0.060272 0.293854 0.028412
0.075348 0.294098 0.029236
0.090515 0.294403 0.030640
0.105499 0.292358 0.031494
0.121704 0.289490 0.032379
0.159973 0.286530 0.033508
0.191742 0.282776 0.034515
0.216187 0.280029 0.035248
0.237671 0.278503 0.036316
0.258331 0.278442 0.037750
0.277893 0.279449 0.039612
0.298706 0.282532 0.042694
0.350616 0.300385 0.043518
0.431824 0.328339 0.035828
0.514587 0.356171 0.025635
0.580872 0.369598 0.013947
0.631714 0.375916 0.006042
0.672485 0.379089 0.001190
0.707275 0.380157 0.001251
0.738190 0.380798 0.001312
0.766235 0.380920 0.001404
0.790283 0.383575 0.001465
0.812805 0.386536 0.001526
0.832306 0.390045 0.001556
0.849792 0.392334 0.001587
0.864868 0.392944 0.001587
0.879974 0.393951 0.001587
0.895050 0.395813 0.001587
0.910156 0.398254 0.001587
0.925262 0.401428 0.001587
0.940338 0.405334 0.001587
0.955444 0.410919 0.001587
0.970612 0.420044 0.007172
0.045837 0.330231 0.036255
0.060913 0.329834 0.036255
0.076019 0.329803 0.036774
0.091125 0.330170 0.038025
0.114319 0.329895 0.039459
0.152588 0.327637 0.040405
0.185547 0.324585 0.041412
0.215027 0.320923 0.042572
0.241180 0.317413 0.043884
0.262970 0.315033 0.044678
0.283386 0.313019 0.045258
0.303497 0.313507 0.046875
0.322021 0.314270 0.048676
0.342834 0.317871 0.052185
0.392029 0.336487 0.052704
0.467590 0.364685 0.044403
0.544006 0.391693 0.034149
0.604675 0.404938 0.022766
0.652740 0.410767 0.013672
0.691742 0.413727 0.008026
0.725616 0.415375 0.002747
0.755920 0.416107 0.001343
0.783569 0.416870 0.001404
0.808380 0.418304 0.001495
0.830353 0.420715 0.001556
0.849579 0.424347 0.001556
0.864868 0.427643 0.001587
0.879974 0.429199 0.001587
0.895050 0.430298 0.001587
0.910187 0.432129 0.002319
0.925262 0.435089 0.004089
0.940399 0.438538 0.006378
0.955536 0.443390 0.008636
0.970703 0.452148 0.013947
0.046478 0.365906 0.043884
0.061554 0.365509 0.043823
0.076660 0.365265 0.044067
0.098877 0.365936 0.045227
0.140167 0.366699 0.046936
0.174500 0.365479 0.048187
0.205688 0.362762 0.049286
0.235077 0.359314 0.050476
0.262390 0.355713 0.051849
0.286194 0.352509 0.053131
0.306702 0.350189 0.053925
0.326202 0.348938 0.055084
0.345673 0.349609 0.056732
0.363464 0.350037 0.058533
0.383575 0.353729 0.062103
0.431793 0.372742 0.061615
0.501465 0.400177 0.052979
0.571655 0.425720 0.042633
0.627258 0.438324 0.031769
0.673279 0.444061 0.022125
0.710999 0.447418 0.016083
0.743988 0.449799 0.011749
0.773651 0.451599 0.008118
0.800720 0.452637 0.005463
0.825592 0.453766 0.002289
0.847046 0.455811 0.002563
0.864746 0.457733 0.002808
0.880066 0.462372 0.007202
0.895172 0.465973 0.010071
0.910309 0.467285 0.010986
0.925385 0.469330 0.012085
0.940521 0.472382 0.013855
0.955627 0.476410 0.016052
0.970764 0.484009 0.021271
0.047028 0.401337 0.051361
0.066010 0.400940 0.051239
0.088379 0.400574 0.051178
0.121216 0.401245 0.052216
0.156403 0.402344 0.053894
0.191467 0.403168 0.055878
0.222473 0.400574 0.056946
0.251801 0.396973 0.057953
0.279572 0.393311 0.059296
0.304840 0.389374 0.060852
0.326691 0.386444 0.061981
0.346497 0.384338 0.062897
0.365417 0.383514 0.064117
0.384064 0.383942 0.065796
0.401764 0.384399 0.067719
0.422333 0.389130 0.071960
0.468536 0.408722 0.070923
0.534027 0.435303 0.061890
0.597992 0.458771 0.051697
0.650085 0.470856 0.040955
0.693756 0.476349 0.030701
0.730347 0.480560 0.024780
0.762512 0.483612 0.020477
0.791534 0.486023 0.016937
0.817932 0.487915 0.014801
0.842133 0.489166 0.012695
0.863159 0.490784 0.011932
0.880096 0.492889 0.012115
0.895233 0.495697 0.013855
0.910400 0.500580 0.018005
0.925507 0.503815 0.020752
0.940582 0.506348 0.022400
0.955719 0.509918 0.024750
0.970856 0.516510 0.029816
0.073700 0.438049 0.059204
0.093170 0.437805 0.059113
0.118530 0.442139 0.060852
0.145813 0.442596 0.061676
0.176666 0.443665 0.063202
0.209717 0.444275 0.064972
0.242615 0.444092 0.067017
0.272278 0.440918 0.068207
0.300385 0.436951 0.069489
0.326508 0.432861 0.070984
0.349915 0.428864 0.072479
0.370453 0.425720 0.073425
0.389526 0.423676 0.074402
0.408142 0.423309 0.075806
0.426575 0.423706 0.077637
0.443604 0.424133 0.079742
0.464294 0.429260 0.084503
0.507904 0.448639 0.083130
0.567505 0.473114 0.073608
0.625275 0.494141 0.063202
0.673431 0.505341 0.052246
0.715271 0.510498 0.041016
0.750458 0.514923 0.035034
0.781555 0.518524 0.030884
0.809631 0.521362 0.027985
0.835236 0.523376 0.025391
0.858490 0.524994 0.023621
0.878998 0.526764 0.022675
0.895294 0.528290 0.022461
0.910461 0.531525 0.024658
0.925568 0.535797 0.028351
0.940674 0.540741 0.032166
0.955780 0.544098 0.034790
0.970947 0.550201 0.039978
0.098267 0.476593 0.068146
0.117432 0.476593 0.068176
0.136871 0.476868 0.068329
0.161682 0.478119 0.069336
0.191620 0.479126 0.070831
0.224091 0.480133 0.072876
0.257446 0.480652 0.075287
0.287750 0.478546 0.076874
0.315857 0.475037 0.078217
0.342072 0.471130 0.079620
0.366608 0.466858 0.081268
0.388153 0.462952 0.082550
0.407440 0.459991 0.083405
0.425812 0.458221 0.084442
0.444489 0.458588 0.086151
0.462799 0.459198 0.088196
0.479370 0.459442 0.090302
0.500153 0.465179 0.095703
0.542145 0.484497 0.094208
0.596863 0.507111 0.084930
0.649933 0.526459 0.074432
0.694946 0.537109 0.063416
0.735352 0.541992 0.051270
0.769501 0.546814 0.045135
0.799744 0.551025 0.041412
0.827118 0.554382 0.038696
0.852234 0.556793 0.036346
0.875488 0.559387 0.035309
0.893890 0.561035 0.034363
0.910522 0.563202 0.034698
0.925598 0.566284 0.036224
0.940765 0.570435 0.039246
0.955872 0.577148 0.045929
0.971008 0.584839 0.053467
0.120575 0.512207 0.077026
0.139160 0.512390 0.077118
0.158295 0.512390 0.077118
0.180847 0.512726 0.077759
0.209106 0.513580 0.079163
0.240173 0.514496 0.081268
0.272705 0.515320 0.083923
0.304260 0.515167 0.086578
0.331696 0.512115 0.087860
0.357635 0.508514 0.089172
0.382202 0.504547 0.090698
0.404785 0.500336 0.092285
0.424896 0.497070 0.093384
0.443268 0.494293 0.094055
0.461365 0.493347 0.095398
0.479919 0.493988 0.097443
0.497620 0.494659 0.099548
0.514374 0.495178 0.101868
0.535187 0.501282 0.107666
0.574707 0.519440 0.105988
0.625275 0.540558 0.096832
0.674072 0.558411 0.086609
0.716522 0.569031 0.075928
0.754913 0.573792 0.063446
0.788208 0.578522 0.056641
0.817749 0.583282 0.052856
0.844421 0.586609 0.050293
0.869019 0.589966 0.048676
0.891266 0.592651 0.048004
0.910339 0.595581 0.048157
0.925720 0.598175 0.048645
0.940826 0.601898 0.051025
0.955963 0.606659 0.054474
0.971100 0.614471 0.062714
0.143372 0.546844 0.086456
0.161835 0.546997 0.086700
0.180542 0.546967 0.086731
0.201355 0.547089 0.087128
0.228333 0.547729 0.088531
0.257263 0.548492 0.090576
0.288208 0.549255 0.093170
0.319794 0.549988 0.096375
0.347107 0.548004 0.098175
0.372894 0.544983 0.099609
0.397217 0.541382 0.100922
0.419983 0.537445 0.102539
0.441162 0.533722 0.104004
0.460083 0.530792 0.104858
0.477142 0.528595 0.104889
0.495270 0.528259 0.106476
0.513336 0.528961 0.108612
0.530792 0.529541 0.110901
0.547607 0.530426 0.113556
0.568573 0.537048 0.119873
0.606476 0.554138 0.118622
0.652710 0.573669 0.110168
0.698334 0.590698 0.100250
0.738495 0.601501 0.090057
0.774902 0.606567 0.077911
0.807190 0.611481 0.070648
0.835876 0.616150 0.066895
0.861908 0.620422 0.064941
0.886017 0.624603 0.064209
0.907318 0.628052 0.064392
0.925171 0.631775 0.065552
0.940887 0.636292 0.068207
0.956055 0.641205 0.072479
0.971191 0.647766 0.079956
0.168365 0.582184 0.097717
0.186401 0.582184 0.097839
0.204468 0.582062 0.097778
0.223846 0.581818 0.097931
0.248688 0.582214 0.099243
0.276154 0.582672 0.101227
0.304749 0.583252 0.103577
0.334534 0.583954 0.106567
0.363739 0.584076 0.109772
0.388763 0.581268 0.111115
0.412537 0.578064 0.112488
0.435303 0.574585 0.113861
0.456451 0.570892 0.115112
0.475403 0.567505 0.115723
0.493408 0.564728 0.116486
0.510956 0.562958 0.117371
0.528900 0.563263 0.119232
0.546692 0.563904 0.121552
0.563782 0.564575 0.123932
0.580475 0.565430 0.126617
0.601135 0.572083 0.133301
0.636719 0.588104 0.131927
0.679169 0.605804 0.123718
0.721741 0.621796 0.114075
0.759979 0.632599 0.104462
0.794525 0.637939 0.092743
0.825928 0.642792 0.084869
0.853851 0.647766 0.081482
0.879272 0.653046 0.080780
0.902771 0.657593 0.080841
0.924194 0.662628 0.082520
0.940826 0.666840 0.084961
0.956146 0.672150 0.089355
0.971283 0.678406 0.096283
0.191345 0.615479 0.108978
0.208832 0.615356 0.108917
0.226593 0.615234 0.109070
0.245209 0.614990 0.109192
0.267822 0.615173 0.110199
0.293549 0.615417 0.112000
0.320343 0.615936 0.114136
0.348450 0.616455 0.116943
0.377136 0.617096 0.120422
0.402710 0.615662 0.122559
0.426453 0.613007 0.124084
0.448944 0.609985 0.125458
0.469452 0.606476 0.125702
0.489716 0.602844 0.127441
0.508209 0.599884 0.128387
0.525574 0.597412 0.129028
0.542938 0.596405 0.130249
0.560852 0.597076 0.132355
0.578247 0.597778 0.134705
0.595154 0.598419 0.137146
0.611664 0.599304 0.139923
0.632019 0.605988 0.146912
0.665619 0.620758 0.145447
0.705139 0.637085 0.137604
0.744965 0.652313 0.128357
0.781097 0.662231 0.118622
0.814026 0.667725 0.107422
0.844513 0.672424 0.099243
0.871735 0.678101 0.096619
0.896576 0.684235 0.097076
0.919464 0.689301 0.098206
0.938751 0.694702 0.100922
0.956177 0.700714 0.106384
0.971375 0.707184 0.113556
0.212585 0.647461 0.120697
0.229950 0.647400 0.120697
0.247406 0.647217 0.120758
0.265564 0.647034 0.120850
0.286560 0.647003 0.121643
0.310211 0.647217 0.123108
0.335693 0.647400 0.125183
0.362000 0.647736 0.127716
0.389099 0.648224 0.130981
0.416107 0.648254 0.134338
0.439392 0.646088 0.135925
0.461121 0.643280 0.136902
0.481476 0.640137 0.137299
0.501831 0.636749 0.138824
0.520966 0.633423 0.140198
0.538666 0.630829 0.141022
0.555603 0.628693 0.141510
0.572906 0.628387 0.143066
0.590485 0.628998 0.145233
0.607513 0.629669 0.147552
0.624359 0.630585 0.150116
0.640808 0.631500 0.153015
0.660950 0.638062 0.160431
0.693207 0.652161 0.158813
0.730499 0.667358 0.151123
0.768127 0.681702 0.142303
0.802124 0.691193 0.133057
0.833649 0.696716 0.122864
0.863190 0.701630 0.114532
0.889801 0.708099 0.112671
0.914093 0.714111 0.113953
0.936676 0.720795 0.117462
0.955688 0.726715 0.122131
0.971436 0.733093 0.129150
0.231323 0.677917 0.132294
0.248505 0.677948 0.132477
0.265747 0.677887 0.132568
0.283539 0.677582 0.132507
0.303436 0.677551 0.133179
0.326019 0.677643 0.134644
0.350098 0.677826 0.136658
0.375000 0.678131 0.139008
0.400604 0.678467 0.141907
0.426697 0.679077 0.145508
0.450592 0.677826 0.147736
0.471954 0.675751 0.148102
0.493103 0.672882 0.149384
0.513336 0.669830 0.150696
0.532654 0.666565 0.152191
0.550781 0.663605 0.153351
0.567963 0.661377 0.153870
0.584686 0.659760 0.154602
0.601868 0.659821 0.156403
0.619232 0.660553 0.158630
0.636139 0.661224 0.161133
0.652710 0.662048 0.163788
0.669373 0.663574 0.167023
0.689178 0.669830 0.174622
0.720215 0.683136 0.172882
0.755493 0.697357 0.165558
0.791382 0.711121 0.157043
0.823822 0.720093 0.148590
0.853790 0.725769 0.139191
0.882446 0.730957 0.131012
