for cam/5.Food-xinxian.cube
#Created by: Adobe Photoshop Export Color Lookup Plugin
#Copyright: (C) Copyright 2026 小米
TITLE "未标题-1"
#LUT size
LUT_3D_SIZE 8
#data domain
DOMAIN_MIN 0.0 0.0 0.0
DOMAIN_MAX 1.0 1.0 1.0
#LUT data points
0.044495 0.038269 0.030762
0.161743 0.030670 0.026917
0.368317 0.000549 0.009552
0.578339 0.000000 0.000000
0.804840 0.000000 0.000000
0.977905 0.000000 0.024811
1.000000 0.000000 0.085480
1.000000 0.110474 0.156647
0.000000 0.130981 0.034698
0.145721 0.137543 0.014526
0.338287 0.149780 0.002197
0.544586 0.153015 0.000488
0.774933 0.153473 0.000000
0.962189 0.149536 0.026154
1.000000 0.157776 0.088104
1.000000 0.198425 0.159790
0.000000 0.304810 0.099548
0.001953 0.297089 0.052490
0.313141 0.299591 0.044617
0.517242 0.312622 0.019714
0.736023 0.329742 0.006165
0.926300 0.327881 0.030792
1.000000 0.321381 0.095947
1.000000 0.329132 0.170532
0.000000 0.509674 0.186401
0.000000 0.503113 0.117371
0.191895 0.483490 0.126465
0.516235 0.498199 0.085968
0.735413 0.499390 0.008118
0.882263 0.487762 0.053589
1.000000 0.476685 0.115356
1.000000 0.471497 0.195313
0.000000 0.719330 0.283691
0.000000 0.720398 0.241943
0.000000 0.706451 0.163116
0.403259 0.685150 0.197510
0.698578 0.679871 0.148956
0.885681 0.648987 0.097015
0.993622 0.623779 0.154114
1.000000 0.614471 0.236664
0.000000 0.865479 0.399872
0.000000 0.862549 0.380524
0.000000 0.856445 0.303436
0.237823 0.837372 0.329834
0.591766 0.823547 0.339264
0.833527 0.816956 0.307770
0.991119 0.778046 0.280518
1.000000 0.758575 0.351349
0.000000 0.961609 0.564789
0.000000 0.958984 0.564911
0.053772 0.956482 0.539703
0.352234 0.949127 0.534241
0.607086 0.933838 0.577271
0.774414 0.929657 0.576874
0.936188 0.925232 0.564789
1.000000 0.889252 0.575378
0.559723 0.976746 0.753143
0.593109 0.974670 0.760864
0.619446 0.973145 0.757111
0.664948 0.970215 0.755615
0.752686 0.962982 0.781738
0.836212 0.954803 0.815460
0.897034 0.948334 0.831055
0.947449 0.941956 0.862732
0.059448 0.033691 0.087219
0.134705 0.016846 0.091736
0.348755 0.000000 0.126068
0.558716 0.000000 0.121124
0.786713 0.000000 0.121857
0.960083 0.000000 0.130676
1.000000 0.000000 0.153320
1.000000 0.063416 0.197479
0.000000 0.120087 0.119629
0.138641 0.127075 0.111786
0.329407 0.126617 0.115540
0.533813 0.119568 0.117767
0.764465 0.101410 0.119354
0.948181 0.095245 0.130035
1.000000 0.119659 0.155304
1.000000 0.177063 0.200745
0.000000 0.307770 0.180481
0.011993 0.294403 0.151001
0.305542 0.290436 0.126740
0.501648 0.298767 0.126770
0.727570 0.310364 0.120819
0.917145 0.307617 0.128967
1.000000 0.304138 0.157959
1.000000 0.317078 0.208862
0.000000 0.507599 0.248535
0.000000 0.493958 0.217377
0.163483 0.474640 0.171844
0.499268 0.480438 0.150452
0.712830 0.479980 0.119568
0.870453 0.472717 0.134766
1.000000 0.464355 0.167786
1.000000 0.462372 0.227417
0.000000 0.715881 0.331757
0.000000 0.709991 0.308594
0.000000 0.697235 0.202118
0.388794 0.671356 0.236877
0.686920 0.667542 0.194519
0.875916 0.638794 0.152802
0.989044 0.616882 0.197205
1.000000 0.609833 0.267395
0.000000 0.863251 0.428528
0.000000 0.857483 0.419037
0.000000 0.849915 0.356018
0.219177 0.832611 0.350403
0.586334 0.817078 0.363586
0.828522 0.811676 0.333313
0.989441 0.775757 0.307343
1.000000 0.757050 0.373169
0.000000 0.962219 0.576752
0.000000 0.958710 0.583252
0.112701 0.954620 0.567322
0.353027 0.948456 0.548401
0.607147 0.932892 0.588318
0.772003 0.926880 0.586487
0.933655 0.922546 0.572693
1.000000 0.888184 0.579285
0.528259 0.978516 0.747742
0.575989 0.975677 0.759857
0.634644 0.971893 0.770294
0.676147 0.969177 0.767090
0.758179 0.962341 0.789978
0.840149 0.954224 0.823425
0.898499 0.947998 0.837646
0.947266 0.941833 0.867706
0.118011 0.006805 0.232086
0.189026 0.000000 0.229034
0.306885 0.013611 0.223816
0.509338 0.018280 0.265808
0.776550 0.000000 0.288239
0.957153 0.000000 0.272339
1.000000 0.000000 0.260620
1.000000 0.000000 0.286346
0.000000 0.073547 0.259308
0.166077 0.098022 0.250824
0.308929 0.125397 0.233490
0.511139 0.123596 0.262695
0.762909 0.000000 0.271332
0.946228 0.000000 0.250305
1.000000 0.000000 0.260345
1.000000 0.118958 0.287231
0.000000 0.276123 0.280609
0.000000 0.274292 0.272858
0.286346 0.266815 0.242249
0.503174 0.266541 0.245941
0.733002 0.259064 0.246155
0.918335 0.254700 0.250031
1.000000 0.263794 0.263885
1.000000 0.295929 0.295685
0.000000 0.519318 0.372955
0.000000 0.508148 0.350403
0.149170 0.469177 0.287720
0.478058 0.457275 0.253448
0.684692 0.453949 0.247955
0.874390 0.452423 0.253784
1.000000 0.448029 0.273590
1.000000 0.455231 0.315002
0.000000 0.719330 0.438538
0.000000 0.711304 0.418457
0.000000 0.685303 0.364746
0.359833 0.657410 0.317871
0.671814 0.651062 0.287170
0.861053 0.623016 0.261475
0.983154 0.606659 0.288727
1.000000 0.605865 0.346436
0.000000 0.866730 0.504272
0.000000 0.860870 0.494141
0.000000 0.845703 0.474945
0.191071 0.831909 0.414459
0.586090 0.811493 0.436768
0.824158 0.806396 0.405029
0.985168 0.770660 0.372711
1.000000 0.755920 0.429291
0.000000 0.965240 0.608704
0.000000 0.961761 0.613525
0.200012 0.952881 0.628601
0.386444 0.947540 0.597351
0.610382 0.932831 0.620636
0.774933 0.925354 0.626678
0.932190 0.921204 0.610199
1.000000 0.887665 0.610687
0.480042 0.980743 0.750519
0.533447 0.977936 0.761108
0.640472 0.971069 0.787933
0.696960 0.967072 0.791504
0.763031 0.961609 0.803223
0.844299 0.953522 0.835510
0.900574 0.947449 0.849609
0.946899 0.941589 0.877106
0.202118 0.000000 0.419495
0.266174 0.000000 0.413391
0.374054 0.000000 0.391388
0.492371 0.024353 0.373169
0.696716 0.060059 0.421509
0.925903 0.000000 0.443634
1.000000 0.000000 0.432678
1.000000 0.128937 0.444550
0.123108 0.050140 0.438019
0.233673 0.059387 0.428375
0.368164 0.100616 0.402344
0.491302 0.128632 0.377228
0.691559 0.149445 0.418030
0.921417 0.019012 0.436249
1.000000 0.028931 0.428436
1.000000 0.183838 0.438354
0.000000 0.237701 0.462006
0.000000 0.219482 0.454956
0.318451 0.241272 0.424927
0.486969 0.261169 0.388611
0.702118 0.268280 0.418243
0.916809 0.231598 0.422302
1.000000 0.241730 0.417511
1.000000 0.283661 0.423065
0.000000 0.466125 0.488220
0.000000 0.461639 0.479401
0.074738 0.447540 0.451782
0.442780 0.417389 0.388397
0.684296 0.418365 0.393738
0.883209 0.418945 0.399231
1.000000 0.426697 0.411011
1.000000 0.450592 0.437195
0.000000 0.730255 0.595734
0.000000 0.724670 0.581757
0.000000 0.704041 0.539032
0.354858 0.650818 0.460052
0.653168 0.629944 0.417358
0.835022 0.604980 0.406281
0.987854 0.599152 0.423096
1.000000 0.607605 0.465546
0.000000 0.876007 0.622742
0.000000 0.871246 0.612518
0.000000 0.856812 0.588989
0.319092 0.826508 0.560852
0.583771 0.802368 0.534058
0.815338 0.796661 0.504944
0.974915 0.764313 0.473602
1.000000 0.755829 0.515808
0.000000 0.974152 0.665161
0.000000 0.970612 0.666718
0.000000 0.961212 0.674377
0.463409 0.944916 0.691803
0.604523 0.933868 0.666718
0.776001 0.922272 0.682495
0.929718 0.919159 0.664276
1.000000 0.885773 0.655212
0.159393 0.989532 0.736816
0.329041 0.986267 0.747192
0.527740 0.977875 0.775513
0.709808 0.965363 0.820801
0.768646 0.960632 0.823364
0.848083 0.952698 0.851349
0.903839 0.946594 0.867859
0.946350 0.941254 0.890411
0.293732 0.000000 0.643768
0.351807 0.000000 0.636932
0.460114 0.000000 0.616272
0.577484 0.000000 0.578674
0.701996 0.000000 0.552704
0.864594 0.128174 0.573761
1.000000 0.138062 0.584839
1.000000 0.219452 0.583618
0.238770 0.000000 0.652710
0.315948 0.000000 0.645660
0.444214 0.010620 0.623962
0.573517 0.104034 0.584747
0.698822 0.114899 0.553680
0.856934 0.197845 0.570984
1.000000 0.202179 0.583466
1.000000 0.264893 0.583801
0.000000 0.166595 0.669769
0.074066 0.188751 0.661865
0.376831 0.214722 0.640320
0.557709 0.247894 0.601654
0.696106 0.258301 0.562561
0.851410 0.316315 0.574646
0.999969 0.319183 0.585052
1.000000 0.366119 0.589569
0.000000 0.420990 0.682434
0.000000 0.411896 0.677002
0.000000 0.385376 0.659943
0.484833 0.405609 0.617950
0.672028 0.417572 0.566895
0.847717 0.449646 0.580536
0.999664 0.457916 0.589630
1.000000 0.502350 0.606689
0.000000 0.644745 0.697296
0.000000 0.642731 0.691895
0.000000 0.635834 0.674957
0.297485 0.621002 0.638428
0.606598 0.580444 0.556152
0.831146 0.586761 0.566803
0.991364 0.594421 0.578308
1.000000 0.612885 0.600128
0.000000 0.881470 0.780334
0.000000 0.878845 0.773560
0.000000 0.870544 0.753937
0.043854 0.849213 0.713074
0.581818 0.797607 0.651825
0.799347 0.779846 0.615601
0.951538 0.754089 0.598480
1.000000 0.755829 0.629303
0.000000 0.986359 0.771118
0.000000 0.983856 0.767090
0.000000 0.976807 0.759338
0.192841 0.961151 0.756927
0.635254 0.935181 0.762909
0.776062 0.919495 0.751404
0.925903 0.915955 0.731628
1.000000 0.883514 0.717773
0.000000 1.000000 0.721954
0.000000 1.000000 0.728729
0.028717 0.993286 0.756775
0.559998 0.975342 0.806885
0.796417 0.957092 0.865326
0.857483 0.951080 0.875946
0.911743 0.944916 0.895660
0.945465 0.940674 0.913849
0.358185 0.000000 0.824066
0.406799 0.000000 0.820190
0.507660 0.000000 0.808563
0.635162 0.000000 0.786743
0.760559 0.026642 0.754181
0.885986 0.031311 0.725891
0.989777 0.248535 0.708771
1.000000 0.368225 0.720062
0.317505 0.000000 0.828613
0.375610 0.000000 0.824493
0.488953 0.000000 0.812347
0.625305 0.018219 0.789276
0.754944 0.143860 0.754822
0.882904 0.143433 0.726532
0.985687 0.294525 0.709564
1.000000 0.396088 0.722137
0.098022 0.156433 0.838867
0.252533 0.169128 0.833435
0.425629 0.183624 0.820892
0.596741 0.220184 0.798584
0.744904 0.284729 0.763245
0.878845 0.286316 0.733582
0.976929 0.396576 0.716858
1.000000 0.466614 0.731476
0.000000 0.318054 0.848328
0.000000 0.305054 0.845123
0.112518 0.333069 0.833893
0.523529 0.392944 0.811127
0.720001 0.438416 0.775269
0.860382 0.443604 0.738586
0.959259 0.518982 0.727020
1.000000 0.555573 0.743347
0.000000 0.571075 0.849579
0.000000 0.567963 0.847321
0.000000 0.560364 0.840332
0.286255 0.553436 0.827576
0.653320 0.590698 0.784271
0.820435 0.597504 0.736847
0.953369 0.634033 0.742401
1.000000 0.656952 0.756805
0.000000 0.776855 0.856293
0.000000 0.777588 0.854797
0.000000 0.778717 0.848633
0.048370 0.780029 0.834625
0.539368 0.774139 0.803070
0.755310 0.734619 0.724548
0.944366 0.747314 0.741486
1.000000 0.763489 0.761169
0.000000 0.986877 0.912323
0.000000 0.985443 0.909424
0.000000 0.981201 0.902008
0.000000 0.971680 0.887878
0.513519 0.954437 0.863586
0.776123 0.919800 0.833069
0.916901 0.907654 0.808563
1.000000 0.882324 0.798767
0.000000 1.000000 0.824158
0.000000 1.000000 0.821686
0.000000 1.000000 0.817505
0.000000 0.992859 0.820496
0.610413 0.971222 0.849304
0.885956 0.947083 0.913971
0.929413 0.941956 0.930298
0.944397 0.939819 0.944611
0.396790 0.000000 0.936066
0.436188 0.000000 0.935883
0.521698 0.000000 0.929443
0.640320 0.000000 0.918823
0.772064 0.044495 0.904327
0.896088 0.192810 0.882477
0.998413 0.222015 0.859314
1.000000 0.406891 0.824066
0.366394 0.000000 0.938507
0.409882 0.000000 0.936218
0.502869 0.000000 0.928741
0.626984 0.000000 0.916321
0.758484 0.112762 0.896088
0.884491 0.226807 0.873962
0.995209 0.250092 0.852051
1.000000 0.418762 0.818939
0.257477 0.080353 0.944214
0.324066 0.090057 0.941071
0.449066 0.118866 0.934174
0.597321 0.174103 0.922333
0.744904 0.254272 0.902466
0.878082 0.343628 0.879730
0.993500 0.356720 0.857819
1.000000 0.490570 0.826263
0.000000 0.222626 0.949890
0.000000 0.240845 0.946747
0.281189 0.299225 0.940186
0.529144 0.344208 0.930267
0.715271 0.402893 0.910889
0.860535 0.479187 0.883118
0.982391 0.478241 0.859070
1.000000 0.580475 0.836395
0.000000 0.447632 0.954651
0.000000 0.444122 0.955719
0.000000 0.430725 0.953278
0.242188 0.456879 0.945526
0.657135 0.558472 0.921234
0.835571 0.612518 0.892120
0.959015 0.615448 0.865204
1.000000 0.695282 0.859680
0.000000 0.665619 0.952057
0.000000 0.665161 0.951691
0.000000 0.664795 0.949768
0.000000 0.671844 0.945190
0.498749 0.691010 0.933441
0.787720 0.742737 0.905182
0.928314 0.756012 0.875732
1.000000 0.792725 0.880737
0.000000 0.854492 0.950500
0.000000 0.855774 0.949707
0.000000 0.861511 0.949310
0.000000 0.874115 0.948090
0.483002 0.889221 0.942657
0.737640 0.898163 0.928802
0.879578 0.868744 0.872742
0.987488 0.887604 0.893829
0.000000 1.000000 0.944916
0.000000 1.000000 0.943665
0.000000 1.000000 0.940094
0.000000 0.997711 0.931580
0.409424 0.979065 0.919647
0.768799 0.957947 0.916626
0.944366 0.939758 0.946259
0.944366 0.939758 0.946259
0.420624 0.000000 1.000000
0.451141 0.000000 1.000000
0.521576 0.000000 1.000000
0.625854 0.000000 0.996155
0.746490 0.000000 0.986725
0.869537 0.216980 0.973389
0.987061 0.330688 0.963196
1.000000 0.436798 0.960571
0.393585 0.000000 1.000000
0.427032 0.000000 0.999878
0.503235 0.000000 0.998962
0.612610 0.000000 0.994385
0.736542 0.011139 0.984222
0.862823 0.237793 0.970978
0.981659 0.347717 0.960571
1.000000 0.457855 0.960480
0.316162 0.000000 1.000000
0.361572 0.000000 1.000000
0.457733 0.000000 1.000000
0.584900 0.051392 0.999084
0.720428 0.174133 0.989624
0.855194 0.316528 0.975067
0.977417 0.428619 0.964783
1.000000 0.523651 0.964355
0.000000 0.072968 1.000000
0.030090 0.119690 1.000000
0.299744 0.157379 1.000000
0.496674 0.203491 0.999390
0.671387 0.278015 0.989227
0.838715 0.422943 0.979797
0.968201 0.540802 0.970459
1.000000 0.597687 0.965729
0.000000 0.192657 1.000000
0.000000 0.179626 1.000000
0.000000 0.205597 1.000000
0.196320 0.321442 1.000000
0.592804 0.423676 0.995911
0.807190 0.538483 0.987152
0.953003 0.671570 0.975067
1.000000 0.690063 0.967896
0.000000 0.491119 0.998077
0.000000 0.485596 0.998260
0.000000 0.472382 0.998596
0.000000 0.460785 0.998291
0.297729 0.514496 0.993195
0.776459 0.709656 0.974670
0.923950 0.793182 0.964172
1.000000 0.810486 0.958649
0.000000 0.690308 0.985260
0.000000 0.691315 0.984985
0.000000 0.691803 0.984436
0.000000 0.702911 0.982239
0.313934 0.746277 0.975555
0.728210 0.818512 0.964539
0.919617 0.906311 0.951080
0.948822 0.932068 0.947083
0.000000 0.858459 0.969757
0.000000 0.859192 0.969696
0.000000 0.861572 0.969116
0.000000 0.868683 0.967102
0.000000 0.887909 0.961578
0.695709 0.915863 0.953400
0.938995 0.939148 0.946442
0.944366 0.939758 0.946259
