for cam/5.Food-xinxian.cube
#Created by: Adobe Photoshop Export Color Lookup Plugin
#Copyright: (C) Copyright 2026 小米
TITLE "未标题-1"
#LUT size
LUT_3D_SIZE 36
#data domain
DOMAIN_MIN 0.0 0.0 0.0
DOMAIN_MAX 1.0 1.0 1.0
#LUT data points
0.044495 0.038269 0.030762
0.044495 0.038269 0.030762
0.044495 0.038269 0.030762
0.071350 0.037018 0.030212
0.114990 0.034485 0.028900
0.161743 0.030670 0.026917
0.205841 0.025482 0.024506
0.247925 0.019043 0.021637
0.288696 0.011993 0.018219
0.328461 0.004089 0.014221
0.368317 0.000549 0.009552
0.408508 0.000000 0.004028
0.449188 0.000000 0.001007
0.490906 0.000000 0.000092
0.533936 0.000000 0.000000
0.578339 0.000000 0.000000
0.623840 0.000000 0.000000
0.669220 0.000000 0.000000
0.714050 0.000000 0.000000
0.758453 0.000000 0.000000
0.804840 0.000000 0.000000
0.847504 0.000000 0.000000
0.885559 0.000000 0.001953
0.919647 0.000000 0.007324
0.950317 0.000000 0.015533
0.977905 0.000000 0.024811
1.000000 0.000000 0.035645
1.000000 0.000000 0.047424
1.000000 0.000000 0.059967
1.000000 0.000000 0.072906
1.000000 0.000000 0.085480
1.000000 0.003174 0.098297
1.000000 0.020172 0.111786
1.000000 0.053162 0.125916
1.000000 0.082611 0.140839
1.000000 0.110474 0.156647
0.044495 0.038269 0.030762
0.044495 0.038269 0.030762
0.044495 0.038269 0.030762
0.074188 0.044647 0.029022
0.116302 0.048920 0.026764
0.160461 0.050079 0.024261
0.203125 0.048706 0.021484
0.244415 0.045319 0.018372
0.284485 0.040680 0.014832
0.324219 0.033661 0.010773
0.363770 0.025391 0.005951
0.403503 0.018158 0.002411
0.443939 0.013611 0.000519
0.485413 0.009003 0.000031
0.528198 0.003906 0.000000
0.572357 0.000397 0.000000
0.617645 0.000000 0.000000
0.662933 0.000000 0.000000
0.708221 0.000000 0.000000
0.753937 0.000000 0.000000
0.799622 0.000000 0.000000
0.841797 0.000000 0.000000
0.879730 0.000000 0.001892
0.913818 0.000000 0.006775
0.944550 0.000000 0.014252
0.972900 0.000000 0.023071
0.998199 0.000000 0.033661
1.000000 0.000000 0.046539
1.000000 0.000000 0.058868
1.000000 0.000000 0.071198
1.000000 0.009247 0.083527
1.000000 0.026825 0.096375
1.000000 0.048798 0.109955
1.000000 0.073944 0.124023
1.000000 0.097229 0.138824
1.000000 0.120850 0.154785
0.044495 0.038269 0.030762
0.044800 0.039551 0.030579
0.051849 0.045898 0.029510
0.077667 0.055237 0.027161
0.116547 0.064331 0.024078
0.158325 0.068695 0.021057
0.199982 0.069733 0.017975
0.240631 0.068726 0.014618
0.280365 0.066284 0.010895
0.319946 0.061798 0.006744
0.359436 0.056763 0.002625
0.398834 0.053650 0.001099
0.439056 0.049744 0.000214
0.480438 0.045929 0.000000
0.523041 0.042206 0.000000
0.566986 0.037964 0.000000
0.612274 0.033844 0.000000
0.657715 0.028961 0.000000
0.702972 0.023224 0.000000
0.749420 0.016876 0.000000
0.794891 0.011475 0.000000
0.837067 0.006622 0.000000
0.874908 0.003998 0.001678
0.909058 0.003448 0.006226
0.940063 0.003632 0.013428
0.968689 0.004181 0.022339
0.994751 0.007477 0.032715
0.999817 0.012421 0.045135
1.000000 0.020081 0.057922
1.000000 0.029785 0.070374
1.000000 0.041504 0.082672
1.000000 0.057159 0.095367
1.000000 0.075836 0.108856
1.000000 0.095032 0.122986
1.000000 0.113739 0.138031
1.000000 0.133728 0.153931
0.024628 0.063171 0.031311
0.031586 0.064240 0.026520
0.050171 0.066895 0.025635
0.079193 0.072754 0.023621
0.118591 0.082428 0.020081
0.157959 0.089447 0.016388
0.197357 0.092438 0.012909
0.236450 0.093048 0.009369
0.275879 0.092194 0.005707
0.314972 0.090393 0.002655
0.354095 0.088715 0.001190
0.393494 0.087128 0.000244
0.433594 0.085907 0.000000
0.474670 0.084412 0.000000
0.517059 0.082428 0.000000
0.560791 0.080627 0.000000
0.605896 0.077637 0.000000
0.651245 0.073944 0.000000
0.696350 0.069702 0.000000
0.743347 0.065918 0.000000
0.788300 0.061340 0.000000
0.829895 0.057556 0.000000
0.867798 0.053558 0.001129
0.902069 0.051514 0.005402
0.933472 0.050629 0.012543
0.962677 0.049744 0.021667
0.989441 0.052277 0.031982
0.999451 0.055695 0.044220
1.000000 0.061340 0.056885
1.000000 0.069153 0.069519
1.000000 0.078857 0.082520
1.000000 0.091339 0.095306
1.000000 0.104370 0.108856
1.000000 0.118744 0.123016
1.000000 0.134033 0.137909
1.000000 0.150848 0.153656
0.006531 0.096985 0.032074
0.010101 0.098022 0.020294
0.026581 0.097992 0.019928
0.069031 0.100586 0.019745
0.112762 0.105469 0.016754
0.156555 0.111786 0.012085
0.195557 0.116547 0.008423
0.232117 0.118958 0.005676
0.269196 0.119812 0.003235
0.307831 0.119751 0.001526
0.346710 0.119629 0.000641
0.386108 0.119415 0.000275
0.426056 0.119232 0.000275
0.467102 0.119049 0.000061
0.509308 0.118744 0.000000
0.552948 0.118378 0.000000
0.598053 0.117554 0.000000
0.643463 0.116669 0.000000
0.688965 0.114807 0.000000
0.736511 0.113586 0.000000
0.781464 0.111633 0.000000
0.822937 0.108978 0.000000
0.860748 0.106781 0.001465
0.895264 0.104889 0.005280
0.926971 0.103424 0.012268
0.956757 0.101776 0.021179
0.984314 0.102600 0.031097
0.998871 0.104095 0.043640
1.000000 0.107147 0.056335
1.000000 0.111572 0.069244
1.000000 0.117798 0.082001
1.000000 0.125214 0.095398
1.000000 0.134399 0.109070
1.000000 0.144836 0.123413
1.000000 0.157135 0.138092
1.000000 0.170929 0.153717
0.000000 0.130981 0.034698
0.000000 0.131592 0.019867
0.005798 0.130798 0.016663
0.043610 0.130188 0.019714
0.096497 0.133270 0.018372
0.145721 0.137543 0.014526
0.191742 0.141937 0.008301
0.230225 0.145386 0.004730
0.264771 0.147888 0.003021
0.301483 0.149109 0.002502
0.338287 0.149780 0.002197
0.377625 0.150360 0.001862
0.417694 0.150970 0.001556
0.458649 0.151764 0.001434
0.500946 0.152405 0.000793
0.544586 0.153015 0.000488
0.589752 0.153534 0.000214
0.635559 0.154114 0.000000
0.682159 0.153717 0.000000
0.729736 0.154053 0.000000
0.774933 0.153473 0.000000
0.816620 0.152252 0.000000
0.854706 0.150238 0.001801
0.889679 0.148315 0.006012
0.928009 0.149414 0.015289
0.962189 0.149536 0.026154
0.989258 0.149475 0.036713
0.998383 0.149994 0.049622
1.000000 0.151550 0.062408
1.000000 0.153931 0.075256
1.000000 0.157776 0.088104
1.000000 0.162994 0.101227
1.000000 0.169525 0.114899
1.000000 0.177490 0.129425
1.000000 0.187256 0.144135
1.000000 0.198425 0.159790
0.000000 0.166260 0.042633
0.000000 0.166199 0.028046
0.000000 0.165497 0.018860
0.016479 0.163666 0.022369
0.074066 0.163239 0.025909
0.128998 0.166687 0.022339
0.179565 0.170532 0.017212
0.227234 0.174072 0.009613
0.265686 0.176575 0.004517
0.300598 0.178772 0.002930
0.335083 0.180298 0.004395
0.371124 0.181610 0.005157
0.411102 0.182861 0.004944
0.452393 0.184265 0.004242
0.494812 0.185852 0.003540
0.538757 0.187134 0.002502
0.584167 0.188690 0.001465
0.630493 0.190125 0.000427
0.678741 0.191284 0.000000
0.726440 0.192627 0.000000
0.771759 0.192963 0.000000
0.813843 0.192474 0.000183
0.852570 0.191406 0.002502
0.888214 0.189636 0.007904
0.921173 0.188171 0.015198
0.968750 0.193329 0.031158
0.996063 0.192627 0.044098
1.000000 0.192627 0.057281
1.000000 0.193359 0.070343
1.000000 0.194641 0.083282
1.000000 0.196838 0.096069
1.000000 0.200623 0.109009
1.000000 0.205292 0.122589
1.000000 0.211426 0.136871
1.000000 0.219299 0.151672
1.000000 0.228546 0.167480
0.000000 0.202759 0.056702
0.000000 0.202423 0.042267
0.000000 0.202087 0.026184
0.000000 0.200317 0.024536
0.036560 0.198059 0.031281
0.107666 0.198029 0.033447
0.163239 0.201355 0.027863
0.214935 0.204803 0.020966
0.264099 0.207428 0.012451
0.303162 0.209259 0.005188
0.338379 0.211304 0.004547
0.371338 0.213287 0.008087
0.407593 0.215118 0.009308
0.447296 0.216949 0.009155
0.490051 0.219055 0.007751
0.534210 0.221313 0.006165
0.580322 0.223572 0.004608
0.627533 0.225861 0.002380
0.677094 0.228485 0.000824
0.725189 0.230469 0.000031
0.770752 0.231415 0.000000
0.813141 0.231476 0.000519
0.852478 0.230865 0.003326
0.889008 0.229797 0.009430
0.923218 0.228424 0.018158
0.955322 0.227600 0.028442
0.985107 0.226837 0.042145
0.998840 0.226379 0.055695
1.000000 0.226532 0.069031
1.000000 0.227081 0.082336
1.000000 0.228180 0.095520
1.000000 0.230377 0.108643
1.000000 0.233978 0.122101
1.000000 0.238312 0.136230
1.000000 0.243988 0.151276
1.000000 0.251648 0.166809
0.000000 0.235809 0.070465
0.000000 0.235199 0.057770
0.000000 0.234833 0.040375
0.000000 0.233521 0.031006
0.016479 0.230896 0.034790
0.070160 0.228821 0.041260
0.140381 0.229614 0.040955
0.195282 0.232727 0.034332
0.247314 0.235870 0.026459
0.297302 0.237976 0.017578
0.337097 0.239777 0.005188
0.372375 0.241852 0.007416
0.406250 0.243988 0.011963
0.440735 0.246063 0.014069
0.478699 0.248352 0.014282
0.522766 0.251312 0.012054
0.568848 0.254486 0.009277
0.617523 0.258392 0.006470
0.665741 0.261230 0.004181
0.713196 0.263519 0.001099
0.758636 0.264893 0.000275
0.801086 0.265381 0.001038
0.840698 0.264954 0.004089
0.877686 0.263916 0.009888
0.912445 0.262695 0.018127
0.945221 0.261963 0.027985
0.975983 0.260712 0.041229
0.997864 0.259796 0.055267
1.000000 0.259308 0.068451
1.000000 0.259125 0.081726
1.000000 0.259491 0.095093
1.000000 0.260681 0.108459
1.000000 0.262848 0.122162
1.000000 0.266083 0.136475
1.000000 0.270447 0.151642
1.000000 0.276550 0.167114
0.000000 0.269928 0.084595
0.000000 0.269104 0.073883
0.000000 0.268555 0.058472
0.000000 0.267609 0.039612
0.000000 0.265289 0.038116
0.038177 0.261902 0.047974
0.110840 0.260162 0.053741
0.173492 0.261993 0.050415
0.228180 0.264740 0.043304
0.280243 0.267578 0.033661
0.331146 0.269836 0.024139
0.371552 0.271576 0.010193
0.407806 0.273590 0.010834
0.442719 0.275909 0.015076
0.476624 0.278229 0.017761
0.513763 0.281219 0.018127
0.559326 0.285522 0.015137
0.607117 0.289551 0.012054
0.654419 0.293060 0.007935
0.701416 0.295837 0.004974
0.747101 0.297546 0.003052
0.789886 0.298401 0.003326
0.829865 0.298309 0.006165
0.867432 0.297607 0.011383
0.902802 0.296570 0.019012
0.936310 0.295319 0.029572
0.967682 0.294373 0.042542
0.996704 0.293121 0.055908
0.999878 0.292175 0.068909
1.000000 0.291412 0.082397
1.000000 0.291138 0.096008
1.000000 0.291473 0.109528
1.000000 0.292633 0.123352
1.000000 0.294739 0.137878
1.000000 0.297882 0.153137
1.000000 0.302643 0.168945
0.000000 0.304810 0.099548
0.000000 0.303741 0.090454
0.000000 0.303131 0.077911
0.000000 0.302368 0.057281
0.000000 0.300354 0.047058
0.001953 0.297089 0.052490
0.055573 0.293335 0.062714
0.147858 0.291840 0.067108
0.207550 0.294403 0.061279
0.261383 0.297058 0.053436
0.313141 0.299591 0.044617
0.364349 0.301910 0.033539
0.406250 0.303864 0.017151
0.444397 0.306305 0.013550
0.481232 0.309357 0.016479
0.517242 0.312622 0.019714
0.555115 0.316101 0.019318
0.594940 0.319489 0.017944
0.642578 0.323578 0.013611
0.689911 0.327179 0.008972
0.736023 0.329742 0.006165
0.779327 0.330841 0.006165
0.819580 0.331024 0.008240
0.857269 0.330505 0.012878
0.892731 0.329437 0.020416
0.926300 0.327881 0.030792
0.957794 0.326508 0.043121
0.987030 0.324799 0.055756
0.999207 0.323364 0.069061
1.000000 0.322205 0.082520
1.000000 0.321381 0.095947
1.000000 0.321136 0.109741
1.000000 0.321625 0.123932
1.000000 0.322968 0.138763
1.000000 0.325409 0.154297
1.000000 0.329132 0.170532
0.000000 0.339722 0.114899
0.000000 0.338745 0.107239
0.000000 0.338043 0.096252
0.000000 0.337280 0.078949
0.000000 0.335968 0.058563
0.000000 0.333069 0.058075
0.025299 0.329285 0.068359
0.109253 0.325775 0.077240
0.183899 0.325562 0.078125
0.241882 0.328064 0.071808
0.295624 0.330597 0.064087
0.347687 0.333221 0.054504
0.400330 0.336273 0.042938
0.444641 0.339020 0.024567
0.484802 0.341888 0.015381
0.522858 0.345093 0.015747
0.559753 0.348358 0.019287
0.596497 0.351257 0.018799
0.633179 0.353607 0.018738
0.677063 0.357178 0.014648
0.723389 0.360321 0.010834
0.767120 0.362061 0.009399
0.807831 0.362488 0.011353
0.846069 0.362183 0.015259
0.882111 0.361267 0.022125
0.916138 0.359802 0.032318
0.948212 0.358276 0.044098
0.978027 0.356506 0.057373
0.997650 0.354767 0.070709
1.000000 0.353180 0.084167
1.000000 0.351959 0.097717
1.000000 0.351257 0.111359
1.000000 0.351135 0.125854
1.000000 0.351807 0.141083
1.000000 0.353546 0.156738
1.000000 0.356354 0.173126
0.000000 0.376892 0.131348
0.000000 0.375763 0.124451
0.000000 0.375092 0.114502
0.000000 0.374359 0.099731
0.000000 0.373260 0.076385
0.000000 0.371033 0.065552
0.000000 0.367432 0.073334
0.054749 0.363220 0.083771
0.152771 0.360107 0.091125
0.219818 0.361084 0.088715
0.277771 0.364136 0.082153
0.332458 0.367401 0.073975
0.385986 0.370361 0.063843
0.447876 0.380890 0.053040
0.497284 0.385956 0.031372
0.539978 0.388855 0.013550
0.579010 0.391541 0.009979
0.616119 0.393921 0.016388
0.651520 0.395660 0.017944
0.687317 0.397003 0.017975
0.723755 0.398224 0.017456
0.767151 0.399780 0.016327
0.807739 0.400116 0.018097
0.845764 0.399536 0.023132
0.881714 0.398346 0.030334
0.915588 0.396637 0.040741
0.947479 0.394653 0.052704
0.977051 0.392334 0.066162
0.995667 0.390137 0.078735
1.000000 0.387909 0.091888
1.000000 0.385956 0.105408
1.000000 0.384521 0.119080
1.000000 0.383759 0.133118
1.000000 0.383698 0.148193
1.000000 0.384644 0.163849
1.000000 0.386719 0.180450
0.000000 0.419678 0.149506
0.000000 0.418427 0.143524
0.000000 0.417480 0.134003
0.000000 0.416504 0.120117
0.000000 0.415222 0.099701
0.000000 0.413239 0.076660
0.000000 0.410126 0.078247
0.006653 0.406219 0.088593
0.093231 0.401825 0.099609
0.193115 0.399780 0.105194
0.258911 0.403015 0.099792
0.318512 0.406860 0.092316
0.375214 0.410706 0.083588
0.431183 0.414429 0.072754
0.494202 0.424866 0.060669
0.544800 0.428680 0.035980
0.588806 0.431152 0.011200
0.627808 0.432922 0.007751
0.664307 0.434296 0.012512
0.698639 0.434692 0.016510
0.731232 0.434540 0.017944
0.762085 0.433533 0.021515
0.800385 0.433472 0.023743
0.838562 0.432892 0.028839
0.874725 0.431641 0.036346
0.908844 0.429840 0.046356
0.940918 0.427643 0.058533
0.970856 0.425201 0.071320
0.995667 0.422729 0.084076
1.000000 0.420258 0.096832
1.000000 0.417938 0.110535
1.000000 0.415985 0.124176
1.000000 0.414673 0.138519
1.000000 0.414093 0.153595
1.000000 0.414337 0.169434
1.000000 0.415802 0.186249
0.000000 0.464813 0.168060
0.000000 0.463501 0.162781
0.000000 0.462585 0.153809
0.000000 0.461487 0.140656
0.000000 0.460144 0.121552
0.000000 0.458466 0.094360
0.000000 0.455322 0.082703
0.000000 0.451569 0.092346
0.029419 0.447418 0.103302
0.148010 0.442993 0.114990
0.233185 0.443146 0.116272
0.299530 0.446838 0.109497
0.360474 0.450867 0.101257
0.418793 0.454803 0.091827
0.476166 0.458649 0.080170
0.532837 0.462158 0.065430
0.584381 0.465424 0.040863
0.628326 0.467133 0.013184
0.666229 0.467834 0.004669
0.700989 0.467468 0.009033
0.733276 0.466461 0.016571
0.763184 0.464783 0.021210
0.791321 0.462524 0.027435
0.823029 0.461151 0.032898
0.859833 0.460297 0.040314
0.894928 0.458832 0.049103
0.927948 0.456879 0.060730
0.958771 0.454620 0.072906
0.987885 0.452118 0.085693
0.999695 0.449646 0.098724
1.000000 0.447205 0.112213
1.000000 0.445068 0.126404
1.000000 0.443451 0.140961
1.000000 0.442566 0.156525
1.000000 0.442383 0.172913
1.000000 0.443329 0.190063
0.000000 0.509674 0.186401
0.000000 0.508331 0.181519
0.000000 0.507416 0.172943
0.000000 0.506287 0.160278
0.000000 0.504852 0.142517
0.000000 0.503113 0.117371
0.000000 0.500946 0.089661
0.000000 0.496857 0.094421
0.000000 0.492279 0.105499
0.076111 0.487427 0.117188
0.191895 0.483490 0.126465
0.271881 0.484497 0.125092
0.338257 0.488068 0.117615
0.399872 0.491699 0.108734
0.458832 0.495117 0.098450
0.516235 0.498199 0.085968
0.572449 0.500549 0.070404
0.624146 0.502747 0.046783
0.667145 0.503021 0.015625
0.702881 0.501556 0.002502
0.735413 0.499390 0.008118
0.765472 0.496887 0.021332
0.794006 0.494293 0.028900
0.821045 0.491516 0.036255
0.847321 0.489075 0.044495
0.882263 0.487762 0.053589
0.915436 0.486053 0.063904
0.947174 0.483978 0.075653
0.977173 0.481537 0.088562
0.996002 0.479095 0.101593
1.000000 0.476685 0.115356
1.000000 0.474426 0.129547
1.000000 0.472626 0.144653
1.000000 0.471375 0.160889
1.000000 0.470978 0.177429
1.000000 0.471497 0.195313
0.000000 0.556091 0.205658
0.000000 0.554779 0.201111
0.000000 0.553711 0.192902
0.000000 0.552429 0.180481
0.000000 0.550720 0.163361
0.000000 0.548676 0.140411
0.000000 0.546295 0.111267
0.000000 0.542847 0.096283
0.000000 0.537964 0.107483
0.000000 0.532990 0.119385
0.121277 0.527679 0.131378
0.234467 0.525177 0.137421
0.311218 0.526825 0.133789
0.377625 0.529968 0.125793
0.439667 0.532959 0.116241
0.498901 0.535553 0.105194
0.556152 0.537628 0.091919
0.611694 0.538910 0.076141
0.663422 0.539490 0.054291
0.703491 0.537323 0.021271
0.737152 0.533844 0.005280
0.767792 0.530151 0.011383
0.796326 0.526733 0.030060
0.823975 0.523651 0.040649
0.850464 0.520508 0.048248
0.874847 0.517181 0.058502
0.904480 0.515137 0.068390
0.935425 0.513000 0.079041
0.966248 0.510712 0.092041
0.991638 0.508331 0.105194
1.000000 0.505981 0.119202
1.000000 0.503754 0.134033
1.000000 0.501892 0.149475
1.000000 0.500519 0.166199
1.000000 0.499939 0.183533
1.000000 0.500275 0.202209
0.000000 0.600922 0.224548
0.000000 0.599731 0.220062
0.000000 0.598602 0.212799
0.000000 0.597504 0.201416
0.000000 0.596008 0.185211
0.000000 0.594116 0.163483
0.000000 0.592041 0.133606
0.000000 0.589539 0.102661
0.000000 0.585144 0.110046
0.000000 0.580414 0.121887
0.025024 0.575134 0.134064
0.167633 0.569458 0.146851
0.276978 0.567993 0.149017
0.351440 0.569611 0.143005
0.417236 0.571594 0.134460
0.478760 0.573181 0.124512
0.537323 0.574310 0.113007
0.593964 0.574890 0.098999
0.648590 0.575043 0.083405
0.698242 0.573029 0.066864
0.736115 0.568939 0.037231
0.768494 0.564240 0.014038
0.798218 0.559814 0.018280
0.825806 0.555908 0.043182
0.852600 0.552277 0.057770
0.878601 0.548828 0.065369
0.902435 0.545380 0.075378
0.925812 0.542267 0.084747
0.955841 0.540039 0.097107
0.985596 0.537750 0.110229
0.998596 0.535431 0.124451
1.000000 0.533203 0.139557
1.000000 0.531189 0.155365
1.000000 0.529602 0.171997
1.000000 0.528625 0.189880
1.000000 0.528564 0.208862
0.000000 0.641998 0.242584
0.000000 0.640717 0.238464
0.000000 0.639740 0.231995
0.000000 0.638672 0.221527
0.000000 0.637390 0.206848
0.000000 0.635773 0.186615
0.000000 0.633911 0.159454
0.000000 0.631622 0.129059
0.000000 0.628235 0.114014
0.000000 0.623566 0.125580
0.000000 0.618408 0.137695
0.102783 0.612885 0.150269
0.224762 0.607513 0.161774
0.317108 0.606506 0.161285
0.389435 0.607880 0.153442
0.454468 0.608917 0.144623
0.515015 0.609589 0.134796
0.572998 0.609772 0.123016
0.628510 0.609558 0.110199
0.682495 0.609009 0.094727
0.730835 0.605011 0.084137
0.767303 0.599823 0.060577
0.798859 0.594269 0.030975
0.827789 0.589142 0.031433
0.854309 0.584656 0.060974
0.880096 0.580505 0.076294
0.904938 0.576660 0.086304
0.928589 0.572876 0.094879
0.950897 0.569519 0.104828
0.976685 0.566925 0.116150
0.994446 0.564606 0.129913
1.000000 0.562378 0.145355
1.000000 0.560333 0.161835
1.000000 0.558716 0.179230
1.000000 0.557678 0.197510
1.000000 0.557312 0.217560
0.000000 0.680542 0.261963
0.000000 0.679626 0.258331
0.000000 0.688324 0.258026
0.000000 0.688080 0.248627
0.000000 0.686829 0.234955
0.000000 0.685333 0.216675
0.000000 0.683563 0.192719
0.000000 0.681580 0.161102
0.000000 0.678864 0.129486
0.000000 0.674377 0.139557
0.000000 0.669342 0.150909
0.000000 0.663940 0.163239
0.158173 0.658081 0.175629
0.280548 0.653442 0.183624
0.363831 0.652344 0.180664
0.433929 0.652466 0.172577
0.497406 0.652252 0.163605
0.556946 0.651550 0.153473
0.613556 0.650513 0.142151
0.667847 0.649017 0.129730
0.720886 0.647339 0.115265
0.767639 0.641205 0.108582
0.802277 0.634338 0.089813
0.832092 0.627472 0.065552
0.859589 0.621155 0.066589
0.884949 0.615570 0.085144
0.909088 0.610565 0.101349
0.932465 0.605652 0.112305
0.955353 0.601410 0.118958
0.976563 0.597595 0.129089
0.993622 0.594452 0.139130
1.000000 0.591888 0.153137
1.000000 0.589752 0.169708
1.000000 0.587982 0.187531
1.000000 0.586731 0.206757
1.000000 0.586273 0.227295
0.000000 0.719330 0.283691
0.000000 0.719086 0.280792
0.000000 0.719574 0.277100
0.000000 0.722229 0.270294
0.000000 0.721558 0.258179
0.000000 0.720398 0.241943
0.000000 0.718872 0.220642
0.000000 0.717041 0.193481
0.000000 0.714813 0.160278
0.000000 0.711243 0.152405
0.000000 0.706451 0.163116
0.000000 0.701355 0.174286
0.068268 0.695862 0.186371
0.224152 0.689819 0.198486
0.326904 0.686127 0.202637
0.403259 0.685150 0.197510
0.470093 0.684692 0.189484
0.531586 0.683868 0.180817
0.589630 0.682739 0.171112
0.644958 0.681366 0.160553
0.698578 0.679871 0.148956
0.750824 0.678101 0.135864
0.796143 0.671112 0.131317
0.829956 0.663391 0.116943
0.859100 0.655884 0.098602
0.885681 0.648987 0.097015
0.910217 0.642761 0.108765
0.933289 0.637177 0.125549
0.955841 0.632172 0.136475
0.977966 0.627686 0.144714
0.993622 0.623779 0.154114
1.000000 0.620605 0.164490
1.000000 0.618195 0.178497
1.000000 0.616364 0.195221
1.000000 0.614990 0.215210
1.000000 0.614471 0.236664
0.000000 0.752380 0.303802
0.000000 0.752350 0.301727
0.000000 0.752167 0.298218
0.000000 0.752197 0.291321
0.000000 0.752045 0.280457
0.000000 0.751221 0.266449
0.000000 0.749969 0.247925
0.000000 0.748383 0.224182
0.000000 0.746490 0.194366
0.000000 0.743988 0.169098
0.000000 0.739563 0.178253
0.000000 0.734833 0.188721
0.003113 0.729675 0.199799
0.151489 0.724060 0.211487
0.283997 0.718018 0.223297
0.370270 0.715363 0.223907
0.440918 0.714722 0.217102
0.504547 0.713928 0.209412
0.563965 0.712799 0.200867
0.620209 0.711517 0.191650
0.674316 0.710052 0.181793
0.726837 0.708466 0.171387
0.778137 0.706635 0.159576
0.822021 0.699036 0.156219
0.855286 0.690704 0.145508
0.883728 0.682709 0.130920
0.909454 0.675293 0.127197
0.933319 0.668488 0.133667
0.955475 0.662781 0.150909
0.977264 0.657684 0.162964
0.993805 0.653229 0.172516
1.000000 0.649414 0.181427
1.000000 0.646454 0.193024
1.000000 0.644409 0.206848
1.000000 0.643036 0.224579
1.000000 0.642426 0.246826
0.000000 0.781952 0.324249
0.000000 0.781952 0.322327
0.000000 0.781799 0.319855
0.000000 0.781738 0.313904
0.000000 0.781555 0.304718
0.000000 0.781006 0.291901
0.000000 0.779877 0.276031
0.000000 0.778503 0.255615
0.000000 0.776825 0.230103
0.000000 0.774933 0.199738
0.000000 0.771301 0.197723
0.000000 0.766907 0.207428
0.000000 0.762146 0.217743
0.062958 0.756927 0.228577
0.232727 0.751312 0.240021
0.336670 0.745819 0.250275
0.412750 0.744171 0.247528
0.478638 0.743469 0.240540
0.539185 0.742462 0.233246
0.596283 0.741394 0.225403
0.651093 0.740234 0.217010
0.703918 0.738922 0.208405
0.755554 0.737488 0.199402
0.805908 0.735779 0.189087
0.848480 0.727905 0.186737
0.881134 0.719086 0.178986
0.908844 0.710541 0.167633
0.933838 0.702698 0.161682
0.957184 0.695587 0.164764
0.978546 0.689941 0.182831
0.993408 0.684937 0.196289
1.000000 0.680695 0.207336
1.000000 0.677185 0.217163
1.000000 0.674591 0.230469
1.000000 0.673096 0.245209
1.000000 0.672516 0.265869
0.000000 0.811890 0.347961
0.000000 0.811707 0.346191
0.000000 0.811340 0.344208
0.000000 0.811096 0.339478
0.000000 0.810699 0.331116
0.000000 0.810059 0.320251
0.000000 0.809082 0.305969
0.000000 0.807831 0.288635
0.000000 0.806305 0.267090
0.000000 0.804657 0.240997
0.000000 0.802063 0.225555
0.000000 0.798096 0.231689
0.000000 0.793671 0.241425
0.016785 0.788910 0.251678
0.169128 0.783752 0.262360
0.303070 0.778198 0.273590
0.387512 0.773834 0.280365
0.455902 0.772583 0.275818
0.516937 0.771729 0.269470
0.574249 0.770752 0.262665
0.629120 0.769684 0.255371
0.681885 0.768555 0.247925
0.733276 0.767212 0.240082
0.783478 0.765808 0.232025
0.832733 0.764282 0.223083
0.873901 0.756226 0.221405
0.905731 0.746765 0.216217
0.932526 0.737732 0.207428
0.956909 0.729614 0.198822
0.979675 0.722504 0.200806
0.994781 0.716919 0.218567
1.000000 0.712250 0.233734
1.000000 0.708405 0.246918
1.000000 0.705444 0.259186
1.000000 0.703461 0.274292
1.000000 0.702759 0.291992
0.000000 0.841095 0.374115
0.000000 0.840698 0.372894
0.000000 0.840118 0.371246
0.000000 0.839508 0.367310
0.000000 0.838898 0.360138
0.000000 0.838074 0.350128
0.000000 0.837036 0.338104
0.000000 0.835815 0.322876
0.000000 0.834473 0.305023
0.000000 0.832977 0.283081
0.000000 0.831238 0.260773
0.000000 0.827942 0.261078
0.000000 0.823914 0.270264
0.000000 0.819519 0.280121
0.087250 0.814819 0.290283
0.269928 0.809784 0.301025
0.366150 0.804352 0.312134
