for cam/5.Food-xinxian.cube
#Created by: Adobe Photoshop Export Color Lookup Plugin
#Copyright: (C) Copyright 2026 小米
TITLE "未标题-1"
#LUT size
LUT_3D_SIZE 6
#data domain
DOMAIN_MIN 0.0 0.0 0.0
DOMAIN_MAX 1.0 1.0 1.0
#LUT data points
0.044495 0.038269 0.030762
0.247925 0.019043 0.021637
0.533936 0.000000 0.000000
0.847504 0.000000 0.000000
1.000000 0.000000 0.059967
1.000000 0.110474 0.156647
0.000000 0.202759 0.056702
0.214935 0.204803 0.020966
0.490051 0.219055 0.007751
0.813141 0.231476 0.000519
1.000000 0.226532 0.069031
1.000000 0.251648 0.166809
0.000000 0.464813 0.168060
0.000000 0.451569 0.092346
0.476166 0.458649 0.080170
0.763184 0.464783 0.021210
0.987885 0.452118 0.085693
1.000000 0.443329 0.190063
0.000000 0.752380 0.303802
0.000000 0.748383 0.224182
0.283997 0.718018 0.223297
0.726837 0.708466 0.171387
0.955475 0.662781 0.150909
1.000000 0.642426 0.246826
0.000000 0.927856 0.490326
0.000000 0.923645 0.469727
0.086639 0.911896 0.430206
0.617035 0.889526 0.474182
0.897003 0.883148 0.446838
1.000000 0.840179 0.453003
0.559723 0.976746 0.753143
0.600769 0.974243 0.759216
0.654236 0.970947 0.755280
0.770721 0.961334 0.788574
0.873169 0.950989 0.823700
0.947449 0.941956 0.862732
0.079468 0.026276 0.142792
0.204773 0.009796 0.144196
0.506775 0.000000 0.187836
0.829132 0.000000 0.173126
1.000000 0.000000 0.186432
1.000000 0.026978 0.230408
0.000000 0.182465 0.183228
0.199615 0.184418 0.164978
0.481720 0.181213 0.168549
0.800781 0.166260 0.170410
1.000000 0.170197 0.186676
1.000000 0.223480 0.235718
0.000000 0.466797 0.276093
0.000000 0.443390 0.227692
0.451630 0.432800 0.184265
0.729309 0.435089 0.172791
0.975098 0.427979 0.189148
1.000000 0.428467 0.250641
0.000000 0.747284 0.380798
0.000000 0.732880 0.342773
0.244781 0.705048 0.273285
0.709412 0.689880 0.239685
0.942169 0.650024 0.225800
1.000000 0.635406 0.299805
0.000000 0.926208 0.520264
0.000000 0.917542 0.519165
0.084473 0.907898 0.459961
0.617554 0.884399 0.508728
0.892181 0.877930 0.477264
1.000000 0.836243 0.476440
0.506561 0.979614 0.745850
0.594421 0.974426 0.767639
0.664001 0.969940 0.769928
0.768768 0.961395 0.793243
0.871124 0.951141 0.825287
0.947449 0.941956 0.863251
0.183411 0.000000 0.376984
0.290649 0.000000 0.365875
0.453003 0.024506 0.340820
0.766602 0.000000 0.407959
1.000000 0.000000 0.403656
1.000000 0.052734 0.404724
0.000000 0.105835 0.409943
0.248749 0.143524 0.391235
0.454010 0.179077 0.351776
0.768829 0.150909 0.400726
0.999359 0.078949 0.394653
1.000000 0.176971 0.392090
0.000000 0.426392 0.443604
0.000000 0.417694 0.426361
0.410828 0.386353 0.357666
0.740417 0.385803 0.363617
0.985962 0.389374 0.374237
1.000000 0.419159 0.407257
0.000000 0.763519 0.569031
0.000000 0.750275 0.540466
0.255554 0.699097 0.457214
0.694489 0.672455 0.402191
0.922821 0.635681 0.390686
1.000000 0.636719 0.447235
0.000000 0.937805 0.624512
0.000000 0.930573 0.620178
0.332825 0.906128 0.620850
0.628510 0.882721 0.602081
0.890472 0.876160 0.577576
1.000000 0.841278 0.576019
0.298584 0.987030 0.741119
0.458099 0.981445 0.759521
0.695465 0.966614 0.813751
0.782471 0.959473 0.822693
0.882751 0.949036 0.858734
0.946442 0.941345 0.887756
0.308472 0.000000 0.683441
0.403412 0.000000 0.671509
0.570953 0.000000 0.632782
0.741455 0.000000 0.588409
0.948120 0.183197 0.605652
1.000000 0.250732 0.612152
0.193970 0.060028 0.697205
0.347229 0.070618 0.684204
0.557770 0.134186 0.645020
0.740234 0.170624 0.594269
0.947876 0.269653 0.608154
1.000000 0.325836 0.616058
0.000000 0.353668 0.717316
0.000000 0.329376 0.708557
0.467438 0.362579 0.665161
0.719360 0.385132 0.601349
0.945374 0.437317 0.616669
1.000000 0.481384 0.630310
0.000000 0.673950 0.732452
0.000000 0.670746 0.723297
0.115051 0.659821 0.691101
0.637970 0.612183 0.590240
0.923889 0.622559 0.606415
1.000000 0.644043 0.632904
0.000000 0.950531 0.807465
0.000000 0.946350 0.797363
0.000000 0.930237 0.769073
0.633942 0.883148 0.730469
0.879303 0.865234 0.694946
1.000000 0.837219 0.685028
0.000000 1.000000 0.735229
0.000000 1.000000 0.740845
0.399841 0.982788 0.792511
0.815613 0.955078 0.875580
0.898926 0.946198 0.898712
0.945221 0.940491 0.920471
0.386566 0.000000 0.906281
0.461548 0.000000 0.901825
0.620819 0.000000 0.884918
0.800446 0.110535 0.850525
0.973663 0.160065 0.815857
1.000000 0.424255 0.788177
0.320953 0.000000 0.911621
0.416138 0.002045 0.905609
0.598572 0.055328 0.887817
0.791412 0.225403 0.852509
0.969543 0.266388 0.819183
1.000000 0.474121 0.792969
0.000000 0.235382 0.920013
0.084686 0.271423 0.912720
0.513672 0.334381 0.895905
0.763885 0.413086 0.860565
0.947144 0.443359 0.819855
1.000000 0.575623 0.803894
0.000000 0.551117 0.918793
0.000000 0.545776 0.916412
0.035736 0.537933 0.907806
0.684174 0.612091 0.868347
0.900360 0.631287 0.816406
1.000000 0.700592 0.827271
0.000000 0.828156 0.918304
0.000000 0.828888 0.915070
0.000000 0.835144 0.906830
0.544281 0.844574 0.887299
0.829407 0.814026 0.812897
1.000000 0.836090 0.839539
0.000000 1.000000 0.902740
0.000000 1.000000 0.897949
0.000000 0.998474 0.886688
0.557526 0.973480 0.882660
0.932800 0.941254 0.939880
0.944366 0.939758 0.946259
0.420624 0.000000 1.000000
0.474335 0.000000 1.000000
0.603149 0.000000 0.997375
0.771271 0.011261 0.984375
0.939545 0.307312 0.965454
1.000000 0.436798 0.960571
0.371277 0.000000 1.000000
0.435699 0.000000 1.000000
0.579132 0.000000 0.997559
0.757813 0.121735 0.983490
0.932068 0.350952 0.963806
1.000000 0.482239 0.962250
0.060394 0.070892 1.000000
0.243988 0.108887 1.000000
0.488495 0.169556 1.000000
0.717651 0.283325 0.987793
0.918427 0.476105 0.967926
1.000000 0.573669 0.963959
0.000000 0.263214 1.000000
0.000000 0.235229 1.000000
0.000000 0.272766 1.000000
0.615173 0.463226 0.993774
0.896606 0.639557 0.978638
1.000000 0.703766 0.966919
0.000000 0.614349 0.990906
0.000000 0.610077 0.990967
0.000000 0.603943 0.990448
0.334473 0.656189 0.983307
0.857788 0.822388 0.962158
0.986237 0.862671 0.953949
0.000000 0.858459 0.969757
0.000000 0.859802 0.969574
0.000000 0.866608 0.967682
0.179810 0.893280 0.960022
0.878052 0.932434 0.948456
0.944366 0.939758 0.946259
