for cam/7.night-yejing11.CUBE
#Created by: Adobe Photoshop Export Color Lookup Plugin
TITLE "未标题-3.jpg"
#LUT size
LUT_3D_SIZE 5
#data domain
#LUT data points
DOMAIN_MIN 0.000000 0.000000 0.000000
DOMAIN_MAX 0.816327 0.816327 0.816327
0.055450 0.069366 0.077057
0.153473 0.108521 0.088226
0.327484 0.137695 0.048645
0.495056 0.171631 0.056183
0.637939 0.181213 0.061432
0.047791 0.156006 0.141235
0.188232 0.211823 0.111420
0.439178 0.281830 0.051483
0.597992 0.329132 0.045990
0.719696 0.367249 0.045074
0.050201 0.306183 0.224640
0.211090 0.390808 0.086517
0.453430 0.409637 0.058319
0.666809 0.484222 0.018616
0.790405 0.520569 0.013458
0.045563 0.503723 0.317352
0.167053 0.615082 0.094025
0.474426 0.572083 0.023254
0.707397 0.637177 0.000000
0.872467 0.693085 0.000000
0.035522 0.627533 0.382751
0.142548 0.767456 0.163361
0.523224 0.727997 0.000000
0.749847 0.775787 0.000000
0.885651 0.818268 0.000000
0.063446 0.076813 0.113159
0.123352 0.101837 0.141418
0.264893 0.091827 0.147308
0.489594 0.060150 0.117310
0.622620 0.065308 0.154968
0.051941 0.161499 0.202576
0.123840 0.192444 0.244934
0.405273 0.219055 0.230682
0.637207 0.237762 0.195923
0.795746 0.242981 0.179932
0.058502 0.292969 0.303467
0.104187 0.353760 0.333557
0.447174 0.441528 0.267029
0.725677 0.485748 0.278534
0.865479 0.497589 0.248169
0.067108 0.456451 0.405151
0.093842 0.535553 0.419708
0.395630 0.656311 0.297516
0.694946 0.653168 0.270508
0.887146 0.709015 0.294342
0.068695 0.573853 0.479187
0.067688 0.672455 0.485260
0.441681 0.823639 0.324768
0.710449 0.795074 0.302856
0.887207 0.832794 0.299042
0.073395 0.080811 0.150085
0.133667 0.097107 0.185120
0.223969 0.109741 0.195435
0.412811 0.087738 0.224396
0.583496 0.064056 0.245117
0.059143 0.181702 0.266327
0.121399 0.188416 0.321106
0.327515 0.202209 0.334290
0.570038 0.203766 0.337646
0.759460 0.181671 0.326385
0.070221 0.301544 0.373657
0.120392 0.338318 0.406342
0.380371 0.400513 0.476410
0.710571 0.417267 0.437347
0.861481 0.422455 0.410522
0.070831 0.438232 0.460388
0.070557 0.507202 0.502136
0.361206 0.634247 0.535339
0.717621 0.679901 0.486908
0.909027 0.725708 0.523621
0.072113 0.578186 0.567139
0.075867 0.632568 0.578308
0.387085 0.809357 0.606232
0.696838 0.844757 0.540344
0.896118 0.856781 0.530792
0.073181 0.077576 0.198120
0.148254 0.085144 0.234436
0.249268 0.099945 0.249084
0.361206 0.116333 0.267639
0.524414 0.087372 0.305298
0.066040 0.203796 0.333160
0.139801 0.179382 0.402374
0.342590 0.192352 0.404633
0.481628 0.237488 0.401337
0.671936 0.225098 0.441101
0.080963 0.317535 0.443024
0.154083 0.365509 0.498108
0.366577 0.370636 0.579498
0.612366 0.422089 0.548370
0.804718 0.397552 0.545654
0.083527 0.447662 0.532104
0.085266 0.479675 0.546906
0.380768 0.591278 0.633545
0.698792 0.666443 0.670380
0.902344 0.700989 0.669861
0.083527 0.551849 0.608124
0.078979 0.626373 0.643188
0.392426 0.755127 0.711365
0.702332 0.868713 0.724091
0.905609 0.882294 0.726929
0.075195 0.071533 0.246307
0.171570 0.080536 0.282806
0.274078 0.104919 0.296783
0.368744 0.116058 0.311096
0.480774 0.117889 0.343994
0.073334 0.214935 0.396484
0.172577 0.168671 0.476532
0.372498 0.195068 0.470306
0.502258 0.224884 0.459747
0.609863 0.252411 0.482361
0.087921 0.341705 0.512512
0.188538 0.382904 0.583435
0.418671 0.388306 0.660217
0.628235 0.404755 0.627747
0.721710 0.430267 0.612213
0.094238 0.457092 0.594055
0.121368 0.502136 0.623352
0.430206 0.609558 0.718994
0.695251 0.653168 0.768860
0.845428 0.667236 0.752197
0.094360 0.566101 0.671021
0.089447 0.608429 0.681122
0.388458 0.726746 0.764374
0.718475 0.846588 0.838379
0.899963 0.870880 0.841217
