for cam/7.night-yejing11.CUBE
#Created by: Adobe Photoshop Export Color Lookup Plugin
TITLE "未标题-3.jpg"
#LUT size
LUT_3D_SIZE 50
#data domain
DOMAIN_MIN 0.0 0.0 0.0
DOMAIN_MAX 1.0 1.0 1.0
#LUT data points
0.055450 0.069366 0.077057
0.061890 0.072601 0.079742
0.070465 0.076813 0.082733
0.082245 0.082336 0.086243
0.091949 0.085846 0.087311
0.101593 0.090454 0.089264
0.110413 0.094849 0.090393
0.118408 0.098755 0.090637
0.126556 0.102448 0.090546
0.139191 0.105316 0.089783
0.153473 0.108521 0.088226
0.169586 0.112122 0.086060
0.188934 0.113770 0.080353
0.208649 0.115295 0.074066
0.228699 0.116821 0.066742
0.246490 0.118042 0.059479
0.263641 0.119385 0.052826
0.280670 0.121857 0.049500
0.296692 0.125275 0.048157
0.312103 0.129578 0.048218
0.327484 0.137695 0.048645
0.341919 0.144043 0.049347
0.355164 0.148376 0.049835
0.369080 0.152496 0.050507
0.383087 0.156708 0.051056
0.397003 0.161926 0.051514
0.417145 0.166260 0.052368
0.439667 0.169708 0.053345
0.460388 0.170532 0.054382
0.478699 0.171143 0.055420
0.495056 0.171631 0.056183
0.512787 0.172424 0.056946
0.528870 0.174072 0.057556
0.542267 0.177216 0.057922
0.556152 0.179108 0.058472
0.570374 0.179596 0.059021
0.585388 0.176849 0.059814
0.599579 0.178162 0.060150
0.613281 0.181763 0.060516
0.625549 0.181549 0.061005
0.637939 0.181213 0.061432
0.650604 0.181091 0.061920
0.661560 0.181427 0.062164
0.672607 0.183136 0.062408
0.684418 0.187714 0.062561
0.695618 0.185455 0.063049
0.706268 0.182587 0.063416
0.715546 0.188446 0.063354
0.723633 0.189911 0.063507
0.730896 0.188202 0.063812
0.050659 0.076141 0.081299
0.060944 0.080872 0.084717
0.070923 0.085846 0.088013
0.084686 0.093079 0.092590
0.095978 0.097931 0.094604
0.105621 0.102020 0.096130
0.113831 0.106079 0.097809
0.123932 0.109100 0.097870
0.133392 0.112549 0.097595
0.148590 0.117035 0.096130
0.162476 0.119568 0.094177
0.178070 0.122589 0.091705
0.196014 0.123047 0.085083
0.216705 0.123993 0.078552
0.238678 0.124695 0.071442
0.258026 0.126251 0.064514
0.276428 0.128082 0.057617
0.296722 0.132507 0.052368
0.313995 0.137268 0.049530
0.329987 0.142212 0.048584
0.342041 0.147797 0.049164
0.357697 0.154114 0.049683
0.372467 0.158478 0.050385
0.387482 0.162659 0.050995
0.402893 0.166840 0.051605
0.419647 0.171082 0.052185
0.434326 0.174255 0.052887
0.454193 0.177673 0.053711
0.473206 0.181335 0.054474
0.492859 0.183380 0.055328
0.510284 0.185181 0.056091
0.524048 0.188995 0.056488
0.541229 0.190002 0.057098
0.556641 0.191895 0.057678
0.569824 0.193695 0.058075
0.584015 0.195312 0.058655
0.599152 0.195770 0.059082
0.613342 0.196075 0.059662
0.627045 0.199066 0.059937
0.639801 0.200745 0.060242
0.650330 0.200317 0.060760
0.660858 0.199921 0.061066
0.671417 0.204681 0.061035
0.682983 0.207001 0.061340
0.695953 0.211548 0.061401
0.704041 0.208038 0.061829
0.713501 0.204865 0.062256
0.722107 0.211090 0.062134
0.730164 0.214844 0.062103
0.737305 0.214691 0.062256
0.047058 0.083069 0.086334
0.059479 0.088165 0.090118
0.070190 0.094330 0.094727
0.085510 0.101379 0.098663
0.097748 0.107788 0.101562
0.108093 0.111786 0.102386
0.117371 0.115997 0.103699
0.127960 0.119202 0.104279
0.139374 0.121826 0.103882
0.155823 0.126801 0.102661
0.173340 0.130188 0.099640
0.188477 0.132477 0.096710
0.207031 0.132996 0.090424
0.224091 0.134491 0.083801
0.246704 0.134979 0.076630
0.271454 0.137756 0.067505
0.290070 0.139679 0.061249
0.310150 0.144226 0.055969
0.330231 0.148529 0.051636
0.347290 0.154480 0.049377
0.358704 0.158752 0.049500
0.373474 0.164978 0.050018
0.389557 0.169220 0.050751
0.404968 0.174164 0.051239
0.419952 0.178802 0.051727
0.437469 0.183014 0.052460
0.454163 0.186127 0.053131
0.469360 0.188354 0.053833
0.487549 0.191711 0.054565
0.505066 0.196106 0.055145
0.523865 0.199310 0.055817
0.537842 0.201721 0.056213
0.553467 0.205109 0.056641
0.570221 0.206238 0.057281
0.582947 0.210724 0.057556
0.595886 0.212433 0.057831
0.610657 0.214355 0.058289
0.625488 0.213928 0.058899
0.638947 0.216034 0.059174
0.650452 0.218811 0.059448
0.662079 0.222260 0.059509
0.670746 0.221771 0.059784
0.681549 0.223846 0.060028
0.692413 0.228882 0.060089
0.705780 0.233490 0.060028
0.714355 0.232666 0.060303
0.721161 0.227570 0.060974
0.729218 0.232300 0.060852
0.737854 0.239502 0.060455
0.745026 0.241669 0.060516
0.045319 0.091766 0.094208
0.061005 0.096558 0.097443
0.073730 0.101715 0.100983
0.084839 0.106903 0.104279
0.096924 0.114441 0.107544
0.108582 0.120636 0.109924
0.118835 0.122955 0.108826
0.131470 0.126953 0.108917
0.144226 0.130127 0.108978
0.162415 0.135498 0.108521
0.181335 0.139160 0.105530
0.201233 0.141418 0.100677
0.220734 0.142059 0.094849
0.238708 0.143707 0.088593
0.254120 0.147491 0.082733
0.282410 0.152069 0.071930
0.308319 0.156525 0.061981
0.324768 0.159882 0.057800
0.344360 0.163116 0.053741
0.363953 0.166595 0.050323
0.374390 0.168610 0.050140
0.388702 0.173615 0.050446
0.407135 0.181122 0.050995
0.422638 0.186554 0.051392
0.437653 0.192047 0.051880
0.451935 0.197784 0.052277
0.468811 0.201324 0.052887
0.485535 0.204071 0.053558
0.502472 0.205719 0.054321
0.519043 0.209564 0.054840
0.535339 0.214325 0.055206
0.549469 0.215057 0.055725
0.565247 0.216827 0.056244
0.583984 0.219330 0.056946
0.595825 0.226501 0.056763
0.607269 0.232666 0.056732
0.619659 0.235657 0.056976
0.634369 0.234406 0.057617
0.648987 0.232422 0.058319
0.658051 0.236938 0.058258
0.668518 0.241821 0.058197
0.679016 0.247559 0.058044
0.690735 0.246948 0.058594
0.702545 0.248718 0.058655
0.714661 0.253113 0.058655
0.723083 0.254364 0.058807
0.729889 0.253510 0.059082
0.736786 0.253601 0.059296
0.745331 0.260345 0.058899
0.754395 0.269073 0.058319
0.046997 0.099518 0.101074
0.061737 0.105560 0.105438
0.075775 0.108887 0.107361
0.087158 0.113403 0.110260
0.096863 0.120300 0.111633
0.108582 0.127502 0.114258
0.119141 0.131592 0.113190
0.130920 0.132843 0.113281
0.145752 0.137634 0.113495
0.164429 0.142914 0.114044
0.186005 0.147491 0.109772
0.207733 0.150146 0.103882
0.232910 0.153412 0.094696
0.252441 0.155029 0.088379
0.269562 0.158630 0.081879
0.288910 0.164825 0.077087
0.316803 0.170410 0.066772
0.335968 0.175079 0.061951
0.355927 0.179718 0.056946
0.376617 0.183197 0.052734
0.391602 0.187103 0.050140
0.405731 0.190063 0.050323
0.424255 0.196136 0.050903
0.439423 0.199707 0.051422
0.453827 0.205200 0.051849
0.466919 0.210663 0.052124
0.484100 0.218628 0.052399
0.501160 0.222626 0.052979
0.516937 0.225800 0.053467
0.532257 0.227081 0.054077
0.547607 0.231018 0.054382
0.561401 0.234222 0.054718
0.576050 0.236877 0.055145
0.593292 0.240814 0.055573
0.607635 0.247528 0.055511
0.618744 0.254272 0.055359
0.631042 0.255280 0.055725
0.643524 0.255737 0.056152
0.658112 0.253632 0.056854
0.670258 0.260345 0.056610
0.679565 0.261902 0.056763
0.689972 0.265381 0.056885
0.696442 0.268158 0.056793
0.708160 0.268890 0.057068
0.719727 0.272858 0.056976
0.729126 0.275482 0.057007
0.736420 0.276398 0.057098
0.744812 0.278717 0.057159
0.750458 0.281464 0.057007
0.758667 0.289886 0.056335
0.048737 0.108032 0.108429
0.062958 0.113220 0.111938
0.076111 0.117218 0.114319
0.087860 0.120636 0.116486
0.097534 0.126862 0.117828
0.107452 0.134003 0.118622
0.118439 0.139587 0.117554
0.131439 0.141815 0.117126
0.146759 0.145508 0.117523
0.166229 0.151123 0.118103
0.188416 0.156433 0.114746
0.213074 0.160156 0.106903
0.237854 0.163849 0.097412
0.260712 0.167755 0.089020
0.279633 0.171173 0.082092
0.300842 0.176636 0.076477
0.321716 0.183350 0.071747
0.342468 0.188690 0.066681
0.364716 0.194672 0.060577
0.386932 0.200317 0.054901
0.404388 0.205719 0.051239
0.420898 0.208954 0.049744
0.439606 0.212860 0.050537
0.456238 0.216400 0.051147
0.470306 0.220917 0.051514
0.482300 0.226074 0.051788
0.497223 0.232635 0.052002
0.515533 0.240997 0.052155
0.531189 0.244781 0.052551
0.545715 0.247833 0.052826
0.559814 0.248871 0.053406
0.573273 0.252563 0.053711
0.587036 0.256683 0.053955
0.602417 0.262207 0.053925
0.616150 0.268799 0.053864
0.629272 0.274872 0.053772
0.641571 0.274872 0.054230
0.653992 0.275116 0.054749
0.666351 0.274414 0.055115
0.678925 0.280945 0.054871
0.690735 0.285309 0.054932
0.700592 0.283722 0.055298
0.707916 0.286163 0.055328
0.713654 0.288116 0.055237
0.724701 0.291809 0.055237
0.734253 0.294861 0.055176
0.742554 0.296997 0.055145
0.751495 0.300446 0.054993
0.758636 0.303955 0.054840
0.763428 0.308411 0.054443
0.049377 0.117706 0.115875
0.062103 0.122559 0.119385
0.074646 0.126373 0.121704
0.085236 0.128937 0.122864
0.094452 0.134155 0.124451
0.104340 0.140747 0.125488
0.116180 0.147980 0.125641
0.129700 0.151245 0.122375
0.145233 0.152740 0.121124
0.169525 0.161804 0.120575
0.192627 0.168274 0.117126
0.218323 0.174408 0.109711
0.239471 0.178131 0.100739
0.260468 0.182251 0.092773
0.277039 0.186615 0.087555
0.300385 0.190674 0.081055
0.323242 0.196075 0.075378
0.345612 0.201904 0.069489
0.368988 0.208649 0.062531
0.392944 0.215637 0.055023
0.414978 0.224701 0.050720
0.432251 0.228241 0.048889
0.448669 0.229218 0.049713
0.469055 0.234192 0.050385
0.485443 0.239746 0.050812
0.498199 0.248260 0.050690
0.510284 0.252777 0.050903
0.525177 0.258362 0.051056
0.542542 0.261902 0.051361
0.557159 0.265778 0.051697
0.570984 0.268890 0.052032
0.583923 0.272797 0.052277
0.597168 0.276733 0.052277
0.610443 0.281128 0.052368
0.623962 0.285583 0.052429
0.636963 0.290039 0.052460
0.649261 0.290222 0.052979
0.661804 0.292114 0.053192
0.674164 0.293701 0.053345
0.684906 0.296417 0.053497
0.696655 0.300995 0.053345
0.707703 0.303101 0.053467
0.718384 0.306061 0.053406
0.725647 0.308075 0.053436
0.731049 0.307800 0.053589
0.741516 0.311737 0.053467
0.750671 0.315002 0.053284
0.758423 0.317841 0.053101
0.766083 0.320862 0.053040
0.772278 0.323914 0.052795
0.049286 0.126434 0.122253
0.059998 0.130554 0.124847
0.072327 0.135956 0.128052
0.083069 0.139252 0.129547
0.094177 0.146362 0.131256
0.103607 0.152191 0.132355
0.115143 0.158966 0.132263
0.131104 0.163788 0.124908
0.148041 0.165588 0.122681
0.171509 0.172577 0.120544
0.194550 0.179932 0.119598
0.219818 0.186523 0.113434
0.244690 0.190643 0.104309
0.264435 0.195374 0.096436
0.281189 0.200653 0.091156
0.301941 0.206604 0.085236
0.326385 0.211426 0.078400
0.349243 0.217926 0.071411
0.373108 0.224548 0.064301
0.397949 0.231964 0.055878
0.419556 0.238434 0.050201
0.440430 0.245544 0.047760
0.457153 0.246918 0.048523
0.473511 0.250916 0.049103
0.494263 0.257294 0.049622
0.510284 0.266144 0.049561
0.521271 0.270203 0.049683
0.533630 0.274353 0.049805
0.548859 0.277863 0.050079
0.564148 0.282074 0.050323
0.577728 0.286011 0.050659
0.593475 0.291656 0.050659
0.607544 0.295227 0.050781
0.621368 0.299133 0.050903
0.634430 0.302948 0.050964
0.647217 0.306274 0.051086
0.659241 0.306641 0.051422
0.670837 0.308533 0.051575
0.683258 0.311340 0.051727
0.694641 0.314667 0.051697
0.702545 0.317566 0.051575
0.712616 0.320770 0.051514
0.722260 0.324005 0.051422
0.732361 0.327454 0.051331
0.738617 0.328308 0.051361
0.744324 0.328766 0.051453
0.754028 0.332611 0.051239
0.761536 0.335541 0.051056
0.769043 0.338623 0.050873
0.775970 0.341339 0.050690
0.048859 0.135010 0.128326
0.057983 0.139069 0.130524
0.068787 0.144073 0.132904
0.080475 0.150085 0.135681
0.092224 0.158142 0.137787
0.104034 0.166412 0.139069
0.114929 0.172607 0.138702
0.130524 0.177795 0.130524
0.150970 0.179779 0.123138
0.171417 0.183136 0.120209
0.198456 0.193146 0.117584
0.220184 0.198456 0.116028
0.245789 0.202362 0.108307
0.269775 0.207458 0.099945
0.287384 0.213928 0.094421
0.307861 0.220673 0.088409
0.329803 0.227356 0.081848
0.353271 0.234650 0.073578
0.378174 0.241669 0.065125
0.402924 0.248535 0.056976
0.424347 0.253693 0.050659
0.444489 0.258789 0.046967
0.463989 0.263947 0.047272
0.479340 0.268341 0.047699
0.496643 0.273804 0.048035
0.517822 0.282867 0.048126
0.531586 0.287292 0.048279
0.542267 0.289551 0.048431
0.555817 0.293152 0.048767
0.569092 0.297058 0.048889
0.582581 0.301727 0.049103
0.599609 0.307861 0.048920
0.615814 0.313202 0.048981
0.631683 0.316284 0.049225
0.645233 0.319916 0.049316
0.658356 0.323212 0.049408
0.669983 0.323669 0.049683
0.681000 0.325684 0.049896
0.692169 0.328217 0.050018
0.703918 0.331757 0.049866
0.712433 0.335236 0.049683
0.717407 0.338165 0.049438
0.725983 0.341339 0.049286
0.734863 0.344635 0.049072
0.743317 0.348022 0.048828
0.749481 0.349457 0.048828
0.755463 0.350464 0.048828
0.762817 0.353333 0.048706
0.770111 0.356171 0.048370
0.777496 0.359558 0.048035
0.048157 0.145172 0.134460
0.053192 0.151489 0.137421
0.064056 0.157532 0.139771
0.076813 0.165253 0.142242
0.086853 0.171906 0.143951
0.098389 0.180084 0.144836
0.110931 0.188263 0.143402
0.131531 0.193939 0.139252
0.147675 0.196320 0.126862
0.167023 0.196777 0.117828
0.189697 0.199768 0.113525
0.221313 0.212433 0.110229
0.244080 0.215424 0.109985
0.269714 0.220947 0.102600
0.293762 0.229279 0.095001
0.312378 0.236694 0.089142
0.333160 0.243530 0.082855
0.355225 0.249115 0.076324
0.383270 0.255310 0.066345
0.410828 0.261597 0.056519
0.433380 0.269135 0.051575
0.451904 0.274719 0.046967
0.468567 0.280396 0.045715
0.480530 0.284302 0.045990
0.497589 0.289001 0.046326
0.522064 0.296051 0.046783
0.538361 0.302063 0.046814
0.550720 0.305115 0.047089
0.565582 0.308441 0.047333
0.577667 0.311340 0.047607
0.589783 0.314789 0.047699
0.607971 0.320038 0.047791
0.623199 0.326385 0.047546
0.636322 0.331940 0.047333
0.649414 0.336670 0.047302
0.662476 0.340424 0.047119
0.675873 0.342926 0.047272
0.685211 0.345612 0.047302
0.694885 0.348389 0.047241
0.706970 0.346924 0.047882
0.715668 0.350281 0.047668
0.720886 0.353455 0.047333
0.729340 0.357056 0.047058
0.738403 0.360596 0.046783
0.747498 0.364471 0.046478
0.752075 0.367401 0.046112
0.757538 0.369446 0.045959
0.767609 0.373718 0.045593
0.774506 0.375427 0.045380
0.781525 0.377289 0.045258
0.047791 0.156006 0.141235
0.050934 0.161224 0.143433
0.057739 0.170105 0.146912
0.070557 0.179108 0.149536
0.081512 0.187531 0.149994
0.092865 0.196411 0.149048
0.106415 0.206604 0.145844
0.127594 0.212494 0.139587
0.143341 0.214691 0.125854
0.164734 0.212738 0.117981
0.188232 0.211823 0.111420
0.220276 0.222321 0.106140
0.246246 0.230438 0.103271
0.267578 0.233398 0.103088
0.292725 0.241364 0.096344
0.315491 0.250671 0.091278
0.336151 0.257874 0.084869
0.360199 0.263245 0.077942
0.385437 0.269897 0.069275
0.415924 0.275391 0.057739
0.439178 0.281830 0.051483
0.459137 0.288757 0.047028
0.474274 0.294769 0.044617
0.487885 0.298645 0.044617
0.501648 0.303009 0.044861
0.525879 0.309387 0.045258
0.543152 0.314545 0.045349
0.557281 0.319214 0.045563
0.571442 0.322937 0.045715
0.587006 0.326660 0.045990
0.597992 0.329132 0.045990
0.613403 0.333649 0.046082
0.628815 0.337585 0.046204
0.640656 0.343567 0.045746
0.653259 0.348969 0.045654
0.665497 0.354004 0.045166
0.678680 0.357178 0.045227
0.689728 0.360321 0.045258
0.697784 0.363953 0.044891
0.708710 0.364502 0.045135
0.719696 0.367249 0.045074
0.725250 0.370667 0.044739
0.732300 0.372833 0.044586
0.742889 0.376221 0.044403
0.753052 0.379791 0.044098
0.756866 0.381958 0.043854
0.761078 0.385254 0.043365
0.771057 0.390198 0.042877
0.779327 0.393372 0.042450
0.786011 0.394196 0.042480
0.047577 0.167542 0.148621
0.048859 0.171814 0.150177
0.053467 0.179718 0.152893
0.062653 0.192108 0.156982
0.073853 0.201782 0.156891
0.085999 0.212494 0.154419
0.101776 0.227478 0.147003
0.123779 0.234863 0.138641
0.137146 0.235809 0.119934
0.161438 0.230591 0.113556
0.186981 0.227264 0.108124
0.214355 0.225037 0.103851
0.248474 0.243042 0.098663
0.270813 0.249390 0.096008
0.289703 0.252533 0.095520
0.312347 0.261566 0.092743
0.336212 0.270630 0.088623
0.364563 0.275818 0.080597
0.391541 0.282501 0.071442
0.418304 0.290009 0.060852
0.442352 0.295532 0.053223
0.463013 0.301239 0.047455
0.479919 0.307312 0.043457
0.495209 0.311157 0.043396
0.511810 0.315460 0.043762
0.532684 0.321472 0.043976
0.548920 0.326691 0.044037
0.562836 0.331360 0.044037
0.575836 0.335999 0.044098
0.590729 0.340271 0.044159
0.606934 0.344635 0.044189
0.620056 0.348511 0.044159
0.632690 0.351746 0.044220
0.643402 0.353455 0.044403
0.656036 0.358307 0.044220
0.668671 0.363251 0.043854
0.680389 0.367584 0.043640
0.691223 0.371185 0.043518
0.701202 0.374634 0.043243
0.710632 0.377716 0.043030
0.720490 0.382416 0.042664
0.730408 0.389526 0.041687
0.736511 0.390961 0.041687
0.745331 0.392517 0.041656
0.759338 0.394623 0.041718
0.763763 0.396027 0.041656
0.766510 0.397675 0.041443
0.775940 0.403656 0.040436
0.783966 0.407501 0.039917
0.790863 0.409851 0.039642
0.047668 0.182129 0.157257
0.047852 0.186768 0.158691
0.050751 0.192413 0.160156
0.057892 0.202362 0.162781
0.066132 0.214203 0.163544
0.079468 0.225800 0.159088
0.098419 0.242157 0.146118
0.122620 0.251465 0.134857
0.134735 0.252075 0.112854
0.164368 0.245148 0.106384
0.186768 0.241577 0.102203
0.211487 0.239380 0.098816
0.243378 0.248627 0.092896
0.271667 0.261322 0.090210
0.291748 0.265839 0.091064
0.315125 0.272583 0.092773
0.338654 0.282104 0.090454
0.363922 0.289276 0.085815
0.392761 0.296509 0.075439
0.420013 0.304413 0.064270
0.444550 0.310150 0.055664
0.468964 0.316254 0.048157
0.489777 0.322693 0.042419
0.501953 0.326752 0.041718
0.517303 0.330353 0.042023
0.535522 0.334778 0.042267
0.552094 0.338379 0.042572
0.566437 0.342834 0.042603
0.581451 0.348816 0.042572
0.597015 0.353546 0.042389
0.613892 0.358124 0.042480
0.626648 0.363434 0.042175
0.638702 0.367279 0.042053
0.649170 0.369995 0.042175
0.660858 0.373566 0.041901
0.673218 0.378510 0.041534
0.684082 0.382599 0.041351
0.695007 0.386566 0.041016
0.705170 0.389832 0.040771
0.713165 0.389160 0.041138
0.725677 0.394897 0.040558
0.738342 0.402679 0.039490
0.744812 0.404785 0.039307
0.752350 0.405487 0.039398
0.764404 0.406311 0.039673
0.770844 0.409180 0.039276
0.773529 0.411194 0.038910
0.780670 0.416809 0.037933
0.791626 0.424133 0.036652
0.800446 0.428864 0.035980
0.047821 0.197327 0.166168
0.047791 0.202728 0.167328
0.048370 0.207123 0.167999
0.053802 0.214722 0.169281
0.061676 0.228912 0.167450
0.072052 0.240967 0.162598
0.092316 0.257690 0.146759
0.118622 0.267456 0.133545
0.130463 0.269379 0.107147
0.161560 0.262634 0.101227
0.191284 0.255951 0.096313
0.212158 0.253876 0.094177
0.234131 0.254944 0.088593
0.271332 0.271881 0.083496
0.292816 0.277924 0.085358
0.316528 0.285889 0.086823
0.341095 0.293488 0.088959
0.365356 0.301208 0.086426
0.392883 0.309509 0.079987
0.421631 0.317871 0.067657
0.446533 0.323853 0.058380
0.471252 0.330139 0.049896
0.496185 0.337067 0.042267
0.510437 0.341736 0.040100
0.523865 0.345825 0.039978
0.540497 0.349365 0.040131
0.556274 0.352295 0.040619
0.570831 0.355347 0.040863
0.585541 0.361633 0.040649
0.601196 0.366577 0.040436
0.618866 0.371460 0.040497
0.632324 0.376221 0.040192
0.644073 0.380859 0.039886
0.654327 0.384247 0.039764
0.666718 0.388184 0.039520
0.678406 0.392517 0.039185
0.688995 0.396454 0.039001
0.698059 0.400116 0.038544
0.708771 0.404114 0.038147
0.718140 0.404755 0.038330
0.730347 0.406158 0.038544
0.746216 0.414764 0.037323
0.752838 0.418243 0.036774
0.759460 0.420288 0.036560
0.770081 0.420319 0.036896
0.777832 0.422699 0.036591
0.782837 0.426636 0.035858
0.790161 0.432831 0.034760
0.799713 0.440033 0.033508
0.811981 0.448425 0.031860
0.048126 0.213379 0.175446
0.047882 0.220093 0.175903
0.048157 0.224823 0.176178
0.049316 0.228363 0.175903
0.057587 0.246948 0.171204
0.068481 0.263702 0.163177
0.085083 0.277069 0.143799
0.111786 0.286377 0.130981
0.123108 0.288208 0.104065
0.155487 0.282959 0.099426
0.187592 0.275848 0.094574
0.218475 0.268799 0.090851
0.236572 0.269287 0.086090
0.258118 0.271790 0.081299
0.293579 0.289703 0.078583
0.317200 0.298431 0.079193
0.341675 0.307159 0.080292
0.365997 0.313812 0.082611
0.393707 0.321777 0.078644
0.423218 0.330078 0.071198
0.448608 0.336151 0.060394
0.473694 0.342468 0.051117
0.498779 0.349548 0.042816
0.514496 0.354980 0.039368
0.529236 0.359772 0.037964
0.546997 0.364441 0.037994
0.563293 0.367218 0.038391
0.578583 0.370300 0.038818
0.590698 0.376801 0.038147
0.604919 0.381409 0.037933
0.620300 0.384888 0.038055
0.634796 0.388245 0.038116
0.647369 0.392181 0.038025
0.658081 0.395813 0.037720
0.671326 0.399414 0.037506
0.684113 0.403351 0.037354
0.694824 0.407440 0.036926
0.702728 0.410950 0.036469
0.710541 0.414429 0.036102
0.723694 0.419556 0.035461
0.737610 0.422119 0.035431
0.754730 0.425659 0.035309
0.760651 0.431152 0.034302
0.766754 0.434601 0.033813
0.774445 0.437439 0.033295
0.784424 0.440002 0.032990
0.793060 0.444000 0.032349
0.804077 0.452698 0.030792
0.814484 0.460571 0.029114
0.826324 0.469116 0.027405
0.048492 0.226257 0.182373
0.048248 0.232330 0.183167
0.048096 0.239410 0.183777
0.048706 0.244293 0.183929
0.055511 0.263672 0.174438
0.064697 0.282501 0.167694
0.077606 0.295807 0.153595
0.113220 0.304718 0.132935
0.124695 0.306244 0.103424
0.158783 0.301270 0.095551
0.187500 0.294678 0.091614
0.218353 0.286682 0.087738
0.242065 0.285858 0.083832
0.261292 0.286163 0.078308
0.294067 0.299683 0.073975
0.318726 0.308807 0.075592
0.343201 0.317841 0.075958
0.367645 0.324249 0.077820
0.394867 0.332977 0.077301
0.424408 0.341522 0.071899
0.450500 0.348724 0.063751
0.476471 0.356781 0.053223
0.502045 0.364929 0.044281
0.519348 0.370331 0.037689
0.534363 0.375061 0.035614
0.551544 0.379181 0.035645
0.567474 0.381683 0.036011
0.583069 0.384033 0.036499
0.595581 0.387665 0.036285
0.609894 0.394958 0.035675
0.625000 0.399170 0.035553
0.639984 0.402771 0.035431
0.652740 0.405914 0.035583
0.663239 0.409149 0.035278
0.674316 0.411102 0.035339
0.687836 0.415527 0.035065
0.699280 0.421204 0.034210
0.709198 0.424622 0.033875
0.716492 0.428040 0.033447
0.730621 0.434235 0.032562
0.742798 0.437439 0.032349
0.758270 0.439697 0.032318
0.767151 0.444977 0.031494
0.774170 0.449982 0.030487
0.783569 0.453888 0.029846
0.793457 0.458344 0.029053
0.803833 0.462463 0.028564
0.816132 0.471008 0.026733
0.829773 0.478241 0.025299
0.842194 0.486237 0.023621
0.048767 0.239014 0.189148
0.048431 0.244507 0.190002
0.048370 0.251587 0.190765
0.048645 0.259216 0.191803
0.054626 0.279114 0.182434
0.063232 0.299988 0.170380
0.072662 0.313385 0.161316
0.106323 0.322601 0.144501
0.127747 0.324280 0.104553
0.162994 0.319550 0.094879
0.192657 0.313232 0.088531
0.218323 0.305389 0.085297
0.243744 0.304291 0.081207
0.266510 0.303192 0.077271
0.291687 0.306732 0.071136
0.326630 0.325378 0.069519
0.345398 0.328949 0.072906
0.369934 0.335144 0.074463
0.396057 0.343170 0.074158
0.424927 0.353149 0.071503
0.451202 0.360596 0.064789
0.478149 0.368774 0.056152
0.504852 0.379303 0.046082
0.523010 0.385895 0.039429
0.540771 0.390747 0.033203
0.557404 0.394257 0.033234
0.573486 0.397156 0.033447
0.588013 0.398560 0.033905
0.600586 0.400818 0.034027
0.613892 0.405243 0.033844
0.630219 0.412994 0.032959
0.644958 0.416656 0.032898
0.659332 0.421509 0.032532
0.669556 0.424225 0.032288
0.680664 0.426331 0.032410
0.693207 0.429352 0.032318
0.705170 0.436249 0.031281
0.716217 0.440765 0.030609
0.725555 0.443542 0.030426
0.739288 0.449677 0.029480
0.751099 0.453430 0.029022
0.762238 0.454651 0.029083
0.771149 0.459259 0.028320
0.780426 0.464355 0.027344
0.791779 0.469421 0.026550
0.803101 0.475037 0.025574
0.813934 0.480865 0.024292
0.827026 0.489410 0.022461
0.841400 0.496918 0.020905
0.856873 0.503113 0.019745
0.049469 0.255096 0.199219
0.049225 0.258698 0.199554
0.049255 0.265839 0.199799
0.049438 0.275330 0.199738
0.053253 0.293945 0.191467
0.060699 0.314209 0.179688
0.070679 0.330292 0.165833
0.105072 0.340363 0.149445
0.126007 0.343536 0.108856
0.163788 0.339386 0.097748
0.193604 0.333191 0.090881
0.218903 0.325592 0.087067
0.249115 0.324341 0.081238
0.273285 0.322693 0.077118
0.293304 0.319702 0.073730
0.324707 0.333832 0.067627
0.353668 0.347260 0.066528
0.373962 0.350861 0.069855
0.397675 0.357971 0.070465
0.423279 0.366547 0.069397
0.449158 0.372894 0.065399
0.476776 0.379913 0.057251
0.505402 0.387604 0.046417
0.525360 0.396667 0.042358
0.544739 0.402802 0.036743
0.567902 0.407318 0.031342
0.585266 0.412537 0.031097
0.600952 0.416138 0.030945
0.611206 0.417389 0.031219
0.621887 0.420319 0.031097
0.633636 0.425293 0.030609
0.647278 0.428223 0.030670
