for cam/7.night-yejing11.CUBE
#Created by: Adobe Photoshop Export Color Lookup Plugin
TITLE "未标题-3.jpg"
#LUT size
LUT_3D_SIZE 8
#data domain
DOMAIN_MIN 0.0 0.0 0.0
DOMAIN_MAX 1.0 1.0 1.0
#LUT data points
0.055450 0.069366 0.077057
0.118408 0.098755 0.090637
0.228699 0.116821 0.066742
0.341919 0.144043 0.049347
0.460388 0.170532 0.054382
0.570374 0.179596 0.059021
0.661560 0.181427 0.062164
0.730896 0.188202 0.063812
0.049286 0.126434 0.122253
0.131104 0.163788 0.124908
0.281189 0.200653 0.091156
0.440430 0.245544 0.047760
0.548859 0.277863 0.050079
0.647217 0.306274 0.051086
0.722260 0.324005 0.051422
0.775970 0.341339 0.050690
0.048126 0.213379 0.175446
0.111786 0.286377 0.130981
0.293579 0.289703 0.078583
0.473694 0.342468 0.051117
0.590698 0.376801 0.038147
0.684113 0.403351 0.037354
0.760651 0.431152 0.034302
0.826324 0.469116 0.027405
0.050293 0.325714 0.235016
0.129944 0.418762 0.164612
0.309265 0.399872 0.067871
0.479309 0.433197 0.048004
0.639679 0.486450 0.016876
0.747406 0.521851 0.011810
0.830017 0.552185 0.005402
0.910583 0.594238 0.000000
0.046295 0.468781 0.298981
0.094818 0.562592 0.213715
0.333160 0.548340 0.058319
0.490540 0.542816 0.015656
0.661163 0.595398 0.000000
0.784271 0.635986 0.000000
0.886658 0.678528 0.000000
0.913666 0.698425 0.000000
0.041351 0.561462 0.346252
0.053589 0.655762 0.290985
0.347870 0.668365 0.053345
0.526794 0.654755 0.000000
0.717773 0.720886 0.000000
0.809113 0.735474 0.000000
0.899994 0.764221 0.000000
0.912354 0.783478 0.000000
0.033234 0.647858 0.395325
0.025391 0.755005 0.336273
0.359650 0.779938 0.059845
0.565491 0.753693 0.000000
0.703125 0.771057 0.000000
0.849396 0.836182 0.000000
0.905975 0.844330 0.000000
0.911102 0.852478 0.000000
0.024597 0.716766 0.437256
0.072113 0.848511 0.338928
0.403503 0.865051 0.122040
0.587677 0.825043 0.024048
0.727234 0.839020 0.000000
0.835632 0.870667 0.000000
0.910034 0.907867 0.000000
0.910034 0.906921 0.000000
0.058899 0.073608 0.101135
0.102814 0.093079 0.124512
0.180084 0.107544 0.138611
0.314392 0.078766 0.108215
0.474121 0.060455 0.078613
0.578979 0.063812 0.089142
0.651215 0.066284 0.110046
0.708801 0.067810 0.130646
0.049164 0.128357 0.158722
0.102814 0.149872 0.183868
0.242279 0.179230 0.205353
0.408081 0.179230 0.162567
0.564514 0.189606 0.137299
0.701111 0.201324 0.106567
0.799225 0.199615 0.102051
0.874908 0.206055 0.093628
0.051514 0.203583 0.216583
0.071930 0.243011 0.242493
0.247467 0.306488 0.225281
0.470764 0.339081 0.219666
0.641449 0.353760 0.179779
0.761597 0.357788 0.153870
0.849121 0.372162 0.144653
0.921234 0.394501 0.142090
0.058441 0.318085 0.300995
0.073669 0.346252 0.301819
0.226349 0.456940 0.274811
0.474945 0.456207 0.212677
0.666138 0.504852 0.223022
0.799194 0.527222 0.202087
0.893494 0.551819 0.182281
0.926086 0.578552 0.187927
0.064117 0.425995 0.360962
0.061646 0.477234 0.375549
0.220154 0.609863 0.315094
0.454742 0.581696 0.222992
0.654633 0.606812 0.206604
0.800842 0.652924 0.216339
0.912170 0.689270 0.192322
0.924438 0.702301 0.173889
0.062561 0.525513 0.419220
0.053467 0.581360 0.423309
0.226074 0.721497 0.351990
0.492004 0.702515 0.226471
0.660858 0.700806 0.203888
0.803131 0.745850 0.194733
0.903992 0.774658 0.199432
0.926971 0.797852 0.215698
0.057770 0.611084 0.468506
0.043610 0.674713 0.470520
0.249359 0.827087 0.366241
0.524078 0.812439 0.250031
0.688141 0.803894 0.221924
0.827179 0.842804 0.208496
0.911469 0.855438 0.205780
0.927216 0.869476 0.226562
0.055450 0.679810 0.517487
0.041779 0.751801 0.518860
0.313202 0.909729 0.406647
0.552185 0.897522 0.295929
0.702545 0.870789 0.267120
0.815765 0.880524 0.252991
0.925812 0.927612 0.252350
0.928680 0.923218 0.252319
0.068207 0.079010 0.127380
0.106689 0.094757 0.153046
0.161865 0.111603 0.163940
0.263794 0.099884 0.175140
0.417084 0.073944 0.173615
0.542297 0.062286 0.181335
0.626312 0.065399 0.205322
0.703064 0.067627 0.216431
0.053406 0.138123 0.196960
0.086151 0.148041 0.227936
0.195862 0.142883 0.256744
0.351044 0.170929 0.253021
0.538208 0.140869 0.228577
0.689423 0.124420 0.213440
0.797119 0.118713 0.214264
0.887054 0.114410 0.207794
0.059143 0.214447 0.269257
0.074463 0.232513 0.286255
0.206635 0.262054 0.336365
0.450775 0.296387 0.333954
0.633972 0.284485 0.282379
0.759460 0.295349 0.270111
0.847107 0.288513 0.260132
0.917328 0.312317 0.270233
0.063202 0.305023 0.335602
0.067505 0.338074 0.353210
0.216797 0.415131 0.397675
0.471008 0.471985 0.365936
0.683411 0.495544 0.368256
0.805847 0.490814 0.337097
0.894226 0.501617 0.326355
0.938354 0.524933 0.325317
0.065948 0.433167 0.421722
0.067932 0.467499 0.433655
0.190338 0.549683 0.446045
0.411469 0.629425 0.370361
0.654358 0.623505 0.344269
0.815308 0.664062 0.380493
0.928436 0.688080 0.383118
0.942352 0.700500 0.384155
0.070068 0.517487 0.474915
0.071106 0.546997 0.483093
0.155762 0.639679 0.496460
0.422058 0.757324 0.397308
0.649536 0.730743 0.382416
0.805725 0.760193 0.370636
0.923248 0.794891 0.408081
0.943512 0.808105 0.407898
0.072418 0.589539 0.526703
0.072449 0.626770 0.531799
0.163696 0.745056 0.547760
0.434845 0.867523 0.435852
0.661560 0.844238 0.413300
0.797699 0.844788 0.411743
0.915985 0.871124 0.407532
0.942596 0.886841 0.407257
0.073853 0.651978 0.575165
0.071136 0.700256 0.583527
0.180298 0.817871 0.606079
0.479736 0.945435 0.488037
0.688141 0.927948 0.460052
0.818726 0.916046 0.443939
0.929596 0.941254 0.450134
0.945496 0.943390 0.447601
0.073517 0.081146 0.153687
0.110046 0.091553 0.180756
0.173035 0.105408 0.195618
0.234497 0.109558 0.201996
0.363922 0.099121 0.227356
0.510132 0.072723 0.241669
0.601501 0.064514 0.260315
0.683533 0.067108 0.280884
0.056519 0.150970 0.242218
0.087921 0.148315 0.280945
0.207397 0.132202 0.302948
0.305359 0.164124 0.287079
0.457550 0.167786 0.308472
0.617493 0.148438 0.313354
0.730072 0.138275 0.320465
0.815247 0.133636 0.331970
0.065887 0.226044 0.314606
0.096191 0.250763 0.347382
0.192474 0.248749 0.397522
0.380432 0.270294 0.397003
0.569733 0.277527 0.391907
0.726410 0.265137 0.382599
0.831390 0.258240 0.380829
0.916229 0.266266 0.390045
0.071777 0.316376 0.389954
0.074860 0.338226 0.402710
0.207977 0.389496 0.453369
0.415710 0.430023 0.499756
0.664246 0.444214 0.471924
0.800293 0.437805 0.441101
0.893311 0.459656 0.440796
0.949829 0.468292 0.444733
0.071777 0.408875 0.445648
0.070862 0.448944 0.468933
0.170715 0.525238 0.519043
0.391174 0.595062 0.539368
0.663177 0.636566 0.503937
0.825714 0.667542 0.523438
0.934387 0.676819 0.508820
0.953857 0.677673 0.504883
0.071991 0.514923 0.524689
0.071381 0.554840 0.543915
0.136597 0.607361 0.561890
0.411407 0.741791 0.583771
0.643799 0.767334 0.530182
0.813599 0.781464 0.529175
0.934662 0.811920 0.564453
0.958405 0.823578 0.570892
0.072662 0.597351 0.590393
0.073578 0.634979 0.599701
0.150757 0.695099 0.614990
0.414154 0.842651 0.635529
0.648376 0.890076 0.575684
0.799316 0.870514 0.569580
0.921021 0.892487 0.564728
0.958771 0.905884 0.584015
0.074188 0.659424 0.642090
0.074615 0.702789 0.654602
0.196930 0.781525 0.673218
0.454742 0.924042 0.685120
0.660645 0.962006 0.610443
0.812012 0.947388 0.609619
0.913361 0.944916 0.608032
0.959930 0.960022 0.606964
0.074890 0.079041 0.185059
0.113983 0.085236 0.214386
0.188507 0.096588 0.227386
0.243805 0.101776 0.232208
0.332489 0.116394 0.251373
0.465729 0.095490 0.283081
0.568024 0.077515 0.300079
0.651550 0.076447 0.328888
0.059662 0.162140 0.284637
0.096344 0.144958 0.330566
0.222137 0.131592 0.346893
0.325592 0.160492 0.343994
0.413330 0.186249 0.341827
0.558411 0.170624 0.367767
0.668854 0.159149 0.386993
0.758667 0.156219 0.408356
0.070526 0.240631 0.363800
0.111511 0.263611 0.402466
0.203705 0.244629 0.459015
0.386719 0.256866 0.457611
0.504700 0.292236 0.441956
0.663910 0.286804 0.463257
0.766876 0.285187 0.480286
0.854004 0.279785 0.485352
0.079163 0.326202 0.437012
0.092712 0.349945 0.459381
0.227905 0.399841 0.521332
0.414276 0.406006 0.576782
0.588989 0.440948 0.547607
0.748871 0.431580 0.544769
0.862396 0.414795 0.525848
0.947876 0.430511 0.531158
0.081604 0.417786 0.502502
0.080505 0.444550 0.513763
0.180847 0.494080 0.553192
0.417908 0.573364 0.606842
0.636139 0.616608 0.633423
0.820557 0.630646 0.622314
0.928925 0.659363 0.626831
0.964996 0.661346 0.621887
0.082245 0.499634 0.561859
0.077881 0.527344 0.562439
0.147949 0.605194 0.618744
0.418030 0.700897 0.666382
0.634064 0.782257 0.678162
0.823822 0.794006 0.670349
0.936859 0.813599 0.682892
0.968384 0.815430 0.677612
0.080261 0.571259 0.608643
0.075928 0.634094 0.644104
0.139435 0.699921 0.677338
0.417725 0.798950 0.714722
0.651642 0.894348 0.717529
0.804810 0.891144 0.696289
0.932770 0.907684 0.700684
0.970703 0.922577 0.715118
0.080536 0.632355 0.662109
0.074707 0.711487 0.711487
0.150574 0.770050 0.724182
0.447235 0.877899 0.761139
0.666138 0.967072 0.765778
0.816010 0.972534 0.736938
0.913361 0.964691 0.743439
0.965363 0.971649 0.734222
0.072479 0.073273 0.223236
0.123016 0.076691 0.251038
0.206116 0.091156 0.259674
0.273132 0.102936 0.278870
0.336426 0.113922 0.282898
0.422760 0.116455 0.305359
0.522308 0.102142 0.337097
0.606781 0.099884 0.369141
0.067200 0.170319 0.329865
0.111084 0.134888 0.376465
0.247711 0.136780 0.387299
0.342316 0.162323 0.381958
0.419830 0.177094 0.383392
0.510132 0.198608 0.400726
0.626129 0.186249 0.431946
0.709351 0.181549 0.455444
0.075226 0.259796 0.412628
0.126984 0.267242 0.460571
0.226501 0.238922 0.518677
0.402863 0.250610 0.515289
0.509857 0.279755 0.491394
0.603882 0.313141 0.505737
0.719666 0.305969 0.526398
0.794403 0.298828 0.544159
0.086151 0.340027 0.489044
0.115662 0.372101 0.519440
0.250458 0.408661 0.586731
0.420013 0.404388 0.635437
0.594452 0.422485 0.605530
0.686340 0.451141 0.596161
0.805023 0.434814 0.602631
0.899048 0.439575 0.617767
0.088989 0.428009 0.547852
0.088226 0.454773 0.559723
0.215454 0.507233 0.611725
0.433350 0.579193 0.667877
0.620270 0.593903 0.709137
0.764404 0.615021 0.691467
0.899750 0.601105 0.677307
0.963593 0.600586 0.672699
0.089783 0.510254 0.606537
0.086792 0.535706 0.610901
0.152802 0.581726 0.644684
0.431580 0.681885 0.713684
0.658722 0.763336 0.758179
0.805969 0.778046 0.767242
0.937073 0.791962 0.762878
0.976898 0.799713 0.765686
0.089935 0.578949 0.659454
0.083710 0.607697 0.653839
0.139008 0.681488 0.705902
0.422577 0.789703 0.774078
0.645782 0.860474 0.801147
0.812439 0.904480 0.799377
0.929352 0.913116 0.809875
0.980621 0.928497 0.824036
0.088409 0.628204 0.693268
0.083557 0.684540 0.721771
0.142822 0.768951 0.773315
0.451416 0.859589 0.813995
0.663696 0.937958 0.853333
0.832458 0.981628 0.859650
0.925232 0.979858 0.843384
0.971985 0.982544 0.851959
0.078339 0.072510 0.257782
0.142151 0.076294 0.287384
0.220551 0.091217 0.301086
0.291168 0.106018 0.307831
0.352661 0.110596 0.313568
0.423035 0.117737 0.334564
0.494232 0.120361 0.358551
0.574738 0.121857 0.397095
0.078217 0.169983 0.374847
0.134369 0.131409 0.422150
0.271149 0.143311 0.434601
0.366730 0.165833 0.425781
0.439911 0.176636 0.419891
0.524963 0.197296 0.440369
0.590820 0.204773 0.453064
0.675415 0.201965 0.485352
0.081116 0.272736 0.463989
0.147003 0.278473 0.520294
0.248840 0.245911 0.575378
0.432281 0.258026 0.565155
0.547333 0.281006 0.550201
0.611908 0.303955 0.541077
0.677948 0.323181 0.553131
0.758362 0.314819 0.575348
0.090973 0.361084 0.539764
0.138641 0.392975 0.575439
0.275330 0.409058 0.639252
0.446625 0.411804 0.685669
0.606049 0.416748 0.656281
0.680023 0.438232 0.638000
0.757568 0.453156 0.638519
0.843567 0.448334 0.660858
0.095673 0.435547 0.588623
0.099426 0.467072 0.605896
0.262146 0.527527 0.668182
0.448578 0.580902 0.729401
0.635162 0.597168 0.768005
0.745087 0.614166 0.732239
0.834717 0.622894 0.740936
0.930939 0.608856 0.744446
0.096436 0.516479 0.645020
0.094574 0.541565 0.654053
0.199921 0.598572 0.697144
0.466095 0.691162 0.768066
0.674622 0.757812 0.810120
0.794769 0.766174 0.831451
0.896027 0.776794 0.820160
0.977051 0.761475 0.817383
0.096863 0.587708 0.700226
0.091827 0.616486 0.699097
0.161438 0.665131 0.733337
0.429932 0.762756 0.798309
0.664886 0.851440 0.855042
0.822693 0.900116 0.878754
0.937103 0.900330 0.870453
0.986084 0.914215 0.879120
0.098022 0.642273 0.748383
0.092010 0.679749 0.753174
0.173401 0.744934 0.786530
0.477417 0.874451 0.876740
0.689941 0.932587 0.905823
0.846161 0.978546 0.930695
0.944733 0.989777 0.926636
0.985809 0.990326 0.935089
0.102783 0.081757 0.292633
0.167053 0.079193 0.318695
0.239777 0.094879 0.326233
0.308411 0.110779 0.348938
0.368042 0.111359 0.353119
0.431641 0.115662 0.367401
0.505524 0.120819 0.389404
0.545868 0.130493 0.409119
0.091797 0.170532 0.429413
0.195099 0.153992 0.470856
0.300354 0.152527 0.481598
0.388641 0.170258 0.468353
0.475983 0.178406 0.472168
0.533447 0.195099 0.473999
0.599701 0.202362 0.487762
0.640686 0.208466 0.497467
0.087738 0.286804 0.509583
0.168182 0.282257 0.574310
0.309418 0.263641 0.622742
0.466156 0.269745 0.606537
0.562347 0.284271 0.589050
0.617798 0.297058 0.572266
0.683105 0.314728 0.585114
0.718903 0.318329 0.578857
0.095154 0.376984 0.579285
0.163727 0.403046 0.627716
0.293030 0.413300 0.690521
0.475067 0.419373 0.732147
0.615601 0.416809 0.697113
0.686218 0.420776 0.671021
0.751434 0.448395 0.676971
0.806580 0.457550 0.680237
0.101349 0.450287 0.627533
0.115997 0.484009 0.650269
0.302246 0.546204 0.722198
0.471680 0.581970 0.780914
0.653870 0.596191 0.812988
0.761902 0.600220 0.786591
0.823639 0.620361 0.772827
0.889038 0.625000 0.779938
0.103210 0.526733 0.687378
0.100830 0.556213 0.692566
0.246765 0.618866 0.749298
0.512634 0.703522 0.822479
0.680481 0.753693 0.860077
0.809418 0.762024 0.875275
0.876282 0.776947 0.856384
0.944733 0.774414 0.862732
0.103424 0.591766 0.734894
0.099304 0.621948 0.738129
0.164124 0.670319 0.770386
0.455566 0.766113 0.842499
0.690857 0.846832 0.890717
0.837372 0.891785 0.917664
0.917908 0.898956 0.925385
0.987915 0.894379 0.921112
0.103180 0.647461 0.776550
0.096924 0.678528 0.773224
0.169495 0.730469 0.802551
0.453522 0.828003 0.867554
0.662384 0.903931 0.918030
0.840668 0.959076 0.952057
0.940277 0.987885 0.966675
0.992981 0.993317 0.966278
