classic/TFT.cube
#Created by: Adobe Photoshop Export Color Lookup Plugin
#Copyright: (C) Copyright 2026 汉图
TITLE "LED-TFT模拟.psd"
#LUT size
LUT_3D_SIZE 7
#data domain
#LUT data points
DOMAIN_MIN 0.000000 0.000000 0.000000
DOMAIN_MAX 0.909091 0.909091 0.909091
0.098083 0.098694 0.120941
0.166962 0.100067 0.126709
0.348175 0.102966 0.124817
0.548218 0.108551 0.121582
0.740021 0.124329 0.116211
0.891602 0.151581 0.111877
0.962921 0.166321 0.116333
0.099792 0.141449 0.129669
0.164490 0.146942 0.129913
0.333130 0.156311 0.127838
0.540680 0.169922 0.126068
0.738129 0.189697 0.125092
0.894196 0.211487 0.128265
0.970306 0.224426 0.133362
0.101196 0.273163 0.135864
0.156372 0.266815 0.138092
0.372101 0.334778 0.141449
0.551971 0.259125 0.133453
0.738586 0.252502 0.133972
0.891144 0.271271 0.139893
0.974548 0.283783 0.146698
0.102356 0.434235 0.154083
0.137177 0.433258 0.160889
0.234253 0.440887 0.158722
0.631348 0.565216 0.179993
0.773834 0.418976 0.156067
0.886810 0.353485 0.152252
0.977142 0.343231 0.157928
0.102417 0.580688 0.181183
0.116333 0.584656 0.193176
0.191437 0.570862 0.187836
0.479004 0.638763 0.198273
0.801849 0.708618 0.222748
0.931061 0.582642 0.196625
0.978149 0.475433 0.179596
0.101746 0.729797 0.221039
0.112091 0.732544 0.229553
0.133392 0.746826 0.250641
0.428589 0.754303 0.236237
0.766449 0.833344 0.266266
0.904236 0.806152 0.260071
0.972626 0.716400 0.234100
0.099701 0.935669 0.301178
0.103943 0.925568 0.299133
0.154785 0.934570 0.341766
0.494141 0.913605 0.305267
0.770599 0.953491 0.320892
0.928528 0.985413 0.339050
0.964203 0.891479 0.297699
0.101654 0.101044 0.245453
0.173431 0.102509 0.250061
0.387787 0.104401 0.249390
0.608032 0.111816 0.222778
0.748688 0.125854 0.208069
0.897858 0.153961 0.193481
0.963440 0.168152 0.187744
0.100800 0.144135 0.233215
0.169281 0.149384 0.232452
0.327728 0.155609 0.218048
0.553925 0.171387 0.207672
0.773254 0.194275 0.200775
0.947784 0.221466 0.197815
0.970764 0.226105 0.199615
0.101318 0.309174 0.223785
0.160126 0.297180 0.230194
0.295563 0.309326 0.224884
0.581604 0.271973 0.212433
0.777466 0.256897 0.208374
0.949463 0.280853 0.209808
0.975128 0.285461 0.209991
0.103058 0.459625 0.231720
0.140167 0.460144 0.242798
0.220825 0.440704 0.234711
0.600067 0.550537 0.240265
0.787292 0.434967 0.225494
0.956787 0.342560 0.218658
0.977844 0.344940 0.219452
0.104370 0.598389 0.247589
0.120880 0.603821 0.262390
0.198486 0.583008 0.254425
0.457367 0.630371 0.255615
0.799774 0.712158 0.270966
0.925598 0.592041 0.250397
0.981354 0.498047 0.239502
0.104980 0.739716 0.273560
0.118042 0.743744 0.284546
0.139160 0.757965 0.303284
0.413696 0.748169 0.283875
0.755951 0.827026 0.302612
0.907135 0.810364 0.299988
0.977631 0.726349 0.281097
0.104828 0.916382 0.327576
0.111389 0.934387 0.338623
0.154449 0.935455 0.372772
0.486633 0.914185 0.341339
0.766174 0.951569 0.350952
0.933533 0.987732 0.367584
0.969757 0.897430 0.332672
0.104156 0.108459 0.418579
0.170807 0.112579 0.434265
0.392761 0.107941 0.424225
0.620880 0.115356 0.436523
0.868866 0.150269 0.421509
0.955872 0.167725 0.371490
0.963440 0.170044 0.345673
0.104401 0.151337 0.412720
0.169830 0.157745 0.414368
0.328217 0.159271 0.402588
0.591583 0.175812 0.398010
0.831268 0.203125 0.379974
0.961395 0.225281 0.371918
0.970886 0.228180 0.361969
0.105316 0.340302 0.369324
0.156250 0.351868 0.376312
0.254883 0.322388 0.368896
0.532166 0.249481 0.334137
0.753387 0.254547 0.314148
0.927399 0.278320 0.303040
0.975494 0.287079 0.322449
0.104156 0.520752 0.335754
0.129669 0.531769 0.354889
0.223633 0.484589 0.342804
0.528381 0.529175 0.334290
0.769714 0.441376 0.311340
0.923218 0.347656 0.290771
0.978149 0.346558 0.298187
0.105835 0.643646 0.335022
0.124664 0.649414 0.352142
0.194702 0.632416 0.346039
0.397522 0.617645 0.337921
0.788239 0.715668 0.335785
0.915344 0.603607 0.316772
0.982330 0.527557 0.312866
0.107117 0.763092 0.344116
0.122620 0.767914 0.357605
0.143616 0.783447 0.372528
0.363708 0.740753 0.350616
0.721191 0.811676 0.353455
0.905029 0.813629 0.350922
0.982330 0.740387 0.342926
0.108093 0.907501 0.375458
0.117096 0.950653 0.392029
0.139038 0.938019 0.402863
0.445129 0.920258 0.395111
0.739044 0.941437 0.392242
0.932953 0.983795 0.402069
0.974518 0.905731 0.377594
0.106262 0.118591 0.600098
0.141022 0.135559 0.609650
0.398346 0.123413 0.674377
0.631836 0.122467 0.618958
0.842133 0.150299 0.641937
0.959015 0.172699 0.629395
0.960114 0.173889 0.598969
0.106262 0.161591 0.595184
0.129120 0.187775 0.629303
0.268066 0.171936 0.612274
0.598877 0.199127 0.595123
0.824738 0.205688 0.609894
0.968079 0.228943 0.590271
0.968170 0.231140 0.598877
0.112030 0.357483 0.590881
0.134338 0.376465 0.605225
0.239655 0.306213 0.584656
0.549133 0.339661 0.561920
0.781036 0.277283 0.548645
0.956146 0.283875 0.512390
0.974274 0.288818 0.511627
0.109894 0.552460 0.513428
0.132202 0.570862 0.529694
0.211700 0.575165 0.538208
0.469666 0.525360 0.511292
0.736847 0.412964 0.462341
0.907928 0.336121 0.431702
0.977661 0.347839 0.458649
0.107361 0.700226 0.462158
0.129639 0.712067 0.479797
0.164612 0.724548 0.492371
0.368866 0.649414 0.454163
0.764923 0.714447 0.443115
0.904846 0.611786 0.423645
0.982544 0.544678 0.426819
0.108856 0.806274 0.442352
0.127136 0.812317 0.457520
0.148102 0.833221 0.471954
0.278870 0.777557 0.438751
0.657745 0.788269 0.434784
0.897491 0.813477 0.422058
0.984680 0.755646 0.431061
0.110413 0.926697 0.447693
0.123840 0.930939 0.459137
0.143921 0.968689 0.476196
0.299316 0.936218 0.474884
0.676422 0.923309 0.454071
0.918823 0.971222 0.448212
0.978912 0.913818 0.434601
0.103973 0.133575 0.759369
0.125397 0.156982 0.775299
0.277710 0.165405 0.866943
0.669769 0.142853 0.826233
0.816528 0.164154 0.778534
0.958252 0.213226 0.809784
0.965546 0.264313 0.796295
0.105591 0.175476 0.756927
0.127716 0.203217 0.795837
0.187897 0.209686 0.788422
0.607880 0.196320 0.810486
0.803040 0.261841 0.769104
0.965820 0.266449 0.796234
0.970337 0.316467 0.777374
0.117218 0.351959 0.757080
0.139557 0.376465 0.767761
0.193848 0.323059 0.778046
0.493378 0.265381 0.768219
0.771149 0.403107 0.742767
0.971252 0.318604 0.753632
0.973816 0.361420 0.740723
0.119598 0.586731 0.748962
0.141876 0.602264 0.760071
0.164246 0.611053 0.794189
0.429626 0.488007 0.726746
0.730255 0.559296 0.709442
0.922668 0.416138 0.687164
0.976410 0.388092 0.675903
0.115417 0.720612 0.652466
0.137665 0.734619 0.665771
0.160126 0.775879 0.703400
0.361938 0.726257 0.677704
0.724457 0.705933 0.644043
0.896210 0.586884 0.593170
0.981384 0.544739 0.603210
0.111816 0.848358 0.594666
0.134003 0.858246 0.608551
0.155396 0.903473 0.631653
0.266907 0.855804 0.602112
0.597870 0.790710 0.578094
0.888000 0.816101 0.538391
0.984436 0.769257 0.561066
0.112488 0.956940 0.553223
0.129761 0.962860 0.565582
0.151245 0.966400 0.581146
0.171204 0.982513 0.582245
0.570923 0.930969 0.553467
0.880035 0.951569 0.522430
0.983765 0.922272 0.509186
0.098083 0.158813 0.900574
0.114563 0.182739 0.934052
0.138580 0.228943 1.000000
0.605286 0.181793 0.990051
0.866089 0.206238 0.983948
0.950958 0.236572 0.954346
0.970367 0.482147 0.936798
0.100922 0.195343 0.909882
0.122589 0.223114 0.939117
0.143555 0.249298 0.965485
0.505646 0.230682 1.000000
0.847931 0.302826 0.971527
0.962372 0.327484 0.945679
0.972900 0.582153 0.940704
0.121979 0.367432 0.914764
0.144318 0.391998 0.923248
0.161346 0.347809 0.956421
0.376251 0.277405 0.934082
0.800964 0.387451 0.951904
0.955719 0.466217 0.922516
0.974396 0.620331 0.927002
0.127380 0.572998 0.911987
0.149719 0.591827 0.920563
0.172211 0.585938 0.963104
0.376831 0.479858 0.913971
0.723541 0.483368 0.918793
0.925140 0.611389 0.895477
0.976013 0.649567 0.902771
0.128845 0.770081 0.904694
0.151154 0.782288 0.913574
0.174347 0.810883 0.950623
0.217438 0.749542 0.938599
0.643372 0.652496 0.871368
0.897522 0.721100 0.868744
0.978088 0.674438 0.857635
0.122498 0.859833 0.797028
0.144836 0.871002 0.807434
0.166138 0.880951 0.816803
0.193268 0.903107 0.861481
0.582153 0.857971 0.827271
0.876221 0.832153 0.792114
0.981964 0.771881 0.761566
0.117767 0.966919 0.729980
0.140076 0.977142 0.741577
0.161316 0.986877 0.751587
0.182526 0.996582 0.766357
0.447205 0.980865 0.720673
0.801147 0.935760 0.687500
0.984375 0.928406 0.655457
0.098083 0.189575 0.988007
0.118439 0.211304 1.000000
0.143219 0.234589 1.000000
0.512970 0.187378 0.994110
0.812561 0.255951 0.994904
0.961121 0.407013 1.000000
0.961639 0.495392 1.000000
0.107910 0.229248 1.000000
0.135162 0.255798 1.000000
0.158051 0.274902 1.000000
0.414551 0.248779 1.000000
0.781036 0.316467 1.000000
0.956726 0.507233 1.000000
0.962006 0.578644 1.000000
0.144989 0.395691 1.000000
0.173737 0.419800 1.000000
0.192383 0.390289 1.000000
0.286926 0.335480 1.000000
0.720612 0.381348 1.000000
0.949249 0.611725 1.000000
0.962402 0.672180 1.000000
0.164734 0.584839 1.000000
0.197937 0.603668 1.000000
0.223450 0.582306 1.000000
0.340759 0.524231 1.000000
0.618439 0.446686 1.000000
0.928345 0.667023 1.000000
0.962952 0.756348 1.000000
0.184509 0.748535 1.000000
0.224152 0.759491 1.000000
0.261230 0.766846 1.000000
0.300995 0.729218 1.000000
0.601349 0.641907 1.000000
0.884949 0.706390 1.000000
0.963928 0.829102 1.000000
0.221039 0.906097 1.000000
0.274780 0.911316 1.000000
0.324951 0.915588 1.000000
0.350250 0.887634 1.000000
0.563965 0.844269 1.000000
0.809052 0.799011 1.000000
0.965820 0.890137 1.000000
0.131805 0.973358 0.943634
0.154114 0.983521 0.952271
0.175446 0.993286 0.960663
0.220795 1.000000 0.995728
0.515930 0.989532 1.000000
0.783386 0.972473 0.995605
0.975922 0.954102 0.983002
