classic/TFT.cube
#Created by: Adobe Photoshop Export Color Lookup Plugin
#Copyright: (C) Copyright 2026 汉图
TITLE "LED-TFT模拟.psd"
#LUT size
LUT_3D_SIZE 34
#data domain
DOMAIN_MIN 0.0 0.0 0.0
DOMAIN_MAX 1.0 1.0 1.0
#LUT data points
0.098083 0.098694 0.120941
0.110657 0.098877 0.127472
0.123993 0.099792 0.127045
0.139282 0.099365 0.127380
0.152161 0.100189 0.127350
0.166962 0.100067 0.126709
0.194885 0.100220 0.126526
0.232056 0.100708 0.125824
0.268799 0.101746 0.125824
0.307922 0.102417 0.125153
0.348175 0.102966 0.124817
0.386292 0.103973 0.124207
0.426422 0.104523 0.123749
0.466309 0.105957 0.122864
0.507172 0.107147 0.122498
0.548218 0.108551 0.121582
0.588379 0.110168 0.121155
0.628021 0.112396 0.119843
0.666840 0.114594 0.118927
0.704773 0.119080 0.117279
0.740021 0.124329 0.116211
0.773193 0.129761 0.114441
0.804443 0.134888 0.114380
0.833954 0.140686 0.112823
0.863098 0.146027 0.112122
0.891602 0.151581 0.111877
0.919617 0.157043 0.112854
0.947449 0.162720 0.113892
0.957947 0.164612 0.114899
0.962921 0.165771 0.115967
0.962921 0.166321 0.116333
0.962982 0.166748 0.116394
0.963074 0.167023 0.116058
0.963043 0.167603 0.115875
0.098083 0.098694 0.120941
0.110443 0.098694 0.127258
0.124939 0.098907 0.127228
0.137695 0.099823 0.127289
0.151947 0.100006 0.127136
0.165527 0.100433 0.126587
0.192078 0.100525 0.126312
0.228790 0.101105 0.125824
0.266785 0.101318 0.126129
0.306366 0.101746 0.125854
0.346619 0.102753 0.124756
0.384399 0.104279 0.124176
0.424011 0.107025 0.123077
0.464874 0.109650 0.123413
0.505554 0.113129 0.122314
0.546631 0.116394 0.121582
0.586884 0.120331 0.120697
0.627197 0.124146 0.120605
0.666260 0.128845 0.119293
0.704163 0.133362 0.119019
0.739716 0.138641 0.117126
0.772919 0.143799 0.116638
0.804108 0.149200 0.115021
0.834229 0.154205 0.114899
0.863312 0.159424 0.114594
0.892151 0.164459 0.115204
0.920502 0.169556 0.116272
0.948486 0.174866 0.117188
0.959076 0.177063 0.118713
0.964142 0.177979 0.120056
0.964539 0.178528 0.120239
0.964630 0.178772 0.120483
0.964600 0.179260 0.120270
0.964691 0.179749 0.119812
0.098083 0.101135 0.124969
0.109314 0.102661 0.127472
0.122772 0.103882 0.127167
0.137268 0.104492 0.127441
0.150635 0.105621 0.127106
0.165924 0.105774 0.126709
0.192261 0.107361 0.126892
0.229675 0.109100 0.126892
0.266907 0.111420 0.125916
0.305756 0.113800 0.125244
0.344238 0.115753 0.125244
0.382355 0.118439 0.124634
0.422394 0.120941 0.124481
0.463318 0.123901 0.123413
0.504669 0.126801 0.123108
0.545837 0.129913 0.123535
0.586395 0.133911 0.122040
0.626190 0.138184 0.121460
0.665771 0.142487 0.120697
0.703369 0.147491 0.119232
0.738861 0.152466 0.118591
0.772675 0.157349 0.117615
0.804352 0.161987 0.117249
0.834534 0.166870 0.117218
0.864166 0.171295 0.118591
0.892944 0.176422 0.118652
0.921265 0.181549 0.119629
0.949402 0.186676 0.120880
0.960480 0.188416 0.122253
0.965485 0.189484 0.122864
0.966125 0.189880 0.124817
0.966217 0.190338 0.124878
0.966309 0.190582 0.125122
0.966309 0.191101 0.125000
0.098297 0.114502 0.128021
0.107819 0.117004 0.128448
0.122528 0.117584 0.128662
0.135773 0.118835 0.128418
0.151581 0.118683 0.128967
0.164459 0.120026 0.128235
0.189117 0.121185 0.127991
0.229004 0.123077 0.127502
0.268097 0.124603 0.127350
0.303986 0.127106 0.126556
0.341522 0.129395 0.126526
0.380432 0.131866 0.125793
0.420868 0.134308 0.125519
0.461456 0.137207 0.125153
0.502777 0.140350 0.124603
0.543610 0.144318 0.122894
0.584686 0.147888 0.122650
0.624664 0.152069 0.121552
0.664917 0.155945 0.121429
0.702820 0.160522 0.121063
0.738953 0.165070 0.120728
0.772797 0.169495 0.120483
0.804596 0.173950 0.120789
0.834991 0.178650 0.121155
0.864716 0.183258 0.121277
0.893738 0.187927 0.122437
0.922028 0.192932 0.123962
0.950378 0.197723 0.125610
0.961884 0.199738 0.125977
0.966675 0.200928 0.126190
0.967712 0.201263 0.126770
0.967773 0.201630 0.126801
0.967896 0.201904 0.127686
0.967987 0.202362 0.128418
0.098816 0.128235 0.128540
0.107788 0.130432 0.129303
0.122528 0.131104 0.129578
0.136963 0.131622 0.129761
0.150299 0.132812 0.129425
0.167938 0.132996 0.129089
0.179626 0.133514 0.129211
0.224152 0.135895 0.128662
0.262878 0.138153 0.128113
0.300568 0.140320 0.128113
0.338989 0.142426 0.127899
0.377350 0.145447 0.125946
0.417847 0.147858 0.126312
0.459564 0.150269 0.126465
0.500671 0.153748 0.125122
0.541870 0.157593 0.124298
0.583466 0.160858 0.124207
0.624298 0.164551 0.123657
0.664276 0.168457 0.123901
0.702362 0.173248 0.122772
0.738831 0.177094 0.123444
0.772858 0.181427 0.123230
0.804626 0.186096 0.123505
0.835144 0.190552 0.123932
0.865051 0.195068 0.124390
0.894196 0.199646 0.125397
0.922577 0.204559 0.127136
0.950867 0.209290 0.129120
0.962891 0.211121 0.130371
0.967773 0.212341 0.130157
0.969055 0.212860 0.130127
0.969055 0.213379 0.129425
0.969147 0.213684 0.129730
0.969147 0.214172 0.129578
0.099792 0.141449 0.129669
0.109131 0.143219 0.130005
0.122650 0.144501 0.129761
0.135681 0.145813 0.130127
0.148987 0.147003 0.129791
0.164490 0.146942 0.129913
0.231812 0.150269 0.129883
0.223328 0.149780 0.129211
0.254974 0.151489 0.129120
0.293060 0.153534 0.128571
0.333130 0.156311 0.127838
0.374237 0.158203 0.128265
0.414703 0.160980 0.127014
0.456177 0.164032 0.126526
0.498596 0.166840 0.126556
0.540680 0.169922 0.126068
0.582153 0.173492 0.125854
0.622925 0.177399 0.125732
0.663055 0.181335 0.125519
0.701874 0.185333 0.125153
0.738129 0.189697 0.125092
0.772430 0.193756 0.125275
0.804535 0.197998 0.126160
0.834869 0.202698 0.126190
0.864960 0.206940 0.127014
0.894196 0.211487 0.128265
0.922760 0.216339 0.130035
0.951141 0.220917 0.131958
0.963715 0.223083 0.132751
0.968842 0.223755 0.133850
0.970306 0.224426 0.133362
0.970306 0.224915 0.133240
0.970367 0.225250 0.133240
0.970398 0.225800 0.132629
0.099945 0.155060 0.130432
0.107574 0.157349 0.130890
0.122253 0.157928 0.131104
0.135559 0.159149 0.130890
0.150146 0.159668 0.131073
0.162872 0.160858 0.131439
0.199982 0.165466 0.130524
0.276123 0.183990 0.130493
0.282196 0.166901 0.129211
0.300140 0.167542 0.129120
0.332367 0.169128 0.129211
0.370850 0.171356 0.128967
0.410706 0.174133 0.128326
0.452972 0.177002 0.127594
0.496155 0.179626 0.127838
0.538177 0.182983 0.127502
0.580505 0.186188 0.127380
0.621460 0.190247 0.126556
0.662018 0.194000 0.126678
0.700745 0.197784 0.127563
0.737183 0.201965 0.127686
0.771240 0.206146 0.127869
0.803619 0.210236 0.127899
0.834564 0.214661 0.128448
0.864563 0.218811 0.130280
0.893890 0.223267 0.131592
0.922577 0.228119 0.132416
0.951172 0.232544 0.135162
0.964569 0.234711 0.136200
0.969543 0.235596 0.136780
0.971313 0.236176 0.136627
0.971405 0.236511 0.136719
0.971436 0.237061 0.136078
0.971497 0.237427 0.136108
0.099670 0.173523 0.130371
0.107483 0.173553 0.131439
0.121857 0.172424 0.131378
0.136566 0.171875 0.131958
0.149170 0.173828 0.131683
0.163300 0.177002 0.131683
0.176971 0.186066 0.132019
0.239136 0.203583 0.131866
0.322083 0.226044 0.132385
0.341003 0.199524 0.130890
0.349335 0.183868 0.129211
0.378876 0.185059 0.130219
0.415649 0.187653 0.128876
0.455597 0.190552 0.128448
0.496216 0.193481 0.128265
0.537476 0.196198 0.128448
0.578400 0.199432 0.127686
0.619751 0.202789 0.128143
0.660370 0.206757 0.127869
0.699066 0.210754 0.128357
0.735992 0.214203 0.129120
0.770233 0.218506 0.129333
0.802612 0.222382 0.130615
0.833649 0.226654 0.131378
0.864105 0.230713 0.132751
0.893555 0.235138 0.134216
0.922424 0.239746 0.135254
0.951050 0.244171 0.137848
0.965179 0.246643 0.138611
0.970245 0.247375 0.139679
0.972382 0.247864 0.139282
0.972290 0.248505 0.138885
0.972382 0.248840 0.138916
0.972443 0.249207 0.139008
0.100555 0.204987 0.132019
0.105713 0.205048 0.133789
0.119751 0.204071 0.133362
0.133789 0.202271 0.133331
0.147003 0.203003 0.133026
0.162201 0.203857 0.133270
0.175110 0.210571 0.133179
0.206451 0.224274 0.134125
0.280853 0.244476 0.134491
0.368805 0.270813 0.135132
0.395691 0.242737 0.133148
0.399414 0.214569 0.131195
0.425995 0.203918 0.130157
0.462158 0.203827 0.129669
0.501892 0.206665 0.129425
0.542358 0.209686 0.129517
0.582703 0.212921 0.129211
0.622192 0.215973 0.129578
0.661072 0.219543 0.129761
0.698730 0.223175 0.130066
0.734406 0.226959 0.130524
0.768768 0.230713 0.131042
0.801117 0.234802 0.132141
0.832520 0.238892 0.133148
0.862946 0.243164 0.133698
0.892731 0.247345 0.135406
0.921997 0.251526 0.138245
0.950592 0.256012 0.140533
0.965851 0.258392 0.141632
0.970886 0.259155 0.142487
0.973145 0.259949 0.141876
0.973206 0.260315 0.141968
0.973206 0.260742 0.141876
0.973236 0.261139 0.141785
0.100922 0.238464 0.134369
0.103394 0.239075 0.135284
0.117615 0.237854 0.135406
0.130981 0.236176 0.135376
0.144196 0.234711 0.136200
0.158203 0.235443 0.135620
0.173737 0.238281 0.135162
0.186432 0.247833 0.135803
0.246307 0.265381 0.135986
0.324585 0.288879 0.137054
0.417450 0.316772 0.139343
0.447540 0.286407 0.135742
0.453827 0.253479 0.133057
0.475555 0.237213 0.131622
0.507629 0.227539 0.130859
0.546936 0.224182 0.130402
0.587311 0.226105 0.130890
0.626434 0.229218 0.131317
0.665039 0.232697 0.131439
0.701233 0.236206 0.131531
0.735901 0.239624 0.132294
0.768799 0.243378 0.132904
0.800690 0.246979 0.133728
0.831512 0.251038 0.134552
0.861847 0.255066 0.136536
0.891724 0.259277 0.138184
0.921204 0.263397 0.140167
0.950012 0.267853 0.142578
0.966248 0.270325 0.144287
0.971405 0.271179 0.144653
0.973938 0.271729 0.145081
0.973938 0.272186 0.144836
0.973999 0.272552 0.144318
0.973938 0.273163 0.144043
0.101196 0.273163 0.135864
0.102753 0.273315 0.137207
0.115753 0.272614 0.138184
0.128113 0.271240 0.138702
0.141754 0.268707 0.138519
0.156372 0.266815 0.138092
0.171082 0.267975 0.137848
0.186310 0.274078 0.137756
0.219299 0.287415 0.138428
0.287781 0.308502 0.139038
0.372101 0.334778 0.141449
0.465485 0.361969 0.143555
0.494995 0.328491 0.140228
0.513702 0.297546 0.136932
0.524719 0.272308 0.134308
0.551971 0.259125 0.133453
0.590576 0.253357 0.132935
0.629578 0.249207 0.132935
0.668213 0.246460 0.132263
0.704529 0.249207 0.132904
0.738586 0.252502 0.133972
0.770386 0.256012 0.134796
0.801575 0.259399 0.135895
0.831848 0.263245 0.136749
0.861755 0.267212 0.138062
0.891144 0.271271 0.139893
0.920349 0.275299 0.142029
0.949097 0.279694 0.145111
0.966705 0.282227 0.146667
0.971771 0.283081 0.146881
0.974548 0.283783 0.146698
0.974640 0.284149 0.146820
0.974609 0.284607 0.146576
0.974731 0.285034 0.146240
0.101685 0.307892 0.139343
0.102539 0.307739 0.139923
0.110382 0.309052 0.142578
0.126434 0.306183 0.141479
0.139618 0.303711 0.141663
0.153687 0.299866 0.141205
0.169159 0.299103 0.140717
0.183990 0.302277 0.140808
0.196716 0.311829 0.141632
0.259399 0.329407 0.142334
0.332581 0.352936 0.143494
0.423401 0.381989 0.146301
0.509705 0.402618 0.148651
0.539246 0.369080 0.144623
0.564972 0.338928 0.141541
0.573303 0.308228 0.138184
0.598724 0.292328 0.136841
0.631775 0.283234 0.136414
0.669403 0.277924 0.135468
0.705841 0.273010 0.135315
0.740082 0.268768 0.135895
0.772369 0.268799 0.135742
0.802795 0.272217 0.137207
0.832550 0.275848 0.138641
0.862061 0.279266 0.140564
0.890991 0.283234 0.142303
0.919739 0.287354 0.144135
0.948456 0.291260 0.147156
0.967163 0.294098 0.148712
0.972107 0.295166 0.148590
0.975220 0.295746 0.148895
0.975311 0.296051 0.148987
0.975342 0.296448 0.148987
0.975311 0.296906 0.148743
0.101776 0.340881 0.142609
0.102356 0.340332 0.141907
0.107819 0.342957 0.145905
0.122620 0.340881 0.145905
0.135223 0.339294 0.146240
0.149841 0.335052 0.145844
0.166199 0.330811 0.143982
0.179382 0.333069 0.144623
0.195068 0.339264 0.144379
0.234528 0.351929 0.144745
0.301880 0.372894 0.146179
0.381317 0.398438 0.148529
0.476624 0.429565 0.153259
0.552704 0.441681 0.154999
0.580292 0.406677 0.149994
0.608795 0.377411 0.146149
0.626038 0.346771 0.142639
0.643036 0.325592 0.140808
0.670654 0.313416 0.139923
0.705994 0.305908 0.139008
0.739868 0.298920 0.139160
0.772308 0.293365 0.138916
0.803833 0.288818 0.139954
0.833832 0.288239 0.139923
0.862427 0.291870 0.142334
0.890900 0.295502 0.143768
0.919281 0.299316 0.146301
0.947510 0.303223 0.148804
0.967346 0.306274 0.150482
0.972412 0.306976 0.151276
0.975739 0.307617 0.151672
0.975739 0.308044 0.151459
0.975861 0.308411 0.151031
0.975830 0.308868 0.150848
0.102020 0.372437 0.146027
0.101990 0.371704 0.144531
0.106598 0.374481 0.149078
0.117432 0.374420 0.150726
0.132996 0.371460 0.150024
0.146790 0.369354 0.150146
0.161804 0.364563 0.148529
0.177673 0.362793 0.147552
0.191956 0.367096 0.148315
0.210999 0.377655 0.149048
0.275696 0.394379 0.149445
0.348083 0.416992 0.151276
0.432709 0.444153 0.155121
0.530731 0.476715 0.160736
0.593750 0.478546 0.161713
0.617615 0.441742 0.155670
0.650604 0.413818 0.151672
0.677734 0.384583 0.147858
0.684937 0.357819 0.144409
0.707794 0.342285 0.143066
0.739105 0.332794 0.143066
0.770844 0.324677 0.142975
0.802399 0.317719 0.142822
0.833221 0.311340 0.143616
0.862732 0.307159 0.144196
0.891083 0.307526 0.146027
0.918793 0.311401 0.147766
0.946625 0.315094 0.151093
0.967590 0.318024 0.153107
0.972656 0.318878 0.153320
0.976318 0.319458 0.153564
0.976379 0.319855 0.153534
0.976379 0.320282 0.153320
0.976379 0.320709 0.153168
0.102173 0.403564 0.149628
0.102203 0.402893 0.148895
0.106232 0.405243 0.152924
0.114105 0.406097 0.155548
0.128723 0.403687 0.154755
0.142975 0.400879 0.154755
0.157562 0.398499 0.153961
0.173706 0.393341 0.152313
0.188416 0.395813 0.152283
0.202026 0.403870 0.153564
0.252899 0.415863 0.152924
0.320282 0.436646 0.155304
0.397766 0.461243 0.158356
0.486511 0.489746 0.162933
0.581787 0.521759 0.169647
0.632538 0.513245 0.169403
0.652161 0.474121 0.161865
0.689606 0.451050 0.158722
0.726868 0.420258 0.154541
0.727692 0.388947 0.149750
0.744049 0.370331 0.147858
0.769806 0.359131 0.147339
0.800476 0.349091 0.147278
0.830719 0.340576 0.147369
0.860596 0.333191 0.147888
0.890015 0.327209 0.148468
0.918304 0.323334 0.149780
0.945679 0.326965 0.152679
0.967773 0.330017 0.154755
0.972900 0.330688 0.155731
0.976746 0.331299 0.155945
0.976776 0.331757 0.155884
0.976776 0.332184 0.155731
0.976776 0.332672 0.155426
0.102356 0.434235 0.154083
0.102295 0.433533 0.153259
0.105621 0.435425 0.156738
0.110229 0.437714 0.161224
0.124664 0.435486 0.161194
0.137177 0.433258 0.160889
0.152069 0.434967 0.160217
0.169556 0.426117 0.158020
0.185425 0.424438 0.156494
0.199280 0.430054 0.157806
0.234253 0.440887 0.158722
0.296051 0.456635 0.158936
0.367859 0.479004 0.162262
0.449677 0.504883 0.166046
0.540833 0.534851 0.172607
0.631348 0.565216 0.179993
0.669434 0.545807 0.176178
0.688690 0.508453 0.169495
0.725983 0.486053 0.166046
0.762146 0.455841 0.161743
0.773834 0.418976 0.156067
0.779327 0.396881 0.152191
0.799561 0.383575 0.151672
0.828369 0.372772 0.151398
0.857666 0.362549 0.151520
0.886810 0.353485 0.152252
0.915649 0.346252 0.152893
0.944031 0.340576 0.154755
0.967926 0.341888 0.157074
0.973083 0.342590 0.157501
0.977142 0.343231 0.157928
0.977142 0.343658 0.157745
0.977142 0.344116 0.157410
0.977234 0.344421 0.157593
0.102417 0.464233 0.158813
0.102325 0.463562 0.158691
0.105255 0.465271 0.161011
0.109741 0.467377 0.165070
0.118683 0.467438 0.167267
0.133270 0.464355 0.166901
0.145569 0.471039 0.168335
0.164886 0.458862 0.164337
0.179993 0.454193 0.161926
0.195007 0.457275 0.162720
0.214203 0.465942 0.163361
0.274536 0.478302 0.164124
0.341614 0.498199 0.166443
0.418091 0.522034 0.169708
0.503876 0.548492 0.175568
0.595276 0.578430 0.182495
0.677979 0.606140 0.190430
0.704285 0.576416 0.184082
0.722748 0.540588 0.176178
0.758606 0.519531 0.173492
0.792755 0.489807 0.168610
0.816071 0.454041 0.163849
0.816528 0.421539 0.158142
0.829712 0.407013 0.156769
0.855133 0.394653 0.156067
0.883606 0.383148 0.156586
0.911926 0.372467 0.157074
0.940094 0.363922 0.158295
0.968079 0.356781 0.159119
0.973175 0.356445 0.159698
0.977600 0.356476 0.160095
0.977600 0.355804 0.159912
0.977600 0.355804 0.159332
0.977570 0.356323 0.158997
0.102325 0.493927 0.163788
0.102356 0.492981 0.163635
0.104797 0.493958 0.165863
0.109222 0.496368 0.170135
0.113647 0.498016 0.173492
0.127502 0.495422 0.173553
0.140320 0.500854 0.174622
0.157471 0.494781 0.172577
0.175598 0.485291 0.168518
0.191833 0.484314 0.167358
0.205811 0.491028 0.169342
0.257996 0.501892 0.169464
0.320068 0.517090 0.170807
0.391510 0.538544 0.174164
0.471558 0.562897 0.178619
0.557861 0.590149 0.184937
0.647339 0.619965 0.193726
0.712036 0.633698 0.198700
0.736694 0.604950 0.191956
0.753571 0.570831 0.183868
0.788696 0.551117 0.181000
0.821686 0.522339 0.176910
0.852966 0.488586 0.171661
0.856140 0.454437 0.166290
0.861694 0.430878 0.162659
0.880615 0.414764 0.161316
0.908203 0.402008 0.161072
0.935913 0.389984 0.161499
0.963654 0.379700 0.162537
0.973389 0.376709 0.163269
0.978180 0.376465 0.163116
0.978119 0.375305 0.162933
0.978088 0.374359 0.162323
0.978088 0.373352 0.162292
0.102448 0.522614 0.169312
0.102417 0.521942 0.168915
0.104218 0.522736 0.170807
0.108765 0.524841 0.174042
0.113159 0.526520 0.178497
0.121521 0.526062 0.180542
0.136536 0.525085 0.179932
0.149872 0.530060 0.180695
0.168732 0.517395 0.176422
0.187256 0.512115 0.173492
0.202393 0.515839 0.174713
0.241577 0.525909 0.175659
0.300995 0.537689 0.176544
0.368225 0.557251 0.178894
0.443817 0.579651 0.183167
0.526733 0.604492 0.188721
0.612518 0.631653 0.196045
0.695709 0.660004 0.205261
0.743774 0.659821 0.206512
0.764954 0.630829 0.199554
0.782593 0.599213 0.192078
0.816559 0.580627 0.188690
0.848846 0.553345 0.184662
0.882568 0.521149 0.179871
0.892548 0.487366 0.174500
0.892609 0.462128 0.169983
0.904816 0.441833 0.167816
0.931885 0.423126 0.166534
0.959137 0.405396 0.166168
0.973328 0.399139 0.166229
0.978485 0.398163 0.166382
0.978668 0.396759 0.166229
0.978668 0.395294 0.165924
0.978638 0.393799 0.165649
0.102356 0.551483 0.175018
0.102448 0.550903 0.174347
0.103729 0.551300 0.175232
0.108185 0.553345 0.179504
0.112518 0.554932 0.183594
0.116974 0.556030 0.187408
0.129761 0.553467 0.187653
0.141449 0.564758 0.189789
0.161804 0.551819 0.185059
0.181427 0.542511 0.180878
0.197937 0.542053 0.181183
0.226654 0.550629 0.182068
0.286652 0.561249 0.181763
0.349487 0.577301 0.184143
0.421356 0.597809 0.188141
0.500549 0.620758 0.193176
0.583344 0.645477 0.199615
0.666321 0.672516 0.208557
0.740631 0.697296 0.217377
0.773712 0.684601 0.214569
0.788269 0.652710 0.205780
0.809845 0.626282 0.199524
0.842651 0.608551 0.197021
0.874634 0.583344 0.192322
0.907440 0.552124 0.188385
0.925049 0.518890 0.183105
0.923828 0.493347 0.177490
0.932007 0.471771 0.174561
0.954437 0.453217 0.173706
0.973297 0.437531 0.172699
0.978424 0.430969 0.171997
0.979340 0.425842 0.171356
0.979218 0.420746 0.170227
0.979065 0.416168 0.169037
0.102417 0.580688 0.181183
0.102356 0.579987 0.181061
0.103088 0.579926 0.181549
0.107483 0.582184 0.185486
0.111969 0.583740 0.189026
0.116333 0.584656 0.193176
0.121338 0.584839 0.196625
0.132629 0.599213 0.200012
0.152008 0.587006 0.195221
0.173096 0.575378 0.190308
0.191437 0.570862 0.187836
0.211334 0.576355 0.188965
0.273499 0.586090 0.188568
0.333527 0.598816 0.190216
0.403198 0.618011 0.193756
0.479004 0.638763 0.198273
0.558228 0.661255 0.204529
0.638855 0.686157 0.211853
0.717682 0.711700 0.221283
0.781738 0.732788 0.229675
0.801849 0.708618 0.222748
0.810272 0.673370 0.212616
0.835754 0.652405 0.207794
0.867493 0.635498 0.204773
0.898773 0.612244 0.200958
0.931061 0.582642 0.196625
0.954590 0.549469 0.191101
0.954803 0.524200 0.186646
0.959412 0.501984 0.182709
0.972870 0.484619 0.180603
0.978149 0.475433 0.179596
0.980011 0.469482 0.178467
0.980011 0.464996 0.177216
0.979858 0.459534 0.175873
0.102325 0.610168 0.187927
0.102325 0.609863 0.187500
0.102356 0.609222 0.187531
0.106781 0.611145 0.191559
0.111206 0.612762 0.195557
0.115570 0.613861 0.199615
0.119965 0.614319 0.203247
0.123810 0.633972 0.210358
0.142426 0.622284 0.206055
0.162476 0.611389 0.201263
0.184265 0.601990 0.197144
0.200409 0.603455 0.197144
0.262939 0.612091 0.196167
0.322296 0.623047 0.197083
0.388367 0.639282 0.199890
0.461517 0.658569 0.204102
0.538269 0.679169 0.209717
0.616272 0.701385 0.216736
0.692474 0.724304 0.224823
0.763428 0.747986 0.234192
0.809692 0.755127 0.237823
0.828217 0.731476 0.230957
0.831665 0.693634 0.219177
0.860291 0.677979 0.215973
0.890961 0.661713 0.212860
0.921692 0.640228 0.209259
0.953613 0.612183 0.204895
0.960876 0.582458 0.198792
0.966583 0.558167 0.194336
0.972198 0.535767 0.190308
0.977570 0.519684 0.187744
0.980621 0.512299 0.186554
0.980530 0.508453 0.185425
0.980469 0.503784 0.184479
0.102203 0.639740 0.195679
0.102234 0.639465 0.194855
0.102203 0.638947 0.194733
0.106049 0.640411 0.198303
0.110413 0.642151 0.202057
0.114807 0.643066 0.206299
0.119263 0.643921 0.209717
0.122894 0.666229 0.218109
0.128876 0.658600 0.218506
0.150848 0.647491 0.213257
0.172852 0.637299 0.208466
0.193024 0.632904 0.206604
0.253540 0.639252 0.204529
0.313599 0.648987 0.204498
0.376495 0.662231 0.206665
0.447845 0.679993 0.210876
0.521973 0.699097 0.215851
0.597656 0.718994 0.222473
0.672455 0.740082 0.229858
0.743805 0.762573 0.238922
0.804291 0.782166 0.247437
0.836090 0.776672 0.246429
0.849091 0.750977 0.238037
0.855713 0.717163 0.227325
0.883575 0.702911 0.224426
0.913086 0.687317 0.221588
0.943268 0.667725 0.217957
0.959412 0.641083 0.212402
0.965302 0.613983 0.206421
0.971100 0.591309 0.201508
0.976685 0.569489 0.197601
0.981018 0.553558 0.194733
0.980927 0.549927 0.193695
0.980927 0.546082 0.192627
0.102081 0.669556 0.203339
0.102112 0.669189 0.202820
0.102020 0.668671 0.202698
0.105255 0.669769 0.205597
0.109619 0.671478 0.209167
0.114014 0.672607 0.213226
0.118408 0.673401 0.217041
0.121918 0.698486 0.226318
0.126526 0.691376 0.227295
0.136536 0.684082 0.227264
0.159058 0.674408 0.221802
0.181854 0.666199 0.218109
0.245758 0.667542 0.213257
0.306702 0.676086 0.213379
0.368439 0.686829 0.214661
0.437500 0.703308 0.218689
0.509796 0.719971 0.223083
0.583435 0.738770 0.228790
0.656494 0.758087 0.236023
0.725983 0.777710 0.244049
0.790771 0.798523 0.252899
0.841583 0.815155 0.260986
0.860657 0.798096 0.254944
0.868073 0.769104 0.244812
0.878937 0.741211 0.235962
0.905609 0.727325 0.233124
0.934021 0.712311 0.230194
0.957733 0.693848 0.226746
0.963806 0.667572 0.219574
0.969788 0.643341 0.213898
0.975494 0.621826 0.209167
0.981140 0.601410 0.204681
0.981201 0.589233 0.201721
0.981201 0.586578 0.200867
0.101959 0.699402 0.211731
0.101898 0.699097 0.211456
0.101898 0.698822 0.211212
0.104279 0.699402 0.213409
0.108765 0.701080 0.217285
0.113159 0.702271 0.220947
0.117249 0.710236 0.226440
0.120911 0.730286 0.235657
0.125397 0.723572 0.236877
0.130035 0.718231 0.238556
0.142853 0.711700 0.237335
0.174774 0.702667 0.231293
0.242310 0.697968 0.223389
0.302429 0.704437 0.223022
0.363495 0.713318 0.223602
0.431122 0.727905 0.227051
0.501556 0.743317 0.230957
0.573669 0.760193 0.236572
0.644531 0.777466 0.243317
0.713165 0.796112 0.250580
0.776672 0.814636 0.258911
0.832153 0.832642 0.267578
0.869019 0.839233 0.271271
0.882507 0.818390 0.263794
0.886475 0.787598 0.252319
0.900818 0.764496 0.244843
0.926208 0.751404 0.242157
0.953583 0.737122 0.238922
0.962189 0.715424 0.233032
0.968201 0.692627 0.226776
0.974121 0.670959 0.221588
0.979919 0.651428 0.216492
0.981445 0.634460 0.212219
0.981415 0.624451 0.209839
0.101746 0.729797 0.221039
0.101776 0.729736 0.220612
0.101685 0.729248 0.220306
0.103302 0.729584 0.221893
0.107697 0.731354 0.225708
0.112091 0.732544 0.229553
0.115784 0.752747 0.238556
0.119751 0.761749 0.244995
0.124390 0.755646 0.246216
0.128845 0.751068 0.248138
0.133392 0.746826 0.250641
0.175568 0.739960 0.245667
0.241486 0.731934 0.235718
0.300964 0.734070 0.233276
0.362488 0.741943 0.233856
0.428589 0.754303 0.236237
0.498199 0.768402 0.240204
0.568451 0.784088 0.245422
0.637665 0.799988 0.251770
0.704315 0.816498 0.258728
0.766449 0.833344 0.266266
0.822937 0.850586 0.274536
0.867676 0.864716 0.282013
0.891174 0.859406 0.280487
0.899231 0.835724 0.271423
0.904236 0.806152 0.260071
0.921173 0.787903 0.254333
0.945435 0.775299 0.251343
0.960571 0.756409 0.245728
0.966675 0.735931 0.239655
0.972626 0.716400 0.234100
