classic/TFT.cube
#Created by: Adobe Photoshop Export Color Lookup Plugin
#Copyright: (C) Copyright 2026 汉图
TITLE "LED-TFT模拟.psd"
#LUT size
LUT_3D_SIZE 4
#data domain
DOMAIN_MIN 0.0 0.0 0.0
DOMAIN_MAX 1.0 1.0 1.0
#LUT data points
0.098083 0.098694 0.120941
0.386292 0.103973 0.124207
0.804443 0.134888 0.114380
0.963043 0.167603 0.115875
0.101685 0.307892 0.139343
0.423401 0.381989 0.146301
0.802795 0.272217 0.137207
0.975311 0.296906 0.148743
0.102203 0.639740 0.195679
0.193024 0.632904 0.206604
0.849091 0.750977 0.238037
0.980927 0.546082 0.192627
0.103210 0.976868 0.328247
0.421326 0.993103 0.356567
0.847534 0.992157 0.347412
0.978271 0.931030 0.320221
0.104523 0.110321 0.454407
0.439453 0.110321 0.462738
0.944397 0.165771 0.456665
0.963165 0.171936 0.375732
0.106232 0.383392 0.397705
0.292664 0.364197 0.397400
0.821472 0.275513 0.334351
0.976166 0.300507 0.343109
0.106689 0.699768 0.356873
0.196655 0.691742 0.368958
0.840454 0.757721 0.355164
0.983307 0.602875 0.335327
0.109222 0.978241 0.414734
0.307159 1.000000 0.470184
0.840698 0.996521 0.436340
0.983704 0.939880 0.407318
0.101318 0.141602 0.819489
0.309326 0.180847 0.938660
0.888611 0.193878 0.848297
0.969025 0.347168 0.854767
0.120392 0.399261 0.819550
0.175842 0.370026 0.847198
0.842224 0.458740 0.809448
0.975281 0.456329 0.806427
0.117981 0.779083 0.709473
0.167297 0.830353 0.764191
0.788147 0.752533 0.699585
0.981964 0.627686 0.656433
0.113312 0.980042 0.592010
0.158691 1.000000 0.627075
0.719177 0.999695 0.635956
0.984619 0.964386 0.593353
0.098083 0.190765 0.991028
0.149719 0.240875 1.000000
0.861145 0.328522 1.000000
0.961914 0.559509 1.000000
0.151611 0.437347 1.000000
0.207642 0.439667 1.000000
0.783905 0.473755 1.000000
0.962799 0.737854 1.000000
0.191986 0.777985 1.000000
0.277588 0.789703 1.000000
0.720032 0.733704 1.000000
0.966187 0.899475 1.000000
0.134644 0.989716 0.983887
0.247559 1.000000 0.991302
0.751251 0.989380 1.000000
1.000000 1.000000 1.000000
