classic/人像琥珀提亮.cube
#Created by: Adobe Photoshop Export Color Lookup Plugin
#Copyright: (C) Copyright 2026 小米
TITLE "人像+相机模拟+黑白.psd"
#LUT size
LUT_3D_SIZE 36
#data domain
DOMAIN_MIN 0.0 0.0 0.0
DOMAIN_MAX 1.0 1.0 1.0
#LUT data points
0.005554 0.000122 0.000275
0.031891 0.000092 0.000183
0.059601 0.000458 0.000031
0.090668 0.001953 0.000458
0.125946 0.003448 0.001404
0.168427 0.004272 0.000977
0.215393 0.004395 0.000183
0.262878 0.003845 0.000031
0.309235 0.002930 0.000000
0.354401 0.002777 0.000031
0.398743 0.004517 0.000122
0.442108 0.008240 0.000671
0.483673 0.013092 0.003387
0.523560 0.019348 0.005676
0.561462 0.025116 0.008423
0.596466 0.031311 0.011261
0.630127 0.037445 0.014282
0.663116 0.043579 0.017426
0.695404 0.049500 0.020416
0.726837 0.055328 0.023224
0.757812 0.061310 0.026093
0.788727 0.066925 0.029083
0.819244 0.072845 0.031738
0.848816 0.078766 0.035004
0.876740 0.084717 0.038574
0.903748 0.091156 0.042389
0.929993 0.098114 0.046204
0.955231 0.105530 0.050232
0.969635 0.112793 0.054077
0.975800 0.118927 0.057068
0.979828 0.123901 0.059479
0.983856 0.128265 0.061981
0.987885 0.132324 0.064575
0.991943 0.136230 0.067261
0.995972 0.140259 0.070435
1.000000 0.144592 0.074066
0.006592 0.023102 0.002655
0.028778 0.023956 0.000397
0.054199 0.024139 0.000061
0.085480 0.025848 0.000153
0.120850 0.028259 0.000244
0.164032 0.029938 0.000305
0.211853 0.031219 0.000092
0.260010 0.032196 0.000031
0.306580 0.032532 0.000031
0.351135 0.032867 0.000092
0.394409 0.034546 0.000153
0.437012 0.037750 0.000214
0.478058 0.042419 0.000214
0.518127 0.047791 0.000824
0.556366 0.053772 0.003540
0.592072 0.059662 0.006622
0.626343 0.065552 0.009705
0.659241 0.071533 0.012543
0.691254 0.077362 0.015442
0.722626 0.082825 0.018555
0.753632 0.088104 0.021667
0.784607 0.093445 0.024597
0.815247 0.099213 0.027527
0.845062 0.104950 0.030884
0.873077 0.111023 0.034943
0.900116 0.116852 0.038727
0.926575 0.122650 0.042755
0.952057 0.128784 0.047119
0.968567 0.134888 0.051605
0.975800 0.139984 0.055115
0.979828 0.143860 0.057861
0.983856 0.147247 0.060699
0.987885 0.150513 0.063751
0.991943 0.153717 0.066772
0.995972 0.156830 0.069946
1.000000 0.160553 0.073669
0.008270 0.047058 0.004852
0.027557 0.046082 0.004181
0.049988 0.047028 0.001251
0.080566 0.048309 0.000336
0.115143 0.051605 0.000153
0.158508 0.055237 0.000061
0.207214 0.058105 0.000031
0.256531 0.060333 0.000000
0.303894 0.061890 0.000031
0.348419 0.063049 0.000061
0.391144 0.064606 0.000031
0.433014 0.067474 0.000061
0.474030 0.071564 0.000061
0.514160 0.075928 0.000031
0.552185 0.080872 0.000092
0.588379 0.086273 0.002777
0.622955 0.091766 0.005859
0.656128 0.097321 0.009003
0.688141 0.102783 0.011963
0.719421 0.107880 0.014984
0.750397 0.112701 0.018250
0.781403 0.117493 0.021301
0.812103 0.122345 0.024323
0.842102 0.127502 0.027802
0.870361 0.132782 0.032227
0.897797 0.138031 0.036285
0.924500 0.143372 0.040802
0.950195 0.148865 0.045227
0.967865 0.154327 0.049744
0.975800 0.158905 0.053467
0.979828 0.162292 0.056641
0.983856 0.165100 0.059998
0.987885 0.167908 0.063324
0.991943 0.170654 0.066406
0.995972 0.173248 0.069946
1.000000 0.176544 0.073608
0.010193 0.075592 0.007324
0.029907 0.073395 0.007141
0.048309 0.073853 0.005280
0.073608 0.075195 0.001678
0.108063 0.077301 0.000397
0.149780 0.081757 0.000092
0.198425 0.086426 0.000000
0.249481 0.090240 0.000000
0.299316 0.092987 0.000092
0.345490 0.094971 0.000122
0.388855 0.096832 0.000000
0.431122 0.099365 0.000000
0.472168 0.102661 0.000000
0.511902 0.106049 0.000000
0.549713 0.109955 0.000000
0.585632 0.114716 0.000000
0.620392 0.119659 0.002686
0.653656 0.124634 0.005463
0.685760 0.129364 0.008606
0.717010 0.133850 0.011597
0.747772 0.138184 0.014709
0.778503 0.142487 0.017914
0.809113 0.146606 0.021057
0.839081 0.151123 0.024872
0.867554 0.155975 0.029114
0.895081 0.160645 0.033875
0.921875 0.165466 0.038483
0.947693 0.170593 0.043335
0.967163 0.175507 0.048035
0.975800 0.179779 0.052246
0.979828 0.182831 0.055695
0.983856 0.185120 0.059174
0.987885 0.187378 0.062805
0.991943 0.189728 0.066132
0.995972 0.191986 0.069641
1.000000 0.194946 0.073242
0.011780 0.107422 0.009369
0.031158 0.105011 0.009155
0.049438 0.103943 0.008087
0.070465 0.104034 0.004974
0.100159 0.106140 0.001953
0.141449 0.109772 0.000336
0.188354 0.114746 0.000122
0.239960 0.119995 0.000061
0.291870 0.124420 0.000000
0.340149 0.127716 0.000092
0.385071 0.130402 0.000000
0.428284 0.133057 0.000031
0.469757 0.135803 0.000000
0.509521 0.138336 0.000000
0.547333 0.141266 0.000000
0.583496 0.144928 0.000092
0.617828 0.149231 0.000153
0.651123 0.153351 0.002441
0.683289 0.157440 0.005463
0.714630 0.161255 0.008636
0.745361 0.165131 0.011536
0.775818 0.169037 0.014709
0.806213 0.172760 0.018066
0.835999 0.176819 0.021820
0.864349 0.181122 0.026550
0.891937 0.185303 0.031158
0.918823 0.189392 0.035889
0.944733 0.194000 0.041290
0.966217 0.198669 0.046478
0.975800 0.202667 0.051117
0.979828 0.205383 0.055054
0.983856 0.207367 0.058655
0.987885 0.209198 0.062286
0.991943 0.211121 0.065826
0.995972 0.213043 0.069214
1.000000 0.215637 0.073029
0.013733 0.141968 0.012024
0.033661 0.139618 0.011444
0.051727 0.137878 0.010529
0.071686 0.136719 0.007782
0.096924 0.137726 0.004364
0.132751 0.140381 0.001587
0.178864 0.144775 0.000275
0.228516 0.149445 0.000244
0.280823 0.154938 0.000092
0.330444 0.159882 0.000031
0.377258 0.163910 0.000000
0.422180 0.167267 0.000031
0.464996 0.170044 0.000000
0.505493 0.172424 0.000000
0.543823 0.174774 0.000031
0.580322 0.177704 0.000031
0.614899 0.180939 0.000183
0.648010 0.184235 0.000519
0.680115 0.187286 0.002625
0.711578 0.190399 0.005859
0.742523 0.193695 0.008850
0.772919 0.197205 0.011841
0.803101 0.200623 0.015259
0.832581 0.204254 0.019196
0.860931 0.207916 0.024048
0.888641 0.211639 0.028748
0.915619 0.215302 0.033813
0.940491 0.218506 0.038361
0.965088 0.222931 0.044159
0.975800 0.226654 0.049225
0.979828 0.229187 0.053436
0.983856 0.230804 0.057281
0.987885 0.232452 0.060944
0.991943 0.234070 0.064545
0.995972 0.235657 0.068054
1.000000 0.237946 0.071991
0.016968 0.177612 0.016296
0.037445 0.175476 0.015778
0.055573 0.173737 0.014679
0.074921 0.171997 0.012360
0.098083 0.171722 0.007660
0.128021 0.172882 0.003052
0.167389 0.175354 0.000702
0.216003 0.179779 0.000214
0.266907 0.184021 0.000183
0.317047 0.189697 0.000092
0.365387 0.195343 0.000092
0.412231 0.200104 0.000122
0.456940 0.203827 0.000122
0.499054 0.207001 0.000000
0.538391 0.209564 0.000183
0.575409 0.212097 0.000427
0.610565 0.214569 0.000671
0.643951 0.217072 0.001099
0.675964 0.219421 0.001678
0.707336 0.221588 0.003723
0.738434 0.224030 0.006775
0.769043 0.226990 0.009857
0.799255 0.230042 0.013092
0.828430 0.233185 0.016968
0.856689 0.236328 0.021820
0.884644 0.239563 0.026917
0.911896 0.242950 0.032104
0.937683 0.246307 0.037262
0.962067 0.249634 0.042755
0.975800 0.252930 0.048340
0.979828 0.255249 0.052826
0.983856 0.256683 0.056854
0.987885 0.257996 0.060577
0.991943 0.259277 0.064148
0.995972 0.260529 0.067841
1.000000 0.262543 0.071838
0.023041 0.214539 0.023407
0.043030 0.212738 0.023102
0.061066 0.211060 0.022186
0.080322 0.209198 0.020325
0.102203 0.208130 0.016418
0.128510 0.208099 0.009766
0.161224 0.209015 0.001953
0.203064 0.210907 0.000092
0.253174 0.214844 0.000122
0.303284 0.218994 0.000061
0.352570 0.225189 0.000153
0.400940 0.231354 0.000122
0.447510 0.236755 0.000275
0.491547 0.241425 0.000122
0.532257 0.244965 0.000458
0.570129 0.247620 0.000885
0.605896 0.249786 0.001526
0.639893 0.251740 0.002136
0.672150 0.253632 0.002960
0.703400 0.255341 0.003815
0.734467 0.256927 0.006012
0.765167 0.259003 0.008942
0.795654 0.261566 0.012207
0.824677 0.264130 0.015747
0.852753 0.266693 0.020630
0.880829 0.269409 0.025940
0.908264 0.272400 0.031555
0.934631 0.275665 0.037109
0.959747 0.278870 0.043121
0.974945 0.281616 0.048920
0.979828 0.283539 0.053772
0.983856 0.284698 0.057831
0.987885 0.285645 0.061768
0.991943 0.286530 0.065308
0.995972 0.287476 0.069183
1.000000 0.289215 0.073273
0.032654 0.253174 0.033569
0.051361 0.251617 0.033447
0.068817 0.250000 0.032745
0.087860 0.248016 0.031616
0.108978 0.246521 0.029205
0.132904 0.245789 0.024048
0.161072 0.246002 0.014954
0.196777 0.246399 0.002899
0.241394 0.247406 0.000061
0.291260 0.250427 0.000092
0.340759 0.255493 0.000153
0.390320 0.261780 0.000061
0.438416 0.268311 0.000214
0.484100 0.274689 0.000275
0.526276 0.279663 0.000671
0.565277 0.283234 0.001221
0.601868 0.285828 0.002045
0.636536 0.287903 0.003052
0.669342 0.289551 0.004120
0.700806 0.291077 0.005402
0.731842 0.292389 0.006622
0.762573 0.293762 0.009521
0.793060 0.295441 0.012543
0.821991 0.297241 0.016418
0.849976 0.298981 0.021210
0.878143 0.301147 0.026428
0.905609 0.303619 0.032410
0.932068 0.306396 0.038513
0.957123 0.309052 0.044617
0.973480 0.311310 0.050720
0.979828 0.312897 0.055603
0.983856 0.313843 0.059692
0.987885 0.314362 0.063690
0.991943 0.314850 0.067352
0.995972 0.315613 0.071411
1.000000 0.317169 0.075745
0.044403 0.291626 0.045380
0.061798 0.290100 0.045532
0.078339 0.288605 0.045044
0.096771 0.286652 0.044464
0.116882 0.284912 0.043243
0.138947 0.283813 0.039886
0.164154 0.283569 0.033356
0.195465 0.283417 0.022034
0.234802 0.282318 0.006958
0.280060 0.282257 0.000641
0.329285 0.286224 0.000458
0.379242 0.291382 0.000305
0.428741 0.297882 0.000153
0.475586 0.305328 0.000397
0.518982 0.311768 0.000824
0.559174 0.316742 0.001373
0.596802 0.320587 0.002258
0.632263 0.323639 0.003479
0.665802 0.325897 0.004913
0.697968 0.327576 0.006561
0.729645 0.329010 0.008453
0.760468 0.330048 0.010223
0.790680 0.331207 0.014008
0.819305 0.331940 0.018341
0.847229 0.332855 0.023529
0.875519 0.334320 0.028931
0.903015 0.336273 0.035034
0.929565 0.338379 0.041412
0.954681 0.340424 0.047729
0.972168 0.342285 0.053864
0.979828 0.343567 0.059143
0.983856 0.344208 0.063110
0.987885 0.344452 0.066803
0.991943 0.344666 0.070923
0.995972 0.345215 0.075134
1.000000 0.346405 0.079620
0.057709 0.328339 0.058136
0.073792 0.326752 0.058197
0.089142 0.325531 0.058289
0.106445 0.323914 0.058014
0.125305 0.322266 0.057312
0.145752 0.320953 0.055084
0.168823 0.320251 0.050598
0.197449 0.319611 0.042511
0.232971 0.318573 0.029846
0.274139 0.317017 0.013641
0.318665 0.317261 0.002716
0.368073 0.321075 0.001282
0.418182 0.326813 0.000702
0.465881 0.333984 0.000824
0.510345 0.341248 0.001221
0.551514 0.347565 0.001770
0.590210 0.352722 0.002441
0.626648 0.357086 0.003601
0.661041 0.360565 0.005096
0.694214 0.363220 0.007172
0.726654 0.365234 0.009369
0.758209 0.366699 0.011963
0.788513 0.367493 0.015350
0.816925 0.367767 0.020325
0.844757 0.368225 0.026978
0.872742 0.368958 0.033142
0.900177 0.370209 0.039581
0.926880 0.371582 0.045990
0.952118 0.372925 0.052216
0.970886 0.374329 0.058472
0.979828 0.375244 0.063934
0.983856 0.375458 0.068329
0.987885 0.375366 0.072235
0.991943 0.375275 0.075989
0.995972 0.375610 0.080383
1.000000 0.376526 0.084991
0.072479 0.363678 0.071411
0.086456 0.362335 0.071289
0.100769 0.361450 0.071381
0.116882 0.360352 0.071442
0.134430 0.359009 0.071381
0.153748 0.357452 0.070465
0.175293 0.356049 0.067841
0.201508 0.354675 0.061798
0.233917 0.353394 0.051514
0.271057 0.352295 0.037750
0.312164 0.350861 0.021667
0.356354 0.351624 0.006165
0.405792 0.355927 0.003052
0.454865 0.361969 0.001587
0.500336 0.368866 0.001556
0.542358 0.375763 0.002258
0.582184 0.381958 0.002991
0.619781 0.387512 0.004181
0.654999 0.392365 0.005524
0.688934 0.396637 0.007324
0.722321 0.400055 0.009949
0.754547 0.402435 0.012848
0.785248 0.403870 0.016693
0.814148 0.404053 0.022217
0.842285 0.404236 0.029816
0.869904 0.404602 0.037048
0.896942 0.405060 0.044312
0.923706 0.405609 0.051483
0.949036 0.406219 0.058075
0.969299 0.407074 0.064667
0.979828 0.407593 0.070465
0.983856 0.407410 0.074921
0.987885 0.407043 0.078766
0.991943 0.406708 0.082642
0.995972 0.406860 0.086914
1.000000 0.407501 0.091370
0.087280 0.398376 0.085114
0.100494 0.397675 0.085358
0.113831 0.397003 0.085510
0.128876 0.395966 0.086060
0.145233 0.394623 0.086304
0.163544 0.393066 0.086151
0.184143 0.391418 0.084534
0.208405 0.389587 0.079407
0.237183 0.387787 0.070648
0.270050 0.386505 0.059875
0.308105 0.385071 0.046417
0.349518 0.383911 0.030365
0.393951 0.385468 0.013641
0.441742 0.389648 0.005859
0.488739 0.395691 0.002441
0.531677 0.402130 0.002655
0.572571 0.408844 0.003540
0.611328 0.415375 0.004852
0.646851 0.420868 0.006439
0.680664 0.425842 0.008301
0.714752 0.430786 0.010590
0.747864 0.434540 0.013306
0.779205 0.436981 0.017639
0.808899 0.437927 0.024231
0.837585 0.438385 0.031921
0.865692 0.438568 0.038971
0.892975 0.438751 0.046387
0.919617 0.438721 0.054321
0.944641 0.438721 0.062195
0.967010 0.439178 0.069824
0.979828 0.439484 0.076202
0.983856 0.439087 0.081055
0.987885 0.438446 0.085266
0.991943 0.437988 0.089111
0.995972 0.438080 0.093384
1.000000 0.438507 0.097931
0.101837 0.430878 0.098938
0.114258 0.430115 0.099243
0.126465 0.429413 0.099457
0.140442 0.428375 0.100189
0.156158 0.427155 0.100708
0.173492 0.425781 0.100891
0.192841 0.424194 0.099670
0.214569 0.422516 0.095886
0.239777 0.420898 0.089294
0.269379 0.419220 0.080627
0.304474 0.417267 0.069000
0.344086 0.415741 0.054901
0.385712 0.415344 0.038361
0.429138 0.417725 0.022186
0.474640 0.421783 0.009613
0.518982 0.427399 0.003937
0.560760 0.433502 0.003937
0.600403 0.440094 0.005463
0.637909 0.446991 0.007599
0.673431 0.453735 0.009766
0.708252 0.460052 0.012024
0.742065 0.464996 0.015137
0.773926 0.468384 0.020081
0.804138 0.470428 0.026886
0.833374 0.471863 0.034821
0.862030 0.472504 0.042297
0.889893 0.472717 0.050079
0.916687 0.472382 0.058258
0.941864 0.472076 0.066406
0.965149 0.472168 0.074524
0.979279 0.472321 0.081726
0.983856 0.471954 0.087524
0.987885 0.471313 0.092743
0.991943 0.470764 0.097412
0.995972 0.470642 0.101807
1.000000 0.470856 0.106293
0.116211 0.462402 0.112976
0.127808 0.461700 0.113342
0.139069 0.460907 0.113861
0.152313 0.460022 0.114380
0.167175 0.458923 0.115021
0.183533 0.457794 0.115326
0.201080 0.456390 0.114532
0.220703 0.454773 0.112030
0.243134 0.453186 0.107361
0.270233 0.451630 0.100189
0.304016 0.449829 0.089783
0.341675 0.448242 0.077148
0.381256 0.447266 0.062408
0.420929 0.447205 0.046722
0.462677 0.449585 0.030487
0.505768 0.453369 0.015076
0.548798 0.458649 0.006592
0.589325 0.464355 0.005676
0.627686 0.471069 0.007751
0.664307 0.478394 0.010529
0.699890 0.485535 0.013397
0.734497 0.491730 0.016998
0.767181 0.496307 0.022247
0.797943 0.499664 0.029419
0.827728 0.502380 0.037506
0.857056 0.504150 0.045288
0.885590 0.504974 0.053680
0.913025 0.505066 0.061920
0.938660 0.504913 0.070221
0.962189 0.504974 0.078308
0.977936 0.505005 0.085785
0.983856 0.504578 0.092255
0.987885 0.503784 0.098267
0.991943 0.503052 0.103912
0.995972 0.502808 0.109100
1.000000 0.502747 0.114258
0.129822 0.492889 0.125732
0.140442 0.492340 0.126373
0.151306 0.491699 0.126923
0.163757 0.490845 0.127563
0.177917 0.489868 0.128265
0.193237 0.488770 0.128693
0.209229 0.487518 0.128387
0.227295 0.485931 0.126617
0.248352 0.484161 0.123047
0.273621 0.482483 0.116974
0.305573 0.480804 0.107574
0.340790 0.479187 0.096252
0.377808 0.477844 0.083649
0.415466 0.477234 0.070587
0.454163 0.477844 0.055511
0.494171 0.480438 0.039215
0.535889 0.483978 0.021423
0.577332 0.488861 0.010315
0.616638 0.494568 0.008301
0.654053 0.501495 0.010590
0.690308 0.508850 0.014008
0.725616 0.515656 0.018219
0.759186 0.521301 0.024078
0.790802 0.526031 0.031891
0.821259 0.530151 0.039856
0.851257 0.533295 0.047821
0.880554 0.535400 0.056000
0.908722 0.536377 0.064850
0.934998 0.536835 0.073547
0.959167 0.537201 0.081970
0.976440 0.537354 0.089935
0.983856 0.536804 0.096985
0.987885 0.535797 0.103516
0.991943 0.534882 0.109924
0.995972 0.534637 0.115570
1.000000 0.534485 0.121185
0.142487 0.522003 0.137756
0.152679 0.521484 0.138458
0.162994 0.520935 0.139130
0.174713 0.520081 0.139801
0.188202 0.519135 0.140625
0.202332 0.517975 0.141052
0.217377 0.516754 0.140991
0.234253 0.515259 0.139709
0.254578 0.513428 0.136749
0.278687 0.511566 0.131531
0.308228 0.509888 0.123352
0.340546 0.508301 0.113647
0.375397 0.506714 0.102905
0.411255 0.505585 0.091431
0.448639 0.505798 0.078552
0.485657 0.507111 0.063416
0.524231 0.509705 0.047241
0.564484 0.513153 0.029053
0.604370 0.518097 0.015656
0.642639 0.524048 0.012238
0.679596 0.530792 0.014587
0.715576 0.537567 0.019073
0.749847 0.543854 0.025146
0.782410 0.549774 0.033356
0.813660 0.555206 0.041534
0.844513 0.559753 0.049744
0.874664 0.563171 0.057831
0.903503 0.565216 0.066467
0.930542 0.566589 0.075562
0.955383 0.567535 0.084625
0.974731 0.568146 0.093353
0.983856 0.567810 0.101288
0.987885 0.566803 0.108337
0.991943 0.565948 0.115204
0.995972 0.565735 0.121399
1.000000 0.565521 0.127533
0.154572 0.549561 0.149292
0.164185 0.549103 0.149963
0.173981 0.548462 0.150543
0.185150 0.547668 0.151245
0.197754 0.546692 0.152130
0.211090 0.545563 0.152588
0.225433 0.544250 0.152710
0.241547 0.542755 0.151764
0.260712 0.541016 0.149323
0.283630 0.539215 0.144897
0.310974 0.537476 0.137970
0.340729 0.535950 0.129791
0.373596 0.534454 0.120239
0.408112 0.533051 0.110046
0.444244 0.532593 0.098541
0.479401 0.533112 0.085510
0.515350 0.535004 0.071136
0.552673 0.537659 0.054871
0.591614 0.541321 0.036652
0.630280 0.546478 0.021423
0.667969 0.552338 0.016785
0.704712 0.558502 0.019348
0.739655 0.564758 0.025208
0.773071 0.571289 0.033142
0.805054 0.577728 0.041779
0.836639 0.583557 0.050354
0.867798 0.588104 0.058838
0.897430 0.591370 0.067383
0.925415 0.593658 0.076416
0.950836 0.595490 0.086060
0.972656 0.596649 0.095551
0.983856 0.596924 0.104614
0.987885 0.596283 0.112549
0.991943 0.595703 0.119934
0.995972 0.595673 0.127014
0.999969 0.595520 0.133972
0.166107 0.576019 0.160492
0.175262 0.575531 0.161072
0.184479 0.574921 0.161591
0.195190 0.574158 0.162231
0.206909 0.573212 0.163055
0.219635 0.572052 0.163635
0.233398 0.570770 0.163788
0.248871 0.569336 0.163361
0.266968 0.567657 0.161316
0.287750 0.565765 0.157684
0.312714 0.563904 0.151825
0.340515 0.562347 0.144775
0.371948 0.561005 0.135956
0.405731 0.559784 0.126495
0.440735 0.558929 0.116333
0.474792 0.558777 0.105469
0.508545 0.559814 0.093048
0.543396 0.561920 0.078613
0.579498 0.564545 0.062012
0.617401 0.568390 0.043518
0.655273 0.573578 0.027344
0.692688 0.579163 0.021454
0.728546 0.584961 0.024353
0.762787 0.591187 0.031555
0.795624 0.597992 0.040253
0.827881 0.604614 0.049286
0.859619 0.610321 0.058197
0.890106 0.614655 0.067078
0.919220 0.618011 0.076172
0.945404 0.620605 0.086060
0.969757 0.622620 0.096313
0.983734 0.623535 0.106293
0.987885 0.623627 0.115509
0.991913 0.623566 0.123810
0.995972 0.623840 0.132019
0.999969 0.623901 0.140045
0.176941 0.601410 0.171265
0.185760 0.600983 0.171814
0.194611 0.600464 0.172241
0.204681 0.599762 0.172852
0.215912 0.598877 0.173553
0.227905 0.597839 0.174194
0.241302 0.596588 0.174500
0.256012 0.595215 0.174408
0.272766 0.593689 0.173035
0.292175 0.592041 0.170135
0.314331 0.589874 0.165222
0.340271 0.588379 0.158997
0.371155 0.587036 0.150513
0.404510 0.585968 0.141388
0.438751 0.585175 0.132294
0.471954 0.584869 0.123749
0.504272 0.585236 0.113464
0.536713 0.586517 0.100708
0.570435 0.588409 0.085693
0.605652 0.590912 0.068451
0.642700 0.594879 0.050110
0.679962 0.599945 0.033447
0.716888 0.605377 0.026428
0.752106 0.610931 0.029694
0.785675 0.617310 0.037628
0.818573 0.624023 0.046875
0.850769 0.630402 0.056274
0.881927 0.635773 0.065613
0.911957 0.640198 0.075104
0.939331 0.643646 0.085236
0.964111 0.646301 0.096008
0.983032 0.648041 0.106934
0.987885 0.648773 0.117340
0.991913 0.649445 0.127014
0.995972 0.650177 0.136627
1.000000 0.650604 0.145630
0.187256 0.626343 0.181458
0.195648 0.625946 0.182007
0.204132 0.625519 0.182404
0.213562 0.624939 0.182983
0.224304 0.624146 0.183685
0.236023 0.623199 0.184326
0.248810 0.622131 0.184753
0.262817 0.620850 0.184753
0.277893 0.619476 0.184021
0.295837 0.617950 0.181671
0.317108 0.616333 0.177826
0.341431 0.614899 0.172180
0.371918 0.613525 0.163666
0.404846 0.612366 0.155121
0.438324 0.611633 0.146912
0.470734 0.611389 0.139893
0.502075 0.611450 0.131866
0.532776 0.612061 0.121246
0.564301 0.613251 0.107910
0.597198 0.614899 0.092377
0.631927 0.617310 0.074738
0.668060 0.621460 0.056732
0.704987 0.626343 0.039948
0.741241 0.631500 0.032166
0.775543 0.637146 0.035187
0.809021 0.643280 0.043549
0.841675 0.649750 0.053558
0.873444 0.655701 0.063385
0.904175 0.660919 0.073486
0.932678 0.665253 0.084106
0.958374 0.668610 0.095215
0.979340 0.671021 0.106903
0.987885 0.672485 0.118652
0.991943 0.673584 0.129700
0.995941 0.674866 0.140717
0.999969 0.675751 0.151031
0.196899 0.651917 0.190979
0.204834 0.651581 0.191498
0.212952 0.651184 0.191956
0.222137 0.650665 0.192535
0.232574 0.649994 0.193176
0.243927 0.649109 0.193909
0.256165 0.648102 0.194336
0.269043 0.646973 0.194427
0.283081 0.645721 0.193756
0.298828 0.644348 0.192169
0.319489 0.642792 0.188538
0.344055 0.641205 0.183350
0.373596 0.639740 0.174835
0.406006 0.638397 0.167114
0.438354 0.637543 0.159943
0.469940 0.637238 0.153564
0.500488 0.637207 0.146973
0.530243 0.637421 0.138763
0.560303 0.638123 0.128265
0.591461 0.639282 0.114777
0.623718 0.640961 0.098602
0.657501 0.643341 0.081238
0.693237 0.647430 0.063202
0.729340 0.651917 0.046814
0.764740 0.657196 0.037781
0.798981 0.662659 0.040314
0.832123 0.668640 0.049561
0.864319 0.674744 0.060059
0.895538 0.680328 0.070587
0.925079 0.685242 0.081635
0.951965 0.689240 0.093292
0.974792 0.692352 0.105499
0.987885 0.694489 0.118408
0.991913 0.696075 0.130798
0.995941 0.697632 0.142944
1.000000 0.699066 0.154602
0.205750 0.677429 0.199860
0.213379 0.677124 0.200378
0.221313 0.676758 0.200836
0.230316 0.676331 0.201324
0.240387 0.675690 0.201935
0.251251 0.674896 0.202637
0.262756 0.673950 0.203094
0.274750 0.672882 0.203247
0.287872 0.671692 0.202850
0.303406 0.670319 0.201324
0.322418 0.668793 0.198486
0.347626 0.666992 0.193054
0.376251 0.665222 0.185883
0.407562 0.663696 0.178619
0.438690 0.662628 0.172089
0.469543 0.662170 0.165771
0.499542 0.662170 0.159668
0.528564 0.662384 0.153198
0.557709 0.662903 0.145538
0.587677 0.663849 0.135345
0.618286 0.665100 0.121368
0.649658 0.666718 0.104584
0.682861 0.668915 0.087402
0.717957 0.672668 0.069519
0.753235 0.677307 0.053009
0.788300 0.682373 0.043274
0.822174 0.687714 0.045898
0.854828 0.693512 0.055176
0.886505 0.699097 0.066193
0.916870 0.704193 0.077637
0.944916 0.708649 0.089722
0.969421 0.712219 0.102570
0.986420 0.715027 0.116150
0.991913 0.717102 0.129761
0.995941 0.718994 0.142944
0.999969 0.720703 0.155762
0.214661 0.702698 0.208588
0.222290 0.702362 0.209076
0.230042 0.702057 0.209442
0.238556 0.701599 0.209961
0.248047 0.701019 0.210632
0.258545 0.700256 0.211365
0.269379 0.699371 0.211914
0.280457 0.698456 0.212219
0.293060 0.697327 0.211945
0.308685 0.695862 0.210510
0.327026 0.694305 0.208099
0.351562 0.692535 0.203278
0.379028 0.690643 0.197266
0.408813 0.688995 0.190094
0.439026 0.687805 0.183167
0.469147 0.687012 0.177002
0.498749 0.686737 0.171112
0.527405 0.686859 0.165710
0.555847 0.687195 0.160217
0.584686 0.687866 0.152618
0.613953 0.688843 0.141388
0.643860 0.690033 0.126923
0.674927 0.691498 0.110443
0.707733 0.693848 0.093353
0.741943 0.697510 0.075256
0.776581 0.702026 0.058929
0.811218 0.707062 0.048645
0.844666 0.712372 0.050201
0.876953 0.717529 0.059387
0.908112 0.722504 0.071381
0.937103 0.727081 0.084045
0.963135 0.730957 0.097198
0.983124 0.734131 0.111206
0.991913 0.736664 0.126068
0.995941 0.738861 0.140076
0.999969 0.740875 0.153900
0.223297 0.727051 0.216553
0.230652 0.726807 0.216949
0.237854 0.726471 0.217529
0.246033 0.726074 0.218048
0.255219 0.725555 0.218750
0.265167 0.724884 0.219482
0.275421 0.724091 0.220001
0.286285 0.723206 0.220215
0.298859 0.722137 0.220032
0.313995 0.720825 0.218964
0.332581 0.719360 0.216858
0.355225 0.717834 0.213074
0.381531 0.716095 0.207947
0.410126 0.714386 0.201477
0.439789 0.713043 0.193726
0.469604 0.711975 0.187469
