classic/人像琥珀提亮.cube
#Created by: Adobe Photoshop Export Color Lookup Plugin
#Copyright: (C) Copyright 2026 小米
TITLE "人像+相机模拟+黑白.psd"
#LUT size
LUT_3D_SIZE 8
#data domain
DOMAIN_MIN 0.0 0.0 0.0
DOMAIN_MAX 1.0 1.0 1.0
#LUT data points
0.005554 0.000122 0.000275
0.168427 0.004272 0.000977
0.398743 0.004517 0.000122
0.596466 0.031311 0.011261
0.757812 0.061310 0.026093
0.903748 0.091156 0.042389
0.979828 0.123901 0.059479
1.000000 0.144592 0.074066
0.013733 0.141968 0.012024
0.132751 0.140381 0.001587
0.377258 0.163910 0.000000
0.580322 0.177704 0.000031
0.742523 0.193695 0.008850
0.888641 0.211639 0.028748
0.979828 0.229187 0.053436
1.000000 0.237946 0.071991
0.057709 0.328339 0.058136
0.145752 0.320953 0.055084
0.318665 0.317261 0.002716
0.551514 0.347565 0.001770
0.726654 0.365234 0.009369
0.872742 0.368958 0.033142
0.979828 0.375244 0.063934
1.000000 0.376526 0.084991
0.129822 0.492889 0.125732
0.193237 0.488770 0.128693
0.305573 0.480804 0.107574
0.494171 0.480438 0.039215
0.690308 0.508850 0.014008
0.851257 0.533295 0.047821
0.976440 0.537354 0.089935
1.000000 0.534485 0.121185
0.187256 0.626343 0.181458
0.236023 0.623199 0.184326
0.317108 0.616333 0.177826
0.470734 0.611389 0.139893
0.631927 0.617310 0.074738
0.809021 0.643280 0.043549
0.958374 0.668610 0.095215
0.999969 0.675751 0.151031
0.232025 0.751831 0.224701
0.271759 0.749817 0.227417
0.337982 0.744690 0.225983
0.471191 0.737183 0.198090
0.610107 0.737152 0.176056
0.757629 0.744049 0.104980
0.921722 0.765106 0.069000
0.999969 0.779480 0.145477
0.278229 0.876923 0.273682
0.311188 0.875549 0.275970
0.371399 0.871460 0.276001
0.491608 0.864716 0.259155
0.618347 0.860748 0.243591
0.743805 0.863281 0.221008
0.880829 0.867706 0.139435
0.999939 0.877747 0.088165
0.360840 0.990753 0.349457
0.400696 0.989777 0.349304
0.470734 0.986725 0.347046
0.561554 0.982727 0.346710
0.661591 0.978882 0.362701
0.764709 0.977051 0.363922
0.873383 0.974854 0.315765
0.987610 0.973175 0.215820
0.024658 0.023651 0.178284
0.169525 0.014343 0.173981
0.390167 0.020660 0.170685
0.593506 0.040863 0.164368
0.755524 0.059052 0.173584
0.900269 0.084076 0.179321
0.979828 0.117249 0.180267
1.000000 0.142090 0.179138
0.000092 0.158142 0.160614
0.140991 0.149475 0.152588
0.360107 0.155273 0.143372
0.565613 0.174194 0.146393
0.731598 0.194611 0.152863
0.879242 0.212006 0.161224
0.979828 0.231537 0.170715
1.000000 0.241425 0.176453
0.054108 0.339294 0.158295
0.154449 0.327667 0.163544
0.317261 0.324127 0.142853
0.544128 0.349640 0.143250
0.717072 0.359985 0.150604
0.864227 0.365448 0.159485
0.979828 0.373077 0.171814
1.000000 0.376617 0.181183
0.132660 0.498962 0.190948
0.198212 0.493683 0.195679
0.309601 0.483429 0.190369
0.492828 0.484741 0.154816
0.687531 0.513092 0.146851
0.846680 0.531830 0.165070
0.974365 0.534668 0.188904
1.000000 0.532928 0.208801
0.189087 0.629730 0.230194
0.238739 0.626373 0.234894
0.317963 0.618805 0.234406
0.470184 0.611328 0.212891
0.630707 0.619232 0.171570
0.806305 0.646240 0.157715
0.955505 0.669067 0.191406
0.999969 0.677063 0.236786
0.233063 0.753876 0.265594
0.273010 0.751587 0.269196
0.340668 0.745941 0.270874
0.473480 0.737671 0.251831
0.610809 0.736725 0.241333
0.755463 0.744415 0.186493
0.919098 0.765900 0.169159
0.999969 0.781403 0.229950
0.278564 0.878052 0.308929
0.311951 0.876526 0.311432
0.373810 0.872223 0.312683
0.493286 0.865387 0.300018
0.619049 0.860870 0.293335
0.744141 0.863739 0.277191
0.879944 0.867767 0.209290
0.999939 0.876770 0.180328
0.361847 0.990906 0.386475
0.401947 0.989899 0.386322
0.471893 0.986847 0.384552
0.562103 0.982758 0.385284
0.662048 0.978790 0.401428
0.765076 0.976837 0.403137
0.873352 0.975037 0.360260
0.986877 0.973236 0.271271
0.039032 0.046814 0.382446
0.177246 0.038239 0.376068
0.384308 0.035187 0.382751
0.590027 0.050598 0.362946
0.751770 0.072815 0.345032
0.896149 0.085938 0.333557
0.979828 0.101013 0.320770
1.000000 0.118927 0.314697
0.028870 0.183411 0.364868
0.156586 0.174194 0.356293
0.344269 0.156311 0.353973
0.559448 0.168335 0.335022
0.723511 0.187988 0.321259
0.870331 0.202576 0.315582
0.979828 0.220337 0.315308
1.000000 0.233215 0.316925
0.027435 0.347839 0.353485
0.151459 0.339081 0.343475
0.321167 0.331543 0.335541
0.518646 0.334198 0.318451
0.690125 0.345947 0.314362
0.843140 0.358337 0.316528
0.974548 0.371185 0.321259
1.000000 0.377899 0.325378
0.088196 0.517731 0.327332
0.181213 0.508667 0.324738
0.322510 0.490295 0.335297
0.488983 0.488312 0.319458
0.676239 0.515900 0.321991
0.829498 0.527008 0.330841
0.964172 0.530731 0.339813
1.000000 0.532013 0.347076
0.177002 0.641724 0.329163
0.232910 0.636963 0.328979
0.327576 0.626709 0.331390
0.475830 0.615509 0.338043
0.629211 0.622772 0.318634
0.800659 0.650787 0.319000
0.947845 0.672333 0.349030
1.000000 0.679749 0.380066
0.228088 0.759064 0.347778
0.269928 0.756561 0.347198
0.346893 0.750275 0.345215
0.479523 0.739990 0.344452
0.612732 0.736603 0.353760
0.754303 0.745697 0.318848
0.915344 0.768890 0.316864
0.999969 0.786255 0.370941
0.273712 0.880280 0.376343
0.309296 0.878601 0.376404
0.379211 0.873474 0.373413
0.496948 0.865936 0.368683
0.620636 0.859863 0.379517
0.744049 0.862518 0.372559
0.877991 0.867798 0.323975
0.999939 0.878662 0.317169
0.360870 0.990692 0.452515
0.402161 0.989807 0.452393
0.472748 0.987091 0.449799
0.561981 0.982971 0.450226
0.661865 0.978729 0.463989
0.765656 0.976562 0.466766
0.872925 0.974854 0.433960
0.985382 0.974030 0.364227
0.068085 0.085205 0.569916
0.191772 0.074585 0.561646
0.365265 0.073181 0.560791
0.584045 0.066406 0.571838
0.750305 0.075562 0.559326
0.894226 0.091248 0.541473
0.979828 0.110382 0.519714
1.000000 0.126648 0.508301
0.066864 0.223633 0.558014
0.183899 0.212433 0.548950
0.337677 0.190918 0.542084
0.556641 0.176361 0.553711
0.726532 0.186096 0.534729
0.871826 0.200134 0.516235
0.979828 0.215576 0.499573
1.000000 0.223145 0.491425
0.063110 0.366669 0.543121
0.181335 0.360291 0.534485
0.327271 0.352661 0.524597
0.517212 0.336182 0.522491
0.692963 0.343079 0.506317
0.837067 0.352081 0.493530
0.969635 0.362366 0.485535
1.000000 0.366180 0.482056
0.059692 0.520660 0.528442
0.174316 0.514069 0.521729
0.327606 0.505432 0.514191
0.494232 0.499023 0.506165
0.652557 0.498840 0.492889
0.801910 0.505829 0.489868
0.944336 0.514587 0.491364
1.000000 0.520477 0.494568
0.110138 0.662506 0.500824
0.202881 0.656189 0.495239
0.334900 0.643585 0.491669
0.494019 0.625397 0.501251
0.629211 0.627838 0.484070
0.791656 0.657104 0.500488
0.932404 0.673859 0.520142
1.000000 0.676910 0.528381
0.212219 0.770813 0.489197
0.264740 0.766754 0.487061
0.358734 0.757843 0.483459
0.492584 0.745758 0.482849
0.618011 0.738190 0.489716
0.753296 0.747925 0.467590
0.910339 0.774017 0.484436
1.000000 0.793732 0.528351
0.262604 0.884888 0.494751
0.303680 0.882904 0.493256
0.382202 0.877808 0.487793
0.503235 0.869568 0.484283
0.623840 0.861145 0.492462
0.744080 0.861389 0.490082
0.876617 0.868652 0.459290
0.998932 0.880798 0.470245
0.356262 0.991211 0.541840
0.397339 0.990479 0.542175
0.468567 0.988495 0.541321
0.560577 0.984344 0.540619
0.661560 0.979767 0.547455
0.765808 0.976227 0.551331
0.872101 0.974731 0.528290
0.984070 0.974182 0.476990
0.094391 0.123169 0.736389
0.210846 0.109650 0.725891
0.355225 0.102020 0.718018
0.563782 0.099854 0.728394
0.742706 0.094055 0.732788
0.891724 0.095276 0.727936
0.979828 0.109070 0.712189
1.000000 0.128540 0.699432
0.091949 0.254578 0.720917
0.207947 0.244171 0.712311
0.334320 0.219147 0.701385
0.537628 0.206207 0.710693
0.719299 0.197144 0.714935
0.868652 0.199799 0.708801
0.979828 0.212555 0.692261
1.000000 0.223694 0.680908
0.092224 0.391205 0.704742
0.209747 0.386292 0.696930
0.341217 0.376434 0.687469
0.508972 0.353058 0.684814
0.688782 0.344055 0.689789
0.839081 0.347839 0.678284
0.970673 0.355011 0.664825
1.000000 0.362183 0.657104
0.085175 0.524353 0.687714
0.201996 0.519287 0.681000
0.340851 0.514557 0.672455
0.491608 0.508209 0.662842
0.654541 0.499023 0.662140
0.807190 0.499573 0.651367
0.941833 0.504028 0.644104
1.000000 0.505341 0.640289
0.085297 0.660645 0.670532
0.197449 0.654694 0.663788
0.335266 0.647675 0.656799
0.493042 0.642517 0.651611
0.638885 0.640228 0.647034
0.779053 0.640503 0.640961
0.916718 0.648193 0.643158
1.000000 0.652924 0.644684
0.146393 0.787842 0.644012
0.223663 0.783142 0.640045
0.342712 0.776367 0.632599
0.488739 0.766235 0.626343
0.632416 0.750336 0.630493
0.757843 0.753571 0.618866
0.906433 0.785217 0.650055
0.999176 0.800995 0.674622
0.231781 0.896790 0.624237
0.282928 0.894165 0.622406
0.375854 0.887878 0.618774
0.500458 0.879456 0.616455
0.627045 0.868134 0.615784
0.745697 0.862061 0.617249
0.875793 0.870148 0.598419
0.994965 0.885651 0.626801
0.336304 0.994019 0.640778
0.380798 0.993439 0.640961
0.455444 0.992096 0.641632
0.551666 0.988739 0.642578
0.659241 0.982513 0.645966
0.766510 0.976898 0.649414
0.872009 0.974884 0.638306
0.982513 0.975403 0.602570
0.123596 0.163971 0.880157
0.232910 0.149994 0.870148
0.356140 0.136078 0.861420
0.549957 0.133087 0.868256
0.725739 0.127106 0.872467
0.880829 0.119232 0.874420
0.979828 0.115326 0.872711
1.000000 0.126312 0.863464
0.123260 0.286835 0.865051
0.233246 0.277924 0.857727
0.346863 0.253815 0.846497
0.525360 0.235931 0.848602
0.705414 0.227692 0.854919
0.858917 0.217926 0.857208
0.979828 0.215424 0.855652
1.000000 0.222656 0.847321
0.130798 0.417389 0.847412
0.236206 0.411407 0.841156
0.358734 0.401642 0.833191
0.499512 0.374481 0.824585
0.680237 0.363037 0.832092
0.832336 0.356781 0.833069
0.969055 0.357239 0.829498
1.000000 0.361053 0.821228
0.139709 0.539490 0.829071
0.235107 0.535828 0.823700
0.363708 0.531921 0.817078
0.503601 0.524139 0.809204
0.656189 0.510468 0.807251
0.805695 0.502777 0.808044
0.945282 0.503296 0.801758
1.000000 0.502869 0.794312
0.151581 0.662384 0.810303
0.235779 0.658264 0.805908
0.361176 0.653961 0.800201
0.503021 0.650177 0.793518
0.644409 0.648773 0.788269
0.785461 0.640503 0.786041
0.925079 0.640442 0.779358
1.000000 0.640228 0.776367
0.156647 0.786285 0.793182
0.234253 0.782898 0.789215
0.352997 0.777771 0.783234
0.494995 0.774078 0.778442
0.634918 0.771515 0.773865
0.770447 0.767456 0.770416
0.901489 0.769867 0.769623
1.000000 0.775665 0.774353
0.161072 0.911133 0.772003
0.232117 0.908112 0.768585
0.345886 0.902313 0.762726
0.484802 0.897095 0.756653
0.622742 0.888824 0.750305
0.755280 0.871613 0.748169
0.878113 0.874146 0.740234
0.988159 0.895721 0.779114
0.267609 0.999847 0.753723
0.319824 0.999817 0.752502
0.412659 0.998413 0.751404
0.527618 0.994568 0.750214
0.648651 0.988220 0.753357
0.766663 0.980164 0.755737
0.872711 0.974823 0.755798
0.978790 0.976135 0.733002
0.165253 0.217529 0.979828
0.264526 0.205597 0.979828
0.375641 0.188904 0.979767
0.541168 0.179230 0.978912
0.713837 0.173981 0.979797
0.860016 0.169189 0.979797
0.979828 0.158051 0.979797
1.000000 0.153381 0.979797
0.168335 0.327850 0.979828
0.266876 0.319550 0.979248
0.376465 0.300049 0.974152
0.518127 0.272980 0.970062
0.698914 0.263885 0.975616
0.846313 0.256561 0.976624
0.977448 0.248016 0.977448
1.000000 0.243073 0.975494
0.178375 0.446869 0.973541
0.270905 0.441193 0.971222
0.389557 0.432861 0.966766
0.510834 0.408325 0.957306
0.677643 0.391449 0.960815
0.825653 0.384888 0.963348
0.963074 0.379639 0.963684
1.000000 0.374420 0.959991
0.190887 0.561951 0.961395
0.274963 0.558990 0.957581
0.396210 0.555969 0.951874
0.528381 0.550812 0.945984
0.658295 0.533752 0.939545
0.807526 0.524658 0.943298
0.943176 0.519073 0.943634
1.000000 0.513489 0.939667
0.206360 0.676422 0.943665
0.279480 0.674042 0.940918
0.394806 0.671967 0.936035
0.528381 0.670563 0.931366
0.657990 0.666443 0.925568
0.790497 0.654297 0.923523
0.924530 0.646820 0.923279
1.000000 0.643005 0.919800
0.202667 0.789886 0.926514
0.272095 0.787811 0.924408
0.384003 0.784760 0.920319
0.517670 0.783112 0.915497
0.648621 0.781036 0.910553
0.775330 0.776825 0.905518
0.906464 0.768799 0.904938
1.000000 0.765350 0.898743
0.187164 0.906952 0.910339
0.256195 0.904755 0.907715
0.369781 0.900879 0.904205
0.501984 0.897522 0.899994
0.632202 0.894012 0.895691
0.760986 0.891052 0.890381
0.889160 0.886139 0.887238
0.991913 0.887421 0.888000
0.187134 1.000000 0.897400
0.254089 1.000000 0.894836
0.363342 0.998108 0.890991
0.495605 0.994904 0.887054
0.627625 0.991241 0.882812
0.762085 0.986694 0.878906
0.886536 0.977203 0.881683
0.976746 0.976715 0.876038
0.199829 0.256409 1.000000
0.284119 0.247467 1.000000
0.391174 0.231720 1.000000
0.532227 0.216187 1.000000
0.703613 0.212585 0.999969
0.845612 0.210510 0.999969
0.975281 0.204803 0.999969
1.000000 0.198761 1.000000
0.204620 0.346985 1.000000
0.288757 0.340729 1.000000
0.396362 0.326843 1.000000
0.518677 0.300720 1.000000
0.692291 0.291931 1.000000
0.836334 0.287842 0.999969
0.969940 0.282166 0.999969
1.000000 0.277100 0.999969
0.218323 0.458649 1.000000
0.297852 0.455383 1.000000
0.409760 0.449677 1.000000
0.525085 0.430817 1.000000
0.675171 0.414276 1.000000
0.821533 0.409271 0.999969
0.954407 0.405182 0.999969
1.000000 0.400146 0.999969
0.238220 0.570465 1.000000
0.309723 0.569397 1.000000
0.420715 0.567719 1.000000
0.544464 0.565277 1.000000
0.663513 0.549988 1.000000
0.804810 0.538757 1.000000
0.935883 0.533264 0.999969
1.000000 0.528534 0.999969
0.253571 0.680664 1.000000
0.318176 0.680054 1.000000
0.423767 0.679443 1.000000
0.545776 0.679169 1.000000
0.666748 0.675690 1.000000
0.788605 0.664581 0.999969
0.918915 0.657532 1.000000
1.000000 0.652466 0.999969
0.260132 0.788727 1.000000
0.320038 0.787689 1.000000
0.421509 0.786652 1.000000
0.541901 0.785889 1.000000
0.664551 0.786163 1.000000
0.781250 0.782684 1.000000
0.903839 0.773987 1.000000
1.000000 0.770538 1.000000
0.221405 0.905731 1.000000
0.285645 0.904175 1.000000
0.391754 0.901825 1.000000
0.517059 0.898468 1.000000
0.644073 0.895294 0.999908
0.771423 0.893494 0.998199
0.895844 0.893311 0.994324
0.991211 0.892853 0.989685
0.210846 0.999969 1.000000
0.275665 0.998993 0.999207
0.381958 0.995972 0.996246
0.508636 0.992584 0.991974
0.642639 0.988800 0.988007
0.778900 0.984589 0.982971
0.905487 0.980957 0.978546
0.979980 0.977661 0.976410
