classic/人像琥珀提亮.cube
#Created by: Adobe Photoshop Export Color Lookup Plugin
#Copyright: (C) Copyright 2026 小米
TITLE "人像+相机模拟+黑白.psd"
#LUT size
LUT_3D_SIZE 6
#data domain
DOMAIN_MIN 0.0 0.0 0.0
DOMAIN_MAX 1.0 1.0 1.0
#LUT data points
0.005554 0.000122 0.000275
0.262878 0.003845 0.000031
0.561462 0.025116 0.008423
0.788727 0.066925 0.029083
0.969635 0.112793 0.054077
1.000000 0.144592 0.074066
0.023041 0.214539 0.023407
0.203064 0.210907 0.000092
0.532257 0.244965 0.000458
0.765167 0.259003 0.008942
0.959747 0.278870 0.043121
1.000000 0.289215 0.073273
0.116211 0.462402 0.112976
0.220703 0.454773 0.112030
0.462677 0.449585 0.030487
0.734497 0.491730 0.016998
0.938660 0.504913 0.070221
1.000000 0.502747 0.114258
0.196899 0.651917 0.190979
0.269043 0.646973 0.194427
0.438354 0.637543 0.159943
0.657501 0.643341 0.081238
0.895538 0.680328 0.070587
1.000000 0.699066 0.154602
0.259094 0.826630 0.252228
0.314606 0.823975 0.257019
0.453552 0.814941 0.239960
0.639160 0.811920 0.215637
0.831512 0.818787 0.123749
0.999939 0.837067 0.116730
0.360840 0.990753 0.349457
0.425110 0.988770 0.348816
0.542542 0.983521 0.345612
0.681824 0.978333 0.365601
0.829224 0.976318 0.341705
0.987610 0.973175 0.215820
0.028046 0.031525 0.262268
0.251221 0.019531 0.257477
0.555115 0.044830 0.239044
0.783417 0.066101 0.234070
0.968079 0.096069 0.236664
1.000000 0.135986 0.231628
0.006531 0.233429 0.236969
0.210480 0.221954 0.225769
0.508698 0.234650 0.211731
0.746613 0.256500 0.215485
0.946808 0.278259 0.224823
1.000000 0.292938 0.232605
0.109741 0.474213 0.229614
0.228638 0.462097 0.235535
0.458740 0.455536 0.215118
0.724274 0.492249 0.216095
0.927551 0.499573 0.235687
1.000000 0.500397 0.252258
0.197754 0.658051 0.266754
0.271606 0.652466 0.271545
0.440796 0.639130 0.263489
0.655304 0.645477 0.227692
0.891235 0.682648 0.229950
1.000000 0.702789 0.292084
0.258667 0.828674 0.312775
0.315674 0.825653 0.316711
0.457214 0.815765 0.308197
0.640015 0.811096 0.305908
0.829620 0.819061 0.243317
0.999939 0.838715 0.255402
0.362366 0.990875 0.409424
0.427460 0.989044 0.408325
0.543365 0.983582 0.406036
0.682526 0.978027 0.426147
0.829285 0.976166 0.408142
0.986420 0.973328 0.304779
0.062103 0.077576 0.534302
0.249420 0.066040 0.524475
0.548889 0.060394 0.538177
0.782043 0.077576 0.514832
0.966522 0.103851 0.488129
1.000000 0.125641 0.468597
0.059875 0.273621 0.515167
0.234253 0.261688 0.503418
0.505310 0.233337 0.504486
0.743927 0.248627 0.476227
0.938934 0.267639 0.457397
1.000000 0.277771 0.448212
0.054108 0.489746 0.496124
0.226532 0.479401 0.485687
0.462158 0.468109 0.474945
0.689758 0.471039 0.457458
0.897034 0.482788 0.457275
1.000000 0.493225 0.461456
0.156219 0.680847 0.461914
0.266632 0.671600 0.458252
0.463379 0.649841 0.464600
0.654663 0.651886 0.447937
0.878479 0.690399 0.474426
1.000000 0.705933 0.506287
0.245728 0.836090 0.464325
0.313721 0.831757 0.460236
0.470184 0.819885 0.452911
0.643524 0.809906 0.465820
0.827545 0.819946 0.433533
0.999908 0.844147 0.467896
0.356995 0.991089 0.523163
0.423157 0.989685 0.523102
0.542297 0.984711 0.520660
0.682770 0.978485 0.531189
0.829224 0.975769 0.522247
0.984406 0.974243 0.453247
0.099548 0.131226 0.765900
0.264404 0.111664 0.751221
0.518311 0.106262 0.754730
0.771515 0.099365 0.761993
0.965820 0.104858 0.753448
1.000000 0.127350 0.734558
0.098419 0.314972 0.743286
0.262939 0.302429 0.732086
0.481384 0.268036 0.726898
0.736664 0.256653 0.734985
0.938782 0.263458 0.722443
1.000000 0.276093 0.706390
0.095337 0.500061 0.719635
0.260986 0.493744 0.709991
0.462830 0.484894 0.697723
0.692688 0.468933 0.697693
0.897156 0.472107 0.682281
1.000000 0.476166 0.674255
0.100525 0.686127 0.695709
0.254272 0.678375 0.686890
0.461609 0.669922 0.677795
0.667511 0.666412 0.673279
0.857971 0.670532 0.668793
1.000000 0.678314 0.672821
0.186554 0.857605 0.659515
0.286926 0.851593 0.654419
0.465027 0.840118 0.647400
0.654907 0.820862 0.646698
0.828857 0.824524 0.634247
0.994904 0.856689 0.684570
0.326538 0.995148 0.661652
0.400024 0.994110 0.661530
0.528320 0.990875 0.663239
0.680084 0.982025 0.667572
0.830017 0.975739 0.668549
0.981995 0.975555 0.628448
0.147308 0.194641 0.957428
0.295929 0.176208 0.945801
0.504364 0.160706 0.940216
0.748444 0.153778 0.947998
0.952637 0.139954 0.950653
1.000000 0.137115 0.946442
0.152771 0.362335 0.938385
0.299622 0.349976 0.929413
0.473267 0.311096 0.915192
0.722504 0.296234 0.925385
0.927490 0.285126 0.927795
1.000000 0.281372 0.922974
0.168182 0.529694 0.914246
0.305023 0.524719 0.907196
0.488739 0.515778 0.897552
0.691406 0.491913 0.893677
0.893982 0.484222 0.895660
1.000000 0.480347 0.889923
0.186707 0.693848 0.888672
0.304810 0.689575 0.883118
0.488159 0.685852 0.875244
0.677277 0.682007 0.868011
0.867615 0.669891 0.866394
1.000000 0.666016 0.859009
0.175781 0.859863 0.864990
0.289703 0.855164 0.859772
0.471436 0.850403 0.853210
0.659546 0.845581 0.846985
0.843140 0.839966 0.842163
0.997406 0.844086 0.844818
0.207550 1.000000 0.839966
0.307983 0.999939 0.836670
0.479126 0.996582 0.830780
0.661743 0.991028 0.826599
0.837952 0.978546 0.829285
0.977661 0.976318 0.817322
0.199829 0.256409 1.000000
0.325226 0.241425 0.999969
0.496399 0.217163 0.999969
0.733002 0.212219 1.000000
0.928619 0.207520 0.999969
1.000000 0.198761 1.000000
0.209442 0.390961 1.000000
0.334564 0.382935 1.000000
0.491760 0.353455 1.000000
0.717072 0.336334 1.000000
0.912048 0.330566 0.999969
1.000000 0.323395 0.999969
0.233521 0.548065 1.000000
0.348206 0.545563 1.000000
0.517914 0.542297 1.000000
0.693024 0.521088 1.000000
0.888245 0.509277 1.000000
1.000000 0.503143 0.999969
0.254913 0.702148 1.000000
0.356628 0.701447 1.000000
0.520203 0.700653 1.000000
0.689789 0.696899 1.000000
0.865295 0.683044 1.000000
1.000000 0.675751 0.999969
0.247925 0.856903 1.000000
0.345093 0.854858 1.000000
0.507416 0.852173 1.000000
0.680298 0.849640 1.000000
0.850708 0.848419 0.999878
0.999298 0.843994 0.996887
0.210846 0.999969 1.000000
0.314117 0.997955 0.998077
0.482574 0.993347 0.992889
0.669708 0.987915 0.987091
0.859100 0.982422 0.980042
0.979980 0.977661 0.976410
