classic/港味-f.CUBE
#Created by: Adobe Photoshop Export Color Lookup Plugin
TITLE "多场景样片-v1.0.psd"
#LUT size
LUT_3D_SIZE 4
#data domain
DOMAIN_MIN 0.0 0.0 0.0
DOMAIN_MAX 1.0 1.0 1.0
#LUT data points
0.014771 0.026031 0.015106
0.259460 0.069672 0.035614
0.736053 0.147369 0.089752
0.992004 0.208771 0.134674
0.056519 0.347961 0.027100
0.363800 0.290558 0.030396
0.802277 0.292084 0.071686
0.993042 0.442291 0.146088
0.128845 0.702789 0.091766
0.459259 0.731018 0.105438
0.808105 0.517426 0.095398
0.993286 0.476288 0.144135
0.191345 0.946167 0.141144
0.450073 0.949341 0.146942
0.999786 0.989471 0.194214
0.995422 0.713043 0.165283
0.027771 0.080536 0.350983
0.349121 0.057281 0.397736
0.746002 0.108582 0.353088
0.991852 0.161407 0.392303
0.036438 0.289795 0.340668
0.274719 0.352692 0.388458
0.744171 0.387665 0.409485
0.992920 0.421692 0.426270
0.092377 0.708099 0.327271
0.229034 0.750427 0.281097
0.848022 0.652740 0.314301
0.994904 0.668396 0.462524
0.141602 0.950531 0.249176
0.286011 0.996826 0.274384
0.905060 0.999268 0.417542
0.996704 0.814301 0.464722
0.029816 0.139099 0.687469
0.257294 0.076294 0.708710
0.760162 0.107544 0.656342
0.991852 0.161346 0.636658
0.045410 0.354340 0.687286
0.306763 0.409973 0.715881
0.759888 0.380707 0.703156
0.992889 0.420624 0.702301
0.086365 0.629944 0.666199
0.291199 0.675171 0.703918
0.756317 0.740112 0.758667
0.996216 0.777130 0.785889
0.142639 0.939850 0.714355
0.267334 0.975220 0.701111
0.775848 0.998444 0.724304
0.998199 0.908539 0.787262
0.042480 0.195129 0.960571
0.201111 0.109406 0.960846
0.854553 0.136536 0.990112
0.991852 0.161285 0.911560
0.065918 0.448608 0.961487
0.344513 0.471344 0.970978
0.785370 0.406494 0.985535
0.992889 0.418793 0.941711
0.086090 0.656464 0.950531
0.305054 0.719818 0.971893
0.782471 0.787262 0.986847
0.996002 0.761963 0.975555
0.129852 0.883728 0.945740
0.319031 0.915192 0.962646
0.770813 0.962524 0.984802
1.000000 1.000000 1.000000
