classic/港味-f.CUBE
#Created by: Adobe Photoshop Export Color Lookup Plugin
TITLE "多场景样片-v1.0.psd"
#LUT size
LUT_3D_SIZE 34
#data domain
DOMAIN_MIN 0.0 0.0 0.0
DOMAIN_MAX 1.0 1.0 1.0
#LUT data points
0.014771 0.026031 0.015106
0.014771 0.026031 0.015106
0.014771 0.026031 0.015106
0.014771 0.026031 0.015106
0.028351 0.029022 0.016327
0.051819 0.034180 0.018402
0.077271 0.039703 0.020721
0.106445 0.045319 0.023071
0.139832 0.051086 0.025665
0.176666 0.057098 0.028534
0.216736 0.063202 0.031738
0.259460 0.069672 0.035614
0.304047 0.076355 0.039948
0.349640 0.083191 0.044434
0.395538 0.090210 0.049103
0.440948 0.097382 0.053925
0.486084 0.104553 0.058990
0.530457 0.111633 0.063965
0.574524 0.118866 0.069183
0.617432 0.126160 0.074310
0.658905 0.133270 0.079498
0.698639 0.140381 0.084717
0.736053 0.147369 0.089752
0.771515 0.154266 0.094757
0.804932 0.161041 0.099670
0.836731 0.167786 0.104523
0.866913 0.174286 0.109344
0.895630 0.180756 0.114075
0.922943 0.187164 0.118744
0.948303 0.193359 0.123322
0.971375 0.199554 0.127777
0.991974 0.206635 0.132965
0.992004 0.208771 0.134674
0.992004 0.208771 0.134674
0.014771 0.026031 0.015106
0.014771 0.026031 0.015106
0.014771 0.026031 0.015106
0.014771 0.026031 0.015106
0.028351 0.029022 0.016327
0.051819 0.034180 0.018402
0.077271 0.039703 0.020721
0.106445 0.045319 0.023071
0.139832 0.051086 0.025665
0.176666 0.057098 0.028534
0.216736 0.063202 0.031738
0.259460 0.069672 0.035614
0.304047 0.076355 0.039948
0.349640 0.083191 0.044434
0.395538 0.090210 0.049103
0.440948 0.097382 0.053925
0.486084 0.104553 0.058990
0.530457 0.111633 0.063965
0.574524 0.118866 0.069183
0.617432 0.126160 0.074310
0.658905 0.133270 0.079498
0.698639 0.140381 0.084717
0.736053 0.147369 0.089752
0.771515 0.154266 0.094757
0.804932 0.161041 0.099670
0.836731 0.167786 0.104523
0.866913 0.174286 0.109344
0.895630 0.180756 0.114075
0.922943 0.187164 0.118744
0.948303 0.193359 0.123322
0.971375 0.199554 0.127777
0.991974 0.206635 0.132965
0.992004 0.208771 0.134674
0.992004 0.208771 0.134674
0.014771 0.026031 0.015106
0.014771 0.026031 0.015106
0.014771 0.026031 0.015106
0.014771 0.026031 0.015106
0.028351 0.029022 0.016327
0.051819 0.034180 0.018402
0.077271 0.039703 0.020721
0.106445 0.045319 0.023071
0.139832 0.051086 0.025665
0.176666 0.057098 0.028534
0.216736 0.063202 0.031738
0.259460 0.069672 0.035614
0.304047 0.076355 0.039948
0.349640 0.083191 0.044434
0.395538 0.090210 0.049103
0.440948 0.097382 0.053925
0.486084 0.104553 0.058990
0.530457 0.111633 0.063965
0.574524 0.118866 0.069183
0.617432 0.126160 0.074310
0.658905 0.133270 0.079498
0.698639 0.140381 0.084717
0.736053 0.147369 0.089752
0.771515 0.154266 0.094757
0.804932 0.161041 0.099670
0.836731 0.167786 0.104523
0.866913 0.174286 0.109344
0.895630 0.180756 0.114075
0.922943 0.187164 0.118744
0.948303 0.193359 0.123322
0.971375 0.199554 0.127777
0.991974 0.206635 0.132965
0.992004 0.208771 0.134674
0.992004 0.208771 0.134674
0.014771 0.026031 0.015106
0.014771 0.026031 0.015106
0.014771 0.026031 0.015106
0.014771 0.026031 0.015106
0.028351 0.029022 0.016327
0.051819 0.034180 0.018402
0.077271 0.039703 0.020721
0.106445 0.045319 0.023071
0.139832 0.051086 0.025665
0.176666 0.057098 0.028534
0.216736 0.063202 0.031738
0.259460 0.069672 0.035614
0.304047 0.076355 0.039948
0.349640 0.083191 0.044434
0.395538 0.090210 0.049103
0.440948 0.097382 0.053925
0.486084 0.104553 0.058990
0.530457 0.111633 0.063965
0.574524 0.118866 0.069183
0.617432 0.126160 0.074310
0.658905 0.133270 0.079498
0.698639 0.140381 0.084717
0.736053 0.147369 0.089752
0.771515 0.154266 0.094757
0.804932 0.161041 0.099670
0.836731 0.167786 0.104523
0.866913 0.174286 0.109344
0.895630 0.180756 0.114075
0.922943 0.187164 0.118744
0.948303 0.193359 0.123322
0.971375 0.199554 0.127777
0.991974 0.206635 0.132965
0.992004 0.208771 0.134674
0.992004 0.208771 0.134674
0.017181 0.074463 0.012939
0.017181 0.074463 0.012939
0.017181 0.074463 0.012939
0.017181 0.074463 0.012939
0.041565 0.084808 0.010223
0.064209 0.046112 0.007446
0.087463 0.061890 0.013947
0.113922 0.078918 0.020752
0.143982 0.094269 0.027191
0.180634 0.100006 0.030121
0.220428 0.106110 0.033539
0.262970 0.112274 0.037476
0.307312 0.118561 0.041809
0.352753 0.125183 0.046265
0.398407 0.131622 0.050903
0.443665 0.138153 0.055786
0.488556 0.144836 0.060730
0.532715 0.151367 0.065735
0.576508 0.158020 0.070801
0.619202 0.164642 0.075928
0.660492 0.171051 0.081085
0.699982 0.177582 0.086273
0.737213 0.184052 0.091248
0.772522 0.190369 0.096161
0.805786 0.196564 0.101044
0.837463 0.202759 0.105927
0.867523 0.208832 0.110657
0.896118 0.214905 0.115356
0.923309 0.220947 0.120026
0.948547 0.226685 0.124542
0.971558 0.232300 0.128998
0.992065 0.239197 0.134125
0.992065 0.240906 0.135895
0.992065 0.240906 0.135895
0.020538 0.124939 0.011780
0.020538 0.124939 0.011780
0.020538 0.124939 0.011780
0.020538 0.124939 0.011780
0.036621 0.125458 0.011871
0.094635 0.142212 0.006500
0.103119 0.080963 0.003204
0.135956 0.074036 0.003632
0.167297 0.090363 0.010498
0.200470 0.107727 0.017975
0.235992 0.125366 0.025909
0.272858 0.143127 0.034912
0.311310 0.160278 0.043945
0.355835 0.166901 0.048676
0.401276 0.172791 0.053253
0.446259 0.178711 0.058044
0.490997 0.184601 0.062897
0.534943 0.190582 0.067810
0.578461 0.196503 0.072754
0.620972 0.202698 0.077911
0.662048 0.208557 0.082947
0.701385 0.214600 0.088074
0.738403 0.220337 0.092926
0.773529 0.226257 0.097870
0.806641 0.232056 0.102722
0.838196 0.237701 0.107483
0.868073 0.243439 0.112213
0.896576 0.249207 0.116821
0.923676 0.254700 0.121490
0.948822 0.260223 0.125977
0.971710 0.265686 0.130341
0.992188 0.271973 0.135498
0.992218 0.273926 0.137238
0.992218 0.273926 0.137238
0.024689 0.171082 0.011353
0.024689 0.171082 0.011353
0.024689 0.171082 0.011353
0.024689 0.171082 0.011353
0.040466 0.171143 0.011505
0.086670 0.186859 0.008911
0.135620 0.170044 0.008606
0.140015 0.116882 0.005493
0.175171 0.093445 0.005371
0.218140 0.106537 0.007355
0.264130 0.120148 0.010071
0.301849 0.137299 0.018738
0.340881 0.154083 0.027344
0.379608 0.170868 0.037201
0.417633 0.187622 0.047211
0.455780 0.203796 0.056122
0.494141 0.219788 0.064758
0.536957 0.226624 0.070068
0.580292 0.232300 0.074951
0.622559 0.237854 0.080017
0.663483 0.243378 0.084961
0.702637 0.248993 0.089996
0.739502 0.254547 0.094818
0.774475 0.260071 0.099670
0.807465 0.265564 0.104462
0.838867 0.271179 0.109192
0.868683 0.276550 0.113922
0.897064 0.281982 0.118469
0.924042 0.287415 0.123108
0.949097 0.292877 0.127533
0.971954 0.298340 0.131897
0.992310 0.304565 0.136993
0.992310 0.306183 0.138702
0.992310 0.306183 0.138702
0.029358 0.212555 0.011658
0.029358 0.212555 0.011658
0.029358 0.212555 0.011658
0.029358 0.212555 0.011658
0.044922 0.212585 0.011780
0.080994 0.219269 0.011749
0.146423 0.230682 0.014130
0.177826 0.197205 0.011993
0.180359 0.148071 0.008362
0.218781 0.121307 0.008118
0.263885 0.125916 0.010315
0.312103 0.139130 0.013550
0.361298 0.152435 0.017242
0.407959 0.166290 0.022705
0.446136 0.182556 0.032806
0.484253 0.198761 0.042908
0.521973 0.214294 0.052429
0.559052 0.229675 0.061249
0.595673 0.245087 0.069641
0.631226 0.260284 0.078003
0.664825 0.275970 0.087128
0.703857 0.282043 0.092041
0.740601 0.287476 0.096893
0.775421 0.292908 0.101685
0.808289 0.298187 0.106415
0.839539 0.303680 0.111053
0.869263 0.309204 0.115723
0.897522 0.314636 0.120300
0.924438 0.320221 0.124908
0.949432 0.325684 0.129272
0.972168 0.331177 0.133606
0.992462 0.337402 0.138702
0.992462 0.339081 0.140411
0.992462 0.339081 0.140411
0.035858 0.248138 0.014099
0.035858 0.248138 0.014099
0.035858 0.248138 0.014099
0.035858 0.248138 0.014099
0.050049 0.248169 0.014252
0.078796 0.250122 0.014801
0.136749 0.261169 0.017090
0.215424 0.272461 0.020721
0.223175 0.222443 0.015747
0.223846 0.176544 0.011932
0.265594 0.152405 0.012024
0.311676 0.144562 0.013855
0.360870 0.157654 0.017548
0.409882 0.170502 0.021790
0.458649 0.183319 0.026550
0.506927 0.195923 0.031830
0.548828 0.210236 0.040497
0.585571 0.225311 0.050171
0.621307 0.240540 0.059418
0.655792 0.255554 0.068176
0.689972 0.270508 0.076172
0.721893 0.285950 0.084198
0.752167 0.300995 0.092041
0.781677 0.316437 0.100037
0.809113 0.331787 0.108582
0.840302 0.337341 0.113190
0.869843 0.342926 0.117798
0.898041 0.348541 0.122345
0.924866 0.354065 0.126892
0.949707 0.359619 0.131256
0.972412 0.365295 0.135590
0.992645 0.371735 0.140625
0.992645 0.373138 0.142273
0.992645 0.373138 0.142273
0.042847 0.280823 0.017853
0.042847 0.280823 0.017853
0.042847 0.280823 0.017853
0.042847 0.280823 0.017853
0.055756 0.280823 0.017975
0.080017 0.280884 0.018311
0.131470 0.290985 0.020477
0.202942 0.302368 0.023956
0.267334 0.293732 0.025452
0.268768 0.245789 0.019989
0.269989 0.202484 0.015961
0.314301 0.180359 0.016418
0.360321 0.162659 0.017883
0.409393 0.175415 0.022095
0.458069 0.188019 0.026855
0.506378 0.200531 0.032166
0.553986 0.212799 0.037994
0.600098 0.224915 0.043854
0.645172 0.237000 0.049622
0.679840 0.251648 0.058899
0.712372 0.266571 0.067596
0.743439 0.281464 0.075684
0.773804 0.295959 0.083008
0.801147 0.311493 0.090790
0.827667 0.327148 0.098267
0.853546 0.342834 0.105774
0.877899 0.359070 0.113861
0.900665 0.375854 0.122528
0.925293 0.388672 0.129150
0.950043 0.394165 0.133453
0.972656 0.399902 0.137756
0.992828 0.406219 0.142731
0.992859 0.407532 0.144409
0.992859 0.407532 0.144409
0.049713 0.313965 0.022125
0.049713 0.313965 0.022125
0.049713 0.313965 0.022125
0.049713 0.313965 0.022125
0.061676 0.313965 0.022278
0.085205 0.314026 0.022583
0.128632 0.321411 0.024445
0.194763 0.333130 0.027924
0.278381 0.345459 0.033234
0.319092 0.313293 0.030670
0.316040 0.268433 0.024872
0.318115 0.226807 0.020630
0.363556 0.206390 0.021454
0.409424 0.186493 0.022980
0.457520 0.192566 0.027191
0.505829 0.204865 0.032501
0.553345 0.217072 0.038330
0.599457 0.229279 0.044159
0.644623 0.241119 0.049927
0.687836 0.252991 0.055634
0.728729 0.264893 0.061127
0.765259 0.277252 0.067200
0.793610 0.291748 0.075195
0.820068 0.307007 0.083130
0.845673 0.322479 0.090698
0.870636 0.337891 0.097839
0.895081 0.353760 0.104553
0.917847 0.369873 0.111572
0.938995 0.386597 0.119049
0.959198 0.402649 0.126495
0.978546 0.418488 0.133453
0.993011 0.437225 0.144745
0.993042 0.438965 0.146362
0.993042 0.438965 0.146362
0.056519 0.347961 0.027100
0.056519 0.347961 0.027100
0.056519 0.347961 0.027100
0.056519 0.347961 0.027100
0.067871 0.347961 0.027252
0.090790 0.348022 0.027557
0.127502 0.352661 0.028961
0.189636 0.364563 0.032593
0.267883 0.376984 0.037811
0.358887 0.389771 0.044586
0.367401 0.335205 0.036804
0.363800 0.290558 0.030396
0.366913 0.250244 0.025909
0.412506 0.230957 0.027100
0.458252 0.211975 0.028900
0.505280 0.209229 0.032867
0.552765 0.221313 0.038666
0.598938 0.233398 0.044495
0.644073 0.245209 0.050201
0.687164 0.256927 0.055908
0.728119 0.268799 0.061401
0.766541 0.280518 0.066711
0.802277 0.292084 0.071686
0.836334 0.303986 0.076630
0.864288 0.317596 0.083130
0.888367 0.333344 0.090576
0.911774 0.348785 0.097504
0.933258 0.364685 0.104401
0.953949 0.380524 0.110870
0.972626 0.396881 0.117310
0.989838 0.413666 0.124298
0.993042 0.440552 0.144531
0.993042 0.442291 0.146088
0.993042 0.442291 0.146088
0.063141 0.382233 0.032745
0.063141 0.382233 0.032745
0.063141 0.382233 0.032745
0.063141 0.382233 0.032745
0.074127 0.382263 0.032898
0.096527 0.382294 0.033234
0.127319 0.383972 0.034149
0.186188 0.395935 0.037842
0.260681 0.408356 0.042633
0.347229 0.421051 0.048798
0.410889 0.409515 0.050629
0.414124 0.357269 0.043152
0.410706 0.312103 0.036591
0.415527 0.272583 0.031830
0.461029 0.253784 0.033356
0.506531 0.235748 0.035522
0.552185 0.225464 0.039001
0.598389 0.237274 0.044769
0.643372 0.249146 0.050507
0.686646 0.260895 0.056183
0.727661 0.272766 0.061707
0.766052 0.284393 0.066986
0.801819 0.296204 0.071960
0.835815 0.307983 0.076874
0.868073 0.319977 0.081696
0.898743 0.332214 0.086395
0.926880 0.344513 0.091217
0.948059 0.360016 0.097931
0.967194 0.375946 0.104523
0.984619 0.392303 0.111115
0.992859 0.414764 0.122345
0.993073 0.443451 0.144348
0.993073 0.445190 0.145905
0.993073 0.445190 0.145905
0.069885 0.416779 0.039001
0.069885 0.416779 0.039001
0.069885 0.416779 0.039001
0.069885 0.416779 0.039001
0.080658 0.416779 0.039154
0.102631 0.416840 0.039490
0.130249 0.416901 0.040039
0.184265 0.427521 0.043243
0.255188 0.439789 0.047760
0.338196 0.452484 0.053406
0.427338 0.465271 0.060150
0.460144 0.428589 0.056641
0.460083 0.379700 0.049500
0.456879 0.334076 0.042999
0.463776 0.294922 0.038513
0.509033 0.276398 0.040161
0.553833 0.258606 0.042358
0.597778 0.241577 0.045135
0.642914 0.253265 0.050781
0.686127 0.264771 0.056488
0.727081 0.276672 0.061951
0.765625 0.288391 0.067230
0.801331 0.300079 0.072205
0.835419 0.311981 0.077179
0.867615 0.324036 0.081970
0.898285 0.336090 0.086639
0.927124 0.348236 0.091187
0.953583 0.360687 0.095490
0.977539 0.372803 0.099518
0.992737 0.390259 0.107117
0.992889 0.418549 0.122345
0.993073 0.446808 0.144135
0.993073 0.448486 0.145660
0.993073 0.448486 0.145660
0.076508 0.450836 0.045227
0.076508 0.450836 0.045227
0.076508 0.450836 0.045227
0.076508 0.450836 0.045227
0.087097 0.450867 0.045380
0.108765 0.450897 0.045685
0.136169 0.450958 0.046204
0.183075 0.458527 0.048645
0.251434 0.470825 0.052887
0.331207 0.483307 0.058167
0.417572 0.496002 0.064423
0.498688 0.502533 0.070007
0.508026 0.447083 0.062439
0.504944 0.401367 0.055786
0.501953 0.355438 0.049316
0.511566 0.317017 0.045227
0.556091 0.298370 0.046906
0.599762 0.280945 0.049103
0.642761 0.263947 0.051758
0.685638 0.268616 0.056793
0.726593 0.280518 0.062225
0.765045 0.292175 0.067505
0.800873 0.303833 0.072479
0.834900 0.315704 0.077423
0.867157 0.327850 0.082214
0.897827 0.339935 0.086914
0.926727 0.352386 0.091461
0.953186 0.364563 0.095734
0.977234 0.377167 0.099792
0.992767 0.394318 0.107300
0.992920 0.422058 0.122375
0.993073 0.449615 0.143890
0.993103 0.451416 0.145508
0.993103 0.451416 0.145508
0.083191 0.484924 0.051392
0.083191 0.484924 0.051392
0.083191 0.484924 0.051392
0.083191 0.484924 0.051392
0.093628 0.484924 0.051514
0.115051 0.484955 0.051849
0.142212 0.485046 0.052338
0.182892 0.489594 0.054047
0.248749 0.501831 0.058105
0.325989 0.514160 0.063049
0.409607 0.526611 0.068878
0.495758 0.539276 0.075317
0.546082 0.521088 0.075592
0.551758 0.468719 0.068512
0.548981 0.422943 0.061951
0.546234 0.377167 0.055634
0.558411 0.339691 0.051910
0.601776 0.321014 0.053589
0.644501 0.303101 0.055817
0.685791 0.286072 0.058380
0.726013 0.284302 0.062500
0.764557 0.296021 0.067780
0.800354 0.307709 0.072723
0.834412 0.319855 0.077728
0.866730 0.331726 0.082489
0.897461 0.344086 0.087219
0.926239 0.356201 0.091705
0.952850 0.368683 0.096039
0.976807 0.381256 0.100098
0.992767 0.397980 0.107361
0.992920 0.425262 0.122375
0.993103 0.453064 0.143799
0.993103 0.454590 0.145355
0.993103 0.454590 0.145355
0.089813 0.518341 0.057526
0.089813 0.518341 0.057526
0.089813 0.518341 0.057526
0.089813 0.518341 0.057526
0.100159 0.518372 0.057648
0.121460 0.518402 0.057983
0.148346 0.518463 0.058441
0.183044 0.519989 0.059448
0.246826 0.532013 0.063232
0.321777 0.544250 0.067932
0.403595 0.556458 0.073364
0.487152 0.568726 0.079498
0.571442 0.581268 0.086212
0.591797 0.538513 0.081116
0.594055 0.489288 0.074249
0.591461 0.443756 0.067963
0.588959 0.398010 0.061768
0.603912 0.362457 0.058655
0.646332 0.343414 0.060272
0.687378 0.325195 0.062347
0.726593 0.307709 0.064728
0.764008 0.299835 0.068054
0.799896 0.311676 0.073029
0.833923 0.323517 0.077972
0.866211 0.335815 0.082733
0.896973 0.347931 0.087463
0.925903 0.360382 0.091980
0.952454 0.372772 0.096313
0.976440 0.385315 0.100403
0.992798 0.401855 0.107452
0.992950 0.428894 0.122467
0.993134 0.455994 0.143616
0.993134 0.457672 0.145142
0.993134 0.457672 0.145142
0.096436 0.551239 0.063507
0.096436 0.551239 0.063507
0.096436 0.551239 0.063507
0.096436 0.551239 0.063507
0.106720 0.551270 0.063629
0.127960 0.551331 0.063934
0.154694 0.551361 0.064423
0.186279 0.551453 0.065094
0.245911 0.561951 0.068481
0.318512 0.573761 0.072754
0.398468 0.585815 0.078003
0.480499 0.597931 0.083801
0.562531 0.609985 0.090088
0.626709 0.607635 0.093597
0.636139 0.555237 0.086548
0.635040 0.509766 0.080109
0.632721 0.464539 0.073822
0.630432 0.419159 0.067902
0.648254 0.385315 0.065308
0.688995 0.366150 0.066864
0.727966 0.347656 0.068726
0.764771 0.329926 0.070862
0.799438 0.315460 0.073303
0.833496 0.327362 0.078247
0.865875 0.339722 0.083069
0.896545 0.351898 0.087769
0.925568 0.364563 0.092285
0.952087 0.376678 0.096619
0.976166 0.389191 0.100708
0.992828 0.405518 0.107544
0.992981 0.432129 0.122437
0.993134 0.459290 0.143433
0.993164 0.460754 0.144928
0.993164 0.460754 0.144928
0.103027 0.583282 0.069427
0.103027 0.583282 0.069427
0.103027 0.583282 0.069427
0.103027 0.583282 0.069427
0.113251 0.583282 0.069550
0.134460 0.583313 0.069855
0.161102 0.583405 0.070282
0.192657 0.583466 0.070923
0.245117 0.590912 0.073486
0.316101 0.602539 0.077728
0.394257 0.614319 0.082642
0.474426 0.626068 0.088165
0.555145 0.637848 0.094116
0.634857 0.649658 0.100525
0.669342 0.623474 0.098755
0.676300 0.573181 0.091919
0.674164 0.529510 0.085724
0.672119 0.484833 0.079651
0.670044 0.439362 0.073639
0.690704 0.407684 0.071686
0.729462 0.388794 0.073181
0.765991 0.370087 0.074860
0.800354 0.352112 0.076782
0.833160 0.334595 0.078827
0.865448 0.343628 0.083344
0.896149 0.356079 0.088074
0.925171 0.368225 0.092560
0.951660 0.380798 0.096924
0.975800 0.393494 0.101013
0.992859 0.409088 0.107666
0.993011 0.435608 0.122467
0.993164 0.462250 0.143188
0.993195 0.463562 0.144714
0.993195 0.463562 0.144714
0.109558 0.614624 0.075165
0.109558 0.614624 0.075165
0.109558 0.614624 0.075165
0.109558 0.614624 0.075165
0.119843 0.614624 0.075256
0.140991 0.614655 0.075592
0.167664 0.614716 0.076019
0.199036 0.614777 0.076660
0.245148 0.619446 0.078552
0.314453 0.630707 0.082581
0.390747 0.642151 0.087250
0.469604 0.653564 0.092438
0.548828 0.665009 0.098175
0.626953 0.676392 0.104248
0.701019 0.686676 0.110413
0.710083 0.638885 0.103790
0.713470 0.592224 0.097321
0.711578 0.549255 0.091278
0.709717 0.504761 0.085297
0.707825 0.459351 0.079437
0.730957 0.430237 0.078003
0.767303 0.411224 0.079376
0.801453 0.392792 0.080902
0.834076 0.374603 0.082611
0.865234 0.356628 0.084473
0.895660 0.360016 0.088318
0.924622 0.372345 0.092834
0.951355 0.385010 0.097229
0.975433 0.397339 0.101318
0.992859 0.413025 0.107788
0.993042 0.438934 0.122498
0.993195 0.465424 0.143097
0.993195 0.467041 0.144592
0.993195 0.467041 0.144592
0.116028 0.645081 0.080872
0.116028 0.645081 0.080872
0.116028 0.645081 0.080872
0.116028 0.645081 0.080872
0.126343 0.645081 0.080994
0.147552 0.645111 0.081268
0.174103 0.645172 0.081726
0.205475 0.645233 0.082336
0.245331 0.647064 0.083557
0.313263 0.658142 0.087402
0.388245 0.669250 0.091858
0.465759 0.680389 0.096863
0.543427 0.691437 0.102295
0.620392 0.702454 0.108124
0.695374 0.713562 0.114258
0.739777 0.701447 0.115204
0.748474 0.653595 0.108704
0.748596 0.611023 0.102600
0.746887 0.568268 0.096619
0.745209 0.524353 0.090759
0.743561 0.479187 0.084991
0.768677 0.452454 0.084106
0.802612 0.433685 0.085327
0.835022 0.415192 0.086731
0.866028 0.396790 0.088257
0.895691 0.378754 0.089996
0.924316 0.376343 0.093140
0.950928 0.388916 0.097504
0.975159 0.401520 0.101654
0.992859 0.416504 0.107910
0.993042 0.442596 0.122620
0.993225 0.468475 0.142853
0.993225 0.469971 0.144440
0.993225 0.469971 0.144440
0.122406 0.674408 0.086395
0.122406 0.674408 0.086395
0.122406 0.674408 0.086395
0.122406 0.674408 0.086395
0.132782 0.674408 0.086517
0.154053 0.674438 0.086823
0.180725 0.674500 0.087250
0.211975 0.674561 0.087860
0.247742 0.674652 0.088623
0.312378 0.684570 0.092072
0.385803 0.695251 0.096344
0.462219 0.706055 0.101135
0.539001 0.716797 0.106354
0.614716 0.727417 0.111908
0.688690 0.738129 0.117767
0.757660 0.748749 0.123779
0.775940 0.714966 0.119781
0.782776 0.669098 0.113464
0.781250 0.628540 0.107605
0.779724 0.586487 0.101746
0.778229 0.542938 0.095886
0.776733 0.498199 0.090240
0.803772 0.474426 0.089966
0.836029 0.455811 0.091095
0.866852 0.437195 0.092316
0.896362 0.418854 0.093811
0.924408 0.400848 0.095337
0.950562 0.392822 0.097809
0.974731 0.405243 0.101898
0.992889 0.420410 0.108002
0.993073 0.445557 0.122620
0.993256 0.471771 0.142792
0.993256 0.473145 0.144226
0.993256 0.473145 0.144226
0.128845 0.702789 0.091766
0.128845 0.702789 0.091766
0.128845 0.702789 0.091766
0.128845 0.702789 0.091766
0.139191 0.702789 0.091888
0.160522 0.702820 0.092163
0.187286 0.702881 0.092590
0.218567 0.702942 0.093170
0.254242 0.703033 0.093964
0.312103 0.710266 0.096771
0.384369 0.720612 0.100861
0.459259 0.731018 0.105438
0.534790 0.741302 0.110382
0.609863 0.751678 0.115723
0.682800 0.761871 0.121368
0.751404 0.772125 0.127167
0.801910 0.770874 0.130280
0.809784 0.728516 0.124268
0.813446 0.685791 0.118164
0.812103 0.645874 0.112427
0.810730 0.604553 0.106720
0.809418 0.561432 0.100952
0.808105 0.517426 0.095398
0.837036 0.496307 0.095703
0.867706 0.477600 0.096710
0.897064 0.459167 0.097870
0.924957 0.440765 0.099152
0.950775 0.422882 0.100494
0.974457 0.409332 0.102203
0.992920 0.423920 0.108124
0.993073 0.449188 0.122711
0.993256 0.474945 0.142700
0.993286 0.476288 0.144135
0.993286 0.476288 0.144135
0.135040 0.730011 0.096985
0.135040 0.730011 0.096985
0.135040 0.730011 0.096985
0.135040 0.730011 0.096985
0.145477 0.730011 0.097107
0.166931 0.730103 0.097412
0.193756 0.730133 0.097870
0.225220 0.730194 0.098450
0.260834 0.730286 0.099182
0.312195 0.734924 0.101318
0.382965 0.744904 0.105225
0.456940 0.754883 0.109589
0.531677 0.764893 0.114380
0.605347 0.774841 0.119476
0.677734 0.784729 0.124969
0.745911 0.794586 0.130524
0.807922 0.804260 0.136108
0.833801 0.783264 0.134460
0.841583 0.740692 0.128479
0.842255 0.701447 0.122711
0.841034 0.662323 0.117035
0.839844 0.621613 0.111450
0.838654 0.579407 0.105896
0.838043 0.536011 0.100403
0.868530 0.517395 0.101196
0.897766 0.498932 0.102173
0.925537 0.480682 0.103241
0.951202 0.462402 0.104309
0.974701 0.444427 0.105408
0.992950 0.428223 0.108307
0.993103 0.452789 0.122803
0.993286 0.477814 0.142487
0.993286 0.479156 0.143890
0.993286 0.479156 0.143890
0.141296 0.756378 0.102142
0.141296 0.756378 0.102142
0.141296 0.756378 0.102142
0.141296 0.756378 0.102142
0.151794 0.756378 0.102264
0.173492 0.756409 0.102570
0.200287 0.756470 0.102966
0.231781 0.756531 0.103546
0.267365 0.756622 0.104279
0.312042 0.758759 0.105774
0.381989 0.768463 0.109497
0.455353 0.778107 0.113770
0.528961 0.787781 0.118317
0.601837 0.797363 0.123260
0.673340 0.806915 0.128510
0.740448 0.816315 0.133850
0.802643 0.825928 0.139313
0.856903 0.833679 0.144257
0.864349 0.795074 0.138580
0.870819 0.753601 0.132690
0.869781 0.717194 0.127228
0.868713 0.678925 0.121674
0.867676 0.638947 0.116150
0.866608 0.597076 0.110626
0.869446 0.556976 0.105988
0.898468 0.538696 0.106689
0.926117 0.520477 0.107513
0.951660 0.502228 0.108398
0.975037 0.483917 0.109253
0.993225 0.467438 0.111816
0.993164 0.461243 0.123352
0.993286 0.480988 0.142365
0.993286 0.482422 0.143829
0.993286 0.482422 0.143829
0.147308 0.781433 0.107086
0.147308 0.781433 0.107086
0.147308 0.781433 0.107086
0.147308 0.781433 0.107086
0.158112 0.781433 0.107178
0.179810 0.781464 0.107483
0.206818 0.781525 0.107910
0.238251 0.781586 0.108459
0.273987 0.781677 0.109192
0.313019 0.781769 0.110107
0.381470 0.790955 0.113739
0.453613 0.800293 0.117737
0.526245 0.809601 0.122223
0.598358 0.818909 0.126953
0.669342 0.828308 0.132050
0.736298 0.837585 0.137299
0.797607 0.846802 0.142517
0.853790 0.856049 0.147736
0.885834 0.844513 0.148071
0.893127 0.805878 0.142426
0.896667 0.767700 0.136841
0.895721 0.731934 0.131470
0.894836 0.694519 0.126129
0.893890 0.655121 0.120636
0.893005 0.613678 0.115143
0.899231 0.577087 0.111267
0.926697 0.559143 0.111908
0.952148 0.541168 0.112579
0.975403 0.523285 0.113251
0.993500 0.506134 0.115540
0.993408 0.496887 0.126434
0.993378 0.492798 0.143066
