classic/港味-f.CUBE
#Created by: Adobe Photoshop Export Color Lookup Plugin
TITLE "多场景样片-v1.0.psd"
#LUT size
LUT_3D_SIZE 7
#data domain
#LUT data points
DOMAIN_MIN 0.000000 0.000000 0.000000
DOMAIN_MAX 0.909091 0.909091 0.909091
0.014771 0.026031 0.015106
0.051819 0.034180 0.018402
0.216736 0.063202 0.031738
0.440948 0.097382 0.053925
0.658905 0.133270 0.079498
0.836731 0.167786 0.104523
0.971375 0.199554 0.127777
0.020538 0.124939 0.011780
0.094635 0.142212 0.006500
0.235992 0.125366 0.025909
0.446259 0.178711 0.058044
0.662048 0.208557 0.082947
0.838196 0.237701 0.107483
0.971710 0.265686 0.130341
0.049713 0.313965 0.022125
0.085205 0.314026 0.022583
0.316040 0.268433 0.024872
0.505829 0.204865 0.032501
0.728729 0.264893 0.061127
0.870636 0.337891 0.097839
0.978546 0.418488 0.133453
0.083191 0.484924 0.051392
0.115051 0.484955 0.051849
0.409607 0.526611 0.068878
0.546234 0.377167 0.055634
0.726013 0.284302 0.062500
0.897461 0.344086 0.087219
0.992920 0.425262 0.122375
0.116028 0.645081 0.080872
0.147552 0.645111 0.081268
0.388245 0.669250 0.091858
0.739777 0.701447 0.115204
0.743561 0.479187 0.084991
0.895691 0.378754 0.089996
0.993042 0.442596 0.122620
0.147308 0.781433 0.107086
0.179810 0.781464 0.107483
0.381470 0.790955 0.113739
0.736298 0.837585 0.137299
0.896667 0.767700 0.136841
0.899231 0.577087 0.111267
0.993408 0.496887 0.126434
0.177521 0.896790 0.130524
0.211670 0.896851 0.130981
0.386444 0.897217 0.134521
0.720001 0.939697 0.155182
0.974701 0.984131 0.178925
0.996918 0.827728 0.157043
0.994904 0.666473 0.143890
0.023071 0.054077 0.148834
0.046112 0.039825 0.153198
0.225250 0.047363 0.140747
0.446686 0.072906 0.162109
0.660980 0.101746 0.187683
0.837311 0.128510 0.204712
0.971313 0.153290 0.218262
0.021210 0.114319 0.149445
0.056763 0.132080 0.157349
0.226044 0.135284 0.161011
0.446564 0.154755 0.181458
0.661469 0.176056 0.193359
0.837524 0.197906 0.206818
0.971313 0.218903 0.220459
0.029663 0.293457 0.150391
0.055786 0.305420 0.145264
0.315613 0.340179 0.144012
0.486237 0.296539 0.169464
0.668732 0.369171 0.227448
0.841400 0.396271 0.250549
0.972565 0.423859 0.273376
0.050934 0.484436 0.108002
0.067474 0.517822 0.092316
0.274017 0.520874 0.144012
0.599426 0.458496 0.117645
0.775726 0.354889 0.115021
0.902130 0.430664 0.165131
0.993530 0.514313 0.234253
0.080170 0.643372 0.102783
0.090607 0.695892 0.097382
0.288513 0.693390 0.144501
0.732452 0.787750 0.141968
0.822296 0.562561 0.118317
0.973419 0.418365 0.109009
0.993683 0.531738 0.231506
0.106537 0.780853 0.116821
0.118286 0.825287 0.115356
0.308044 0.838043 0.151276
0.667969 0.899109 0.154968
0.977692 0.904541 0.166412
0.983826 0.655945 0.130554
0.993805 0.550415 0.229004
0.130066 0.896667 0.132507
0.147827 0.937927 0.138947
0.328186 0.965607 0.164856
0.628998 0.997772 0.172516
0.931610 0.999451 0.206757
0.997589 0.872528 0.222534
0.995422 0.716339 0.240021
0.026978 0.075012 0.319885
0.035461 0.047241 0.320404
0.289886 0.051483 0.361755
0.458069 0.070312 0.302246
0.668854 0.098999 0.320496
0.841705 0.126129 0.341125
0.972534 0.151794 0.362640
0.030548 0.151276 0.320862
0.056549 0.153381 0.326904
0.257477 0.132690 0.356262
0.458527 0.150513 0.319244
0.668396 0.174194 0.337952
0.840820 0.196716 0.358429
0.971649 0.218872 0.379333
0.032745 0.260040 0.309998
0.057465 0.269836 0.318390
0.229431 0.315125 0.352875
0.458221 0.329773 0.364197
0.668549 0.345886 0.374115
0.840851 0.362885 0.382050
0.972107 0.380737 0.390717
0.057983 0.448517 0.336456
0.074890 0.460571 0.337708
0.208099 0.501282 0.323120
0.546906 0.508392 0.329163
0.710052 0.470428 0.352386
0.849487 0.549347 0.405487
0.973846 0.584503 0.429321
0.081238 0.649048 0.298706
0.094208 0.661407 0.290222
0.192261 0.688751 0.253662
0.535004 0.710724 0.316223
0.782013 0.608459 0.287170
0.928619 0.529907 0.281433
0.994415 0.618835 0.389496
0.107300 0.784821 0.254578
0.115936 0.824310 0.225220
0.195618 0.835419 0.215668
0.520111 0.834778 0.314575
0.920258 0.925323 0.266205
0.956177 0.697723 0.246490
0.994568 0.635315 0.386688
0.130646 0.899658 0.221130
0.139069 0.938873 0.191528
0.220459 0.963379 0.212646
0.535431 0.962036 0.302948
0.855133 0.998901 0.306885
0.998413 0.918945 0.363434
0.996033 0.763489 0.391632
0.030182 0.102905 0.468506
0.030579 0.053253 0.468292
0.240173 0.059631 0.496490
0.527954 0.077698 0.504364
0.676239 0.096375 0.445068
0.845551 0.123718 0.456543
0.974670 0.148743 0.473938
0.034668 0.175751 0.469269
0.060181 0.176788 0.474487
0.216003 0.142761 0.491638
0.528015 0.155212 0.516113
0.675995 0.170349 0.455841
0.844482 0.194305 0.471680
0.973663 0.215942 0.489136
0.035828 0.282837 0.466003
0.057068 0.297058 0.474915
0.243805 0.342102 0.497559
0.505188 0.327057 0.527435
0.674988 0.342285 0.493622
0.844177 0.360382 0.509674
0.973053 0.379028 0.526978
0.053833 0.415588 0.455902
0.071198 0.425690 0.463196
0.233612 0.462158 0.490997
0.464996 0.504883 0.522339
0.674744 0.520447 0.531677
0.844177 0.536316 0.538483
0.973236 0.553802 0.546936
0.084503 0.601807 0.494385
0.096588 0.612549 0.497101
0.227631 0.648285 0.500427
0.431335 0.685120 0.473724
0.738464 0.654022 0.492035
0.878204 0.641602 0.513550
0.981018 0.711426 0.562988
0.108856 0.779541 0.473938
0.117645 0.787323 0.471008
0.203705 0.813660 0.450043
0.417511 0.831512 0.432831
0.774078 0.866089 0.467743
0.925293 0.738251 0.450684
0.995453 0.717224 0.532074
0.132690 0.909119 0.434326
0.140717 0.932312 0.424164
0.195221 0.954376 0.386414
0.435181 0.958984 0.418945
0.742035 0.968170 0.470123
0.999695 0.984467 0.493103
0.996643 0.808258 0.533783
0.030640 0.129211 0.623047
0.028229 0.075867 0.622742
0.205475 0.070374 0.640717
0.551086 0.086395 0.682953
0.700195 0.099152 0.612244
0.849426 0.121338 0.578552
0.975800 0.147186 0.586243
0.035614 0.198364 0.623657
0.066833 0.199341 0.628784
0.186890 0.154602 0.635620
0.522980 0.162170 0.678345
0.699951 0.172302 0.624176
0.849060 0.190704 0.589722
0.975586 0.213043 0.601990
0.041809 0.318573 0.624268
0.066833 0.334076 0.630096
0.256683 0.366150 0.649597
0.460571 0.335327 0.668579
0.700134 0.340698 0.654053
0.847992 0.356842 0.625427
0.975311 0.374695 0.641724
0.053253 0.419678 0.604675
0.069183 0.435150 0.614624
0.237244 0.486328 0.648743
0.479645 0.532043 0.672272
0.700836 0.516479 0.683746
0.847626 0.532806 0.666290
0.974060 0.550049 0.683319
0.077209 0.571320 0.603790
0.089630 0.580597 0.611084
0.243683 0.613007 0.637817
0.469757 0.646881 0.666351
0.682068 0.678650 0.692719
0.847931 0.694305 0.701874
0.974945 0.716309 0.718292
0.107605 0.744080 0.654114
0.119171 0.749542 0.658844
0.251282 0.775909 0.668762
0.450043 0.805695 0.664551
0.667755 0.827820 0.649597
0.891327 0.777893 0.650146
0.996399 0.791626 0.684845
0.132324 0.890076 0.645721
0.138763 0.896790 0.644012
0.226929 0.921143 0.632721
0.411743 0.945557 0.600830
0.677979 0.954926 0.628632
0.949615 0.999573 0.620941
0.997253 0.850403 0.684204
0.028564 0.153839 0.777802
0.025604 0.103699 0.777588
0.176636 0.083466 0.784729
0.508728 0.095795 0.816315
0.805786 0.114105 0.846313
0.851624 0.121490 0.734314
0.977844 0.144135 0.717865
0.034241 0.220917 0.778198
0.074615 0.221741 0.782318
0.175842 0.162689 0.785461
0.483765 0.171631 0.813080
0.790222 0.183167 0.844391
0.851288 0.190643 0.745270
0.977478 0.210022 0.728760
0.046722 0.358490 0.778320
0.082092 0.375122 0.783051
0.270996 0.391754 0.798126
0.431580 0.347260 0.805420
0.738098 0.349274 0.836456
0.850891 0.354767 0.771790
0.976868 0.371552 0.758667
0.056824 0.459686 0.773193
0.073029 0.474243 0.781464
0.257965 0.524261 0.799347
0.492859 0.555908 0.815002
0.688751 0.526428 0.829865
0.851135 0.528351 0.797211
0.976257 0.544830 0.793701
0.074615 0.568329 0.753540
0.087646 0.577759 0.759674
0.245941 0.617798 0.785217
0.472839 0.664978 0.814850
0.694366 0.701691 0.831268
0.851685 0.689148 0.821777
0.976074 0.704041 0.827881
0.100464 0.717194 0.762268
0.111481 0.724915 0.768433
0.255951 0.751312 0.789825
0.477417 0.778351 0.812012
0.687744 0.803925 0.832825
0.853180 0.821594 0.844788
0.976654 0.842682 0.859497
0.128845 0.866058 0.807770
0.140076 0.870575 0.811371
0.277863 0.886322 0.823669
0.472046 0.913086 0.826813
0.663208 0.938080 0.815948
0.861420 0.951233 0.827179
0.997894 0.889038 0.825500
0.035492 0.179016 0.904358
0.031952 0.131500 0.904175
0.160431 0.097931 0.905121
0.475525 0.107422 0.926086
0.776794 0.122864 0.946777
0.948975 0.138214 0.950470
0.978027 0.144135 0.854279
0.041840 0.245636 0.904633
0.085571 0.246521 0.907410
0.172638 0.172485 0.908966
0.453278 0.182434 0.923645
0.757019 0.191681 0.945160
0.948456 0.204102 0.956482
0.977631 0.209900 0.862976
0.056488 0.401886 0.905182
0.099670 0.418152 0.908478
0.287781 0.419678 0.918030
0.421295 0.360413 0.920166
0.706848 0.360809 0.939728
0.930908 0.363342 0.956604
0.977051 0.370789 0.883881
0.060974 0.499908 0.905579
0.086273 0.514801 0.908752
0.284882 0.565918 0.918945
0.508636 0.582153 0.929291
0.664703 0.540466 0.934875
0.902283 0.535400 0.954315
0.976959 0.542175 0.903870
0.076904 0.597076 0.891357
0.092377 0.610840 0.897614
0.254791 0.655640 0.917328
0.495331 0.699158 0.930573
0.707428 0.724060 0.940308
0.866333 0.697144 0.950775
0.977295 0.700195 0.923035
0.097595 0.711426 0.882324
0.110138 0.719269 0.886993
0.258942 0.745331 0.902740
0.483002 0.775879 0.919891
0.692169 0.814423 0.940674
0.854584 0.835327 0.950195
0.977875 0.832397 0.941010
0.123047 0.846252 0.898224
0.134064 0.852661 0.902679
0.271240 0.874268 0.917633
0.488525 0.896698 0.932526
0.695984 0.917816 0.945618
0.858551 0.933868 0.953918
0.980408 0.945923 0.958649
