classic/经典人像.cube
#Created by: Adobe Photoshop Export Color Lookup Plugin
#Copyright: (C) Copyright 2026 小米
TITLE "双lut叠加-人像.psd"
#LUT size
LUT_3D_SIZE 34
#data domain
DOMAIN_MIN 0.0 0.0 0.0
DOMAIN_MAX 1.0 1.0 1.0
#LUT data points
0.124023 0.081421 0.069122
0.151093 0.087402 0.062958
0.178650 0.090332 0.056458
0.217285 0.095062 0.044800
0.254608 0.100189 0.040253
0.290558 0.106140 0.031403
0.329865 0.112671 0.022125
0.373169 0.120544 0.022156
0.420898 0.129242 0.029968
0.470917 0.138397 0.036102
0.520538 0.147858 0.039429
0.569702 0.157806 0.040222
0.620087 0.167969 0.045502
0.672058 0.178833 0.050201
0.722504 0.190338 0.054352
0.768372 0.201355 0.059113
0.808960 0.212372 0.064117
0.844482 0.223236 0.069397
0.875458 0.233795 0.074585
0.902740 0.244293 0.080231
0.927887 0.255371 0.085938
0.953247 0.267029 0.092468
0.977295 0.278564 0.099670
0.994934 0.290405 0.107117
1.000000 0.302399 0.115051
1.000000 0.314514 0.123444
1.000000 0.326569 0.132141
1.000000 0.339172 0.140656
1.000000 0.351501 0.149536
1.000000 0.364441 0.158295
1.000000 0.377655 0.167023
1.000000 0.391296 0.175079
1.000000 0.405762 0.177765
1.000000 0.421722 0.174744
0.108704 0.088989 0.094299
0.140747 0.097748 0.082764
0.174927 0.102875 0.073090
0.216675 0.108002 0.056244
0.255127 0.113281 0.048645
0.291382 0.117981 0.039490
0.330231 0.123779 0.030640
0.373871 0.131165 0.022980
0.421783 0.139526 0.029480
0.471527 0.148407 0.034790
0.520569 0.157440 0.037842
0.569519 0.167175 0.037445
0.619812 0.177155 0.042725
0.671692 0.187775 0.047546
0.721649 0.198944 0.051727
0.767151 0.209656 0.056580
0.807587 0.220398 0.061676
0.843140 0.230682 0.067017
0.873932 0.240936 0.072296
0.901306 0.250854 0.078247
0.926880 0.261383 0.084076
0.952057 0.272400 0.090759
0.975616 0.283600 0.097839
0.993927 0.294647 0.105469
1.000000 0.306152 0.113281
1.000000 0.317963 0.121582
1.000000 0.329620 0.130280
1.000000 0.341736 0.138977
1.000000 0.353943 0.147888
1.000000 0.366516 0.156738
1.000000 0.379486 0.165466
1.000000 0.392792 0.173798
1.000000 0.407135 0.177521
1.000000 0.422974 0.174561
0.090485 0.098602 0.123505
0.127197 0.107361 0.110443
0.160614 0.117340 0.098877
0.210815 0.123383 0.072266
0.255676 0.127533 0.056091
0.291962 0.130951 0.049561
0.331543 0.135956 0.040100
0.375275 0.142822 0.027771
0.423035 0.150970 0.029663
0.472870 0.159485 0.034363
0.521667 0.168213 0.036713
0.570251 0.177551 0.034546
0.620209 0.187225 0.039825
0.671967 0.197815 0.044525
0.721832 0.208923 0.048737
0.766876 0.219299 0.053589
0.807129 0.229401 0.058868
0.842560 0.239349 0.064514
0.873108 0.248627 0.070007
0.900391 0.258362 0.075897
0.926361 0.268250 0.082153
0.951202 0.278595 0.088837
0.974609 0.289459 0.096039
0.993225 0.300079 0.103729
1.000000 0.311279 0.111633
1.000000 0.322357 0.120056
1.000000 0.333801 0.128784
1.000000 0.345520 0.137512
1.000000 0.357391 0.146545
1.000000 0.369781 0.155426
1.000000 0.382446 0.164307
1.000000 0.395447 0.172729
1.000000 0.409729 0.177094
1.000000 0.425201 0.174133
0.090515 0.110596 0.145416
0.103638 0.115967 0.144043
0.135468 0.124481 0.132812
0.180969 0.138916 0.119385
0.243286 0.145935 0.084198
0.287781 0.148926 0.068542
0.332642 0.153259 0.051910
0.377045 0.159363 0.040436
0.425537 0.166992 0.036560
0.475128 0.174988 0.037323
0.523438 0.183136 0.038116
0.572052 0.192169 0.034424
0.621948 0.201691 0.034790
0.672882 0.211914 0.039612
0.722168 0.222382 0.044159
0.766815 0.231995 0.049438
0.806702 0.241486 0.054840
0.841492 0.250519 0.060608
0.871979 0.259460 0.066437
0.899078 0.268066 0.072815
0.924896 0.277740 0.079163
0.949463 0.287476 0.086029
0.972534 0.296997 0.093353
0.992310 0.307312 0.101227
1.000000 0.317810 0.109253
1.000000 0.328491 0.117920
1.000000 0.339722 0.126953
1.000000 0.351166 0.135864
1.000000 0.362671 0.144989
1.000000 0.374725 0.153992
1.000000 0.387146 0.163025
1.000000 0.399933 0.171539
1.000000 0.413757 0.176300
1.000000 0.428986 0.173431
0.096191 0.123108 0.164734
0.103180 0.126770 0.165619
0.113159 0.132599 0.167419
0.143555 0.142700 0.159180
0.200592 0.161743 0.141022
0.272278 0.171387 0.103577
0.331268 0.174683 0.065765
0.378937 0.179932 0.053375
0.427002 0.187317 0.044678
0.476288 0.194855 0.041534
0.524506 0.202240 0.040955
0.572845 0.210846 0.035187
0.622681 0.220734 0.027100
0.673401 0.230469 0.032196
0.722107 0.240173 0.037231
0.766388 0.248993 0.042969
0.806122 0.257599 0.049103
0.840790 0.265778 0.055298
0.871094 0.273560 0.061798
0.898224 0.281586 0.068512
0.924042 0.290070 0.075500
0.948303 0.298798 0.082581
0.971161 0.307953 0.090179
0.991028 0.317352 0.098114
1.000000 0.327240 0.106689
1.000000 0.337494 0.115479
1.000000 0.347992 0.124695
1.000000 0.358643 0.133881
1.000000 0.369843 0.143250
1.000000 0.381561 0.152344
1.000000 0.393585 0.161469
1.000000 0.406067 0.170105
1.000000 0.419220 0.175293
1.000000 0.433990 0.172516
0.109924 0.143341 0.184998
0.111237 0.142212 0.185944
0.115631 0.143768 0.187927
0.128387 0.151276 0.189636
0.155304 0.163116 0.186188
0.221252 0.185638 0.164642
0.300842 0.198822 0.124268
0.371918 0.205597 0.081970
0.428558 0.211945 0.059998
0.477570 0.219055 0.055115
0.526123 0.226501 0.048065
0.574768 0.234497 0.042206
0.624634 0.243805 0.029022
0.675262 0.253082 0.025482
0.723633 0.261505 0.034210
0.767120 0.269928 0.035339
0.806335 0.277557 0.040680
0.840607 0.284241 0.048340
0.870544 0.290863 0.055969
0.897949 0.298401 0.062988
0.923645 0.305908 0.070465
0.947815 0.313843 0.078278
0.970612 0.321960 0.086243
0.999023 0.334991 0.097107
1.000000 0.344818 0.106598
1.000000 0.354156 0.116150
1.000000 0.363922 0.125641
1.000000 0.374329 0.134735
1.000000 0.384979 0.144073
1.000000 0.395538 0.153381
1.000000 0.406921 0.162415
1.000000 0.418823 0.170410
1.000000 0.431946 0.172943
1.000000 0.445953 0.170258
0.126190 0.168823 0.209076
0.128387 0.167633 0.209991
0.130829 0.166504 0.211914
0.132568 0.165649 0.214691
0.146851 0.174255 0.217133
0.171600 0.187927 0.217194
0.241669 0.212311 0.194183
0.332611 0.230957 0.150482
0.414185 0.241394 0.103729
0.479675 0.248230 0.071289
0.530518 0.254639 0.066101
0.580688 0.262787 0.062042
0.631805 0.271790 0.048859
0.682343 0.280212 0.037537
0.729401 0.287842 0.039551
0.771332 0.295258 0.033112
0.809143 0.301849 0.029755
0.842468 0.307434 0.039307
0.872467 0.313202 0.047821
0.900177 0.319519 0.056427
0.926025 0.326294 0.064819
0.950439 0.333405 0.073547
0.973572 0.341003 0.082397
0.996002 0.348938 0.091644
0.999908 0.360168 0.103333
1.000000 0.369232 0.113495
1.000000 0.378510 0.123260
1.000000 0.388031 0.132996
1.000000 0.397522 0.142517
1.000000 0.407776 0.151855
1.000000 0.418152 0.160980
1.000000 0.429413 0.169312
1.000000 0.441803 0.171082
1.000000 0.455566 0.168457
0.142365 0.196564 0.234344
0.145386 0.194733 0.235077
0.149231 0.193512 0.237122
0.152466 0.192261 0.239166
0.154297 0.191254 0.242188
0.164154 0.197083 0.245300
0.188477 0.212524 0.247620
0.266022 0.241241 0.224060
0.364807 0.265259 0.180939
0.453827 0.277557 0.130157
0.522919 0.284454 0.094299
0.580963 0.291595 0.075500
0.634064 0.300262 0.070801
0.685333 0.308746 0.062500
0.731995 0.316071 0.056427
0.773102 0.322296 0.044434
0.809967 0.327545 0.035004
0.842773 0.332397 0.037903
0.872467 0.337708 0.040771
0.899994 0.342804 0.046722
0.925690 0.348083 0.058075
0.950104 0.354126 0.066467
0.973389 0.360504 0.076477
0.994690 0.367828 0.086639
0.999573 0.375519 0.097382
1.000000 0.383850 0.108032
1.000000 0.392120 0.118622
1.000000 0.400787 0.128723
1.000000 0.409790 0.138580
1.000000 0.419067 0.148132
1.000000 0.428864 0.157715
1.000000 0.439240 0.166290
1.000000 0.450867 0.169373
1.000000 0.464417 0.175262
0.157043 0.224152 0.257782
0.160706 0.222168 0.258362
0.165649 0.220612 0.260437
0.170532 0.218811 0.262695
0.173889 0.217316 0.265015
0.175812 0.216248 0.268188
0.182800 0.220276 0.271881
0.210999 0.238708 0.274384
0.293304 0.272247 0.252411
0.395874 0.300079 0.212555
0.487274 0.313049 0.161316
0.565613 0.321320 0.109253
0.628693 0.328827 0.086365
0.682465 0.336914 0.083038
0.730377 0.344147 0.082062
0.772339 0.349792 0.077148
0.809357 0.354187 0.070312
0.841705 0.358154 0.064850
0.870819 0.362061 0.061523
0.897888 0.366211 0.060760
0.923492 0.370667 0.063934
0.947632 0.375580 0.068176
0.970978 0.381317 0.068176
0.991852 0.387146 0.085663
0.999512 0.393890 0.093933
1.000000 0.400787 0.102966
1.000000 0.408325 0.113434
1.000000 0.416107 0.123993
1.000000 0.424072 0.134338
1.000000 0.432404 0.144470
1.000000 0.441376 0.154205
1.000000 0.450867 0.163361
1.000000 0.461823 0.167389
1.000000 0.475098 0.187256
0.171082 0.253754 0.280975
0.174713 0.251801 0.281128
0.180939 0.249725 0.282990
0.187500 0.247467 0.285675
0.193146 0.245331 0.288239
0.197235 0.243774 0.290741
0.199463 0.242737 0.293915
0.201874 0.243958 0.297882
0.237000 0.267059 0.299805
0.323517 0.304810 0.278656
0.425995 0.334961 0.242615
0.519226 0.348816 0.193756
0.601562 0.358673 0.144196
0.673126 0.366241 0.102295
0.725067 0.372375 0.097107
0.768860 0.378204 0.100891
0.807007 0.382690 0.102783
0.839783 0.386536 0.103516
0.868652 0.388916 0.098938
0.895752 0.391815 0.096222
0.921173 0.395142 0.094513
0.945160 0.398987 0.092712
0.968384 0.403412 0.092316
0.988953 0.408203 0.098969
0.999725 0.414185 0.098358
1.000000 0.420013 0.108582
1.000000 0.426392 0.112579
1.000000 0.433167 0.122620
1.000000 0.439941 0.136780
1.000000 0.447327 0.145538
1.000000 0.455536 0.152985
1.000000 0.463989 0.160034
1.000000 0.474426 0.174866
1.000000 0.487488 0.202728
0.183685 0.286652 0.303558
0.187073 0.284607 0.303406
0.194916 0.282318 0.305054
0.203613 0.279510 0.307556
0.211670 0.276428 0.310669
0.218079 0.274078 0.313385
0.222290 0.272003 0.315979
0.225220 0.271362 0.319489
0.227234 0.272552 0.324463
0.266113 0.298157 0.325775
0.353607 0.337646 0.305084
0.455658 0.369354 0.271118
0.550873 0.384827 0.224945
0.634491 0.396027 0.181122
0.707550 0.402557 0.136017
0.760315 0.406494 0.119629
0.800812 0.410431 0.121857
0.834808 0.414734 0.130402
0.864960 0.417389 0.134705
0.892639 0.419922 0.134125
0.917969 0.421783 0.131958
0.942078 0.424286 0.130829
0.965240 0.427521 0.129913
0.986298 0.431305 0.129364
1.000000 0.435791 0.128235
1.000000 0.440369 0.132782
1.000000 0.445709 0.136139
1.000000 0.451263 0.139832
1.000000 0.457306 0.150055
1.000000 0.464020 0.158936
1.000000 0.471161 0.168823
1.000000 0.478821 0.176025
1.000000 0.488708 0.193054
1.000000 0.501770 0.221924
0.196594 0.321014 0.325989
0.200317 0.319214 0.325653
0.208679 0.317444 0.327484
0.218781 0.314667 0.329742
0.229675 0.310852 0.332672
0.239288 0.306976 0.336334
0.245819 0.304626 0.338928
0.250397 0.302551 0.341797
0.253937 0.302643 0.345703
0.256897 0.304901 0.351624
0.297455 0.331818 0.352875
0.383179 0.371246 0.332611
0.486908 0.406006 0.301788
0.585510 0.423950 0.256958
0.667236 0.434967 0.219635
0.735382 0.440125 0.183624
0.790863 0.441315 0.145721
0.828369 0.443512 0.148895
0.860931 0.446838 0.157196
0.890076 0.449982 0.164673
0.916626 0.452637 0.170013
0.940857 0.454102 0.168091
0.964233 0.455780 0.166504
0.985840 0.457977 0.165833
1.000000 0.461304 0.166687
1.000000 0.464844 0.167450
1.000000 0.468811 0.170258
1.000000 0.473083 0.173767
1.000000 0.478088 0.178680
1.000000 0.483704 0.185028
1.000000 0.490021 0.193298
1.000000 0.497070 0.203278
1.000000 0.506470 0.219482
1.000000 0.519501 0.245911
0.210693 0.357849 0.349091
0.215057 0.357056 0.349182
0.223938 0.355103 0.350586
0.235474 0.353027 0.353058
0.247955 0.349274 0.355591
0.260437 0.344757 0.359009
0.270325 0.340454 0.362610
0.276947 0.337830 0.365082
0.281891 0.336212 0.368317
0.286072 0.337250 0.372711
0.290497 0.341034 0.379608
0.329987 0.367279 0.380524
0.413239 0.406372 0.361328
0.520508 0.446533 0.334778
0.619415 0.463928 0.289398
0.696411 0.473114 0.255707
0.759216 0.476746 0.224884
0.811432 0.477112 0.196686
0.852753 0.477661 0.184082
0.886963 0.479431 0.183838
0.915283 0.483124 0.194611
0.941193 0.485657 0.200897
0.965149 0.487732 0.202759
0.987183 0.488647 0.201508
0.997894 0.490082 0.201202
1.000000 0.492310 0.202454
1.000000 0.495056 0.204224
1.000000 0.498169 0.207123
1.000000 0.501892 0.211700
1.000000 0.506500 0.217041
1.000000 0.511993 0.224243
1.000000 0.518372 0.233185
1.000000 0.527466 0.248810
1.000000 0.540649 0.273926
0.228485 0.393921 0.371948
0.233154 0.393036 0.371887
0.243195 0.392792 0.374237
0.254883 0.390961 0.376404
0.268677 0.388000 0.379059
0.282288 0.383911 0.381989
0.295013 0.379181 0.385651
0.304291 0.375061 0.388672
0.310669 0.372498 0.391174
0.315552 0.371613 0.394501
0.319855 0.372864 0.398560
0.324860 0.377136 0.405548
0.362885 0.402740 0.406464
0.444366 0.442108 0.388947
0.545258 0.477966 0.360321
0.638885 0.494141 0.319366
0.711975 0.502136 0.287262
0.771454 0.504822 0.260590
0.821655 0.505310 0.236237
0.864746 0.504791 0.218994
0.903320 0.504791 0.203949
0.931366 0.507751 0.213196
0.957275 0.511963 0.223938
0.980713 0.514557 0.230316
0.994873 0.515625 0.231567
1.000000 0.516815 0.231934
1.000000 0.518402 0.233521
1.000000 0.520874 0.236053
1.000000 0.524017 0.239624
1.000000 0.527710 0.244873
1.000000 0.532837 0.251678
1.000000 0.538727 0.260010
1.000000 0.547089 0.273132
1.000000 0.559845 0.297302
0.248169 0.425507 0.391846
0.251923 0.424713 0.391815
0.261566 0.425140 0.393860
0.275452 0.425568 0.397278
0.288910 0.422516 0.399445
0.302490 0.418335 0.401703
0.315613 0.413666 0.404572
0.327118 0.408539 0.407867
0.334869 0.404785 0.410156
0.340393 0.402313 0.412445
0.345276 0.402130 0.415588
0.349243 0.403381 0.419586
0.354614 0.408051 0.426300
0.391724 0.432922 0.426636
0.472107 0.472412 0.409515
0.568512 0.507294 0.383636
0.655090 0.523010 0.348877
0.725220 0.529572 0.318634
0.782166 0.532043 0.294006
0.830902 0.532104 0.273499
0.874451 0.531799 0.254456
0.914124 0.530792 0.236969
0.944550 0.533417 0.239563
0.972137 0.536682 0.244995
0.989868 0.540833 0.256470
1.000000 0.543671 0.262878
1.000000 0.544525 0.264679
1.000000 0.545990 0.266937
1.000000 0.548462 0.270111
1.000000 0.551636 0.274933
1.000000 0.555847 0.281067
1.000000 0.561279 0.288330
1.000000 0.568726 0.299713
1.000000 0.581146 0.320618
0.266815 0.455475 0.409729
0.270508 0.454895 0.409698
0.277802 0.454865 0.410797
0.290955 0.455353 0.413635
0.306091 0.454926 0.416901
0.320221 0.451477 0.419128
0.333923 0.446838 0.421448
0.346741 0.441528 0.424255
0.357117 0.436310 0.427216
0.363739 0.432739 0.429108
0.368896 0.430725 0.431396
0.373932 0.431305 0.434662
0.377411 0.432251 0.438263
0.383270 0.437408 0.445068
0.420929 0.462555 0.444672
0.500061 0.501587 0.427734
0.590942 0.534729 0.404114
0.670959 0.550201 0.374634
0.737396 0.556061 0.346893
0.791687 0.558411 0.326172
0.839447 0.559113 0.308289
0.882324 0.558929 0.291901
0.921509 0.558685 0.276917
0.955353 0.559723 0.270721
0.981934 0.562073 0.272247
0.999146 0.566559 0.281982
1.000000 0.571045 0.293823
1.000000 0.572998 0.298492
1.000000 0.574707 0.301331
1.000000 0.577057 0.305023
1.000000 0.580902 0.310455
1.000000 0.585693 0.317139
1.000000 0.592346 0.326019
1.000000 0.604095 0.344757
0.284302 0.484344 0.425629
0.287994 0.483795 0.425476
0.293671 0.483490 0.425995
0.305603 0.484344 0.428467
0.321533 0.485077 0.432037
0.337006 0.483185 0.434814
0.351562 0.479218 0.437164
0.365417 0.474243 0.439758
0.377777 0.468994 0.442688
0.386902 0.464294 0.445374
0.392853 0.460938 0.447113
0.397614 0.459137 0.449402
0.402466 0.460083 0.452606
0.405548 0.460663 0.456024
0.411133 0.465698 0.462585
0.450531 0.491577 0.461029
0.526611 0.529083 0.444611
0.611511 0.559875 0.422546
0.684967 0.574646 0.397247
0.748749 0.580353 0.372040
0.801239 0.583344 0.353790
0.847656 0.585114 0.339203
0.889771 0.586212 0.325348
0.928223 0.586578 0.314392
0.963226 0.586914 0.305145
0.988373 0.588989 0.306061
0.999390 0.591217 0.306793
1.000000 0.597412 0.320801
1.000000 0.602386 0.331604
1.000000 0.604187 0.334778
1.000000 0.607025 0.338531
1.000000 0.611084 0.344482
1.000000 0.616516 0.351440
1.000000 0.626801 0.366577
0.300781 0.512268 0.440155
0.303894 0.511688 0.440002
0.307800 0.511169 0.439972
0.318665 0.511902 0.441986
0.334015 0.513214 0.445282
0.351929 0.513977 0.449158
0.367310 0.510315 0.451385
0.382019 0.505157 0.453522
0.395599 0.499969 0.456299
0.407013 0.494354 0.459381
0.414734 0.490143 0.461548
0.420288 0.487274 0.463409
0.424744 0.486023 0.465729
0.429077 0.486572 0.468719
0.432098 0.487183 0.472229
0.438721 0.493561 0.479553
0.478882 0.519714 0.477753
0.552399 0.555664 0.461151
0.630463 0.583649 0.440826
0.699615 0.597839 0.417786
0.760284 0.603271 0.393799
0.811340 0.607452 0.378418
0.856628 0.610260 0.366089
0.897705 0.612183 0.355377
0.934875 0.613586 0.348358
0.968140 0.614288 0.341064
0.991943 0.615814 0.338104
1.000000 0.618347 0.338684
1.000000 0.622223 0.344513
1.000000 0.628876 0.357269
1.000000 0.633301 0.365143
1.000000 0.636566 0.369720
1.000000 0.641388 0.376007
1.000000 0.650330 0.388611
0.316864 0.541412 0.454651
0.319702 0.540924 0.454529
0.327148 0.546631 0.457611
0.337494 0.547211 0.459137
0.351807 0.548309 0.461975
0.369232 0.548981 0.465363
0.387665 0.548370 0.469055
0.403717 0.543915 0.471375
0.418610 0.538361 0.473816
0.431824 0.532684 0.476715
0.442078 0.527100 0.479462
0.448944 0.522766 0.481354
0.453918 0.519958 0.483154
0.458496 0.519348 0.485657
0.462738 0.519836 0.488800
0.465302 0.520325 0.492401
0.472443 0.527191 0.500122
0.512390 0.552948 0.498077
0.580780 0.585876 0.481628
0.651855 0.610413 0.462250
0.715942 0.623505 0.440735
0.774506 0.628632 0.417023
0.823761 0.633087 0.403168
0.867340 0.636719 0.392914
0.906738 0.639282 0.385284
0.942200 0.640900 0.378357
0.972443 0.642212 0.373352
0.994751 0.643799 0.370453
1.000000 0.645844 0.369904
1.000000 0.650116 0.375610
1.000000 0.655975 0.385040
1.000000 0.662476 0.394165
1.000000 0.667053 0.400452
1.000000 0.675293 0.411835
0.335236 0.572540 0.470215
0.338867 0.572479 0.470306
0.342651 0.572723 0.470520
0.351532 0.574280 0.472290
0.365936 0.575348 0.474976
0.383606 0.576508 0.478607
0.403564 0.576904 0.482788
0.421021 0.573730 0.485718
0.436676 0.568878 0.488190
0.450684 0.563507 0.490814
0.462708 0.557587 0.493744
0.471283 0.552307 0.496094
0.476898 0.548187 0.497589
0.481293 0.545685 0.499390
0.486206 0.546143 0.502289
0.490570 0.546997 0.505615
0.492615 0.547241 0.509033
0.500427 0.554810 0.517426
0.540192 0.580383 0.515411
0.603729 0.610809 0.500244
0.669189 0.633179 0.481873
0.729065 0.645691 0.461639
0.785858 0.650482 0.437988
0.833801 0.655426 0.424957
0.875977 0.659882 0.416565
0.914062 0.663239 0.410187
0.948425 0.665497 0.404510
0.979767 0.667908 0.401855
0.993439 0.669647 0.399445
1.000000 0.672516 0.400116
1.000000 0.676605 0.403503
1.000000 0.682220 0.410309
1.000000 0.691315 0.424500
1.000000 0.701843 0.439484
0.355225 0.599579 0.484985
0.358551 0.599731 0.485138
0.362457 0.599701 0.485138
0.369904 0.600037 0.486267
0.383392 0.600922 0.488770
0.400757 0.601929 0.492310
0.420715 0.602722 0.496765
0.440552 0.602234 0.501129
0.456146 0.597961 0.503448
0.470276 0.592896 0.505768
0.482941 0.587433 0.508392
0.493439 0.581696 0.511200
0.500397 0.577148 0.513123
0.504944 0.573517 0.514343
0.509338 0.572052 0.516479
0.514221 0.572937 0.519623
0.517975 0.573700 0.522949
0.520355 0.574432 0.526581
0.528473 0.582458 0.535248
0.566620 0.606567 0.533142
0.626129 0.634918 0.518799
0.686310 0.655457 0.501953
0.742493 0.667908 0.483459
0.796356 0.672607 0.460785
0.843018 0.677643 0.447510
0.884308 0.682678 0.439819
0.920929 0.686127 0.434265
0.954315 0.689697 0.430634
0.982025 0.692474 0.428925
0.998718 0.695984 0.428955
1.000000 0.699493 0.429962
1.000000 0.704620 0.434784
1.000000 0.711121 0.441467
1.000000 0.721680 0.456909
0.377502 0.625244 0.500183
0.381073 0.625397 0.500488
0.384766 0.625305 0.500580
0.391022 0.625427 0.501282
0.404114 0.626038 0.503662
0.420013 0.626831 0.506927
0.438995 0.627594 0.511108
0.459747 0.628265 0.516266
0.475922 0.625366 0.519104
0.490509 0.621185 0.521576
0.503265 0.616150 0.523895
0.514343 0.610779 0.526428
0.523132 0.605682 0.528992
0.528687 0.601654 0.530304
0.532776 0.598633 0.531647
0.537201 0.598236 0.534058
0.541626 0.599060 0.537231
0.545105 0.599823 0.540588
0.547668 0.600983 0.544434
0.556396 0.609650 0.553528
0.593018 0.632477 0.551422
0.647583 0.658569 0.538696
0.703979 0.678070 0.523071
0.757446 0.691010 0.506500
0.807953 0.696198 0.485962
0.853424 0.701538 0.472870
0.893219 0.706696 0.465820
0.928650 0.711395 0.461884
0.960999 0.716248 0.460144
0.985596 0.720276 0.460175
0.997101 0.725006 0.462067
0.999664 0.731140 0.466675
1.000000 0.737976 0.474243
1.000000 0.747345 0.486786
0.404266 0.651825 0.517487
0.407562 0.651764 0.517670
0.410980 0.651581 0.517700
0.415894 0.651184 0.517914
0.427399 0.651520 0.519928
0.442444 0.651947 0.522980
0.459534 0.652466 0.526703
0.478882 0.653107 0.531342
0.498260 0.652985 0.536194
0.512238 0.649109 0.538391
0.524902 0.644653 0.540527
0.536163 0.639832 0.542816
0.545685 0.634735 0.545319
0.552551 0.630188 0.547272
0.557007 0.626526 0.548340
0.560760 0.624146 0.549774
0.565247 0.624451 0.552429
0.569397 0.625336 0.555695
0.572571 0.626129 0.559082
0.574921 0.627258 0.562897
0.583740 0.636017 0.572205
0.618225 0.657227 0.570038
0.668304 0.680878 0.558105
0.720764 0.699249 0.543671
0.771667 0.712372 0.528625
0.819153 0.718140 0.509888
0.863281 0.723419 0.496796
0.901825 0.729156 0.490692
0.936066 0.735535 0.489105
0.966919 0.740936 0.488739
0.992645 0.747162 0.491272
0.999115 0.752899 0.495148
1.000000 0.760468 0.502228
1.000000 0.769470 0.513184
0.430756 0.675568 0.534241
0.433655 0.675293 0.534180
0.436859 0.675140 0.534332
0.441162 0.674744 0.534515
0.450684 0.674835 0.536072
0.464294 0.675049 0.538757
0.479858 0.675415 0.542084
0.497650 0.675903 0.546204
0.516846 0.676453 0.551331
0.532074 0.674316 0.554535
0.545013 0.670685 0.556885
0.556366 0.666443 0.558990
0.566437 0.661774 0.561279
0.574707 0.656921 0.563690
0.580078 0.652985 0.565186
0.583710 0.649689 0.566101
0.587341 0.648254 0.567749
0.591949 0.649231 0.570770
0.595642 0.650024 0.573914
0.598602 0.650909 0.577362
0.600800 0.652039 0.581085
0.609467 0.660645 0.590546
0.642212 0.680328 0.588226
0.688812 0.702240 0.577148
0.737701 0.719788 0.563934
0.785370 0.731995 0.549408
0.830170 0.738190 0.532410
0.873077 0.743469 0.519318
0.910339 0.750305 0.514801
0.943512 0.757904 0.515076
0.972748 0.764313 0.516418
0.989807 0.771576 0.520477
0.999664 0.780090 0.528473
1.000000 0.789398 0.539154
0.456879 0.697723 0.550934
0.459778 0.697540 0.550995
0.462891 0.697296 0.551086
0.466949 0.696930 0.551208
0.474731 0.696747 0.552429
0.486267 0.696808 0.554565
0.500641 0.696991 0.557587
0.516571 0.697235 0.561340
0.534058 0.697571 0.565887
0.551880 0.697388 0.570770
0.564575 0.694336 0.573120
0.575500 0.690460 0.575073
0.585480 0.686157 0.577026
0.594055 0.681671 0.579193
0.600677 0.677185 0.581116
0.605072 0.673737 0.582275
0.608093 0.670898 0.583038
0.611877 0.670441 0.585175
0.616089 0.671234 0.588104
0.619385 0.672089 0.591217
0.622253 0.673248 0.594635
0.624451 0.674408 0.598480
0.633148 0.683044 0.608124
0.664795 0.701813 0.605774
0.708954 0.722412 0.595245
0.755096 0.739075 0.582916
0.799469 0.750916 0.569672
0.841949 0.757446 0.554718
0.883331 0.763123 0.542114
0.919739 0.771210 0.538910
0.951904 0.779053 0.540375
0.980804 0.787903 0.545105
0.997192 0.796173 0.551636
1.000000 0.805603 0.561523
0.481293 0.717957 0.567078
0.484131 0.717926 0.567352
0.487152 0.717804 0.567474
0.490875 0.717377 0.567413
0.497437 0.717102 0.568359
0.508057 0.717102 0.570374
0.520905 0.717255 0.573242
0.535217 0.717529 0.576599
0.551056 0.717682 0.580566
0.567963 0.718201 0.585602
0.582031 0.716400 0.588837
0.594208 0.713470 0.591339
0.604248 0.709534 0.593109
0.613007 0.705383 0.594971
0.620209 0.701019 0.596985
0.625549 0.697083 0.598572
0.629120 0.694061 0.599365
0.631989 0.691864 0.600342
0.635773 0.691956 0.602722
0.639679 0.692810 0.605682
0.642883 0.693787 0.608917
0.645447 0.694794 0.612366
0.648132 0.696716 0.616577
0.656616 0.705048 0.626190
0.687286 0.722900 0.623779
0.729187 0.742401 0.614014
0.773346 0.758606 0.602448
0.815674 0.770111 0.590698
0.855591 0.777008 0.577393
0.895721 0.783295 0.565521
0.930817 0.792419 0.564087
