classic/经典人像.cube
#Created by: Adobe Photoshop Export Color Lookup Plugin
#Copyright: (C) Copyright 2026 小米
TITLE "双lut叠加-人像.psd"
#LUT size
LUT_3D_SIZE 4
#data domain
DOMAIN_MIN 0.0 0.0 0.0
DOMAIN_MAX 1.0 1.0 1.0
#LUT data points
0.124023 0.081421 0.069122
0.569702 0.157806 0.040222
0.977295 0.278564 0.099670
1.000000 0.421722 0.174744
0.196594 0.321014 0.325989
0.383179 0.371246 0.332611
0.964233 0.455780 0.166504
1.000000 0.519501 0.245911
0.404266 0.651825 0.517487
0.536163 0.639832 0.542816
0.668304 0.680878 0.558105
1.000000 0.769470 0.513184
0.712799 0.897339 0.755829
0.776337 0.899658 0.774597
0.867584 0.899780 0.821014
0.952087 0.945526 0.872681
0.141602 0.174164 0.329010
0.554504 0.179077 0.353607
0.927795 0.326843 0.302490
1.000000 0.447205 0.305511
0.203094 0.368958 0.415833
0.500336 0.486298 0.459381
0.904999 0.506866 0.403961
1.000000 0.547852 0.378937
0.386261 0.695435 0.568359
0.561462 0.703247 0.585815
0.698151 0.717560 0.602051
1.000000 0.792877 0.576843
0.688263 0.905640 0.771942
0.743378 0.905212 0.775574
0.871033 0.906403 0.827942
0.950653 0.946899 0.879608
0.322998 0.373505 0.574982
0.519745 0.361389 0.645721
0.914551 0.445190 0.610077
0.998810 0.653137 0.621338
0.349335 0.459167 0.572052
0.524078 0.542664 0.631500
0.864594 0.607971 0.650238
1.000000 0.691254 0.634705
0.453033 0.679352 0.647369
0.558502 0.716492 0.665771
0.794586 0.823120 0.741577
1.000000 0.806305 0.678741
0.521454 0.900146 0.816132
0.585266 0.909607 0.816254
0.825073 0.930695 0.837006
0.954102 0.956329 0.906616
0.617310 0.649719 0.798584
0.667145 0.629059 0.826752
0.968445 0.567871 0.886780
1.000000 0.683075 0.833801
0.594421 0.661407 0.782623
0.662811 0.679993 0.811707
0.906525 0.603668 0.882294
1.000000 0.740204 0.848236
0.465698 0.693817 0.761993
0.505920 0.699524 0.767975
0.798920 0.818481 0.869781
1.000000 0.862274 0.897919
0.623291 0.903381 0.909180
0.658875 0.910248 0.913086
0.775269 0.933044 0.927521
0.988373 0.991302 0.984558
