classic/经典人像.cube
#Created by: Adobe Photoshop Export Color Lookup Plugin
#Copyright: (C) Copyright 2026 小米
TITLE "双lut叠加-人像.psd"
#LUT size
LUT_3D_SIZE 7
#data domain
#LUT data points
DOMAIN_MIN 0.000000 0.000000 0.000000
DOMAIN_MAX 0.909091 0.909091 0.909091
0.124023 0.081421 0.069122
0.290558 0.106140 0.031403
0.520538 0.147858 0.039429
0.768372 0.201355 0.059113
0.927887 0.255371 0.085938
1.000000 0.314514 0.123444
1.000000 0.377655 0.167023
0.109924 0.143341 0.184998
0.221252 0.185638 0.164642
0.526123 0.226501 0.048065
0.767120 0.269928 0.035339
0.923645 0.305908 0.070465
1.000000 0.354156 0.116150
1.000000 0.406921 0.162415
0.183685 0.286652 0.303558
0.218079 0.274078 0.313385
0.353607 0.337646 0.305084
0.760315 0.406494 0.119629
0.917969 0.421783 0.131958
1.000000 0.440369 0.132782
1.000000 0.471161 0.168823
0.266815 0.455475 0.409729
0.320221 0.451477 0.419128
0.368896 0.430725 0.431396
0.500061 0.501587 0.427734
0.839447 0.559113 0.308289
0.999146 0.566559 0.281982
1.000000 0.580902 0.310455
0.355225 0.599579 0.484985
0.400757 0.601929 0.492310
0.482941 0.587433 0.508392
0.514221 0.572937 0.519623
0.626129 0.634918 0.518799
0.884308 0.682678 0.439819
1.000000 0.699493 0.429962
0.481293 0.717957 0.567078
0.508057 0.717102 0.570374
0.582031 0.716400 0.588837
0.625549 0.697083 0.598572
0.642883 0.693787 0.608917
0.729187 0.742401 0.614014
0.930817 0.792419 0.564087
0.609131 0.824341 0.664825
0.624084 0.823700 0.666504
0.678040 0.826324 0.682220
0.733582 0.820190 0.698120
0.761292 0.810516 0.709503
0.780182 0.817291 0.728119
0.852783 0.856964 0.739197
0.133545 0.099304 0.169434
0.275208 0.114990 0.158539
0.485840 0.169464 0.150269
0.745636 0.240112 0.119904
0.909973 0.292999 0.098145
1.000000 0.337646 0.119080
1.000000 0.388092 0.158325
0.141785 0.180328 0.230499
0.254333 0.214172 0.231201
0.502197 0.247192 0.199615
0.746887 0.291870 0.161255
0.908325 0.331146 0.138458
1.000000 0.371826 0.135162
1.000000 0.415802 0.165192
0.193665 0.325623 0.339600
0.256866 0.322815 0.354431
0.391449 0.371979 0.337830
0.749420 0.422272 0.241699
0.901031 0.432648 0.230072
1.000000 0.449432 0.217834
1.000000 0.477539 0.228088
0.285675 0.481598 0.432526
0.335571 0.482758 0.438385
0.397766 0.461487 0.451111
0.522736 0.523621 0.443787
0.837555 0.570068 0.349365
0.993469 0.580444 0.341278
1.000000 0.589600 0.347992
0.382111 0.620758 0.505829
0.410980 0.619354 0.506256
0.499115 0.609589 0.522278
0.532349 0.590942 0.532196
0.634827 0.645752 0.530731
0.884277 0.689728 0.457764
1.000000 0.706421 0.449432
0.491150 0.727448 0.579468
0.510559 0.725311 0.579163
0.581909 0.725342 0.594574
0.634613 0.707825 0.606873
0.651611 0.702179 0.615936
0.733398 0.747711 0.621246
0.932495 0.796844 0.573975
0.607819 0.827362 0.670410
0.620178 0.826263 0.670166
0.668945 0.827240 0.681122
0.736145 0.827057 0.704224
0.766663 0.816193 0.715454
0.784363 0.821106 0.732239
0.853912 0.859039 0.743561
0.132202 0.156250 0.302277
0.253815 0.131744 0.342438
0.502563 0.165497 0.319153
0.668304 0.261261 0.316132
0.883118 0.300232 0.274292
0.995605 0.356262 0.261414
1.000000 0.407806 0.264313
0.169312 0.225555 0.322876
0.243530 0.230865 0.362671
0.498199 0.256134 0.355865
0.686157 0.318207 0.343811
0.883209 0.344635 0.298401
0.996277 0.397614 0.296417
1.000000 0.435303 0.288086
0.184692 0.333313 0.385925
0.262634 0.368958 0.403809
0.456024 0.437561 0.427032
0.708710 0.455719 0.398773
0.864868 0.466461 0.373779
0.985107 0.479950 0.350616
1.000000 0.502014 0.339935
0.223846 0.515411 0.474152
0.305511 0.533508 0.480133
0.468170 0.551086 0.501587
0.574097 0.579254 0.491577
0.837067 0.603241 0.437836
0.967957 0.606079 0.427429
1.000000 0.609650 0.415710
0.345184 0.648438 0.534607
0.410797 0.654816 0.541138
0.521454 0.660522 0.554840
0.581482 0.640137 0.567108
0.659729 0.677002 0.565338
0.888519 0.712952 0.506836
1.000000 0.729889 0.505493
0.471436 0.743286 0.599365
0.510590 0.745026 0.604156
0.573761 0.744110 0.608978
0.652679 0.735931 0.626648
0.674316 0.724060 0.634705
0.744354 0.761444 0.640228
0.936676 0.807312 0.598511
0.597748 0.837616 0.686981
0.621460 0.838501 0.690643
0.654266 0.836365 0.689728
0.732269 0.839203 0.712738
0.775543 0.827606 0.726532
0.793152 0.829315 0.741119
0.855927 0.863342 0.753265
0.190308 0.240448 0.432129
0.255402 0.239319 0.460510
0.539551 0.196777 0.513947
0.738708 0.255432 0.467133
0.796722 0.387238 0.454559
0.941864 0.426453 0.438660
1.000000 0.436462 0.399445
0.223297 0.287933 0.443848
0.283508 0.304901 0.468414
0.517456 0.258942 0.522125
0.726288 0.332489 0.484039
0.786469 0.434052 0.471588
0.942291 0.456085 0.448822
1.000000 0.454010 0.402435
0.242920 0.365448 0.451874
0.300476 0.394348 0.466003
0.445953 0.446472 0.523590
0.690643 0.487701 0.522430
0.784119 0.531219 0.507629
0.948517 0.516541 0.464386
1.000000 0.530334 0.437622
0.298401 0.504700 0.513489
0.347290 0.526031 0.522522
0.469543 0.580688 0.545532
0.634460 0.650452 0.578766
0.799225 0.648438 0.550385
0.930267 0.641144 0.521301
1.000000 0.638062 0.495880
0.337769 0.661224 0.591736
0.384552 0.671173 0.594513
0.490875 0.696289 0.602753
0.637543 0.715332 0.620758
0.700867 0.724091 0.619690
0.898285 0.749908 0.584259
0.998474 0.759949 0.584229
0.415649 0.755829 0.635284
0.452606 0.760345 0.637085
0.541718 0.770447 0.643158
0.657410 0.776978 0.657440
0.712189 0.761383 0.668762
0.764709 0.785980 0.674561
0.945923 0.826050 0.641907
0.524170 0.845154 0.703064
0.552460 0.847504 0.705444
0.622986 0.851471 0.712738
0.703705 0.852264 0.721100
0.785004 0.848572 0.743835
0.807800 0.843048 0.756256
0.860535 0.871216 0.769867
0.279602 0.331818 0.533051
0.334747 0.349854 0.554138
0.469421 0.317596 0.602417
0.814667 0.324554 0.638641
0.872192 0.385071 0.569183
0.893524 0.515106 0.556915
0.978210 0.591370 0.572113
0.305725 0.366577 0.537659
0.355499 0.387634 0.557037
0.472168 0.362823 0.602570
0.799957 0.332275 0.644958
0.857788 0.438538 0.579407
0.881836 0.548798 0.568787
0.978363 0.604828 0.576965
0.320190 0.423279 0.537323
0.368744 0.448456 0.551727
0.476746 0.491943 0.595093
0.718842 0.479431 0.651245
0.824402 0.557617 0.608978
0.859070 0.618286 0.597076
0.980682 0.636230 0.587067
0.339142 0.509644 0.554016
0.374969 0.525909 0.560242
0.467865 0.571320 0.577637
0.621063 0.648376 0.639313
0.788025 0.678345 0.649261
0.856445 0.694855 0.632324
0.990051 0.677582 0.594482
0.419250 0.640228 0.613495
0.451416 0.651520 0.618591
0.526947 0.680359 0.632294
0.633118 0.726410 0.658203
0.755066 0.782715 0.697510
0.877472 0.774261 0.668335
0.987793 0.765167 0.638306
0.459198 0.760681 0.693207
0.483124 0.765411 0.694641
0.540497 0.777100 0.697327
0.628723 0.800568 0.706238
0.747406 0.819733 0.721161
0.797516 0.822998 0.727936
0.961395 0.851379 0.706238
0.478302 0.843567 0.743561
0.498444 0.846130 0.743652
0.548981 0.854431 0.745667
0.645569 0.867462 0.751343
0.764465 0.873749 0.763397
0.828827 0.864410 0.781128
0.869171 0.883972 0.795868
0.395264 0.442047 0.639008
0.438110 0.460358 0.652893
0.515472 0.446533 0.684631
0.706848 0.389252 0.739044
0.967255 0.464661 0.732544
0.965332 0.534637 0.669891
0.971924 0.627441 0.652924
0.401489 0.457153 0.634857
0.443420 0.477936 0.648315
0.514984 0.465729 0.679474
0.691467 0.399384 0.733673
0.959137 0.470886 0.736237
0.954834 0.566132 0.677673
0.965698 0.645416 0.660339
0.413330 0.496979 0.626709
0.446228 0.515594 0.637848
0.533691 0.555328 0.669708
0.660004 0.528351 0.721313
0.912262 0.563477 0.746338
0.930603 0.627045 0.692535
0.949310 0.682648 0.674652
0.370483 0.528748 0.608856
0.406616 0.545441 0.618561
0.504456 0.595123 0.644470
0.634918 0.661285 0.696899
0.826294 0.664764 0.755890
0.901733 0.709106 0.720703
0.927643 0.738708 0.701538
0.412140 0.622314 0.640961
0.436096 0.630646 0.643921
0.493713 0.651550 0.651367
0.582581 0.687866 0.666351
0.734741 0.766815 0.736267
0.868866 0.791473 0.755127
0.922180 0.797394 0.734558
0.487091 0.728851 0.696106
0.507660 0.735046 0.699158
0.558044 0.750977 0.707397
0.638702 0.779633 0.724579
0.739044 0.821106 0.754547
0.847443 0.875122 0.805908
0.951538 0.863983 0.773651
0.533112 0.843689 0.794586
0.548798 0.847107 0.796936
0.589569 0.855865 0.801605
0.651611 0.868805 0.806549
0.730347 0.886230 0.811279
0.837799 0.902893 0.821808
0.889160 0.905640 0.835876
0.538391 0.577972 0.738556
0.560272 0.583740 0.747681
0.599762 0.568176 0.767731
0.700165 0.527985 0.806000
0.912628 0.508575 0.836395
1.000000 0.562378 0.815918
1.000000 0.638824 0.758209
0.533051 0.580048 0.732117
0.560059 0.592590 0.741119
0.595062 0.573212 0.761963
0.689209 0.529022 0.800140
0.897156 0.503204 0.833801
1.000000 0.585114 0.815369
0.999939 0.654785 0.761322
0.519135 0.589813 0.717590
0.546387 0.605225 0.727295
0.603729 0.626068 0.750977
0.679932 0.601624 0.790100
0.852325 0.567535 0.831787
1.000000 0.637634 0.821198
0.997620 0.689270 0.770569
0.454865 0.584839 0.699158
0.489838 0.601349 0.704224
0.568848 0.643311 0.721069
0.660156 0.681274 0.763367
0.778992 0.655701 0.817047
0.984955 0.695831 0.833923
0.988647 0.741150 0.788147
0.389709 0.610413 0.678619
0.405518 0.615051 0.680359
0.462341 0.633423 0.690094
0.575439 0.679993 0.722473
0.728058 0.754242 0.785797
0.908325 0.769501 0.849243
0.967041 0.808044 0.819031
0.439392 0.706909 0.727112
0.453766 0.709808 0.727661
0.491547 0.718262 0.729706
0.556854 0.735565 0.735748
0.647675 0.764008 0.747650
0.823792 0.851379 0.830566
0.945282 0.878754 0.860657
0.529266 0.813354 0.794769
0.542328 0.816040 0.795959
0.577820 0.824310 0.800262
0.638367 0.840057 0.809570
0.720856 0.863403 0.824677
0.821228 0.897430 0.852539
0.930695 0.946442 0.908661
