negative/classic warm.cube
#Created by: LUT Generator
#Copyright: (C) Copyright 2026
TITLE "负片-经典暖色"
LUT_3D_SIZE 5
0.977886 0.957725 0.847730
0.977886 0.957725 0.806547
0.977886 0.957725 0.402074
0.977886 0.957725 0.031588
0.977886 0.957725 0.001300
0.977886 0.916368 0.847730
0.977886 0.916368 0.806547
0.977886 0.916368 0.402074
0.977886 0.916368 0.031588
0.977886 0.916368 0.001300
0.977886 0.500000 0.847730
0.977886 0.500000 0.806547
0.977886 0.500000 0.402074
0.977886 0.500000 0.031588
0.977886 0.500000 0.001300
0.977886 0.083632 0.847730
0.977886 0.083632 0.806547
0.977886 0.083632 0.402074
0.977886 0.083632 0.031588
0.977886 0.083632 0.001300
0.977886 0.042275 0.847730
0.977886 0.042275 0.806547
0.977886 0.042275 0.402074
0.977886 0.042275 0.031588
0.977886 0.042275 0.001300
0.939402 0.957725 0.847730
0.939402 0.957725 0.806547
0.939402 0.957725 0.402074
0.939402 0.957725 0.031588
0.939402 0.957725 0.001300
0.939402 0.916368 0.847730
0.939402 0.916368 0.806547
0.939402 0.916368 0.402074
0.939402 0.916368 0.031588
0.939402 0.916368 0.001300
0.939402 0.500000 0.847730
0.939402 0.500000 0.806547
0.939402 0.500000 0.402074
0.939402 0.500000 0.031588
0.939402 0.500000 0.001300
0.939402 0.083632 0.847730
0.939402 0.083632 0.806547
0.939402 0.083632 0.402074
0.939402 0.083632 0.031588
0.939402 0.083632 0.001300
0.939402 0.042275 0.847730
0.939402 0.042275 0.806547
0.939402 0.042275 0.402074
0.939402 0.042275 0.031588
0.939402 0.042275 0.001300
0.545869 0.957725 0.847730
0.545869 0.957725 0.806547
0.545869 0.957725 0.402074
0.545869 0.957725 0.031588
0.545869 0.957725 0.001300
0.545869 0.916368 0.847730
0.545869 0.916368 0.806547
0.545869 0.916368 0.402074
0.545869 0.916368 0.031588
0.545869 0.916368 0.001300
0.545869 0.500000 0.847730
0.545869 0.500000 0.806547
0.545869 0.500000 0.402074
0.545869 0.500000 0.031588
0.545869 0.500000 0.001300
0.545869 0.083632 0.847730
0.545869 0.083632 0.806547
0.545869 0.083632 0.402074
0.545869 0.083632 0.031588
0.545869 0.083632 0.001300
0.545869 0.042275 0.847730
0.545869 0.042275 0.806547
0.545869 0.042275 0.402074
0.545869 0.042275 0.031588
0.545869 0.042275 0.001300
0.129712 0.957725 0.847730
0.129712 0.957725 0.806547
0.129712 0.957725 0.402074
0.129712 0.957725 0.031588
0.129712 0.957725 0.001300
0.129712 0.916368 0.847730
0.129712 0.916368 0.806547
0.129712 0.916368 0.402074
0.129712 0.916368 0.031588
0.129712 0.916368 0.001300
0.129712 0.500000 0.847730
0.129712 0.500000 0.806547
0.129712 0.500000 0.402074
0.129712 0.500000 0.031588
0.129712 0.500000 0.001300
0.129712 0.083632 0.847730
0.129712 0.083632 0.806547
0.129712 0.083632 0.402074
0.129712 0.083632 0.031588
0.129712 0.083632 0.001300
0.129712 0.042275 0.847730
0.129712 0.042275 0.806547
0.129712 0.042275 0.402074
0.129712 0.042275 0.031588
0.129712 0.042275 0.001300
0.083004 0.957725 0.847730
0.083004 0.957725 0.806547
0.083004 0.957725 0.402074
0.083004 0.957725 0.031588
0.083004 0.957725 0.001300
0.083004 0.916368 0.847730
0.083004 0.916368 0.806547
0.083004 0.916368 0.402074
0.083004 0.916368 0.031588
0.083004 0.916368 0.001300
0.083004 0.500000 0.847730
0.083004 0.500000 0.806547
0.083004 0.500000 0.402074
0.083004 0.500000 0.031588
0.083004 0.500000 0.001300
0.083004 0.083632 0.847730
0.083004 0.083632 0.806547
0.083004 0.083632 0.402074
0.083004 0.083632 0.031588
0.083004 0.083632 0.001300
0.083004 0.042275 0.847730
0.083004 0.042275 0.806547
0.083004 0.042275 0.402074
0.083004 0.042275 0.031588
0.083004 0.042275 0.001300
