negative/classic warm.cube
#Created by: LUT Generator
#Copyright: (C) Copyright 2026
TITLE "负片-经典暖色"
LUT_3D_SIZE 9
0.977886 0.957725 0.847730
0.977886 0.957725 0.839918
0.977886 0.957725 0.806547
0.977886 0.957725 0.683830
0.977886 0.957725 0.402074
0.977886 0.957725 0.135329
0.977886 0.957725 0.031588
0.977886 0.957725 0.006510
0.977886 0.957725 0.001300
0.977886 0.949892 0.847730
0.977886 0.949892 0.839918
0.977886 0.949892 0.806547
0.977886 0.949892 0.683830
0.977886 0.949892 0.402074
0.977886 0.949892 0.135329
0.977886 0.949892 0.031588
0.977886 0.949892 0.006510
0.977886 0.949892 0.001300
0.977886 0.916368 0.847730
0.977886 0.916368 0.839918
0.977886 0.916368 0.806547
0.977886 0.916368 0.683830
0.977886 0.916368 0.402074
0.977886 0.916368 0.135329
0.977886 0.916368 0.031588
0.977886 0.916368 0.006510
0.977886 0.916368 0.001300
0.977886 0.792169 0.847730
0.977886 0.792169 0.839918
0.977886 0.792169 0.806547
0.977886 0.792169 0.683830
0.977886 0.792169 0.402074
0.977886 0.792169 0.135329
0.977886 0.792169 0.031588
0.977886 0.792169 0.006510
0.977886 0.792169 0.001300
0.977886 0.500000 0.847730
0.977886 0.500000 0.839918
0.977886 0.500000 0.806547
0.977886 0.500000 0.683830
0.977886 0.500000 0.402074
0.977886 0.500000 0.135329
0.977886 0.500000 0.031588
0.977886 0.500000 0.006510
0.977886 0.500000 0.001300
0.977886 0.207832 0.847730
0.977886 0.207832 0.839918
0.977886 0.207832 0.806547
0.977886 0.207832 0.683830
0.977886 0.207832 0.402074
0.977886 0.207832 0.135329
0.977886 0.207832 0.031588
0.977886 0.207832 0.006510
0.977886 0.207832 0.001300
0.977886 0.083632 0.847730
0.977886 0.083632 0.839918
0.977886 0.083632 0.806547
0.977886 0.083632 0.683830
0.977886 0.083632 0.402074
0.977886 0.083632 0.135329
0.977886 0.083632 0.031588
0.977886 0.083632 0.006510
0.977886 0.083632 0.001300
0.977886 0.050108 0.847730
0.977886 0.050108 0.839918
0.977886 0.050108 0.806547
0.977886 0.050108 0.683830
0.977886 0.050108 0.402074
0.977886 0.050108 0.135329
0.977886 0.050108 0.031588
0.977886 0.050108 0.006510
0.977886 0.050108 0.001300
0.977886 0.042275 0.847730
0.977886 0.042275 0.839918
0.977886 0.042275 0.806547
0.977886 0.042275 0.683830
0.977886 0.042275 0.402074
0.977886 0.042275 0.135329
0.977886 0.042275 0.031588
0.977886 0.042275 0.006510
0.977886 0.042275 0.001300
0.970604 0.957725 0.847730
0.970604 0.957725 0.839918
0.970604 0.957725 0.806547
0.970604 0.957725 0.683830
0.970604 0.957725 0.402074
0.970604 0.957725 0.135329
0.970604 0.957725 0.031588
0.970604 0.957725 0.006510
0.970604 0.957725 0.001300
0.970604 0.949892 0.847730
0.970604 0.949892 0.839918
0.970604 0.949892 0.806547
0.970604 0.949892 0.683830
0.970604 0.949892 0.402074
0.970604 0.949892 0.135329
0.970604 0.949892 0.031588
0.970604 0.949892 0.006510
0.970604 0.949892 0.001300
0.970604 0.916368 0.847730
0.970604 0.916368 0.839918
0.970604 0.916368 0.806547
0.970604 0.916368 0.683830
0.970604 0.916368 0.402074
0.970604 0.916368 0.135329
0.970604 0.916368 0.031588
0.970604 0.916368 0.006510
0.970604 0.916368 0.001300
0.970604 0.792169 0.847730
0.970604 0.792169 0.839918
0.970604 0.792169 0.806547
0.970604 0.792169 0.683830
0.970604 0.792169 0.402074
0.970604 0.792169 0.135329
0.970604 0.792169 0.031588
0.970604 0.792169 0.006510
0.970604 0.792169 0.001300
0.970604 0.500000 0.847730
0.970604 0.500000 0.839918
0.970604 0.500000 0.806547
0.970604 0.500000 0.683830
0.970604 0.500000 0.402074
0.970604 0.500000 0.135329
0.970604 0.500000 0.031588
0.970604 0.500000 0.006510
0.970604 0.500000 0.001300
0.970604 0.207832 0.847730
0.970604 0.207832 0.839918
0.970604 0.207832 0.806547
0.970604 0.207832 0.683830
0.970604 0.207832 0.402074
0.970604 0.207832 0.135329
0.970604 0.207832 0.031588
0.970604 0.207832 0.006510
0.970604 0.207832 0.001300
0.970604 0.083632 0.847730
0.970604 0.083632 0.839918
0.970604 0.083632 0.806547
0.970604 0.083632 0.683830
0.970604 0.083632 0.402074
0.970604 0.083632 0.135329
0.970604 0.083632 0.031588
0.970604 0.083632 0.006510
0.970604 0.083632 0.001300
0.970604 0.050108 0.847730
0.970604 0.050108 0.839918
0.970604 0.050108 0.806547
0.970604 0.050108 0.683830
0.970604 0.050108 0.402074
0.970604 0.050108 0.135329
0.970604 0.050108 0.031588
0.970604 0.050108 0.006510
0.970604 0.050108 0.001300
0.970604 0.042275 0.847730
0.970604 0.042275 0.839918
0.970604 0.042275 0.806547
0.970604 0.042275 0.683830
0.970604 0.042275 0.402074
0.970604 0.042275 0.135329
0.970604 0.042275 0.031588
0.970604 0.042275 0.006510
0.970604 0.042275 0.001300
0.939402 0.957725 0.847730
0.939402 0.957725 0.839918
0.939402 0.957725 0.806547
0.939402 0.957725 0.683830
0.939402 0.957725 0.402074
0.939402 0.957725 0.135329
0.939402 0.957725 0.031588
0.939402 0.957725 0.006510
0.939402 0.957725 0.001300
0.939402 0.949892 0.847730
0.939402 0.949892 0.839918
0.939402 0.949892 0.806547
0.939402 0.949892 0.683830
0.939402 0.949892 0.402074
0.939402 0.949892 0.135329
0.939402 0.949892 0.031588
0.939402 0.949892 0.006510
0.939402 0.949892 0.001300
0.939402 0.916368 0.847730
0.939402 0.916368 0.839918
0.939402 0.916368 0.806547
0.939402 0.916368 0.683830
0.939402 0.916368 0.402074
0.939402 0.916368 0.135329
0.939402 0.916368 0.031588
0.939402 0.916368 0.006510
0.939402 0.916368 0.001300
0.939402 0.792169 0.847730
0.939402 0.792169 0.839918
0.939402 0.792169 0.806547
0.939402 0.792169 0.683830
0.939402 0.792169 0.402074
0.939402 0.792169 0.135329
0.939402 0.792169 0.031588
0.939402 0.792169 0.006510
0.939402 0.792169 0.001300
0.939402 0.500000 0.847730
0.939402 0.500000 0.839918
0.939402 0.500000 0.806547
0.939402 0.500000 0.683830
0.939402 0.500000 0.402074
0.939402 0.500000 0.135329
0.939402 0.500000 0.031588
0.939402 0.500000 0.006510
0.939402 0.500000 0.001300
0.939402 0.207832 0.847730
0.939402 0.207832 0.839918
0.939402 0.207832 0.806547
0.939402 0.207832 0.683830
0.939402 0.207832 0.402074
0.939402 0.207832 0.135329
0.939402 0.207832 0.031588
0.939402 0.207832 0.006510
0.939402 0.207832 0.001300
0.939402 0.083632 0.847730
0.939402 0.083632 0.839918
0.939402 0.083632 0.806547
0.939402 0.083632 0.683830
0.939402 0.083632 0.402074
0.939402 0.083632 0.135329
0.939402 0.083632 0.031588
0.939402 0.083632 0.006510
0.939402 0.083632 0.001300
0.939402 0.050108 0.847730
0.939402 0.050108 0.839918
0.939402 0.050108 0.806547
0.939402 0.050108 0.683830
0.939402 0.050108 0.402074
0.939402 0.050108 0.135329
0.939402 0.050108 0.031588
0.939402 0.050108 0.006510
0.939402 0.050108 0.001300
0.939402 0.042275 0.847730
0.939402 0.042275 0.839918
0.939402 0.042275 0.806547
0.939402 0.042275 0.683830
0.939402 0.042275 0.402074
0.939402 0.042275 0.135329
0.939402 0.042275 0.031588
0.939402 0.042275 0.006510
0.939402 0.042275 0.001300
0.823265 0.957725 0.847730
0.823265 0.957725 0.839918
0.823265 0.957725 0.806547
0.823265 0.957725 0.683830
0.823265 0.957725 0.402074
0.823265 0.957725 0.135329
0.823265 0.957725 0.031588
0.823265 0.957725 0.006510
0.823265 0.957725 0.001300
0.823265 0.949892 0.847730
0.823265 0.949892 0.839918
0.823265 0.949892 0.806547
0.823265 0.949892 0.683830
0.823265 0.949892 0.402074
0.823265 0.949892 0.135329
0.823265 0.949892 0.031588
0.823265 0.949892 0.006510
0.823265 0.949892 0.001300
0.823265 0.916368 0.847730
0.823265 0.916368 0.839918
0.823265 0.916368 0.806547
0.823265 0.916368 0.683830
0.823265 0.916368 0.402074
0.823265 0.916368 0.135329
0.823265 0.916368 0.031588
0.823265 0.916368 0.006510
0.823265 0.916368 0.001300
0.823265 0.792169 0.847730
0.823265 0.792169 0.839918
0.823265 0.792169 0.806547
0.823265 0.792169 0.683830
0.823265 0.792169 0.402074
0.823265 0.792169 0.135329
0.823265 0.792169 0.031588
0.823265 0.792169 0.006510
0.823265 0.792169 0.001300
0.823265 0.500000 0.847730
0.823265 0.500000 0.839918
0.823265 0.500000 0.806547
0.823265 0.500000 0.683830
0.823265 0.500000 0.402074
0.823265 0.500000 0.135329
0.823265 0.500000 0.031588
0.823265 0.500000 0.006510
0.823265 0.500000 0.001300
0.823265 0.207832 0.847730
0.823265 0.207832 0.839918
0.823265 0.207832 0.806547
0.823265 0.207832 0.683830
0.823265 0.207832 0.402074
0.823265 0.207832 0.135329
0.823265 0.207832 0.031588
0.823265 0.207832 0.006510
0.823265 0.207832 0.001300
0.823265 0.083632 0.847730
0.823265 0.083632 0.839918
0.823265 0.083632 0.806547
0.823265 0.083632 0.683830
0.823265 0.083632 0.402074
0.823265 0.083632 0.135329
0.823265 0.083632 0.031588
0.823265 0.083632 0.006510
0.823265 0.083632 0.001300
0.823265 0.050108 0.847730
0.823265 0.050108 0.839918
0.823265 0.050108 0.806547
0.823265 0.050108 0.683830
0.823265 0.050108 0.402074
0.823265 0.050108 0.135329
0.823265 0.050108 0.031588
0.823265 0.050108 0.006510
0.823265 0.050108 0.001300
0.823265 0.042275 0.847730
0.823265 0.042275 0.839918
0.823265 0.042275 0.806547
0.823265 0.042275 0.683830
0.823265 0.042275 0.402074
0.823265 0.042275 0.135329
0.823265 0.042275 0.031588
0.823265 0.042275 0.006510
0.823265 0.042275 0.001300
0.545869 0.957725 0.847730
0.545869 0.957725 0.839918
0.545869 0.957725 0.806547
0.545869 0.957725 0.683830
0.545869 0.957725 0.402074
0.545869 0.957725 0.135329
0.545869 0.957725 0.031588
0.545869 0.957725 0.006510
0.545869 0.957725 0.001300
0.545869 0.949892 0.847730
0.545869 0.949892 0.839918
0.545869 0.949892 0.806547
0.545869 0.949892 0.683830
0.545869 0.949892 0.402074
0.545869 0.949892 0.135329
0.545869 0.949892 0.031588
0.545869 0.949892 0.006510
0.545869 0.949892 0.001300
0.545869 0.916368 0.847730
0.545869 0.916368 0.839918
0.545869 0.916368 0.806547
0.545869 0.916368 0.683830
0.545869 0.916368 0.402074
0.545869 0.916368 0.135329
0.545869 0.916368 0.031588
0.545869 0.916368 0.006510
0.545869 0.916368 0.001300
0.545869 0.792169 0.847730
0.545869 0.792169 0.839918
0.545869 0.792169 0.806547
0.545869 0.792169 0.683830
0.545869 0.792169 0.402074
0.545869 0.792169 0.135329
0.545869 0.792169 0.031588
0.545869 0.792169 0.006510
0.545869 0.792169 0.001300
0.545869 0.500000 0.847730
0.545869 0.500000 0.839918
0.545869 0.500000 0.806547
0.545869 0.500000 0.683830
0.545869 0.500000 0.402074
0.545869 0.500000 0.135329
0.545869 0.500000 0.031588
0.545869 0.500000 0.006510
0.545869 0.500000 0.001300
0.545869 0.207832 0.847730
0.545869 0.207832 0.839918
0.545869 0.207832 0.806547
0.545869 0.207832 0.683830
0.545869 0.207832 0.402074
0.545869 0.207832 0.135329
0.545869 0.207832 0.031588
0.545869 0.207832 0.006510
0.545869 0.207832 0.001300
0.545869 0.083632 0.847730
0.545869 0.083632 0.839918
0.545869 0.083632 0.806547
0.545869 0.083632 0.683830
0.545869 0.083632 0.402074
0.545869 0.083632 0.135329
0.545869 0.083632 0.031588
0.545869 0.083632 0.006510
0.545869 0.083632 0.001300
0.545869 0.050108 0.847730
0.545869 0.050108 0.839918
0.545869 0.050108 0.806547
0.545869 0.050108 0.683830
0.545869 0.050108 0.402074
0.545869 0.050108 0.135329
0.545869 0.050108 0.031588
0.545869 0.050108 0.006510
0.545869 0.050108 0.001300
0.545869 0.042275 0.847730
0.545869 0.042275 0.839918
0.545869 0.042275 0.806547
0.545869 0.042275 0.683830
0.545869 0.042275 0.402074
0.545869 0.042275 0.135329
0.545869 0.042275 0.031588
0.545869 0.042275 0.006510
0.545869 0.042275 0.001300
0.258761 0.957725 0.847730
0.258761 0.957725 0.839918
0.258761 0.957725 0.806547
0.258761 0.957725 0.683830
0.258761 0.957725 0.402074
0.258761 0.957725 0.135329
0.258761 0.957725 0.031588
0.258761 0.957725 0.006510
0.258761 0.957725 0.001300
0.258761 0.949892 0.847730
0.258761 0.949892 0.839918
0.258761 0.949892 0.806547
0.258761 0.949892 0.683830
0.258761 0.949892 0.402074
0.258761 0.949892 0.135329
0.258761 0.949892 0.031588
0.258761 0.949892 0.006510
0.258761 0.949892 0.001300
0.258761 0.916368 0.847730
0.258761 0.916368 0.839918
0.258761 0.916368 0.806547
0.258761 0.916368 0.683830
0.258761 0.916368 0.402074
0.258761 0.916368 0.135329
0.258761 0.916368 0.031588
0.258761 0.916368 0.006510
0.258761 0.916368 0.001300
0.258761 0.792169 0.847730
0.258761 0.792169 0.839918
0.258761 0.792169 0.806547
0.258761 0.792169 0.683830
0.258761 0.792169 0.402074
0.258761 0.792169 0.135329
0.258761 0.792169 0.031588
0.258761 0.792169 0.006510
0.258761 0.792169 0.001300
0.258761 0.500000 0.847730
0.258761 0.500000 0.839918
0.258761 0.500000 0.806547
0.258761 0.500000 0.683830
0.258761 0.500000 0.402074
0.258761 0.500000 0.135329
0.258761 0.500000 0.031588
0.258761 0.500000 0.006510
0.258761 0.500000 0.001300
0.258761 0.207832 0.847730
0.258761 0.207832 0.839918
0.258761 0.207832 0.806547
0.258761 0.207832 0.683830
0.258761 0.207832 0.402074
0.258761 0.207832 0.135329
0.258761 0.207832 0.031588
0.258761 0.207832 0.006510
0.258761 0.207832 0.001300
0.258761 0.083632 0.847730
0.258761 0.083632 0.839918
0.258761 0.083632 0.806547
0.258761 0.083632 0.683830
0.258761 0.083632 0.402074
0.258761 0.083632 0.135329
0.258761 0.083632 0.031588
0.258761 0.083632 0.006510
0.258761 0.083632 0.001300
0.258761 0.050108 0.847730
0.258761 0.050108 0.839918
0.258761 0.050108 0.806547
0.258761 0.050108 0.683830
0.258761 0.050108 0.402074
0.258761 0.050108 0.135329
0.258761 0.050108 0.031588
0.258761 0.050108 0.006510
0.258761 0.050108 0.001300
0.258761 0.042275 0.847730
0.258761 0.042275 0.839918
0.258761 0.042275 0.806547
0.258761 0.042275 0.683830
0.258761 0.042275 0.402074
0.258761 0.042275 0.135329
0.258761 0.042275 0.031588
0.258761 0.042275 0.006510
0.258761 0.042275 0.001300
0.129712 0.957725 0.847730
0.129712 0.957725 0.839918
0.129712 0.957725 0.806547
0.129712 0.957725 0.683830
0.129712 0.957725 0.402074
0.129712 0.957725 0.135329
0.129712 0.957725 0.031588
0.129712 0.957725 0.006510
0.129712 0.957725 0.001300
0.129712 0.949892 0.847730
0.129712 0.949892 0.839918
0.129712 0.949892 0.806547
0.129712 0.949892 0.683830
0.129712 0.949892 0.402074
0.129712 0.949892 0.135329
0.129712 0.949892 0.031588
0.129712 0.949892 0.006510
0.129712 0.949892 0.001300
0.129712 0.916368 0.847730
0.129712 0.916368 0.839918
0.129712 0.916368 0.806547
0.129712 0.916368 0.683830
0.129712 0.916368 0.402074
0.129712 0.916368 0.135329
0.129712 0.916368 0.031588
0.129712 0.916368 0.006510
0.129712 0.916368 0.001300
0.129712 0.792169 0.847730
0.129712 0.792169 0.839918
0.129712 0.792169 0.806547
0.129712 0.792169 0.683830
0.129712 0.792169 0.402074
0.129712 0.792169 0.135329
0.129712 0.792169 0.031588
0.129712 0.792169 0.006510
0.129712 0.792169 0.001300
0.129712 0.500000 0.847730
0.129712 0.500000 0.839918
0.129712 0.500000 0.806547
0.129712 0.500000 0.683830
0.129712 0.500000 0.402074
0.129712 0.500000 0.135329
0.129712 0.500000 0.031588
0.129712 0.500000 0.006510
0.129712 0.500000 0.001300
0.129712 0.207832 0.847730
0.129712 0.207832 0.839918
0.129712 0.207832 0.806547
0.129712 0.207832 0.683830
0.129712 0.207832 0.402074
0.129712 0.207832 0.135329
0.129712 0.207832 0.031588
0.129712 0.207832 0.006510
0.129712 0.207832 0.001300
0.129712 0.083632 0.847730
0.129712 0.083632 0.839918
0.129712 0.083632 0.806547
0.129712 0.083632 0.683830
0.129712 0.083632 0.402074
0.129712 0.083632 0.135329
0.129712 0.083632 0.031588
0.129712 0.083632 0.006510
0.129712 0.083632 0.001300
0.129712 0.050108 0.847730
0.129712 0.050108 0.839918
0.129712 0.050108 0.806547
0.129712 0.050108 0.683830
0.129712 0.050108 0.402074
0.129712 0.050108 0.135329
0.129712 0.050108 0.031588
0.129712 0.050108 0.006510
0.129712 0.050108 0.001300
0.129712 0.042275 0.847730
0.129712 0.042275 0.839918
0.129712 0.042275 0.806547
0.129712 0.042275 0.683830
0.129712 0.042275 0.402074
0.129712 0.042275 0.135329
0.129712 0.042275 0.031588
0.129712 0.042275 0.006510
0.129712 0.042275 0.001300
0.092390 0.957725 0.847730
0.092390 0.957725 0.839918
0.092390 0.957725 0.806547
0.092390 0.957725 0.683830
0.092390 0.957725 0.402074
0.092390 0.957725 0.135329
0.092390 0.957725 0.031588
0.092390 0.957725 0.006510
0.092390 0.957725 0.001300
0.092390 0.949892 0.847730
0.092390 0.949892 0.839918
0.092390 0.949892 0.806547
0.092390 0.949892 0.683830
0.092390 0.949892 0.402074
0.092390 0.949892 0.135329
0.092390 0.949892 0.031588
0.092390 0.949892 0.006510
0.092390 0.949892 0.001300
0.092390 0.916368 0.847730
0.092390 0.916368 0.839918
0.092390 0.916368 0.806547
0.092390 0.916368 0.683830
0.092390 0.916368 0.402074
0.092390 0.916368 0.135329
0.092390 0.916368 0.031588
0.092390 0.916368 0.006510
0.092390 0.916368 0.001300
0.092390 0.792169 0.847730
0.092390 0.792169 0.839918
0.092390 0.792169 0.806547
0.092390 0.792169 0.683830
0.092390 0.792169 0.402074
0.092390 0.792169 0.135329
0.092390 0.792169 0.031588
0.092390 0.792169 0.006510
0.092390 0.792169 0.001300
0.092390 0.500000 0.847730
0.092390 0.500000 0.839918
0.092390 0.500000 0.806547
0.092390 0.500000 0.683830
0.092390 0.500000 0.402074
0.092390 0.500000 0.135329
0.092390 0.500000 0.031588
0.092390 0.500000 0.006510
0.092390 0.500000 0.001300
0.092390 0.207832 0.847730
0.092390 0.207832 0.839918
0.092390 0.207832 0.806547
0.092390 0.207832 0.683830
0.092390 0.207832 0.402074
0.092390 0.207832 0.135329
0.092390 0.207832 0.031588
0.092390 0.207832 0.006510
0.092390 0.207832 0.001300
0.092390 0.083632 0.847730
0.092390 0.083632 0.839918
0.092390 0.083632 0.806547
0.092390 0.083632 0.683830
0.092390 0.083632 0.402074
0.092390 0.083632 0.135329
0.092390 0.083632 0.031588
0.092390 0.083632 0.006510
0.092390 0.083632 0.001300
0.092390 0.050108 0.847730
0.092390 0.050108 0.839918
0.092390 0.050108 0.806547
0.092390 0.050108 0.683830
0.092390 0.050108 0.402074
0.092390 0.050108 0.135329
0.092390 0.050108 0.031588
0.092390 0.050108 0.006510
0.092390 0.050108 0.001300
0.092390 0.042275 0.847730
0.092390 0.042275 0.839918
0.092390 0.042275 0.806547
0.092390 0.042275 0.683830
0.092390 0.042275 0.402074
0.092390 0.042275 0.135329
0.092390 0.042275 0.031588
0.092390 0.042275 0.006510
0.092390 0.042275 0.001300
0.083004 0.957725 0.847730
0.083004 0.957725 0.839918
0.083004 0.957725 0.806547
0.083004 0.957725 0.683830
0.083004 0.957725 0.402074
0.083004 0.957725 0.135329
0.083004 0.957725 0.031588
0.083004 0.957725 0.006510
0.083004 0.957725 0.001300
0.083004 0.949892 0.847730
0.083004 0.949892 0.839918
0.083004 0.949892 0.806547
0.083004 0.949892 0.683830
0.083004 0.949892 0.402074
0.083004 0.949892 0.135329
0.083004 0.949892 0.031588
0.083004 0.949892 0.006510
0.083004 0.949892 0.001300
0.083004 0.916368 0.847730
0.083004 0.916368 0.839918
0.083004 0.916368 0.806547
0.083004 0.916368 0.683830
0.083004 0.916368 0.402074
0.083004 0.916368 0.135329
0.083004 0.916368 0.031588
0.083004 0.916368 0.006510
0.083004 0.916368 0.001300
0.083004 0.792169 0.847730
0.083004 0.792169 0.839918
0.083004 0.792169 0.806547
0.083004 0.792169 0.683830
0.083004 0.792169 0.402074
0.083004 0.792169 0.135329
0.083004 0.792169 0.031588
0.083004 0.792169 0.006510
0.083004 0.792169 0.001300
0.083004 0.500000 0.847730
0.083004 0.500000 0.839918
0.083004 0.500000 0.806547
0.083004 0.500000 0.683830
0.083004 0.500000 0.402074
0.083004 0.500000 0.135329
0.083004 0.500000 0.031588
0.083004 0.500000 0.006510
0.083004 0.500000 0.001300
0.083004 0.207832 0.847730
0.083004 0.207832 0.839918
0.083004 0.207832 0.806547
0.083004 0.207832 0.683830
0.083004 0.207832 0.402074
0.083004 0.207832 0.135329
0.083004 0.207832 0.031588
0.083004 0.207832 0.006510
0.083004 0.207832 0.001300
0.083004 0.083632 0.847730
0.083004 0.083632 0.839918
0.083004 0.083632 0.806547
0.083004 0.083632 0.683830
0.083004 0.083632 0.402074
0.083004 0.083632 0.135329
0.083004 0.083632 0.031588
0.083004 0.083632 0.006510
0.083004 0.083632 0.001300
0.083004 0.050108 0.847730
0.083004 0.050108 0.839918
0.083004 0.050108 0.806547
0.083004 0.050108 0.683830
0.083004 0.050108 0.402074
0.083004 0.050108 0.135329
0.083004 0.050108 0.031588
0.083004 0.050108 0.006510
0.083004 0.050108 0.001300
0.083004 0.042275 0.847730
0.083004 0.042275 0.839918
0.083004 0.042275 0.806547
0.083004 0.042275 0.683830
0.083004 0.042275 0.402074
0.083004 0.042275 0.135329
0.083004 0.042275 0.031588
0.083004 0.042275 0.006510
0.083004 0.042275 0.001300
