negative/classic warm.cube
#Created by: LUT Generator
#Copyright: (C) Copyright 2026
TITLE "负片-经典暖色"
LUT_3D_SIZE 33
0.977886 0.957725 0.847730
0.977886 0.957725 0.846702
0.977886 0.957725 0.845209
0.977886 0.957725 0.843046
0.977886 0.957725 0.839918
0.977886 0.957725 0.835407
0.977886 0.957725 0.828926
0.977886 0.957725 0.819668
0.977886 0.957725 0.806547
0.977886 0.957725 0.788163
0.977886 0.957725 0.762813
0.977886 0.957725 0.728616
0.977886 0.957725 0.683830
0.977886 0.957725 0.627406
0.977886 0.957725 0.559708
0.977886 0.957725 0.483119
0.977886 0.957725 0.402074
0.977886 0.957725 0.322229
0.977886 0.957725 0.248991
0.977886 0.957725 0.186158
0.977886 0.957725 0.135329
0.977886 0.957725 0.096173
0.977886 0.957725 0.067156
0.977886 0.957725 0.046280
0.977886 0.957725 0.031588
0.977886 0.957725 0.021411
0.977886 0.957725 0.014442
0.977886 0.957725 0.009708
0.977886 0.957725 0.006510
0.977886 0.957725 0.004358
0.977886 0.957725 0.002914
0.977886 0.957725 0.001947
0.977886 0.957725 0.001300
0.977886 0.956694 0.847730
0.977886 0.956694 0.846702
0.977886 0.956694 0.845209
0.977886 0.956694 0.843046
0.977886 0.956694 0.839918
0.977886 0.956694 0.835407
0.977886 0.956694 0.828926
0.977886 0.956694 0.819668
0.977886 0.956694 0.806547
0.977886 0.956694 0.788163
0.977886 0.956694 0.762813
0.977886 0.956694 0.728616
0.977886 0.956694 0.683830
0.977886 0.956694 0.627406
0.977886 0.956694 0.559708
0.977886 0.956694 0.483119
0.977886 0.956694 0.402074
0.977886 0.956694 0.322229
0.977886 0.956694 0.248991
0.977886 0.956694 0.186158
0.977886 0.956694 0.135329
0.977886 0.956694 0.096173
0.977886 0.956694 0.067156
0.977886 0.956694 0.046280
0.977886 0.956694 0.031588
0.977886 0.956694 0.021411
0.977886 0.956694 0.014442
0.977886 0.956694 0.009708
0.977886 0.956694 0.006510
0.977886 0.956694 0.004358
0.977886 0.956694 0.002914
0.977886 0.956694 0.001947
0.977886 0.956694 0.001300
0.977886 0.955198 0.847730
0.977886 0.955198 0.846702
0.977886 0.955198 0.845209
0.977886 0.955198 0.843046
0.977886 0.955198 0.839918
0.977886 0.955198 0.835407
0.977886 0.955198 0.828926
0.977886 0.955198 0.819668
0.977886 0.955198 0.806547
0.977886 0.955198 0.788163
0.977886 0.955198 0.762813
0.977886 0.955198 0.728616
0.977886 0.955198 0.683830
0.977886 0.955198 0.627406
0.977886 0.955198 0.559708
0.977886 0.955198 0.483119
0.977886 0.955198 0.402074
0.977886 0.955198 0.322229
0.977886 0.955198 0.248991
0.977886 0.955198 0.186158
0.977886 0.955198 0.135329
0.977886 0.955198 0.096173
0.977886 0.955198 0.067156
0.977886 0.955198 0.046280
0.977886 0.955198 0.031588
0.977886 0.955198 0.021411
0.977886 0.955198 0.014442
0.977886 0.955198 0.009708
0.977886 0.955198 0.006510
0.977886 0.955198 0.004358
0.977886 0.955198 0.002914
0.977886 0.955198 0.001947
0.977886 0.955198 0.001300
0.977886 0.953029 0.847730
0.977886 0.953029 0.846702
0.977886 0.953029 0.845209
0.977886 0.953029 0.843046
0.977886 0.953029 0.839918
0.977886 0.953029 0.835407
0.977886 0.953029 0.828926
0.977886 0.953029 0.819668
0.977886 0.953029 0.806547
0.977886 0.953029 0.788163
0.977886 0.953029 0.762813
0.977886 0.953029 0.728616
0.977886 0.953029 0.683830
0.977886 0.953029 0.627406
0.977886 0.953029 0.559708
0.977886 0.953029 0.483119
0.977886 0.953029 0.402074
0.977886 0.953029 0.322229
0.977886 0.953029 0.248991
0.977886 0.953029 0.186158
0.977886 0.953029 0.135329
0.977886 0.953029 0.096173
0.977886 0.953029 0.067156
0.977886 0.953029 0.046280
0.977886 0.953029 0.031588
0.977886 0.953029 0.021411
0.977886 0.953029 0.014442
0.977886 0.953029 0.009708
0.977886 0.953029 0.006510
0.977886 0.953029 0.004358
0.977886 0.953029 0.002914
0.977886 0.953029 0.001947
0.977886 0.953029 0.001300
0.977886 0.949892 0.847730
0.977886 0.949892 0.846702
0.977886 0.949892 0.845209
0.977886 0.949892 0.843046
0.977886 0.949892 0.839918
0.977886 0.949892 0.835407
0.977886 0.949892 0.828926
0.977886 0.949892 0.819668
0.977886 0.949892 0.806547
0.977886 0.949892 0.788163
0.977886 0.949892 0.762813
0.977886 0.949892 0.728616
0.977886 0.949892 0.683830
0.977886 0.949892 0.627406
0.977886 0.949892 0.559708
0.977886 0.949892 0.483119
0.977886 0.949892 0.402074
0.977886 0.949892 0.322229
0.977886 0.949892 0.248991
0.977886 0.949892 0.186158
0.977886 0.949892 0.135329
0.977886 0.949892 0.096173
0.977886 0.949892 0.067156
0.977886 0.949892 0.046280
0.977886 0.949892 0.031588
0.977886 0.949892 0.021411
0.977886 0.949892 0.014442
0.977886 0.949892 0.009708
0.977886 0.949892 0.006510
0.977886 0.949892 0.004358
0.977886 0.949892 0.002914
0.977886 0.949892 0.001947
0.977886 0.949892 0.001300
0.977886 0.945366 0.847730
0.977886 0.945366 0.846702
0.977886 0.945366 0.845209
0.977886 0.945366 0.843046
0.977886 0.945366 0.839918
0.977886 0.945366 0.835407
0.977886 0.945366 0.828926
0.977886 0.945366 0.819668
0.977886 0.945366 0.806547
0.977886 0.945366 0.788163
0.977886 0.945366 0.762813
0.977886 0.945366 0.728616
0.977886 0.945366 0.683830
0.977886 0.945366 0.627406
0.977886 0.945366 0.559708
0.977886 0.945366 0.483119
0.977886 0.945366 0.402074
0.977886 0.945366 0.322229
0.977886 0.945366 0.248991
0.977886 0.945366 0.186158
0.977886 0.945366 0.135329
0.977886 0.945366 0.096173
0.977886 0.945366 0.067156
0.977886 0.945366 0.046280
0.977886 0.945366 0.031588
0.977886 0.945366 0.021411
0.977886 0.945366 0.014442
0.977886 0.945366 0.009708
0.977886 0.945366 0.006510
0.977886 0.945366 0.004358
0.977886 0.945366 0.002914
0.977886 0.945366 0.001947
0.977886 0.945366 0.001300
0.977886 0.938861 0.847730
0.977886 0.938861 0.846702
0.977886 0.938861 0.845209
0.977886 0.938861 0.843046
0.977886 0.938861 0.839918
0.977886 0.938861 0.835407
0.977886 0.938861 0.828926
0.977886 0.938861 0.819668
0.977886 0.938861 0.806547
0.977886 0.938861 0.788163
0.977886 0.938861 0.762813
0.977886 0.938861 0.728616
0.977886 0.938861 0.683830
0.977886 0.938861 0.627406
0.977886 0.938861 0.559708
0.977886 0.938861 0.483119
0.977886 0.938861 0.402074
0.977886 0.938861 0.322229
0.977886 0.938861 0.248991
0.977886 0.938861 0.186158
0.977886 0.938861 0.135329
0.977886 0.938861 0.096173
0.977886 0.938861 0.067156
0.977886 0.938861 0.046280
0.977886 0.938861 0.031588
0.977886 0.938861 0.021411
0.977886 0.938861 0.014442
0.977886 0.938861 0.009708
0.977886 0.938861 0.006510
0.977886 0.938861 0.004358
0.977886 0.938861 0.002914
0.977886 0.938861 0.001947
0.977886 0.938861 0.001300
0.977886 0.929561 0.847730
0.977886 0.929561 0.846702
0.977886 0.929561 0.845209
0.977886 0.929561 0.843046
0.977886 0.929561 0.839918
0.977886 0.929561 0.835407
0.977886 0.929561 0.828926
0.977886 0.929561 0.819668
0.977886 0.929561 0.806547
0.977886 0.929561 0.788163
0.977886 0.929561 0.762813
0.977886 0.929561 0.728616
0.977886 0.929561 0.683830
0.977886 0.929561 0.627406
0.977886 0.929561 0.559708
0.977886 0.929561 0.483119
0.977886 0.929561 0.402074
0.977886 0.929561 0.322229
0.977886 0.929561 0.248991
0.977886 0.929561 0.186158
0.977886 0.929561 0.135329
0.977886 0.929561 0.096173
0.977886 0.929561 0.067156
0.977886 0.929561 0.046280
0.977886 0.929561 0.031588
0.977886 0.929561 0.021411
0.977886 0.929561 0.014442
0.977886 0.929561 0.009708
0.977886 0.929561 0.006510
0.977886 0.929561 0.004358
0.977886 0.929561 0.002914
0.977886 0.929561 0.001947
0.977886 0.929561 0.001300
0.977886 0.916368 0.847730
0.977886 0.916368 0.846702
0.977886 0.916368 0.845209
0.977886 0.916368 0.843046
0.977886 0.916368 0.839918
0.977886 0.916368 0.835407
0.977886 0.916368 0.828926
0.977886 0.916368 0.819668
0.977886 0.916368 0.806547
0.977886 0.916368 0.788163
0.977886 0.916368 0.762813
0.977886 0.916368 0.728616
0.977886 0.916368 0.683830
0.977886 0.916368 0.627406
0.977886 0.916368 0.559708
0.977886 0.916368 0.483119
0.977886 0.916368 0.402074
0.977886 0.916368 0.322229
0.977886 0.916368 0.248991
0.977886 0.916368 0.186158
0.977886 0.916368 0.135329
0.977886 0.916368 0.096173
0.977886 0.916368 0.067156
0.977886 0.916368 0.046280
0.977886 0.916368 0.031588
0.977886 0.916368 0.021411
0.977886 0.916368 0.014442
0.977886 0.916368 0.009708
0.977886 0.916368 0.006510
0.977886 0.916368 0.004358
0.977886 0.916368 0.002914
0.977886 0.916368 0.001947
0.977886 0.916368 0.001300
0.977886 0.897857 0.847730
0.977886 0.897857 0.846702
0.977886 0.897857 0.845209
0.977886 0.897857 0.843046
0.977886 0.897857 0.839918
0.977886 0.897857 0.835407
0.977886 0.897857 0.828926
0.977886 0.897857 0.819668
0.977886 0.897857 0.806547
0.977886 0.897857 0.788163
0.977886 0.897857 0.762813
0.977886 0.897857 0.728616
0.977886 0.897857 0.683830
0.977886 0.897857 0.627406
0.977886 0.897857 0.559708
0.977886 0.897857 0.483119
0.977886 0.897857 0.402074
0.977886 0.897857 0.322229
0.977886 0.897857 0.248991
0.977886 0.897857 0.186158
0.977886 0.897857 0.135329
0.977886 0.897857 0.096173
0.977886 0.897857 0.067156
0.977886 0.897857 0.046280
0.977886 0.897857 0.031588
0.977886 0.897857 0.021411
0.977886 0.897857 0.014442
0.977886 0.897857 0.009708
0.977886 0.897857 0.006510
0.977886 0.897857 0.004358
0.977886 0.897857 0.002914
0.977886 0.897857 0.001947
0.977886 0.897857 0.001300
0.977886 0.872279 0.847730
0.977886 0.872279 0.846702
0.977886 0.872279 0.845209
0.977886 0.872279 0.843046
0.977886 0.872279 0.839918
0.977886 0.872279 0.835407
0.977886 0.872279 0.828926
0.977886 0.872279 0.819668
0.977886 0.872279 0.806547
0.977886 0.872279 0.788163
0.977886 0.872279 0.762813
0.977886 0.872279 0.728616
0.977886 0.872279 0.683830
0.977886 0.872279 0.627406
0.977886 0.872279 0.559708
0.977886 0.872279 0.483119
0.977886 0.872279 0.402074
0.977886 0.872279 0.322229
0.977886 0.872279 0.248991
0.977886 0.872279 0.186158
0.977886 0.872279 0.135329
0.977886 0.872279 0.096173
0.977886 0.872279 0.067156
0.977886 0.872279 0.046280
0.977886 0.872279 0.031588
0.977886 0.872279 0.021411
0.977886 0.872279 0.014442
0.977886 0.872279 0.009708
0.977886 0.872279 0.006510
0.977886 0.872279 0.004358
0.977886 0.872279 0.002914
0.977886 0.872279 0.001947
0.977886 0.872279 0.001300
0.977886 0.837673 0.847730
0.977886 0.837673 0.846702
0.977886 0.837673 0.845209
0.977886 0.837673 0.843046
0.977886 0.837673 0.839918
0.977886 0.837673 0.835407
0.977886 0.837673 0.828926
0.977886 0.837673 0.819668
0.977886 0.837673 0.806547
0.977886 0.837673 0.788163
0.977886 0.837673 0.762813
0.977886 0.837673 0.728616
0.977886 0.837673 0.683830
0.977886 0.837673 0.627406
0.977886 0.837673 0.559708
0.977886 0.837673 0.483119
0.977886 0.837673 0.402074
0.977886 0.837673 0.322229
0.977886 0.837673 0.248991
0.977886 0.837673 0.186158
0.977886 0.837673 0.135329
0.977886 0.837673 0.096173
0.977886 0.837673 0.067156
0.977886 0.837673 0.046280
0.977886 0.837673 0.031588
0.977886 0.837673 0.021411
0.977886 0.837673 0.014442
0.977886 0.837673 0.009708
0.977886 0.837673 0.006510
0.977886 0.837673 0.004358
0.977886 0.837673 0.002914
0.977886 0.837673 0.001947
0.977886 0.837673 0.001300
0.977886 0.792169 0.847730
0.977886 0.792169 0.846702
0.977886 0.792169 0.845209
0.977886 0.792169 0.843046
0.977886 0.792169 0.839918
0.977886 0.792169 0.835407
0.977886 0.792169 0.828926
0.977886 0.792169 0.819668
0.977886 0.792169 0.806547
0.977886 0.792169 0.788163
0.977886 0.792169 0.762813
0.977886 0.792169 0.728616
0.977886 0.792169 0.683830
0.977886 0.792169 0.627406
0.977886 0.792169 0.559708
0.977886 0.792169 0.483119
0.977886 0.792169 0.402074
0.977886 0.792169 0.322229
0.977886 0.792169 0.248991
0.977886 0.792169 0.186158
0.977886 0.792169 0.135329
0.977886 0.792169 0.096173
0.977886 0.792169 0.067156
0.977886 0.792169 0.046280
0.977886 0.792169 0.031588
0.977886 0.792169 0.021411
0.977886 0.792169 0.014442
0.977886 0.792169 0.009708
0.977886 0.792169 0.006510
0.977886 0.792169 0.004358
0.977886 0.792169 0.002914
0.977886 0.792169 0.001947
0.977886 0.792169 0.001300
0.977886 0.734522 0.847730
0.977886 0.734522 0.846702
0.977886 0.734522 0.845209
0.977886 0.734522 0.843046
0.977886 0.734522 0.839918
0.977886 0.734522 0.835407
0.977886 0.734522 0.828926
0.977886 0.734522 0.819668
0.977886 0.734522 0.806547
0.977886 0.734522 0.788163
0.977886 0.734522 0.762813
0.977886 0.734522 0.728616
0.977886 0.734522 0.683830
0.977886 0.734522 0.627406
0.977886 0.734522 0.559708
0.977886 0.734522 0.483119
0.977886 0.734522 0.402074
0.977886 0.734522 0.322229
0.977886 0.734522 0.248991
0.977886 0.734522 0.186158
0.977886 0.734522 0.135329
0.977886 0.734522 0.096173
0.977886 0.734522 0.067156
0.977886 0.734522 0.046280
0.977886 0.734522 0.031588
0.977886 0.734522 0.021411
0.977886 0.734522 0.014442
0.977886 0.734522 0.009708
0.977886 0.734522 0.006510
0.977886 0.734522 0.004358
0.977886 0.734522 0.002914
0.977886 0.734522 0.001947
0.977886 0.734522 0.001300
0.977886 0.664844 0.847730
0.977886 0.664844 0.846702
0.977886 0.664844 0.845209
0.977886 0.664844 0.843046
0.977886 0.664844 0.839918
0.977886 0.664844 0.835407
0.977886 0.664844 0.828926
0.977886 0.664844 0.819668
0.977886 0.664844 0.806547
0.977886 0.664844 0.788163
0.977886 0.664844 0.762813
0.977886 0.664844 0.728616
0.977886 0.664844 0.683830
0.977886 0.664844 0.627406
0.977886 0.664844 0.559708
0.977886 0.664844 0.483119
0.977886 0.664844 0.402074
0.977886 0.664844 0.322229
0.977886 0.664844 0.248991
0.977886 0.664844 0.186158
0.977886 0.664844 0.135329
0.977886 0.664844 0.096173
0.977886 0.664844 0.067156
0.977886 0.664844 0.046280
0.977886 0.664844 0.031588
0.977886 0.664844 0.021411
0.977886 0.664844 0.014442
0.977886 0.664844 0.009708
0.977886 0.664844 0.006510
0.977886 0.664844 0.004358
0.977886 0.664844 0.002914
0.977886 0.664844 0.001947
0.977886 0.664844 0.001300
0.977886 0.585253 0.847730
0.977886 0.585253 0.846702
0.977886 0.585253 0.845209
0.977886 0.585253 0.843046
0.977886 0.585253 0.839918
0.977886 0.585253 0.835407
0.977886 0.585253 0.828926
0.977886 0.585253 0.819668
0.977886 0.585253 0.806547
0.977886 0.585253 0.788163
0.977886 0.585253 0.762813
0.977886 0.585253 0.728616
0.977886 0.585253 0.683830
0.977886 0.585253 0.627406
0.977886 0.585253 0.559708
0.977886 0.585253 0.483119
0.977886 0.585253 0.402074
0.977886 0.585253 0.322229
0.977886 0.585253 0.248991
0.977886 0.585253 0.186158
0.977886 0.585253 0.135329
0.977886 0.585253 0.096173
0.977886 0.585253 0.067156
0.977886 0.585253 0.046280
0.977886 0.585253 0.031588
0.977886 0.585253 0.021411
0.977886 0.585253 0.014442
0.977886 0.585253 0.009708
0.977886 0.585253 0.006510
0.977886 0.585253 0.004358
0.977886 0.585253 0.002914
0.977886 0.585253 0.001947
0.977886 0.585253 0.001300
0.977886 0.500000 0.847730
0.977886 0.500000 0.846702
0.977886 0.500000 0.845209
0.977886 0.500000 0.843046
0.977886 0.500000 0.839918
0.977886 0.500000 0.835407
0.977886 0.500000 0.828926
0.977886 0.500000 0.819668
0.977886 0.500000 0.806547
0.977886 0.500000 0.788163
0.977886 0.500000 0.762813
0.977886 0.500000 0.728616
0.977886 0.500000 0.683830
0.977886 0.500000 0.627406
0.977886 0.500000 0.559708
0.977886 0.500000 0.483119
0.977886 0.500000 0.402074
0.977886 0.500000 0.322229
0.977886 0.500000 0.248991
0.977886 0.500000 0.186158
0.977886 0.500000 0.135329
0.977886 0.500000 0.096173
0.977886 0.500000 0.067156
0.977886 0.500000 0.046280
0.977886 0.500000 0.031588
0.977886 0.500000 0.021411
0.977886 0.500000 0.014442
0.977886 0.500000 0.009708
0.977886 0.500000 0.006510
0.977886 0.500000 0.004358
0.977886 0.500000 0.002914
0.977886 0.500000 0.001947
0.977886 0.500000 0.001300
0.977886 0.414747 0.847730
0.977886 0.414747 0.846702
0.977886 0.414747 0.845209
0.977886 0.414747 0.843046
0.977886 0.414747 0.839918
0.977886 0.414747 0.835407
0.977886 0.414747 0.828926
0.977886 0.414747 0.819668
0.977886 0.414747 0.806547
0.977886 0.414747 0.788163
0.977886 0.414747 0.762813
0.977886 0.414747 0.728616
0.977886 0.414747 0.683830
0.977886 0.414747 0.627406
0.977886 0.414747 0.559708
0.977886 0.414747 0.483119
0.977886 0.414747 0.402074
0.977886 0.414747 0.322229
0.977886 0.414747 0.248991
0.977886 0.414747 0.186158
0.977886 0.414747 0.135329
0.977886 0.414747 0.096173
0.977886 0.414747 0.067156
0.977886 0.414747 0.046280
0.977886 0.414747 0.031588
0.977886 0.414747 0.021411
0.977886 0.414747 0.014442
0.977886 0.414747 0.009708
0.977886 0.414747 0.006510
0.977886 0.414747 0.004358
0.977886 0.414747 0.002914
0.977886 0.414747 0.001947
0.977886 0.414747 0.001300
0.977886 0.335156 0.847730
0.977886 0.335156 0.846702
0.977886 0.335156 0.845209
0.977886 0.335156 0.843046
0.977886 0.335156 0.839918
0.977886 0.335156 0.835407
0.977886 0.335156 0.828926
0.977886 0.335156 0.819668
0.977886 0.335156 0.806547
0.977886 0.335156 0.788163
0.977886 0.335156 0.762813
0.977886 0.335156 0.728616
0.977886 0.335156 0.683830
0.977886 0.335156 0.627406
0.977886 0.335156 0.559708
0.977886 0.335156 0.483119
0.977886 0.335156 0.402074
0.977886 0.335156 0.322229
0.977886 0.335156 0.248991
0.977886 0.335156 0.186158
0.977886 0.335156 0.135329
0.977886 0.335156 0.096173
0.977886 0.335156 0.067156
0.977886 0.335156 0.046280
0.977886 0.335156 0.031588
0.977886 0.335156 0.021411
0.977886 0.335156 0.014442
0.977886 0.335156 0.009708
0.977886 0.335156 0.006510
0.977886 0.335156 0.004358
0.977886 0.335156 0.002914
0.977886 0.335156 0.001947
0.977886 0.335156 0.001300
0.977886 0.265478 0.847730
0.977886 0.265478 0.846702
0.977886 0.265478 0.845209
0.977886 0.265478 0.843046
0.977886 0.265478 0.839918
0.977886 0.265478 0.835407
0.977886 0.265478 0.828926
0.977886 0.265478 0.819668
0.977886 0.265478 0.806547
0.977886 0.265478 0.788163
0.977886 0.265478 0.762813
0.977886 0.265478 0.728616
0.977886 0.265478 0.683830
0.977886 0.265478 0.627406
0.977886 0.265478 0.559708
0.977886 0.265478 0.483119
0.977886 0.265478 0.402074
0.977886 0.265478 0.322229
0.977886 0.265478 0.248991
0.977886 0.265478 0.186158
0.977886 0.265478 0.135329
0.977886 0.265478 0.096173
0.977886 0.265478 0.067156
0.977886 0.265478 0.046280
0.977886 0.265478 0.031588
0.977886 0.265478 0.021411
0.977886 0.265478 0.014442
0.977886 0.265478 0.009708
0.977886 0.265478 0.006510
0.977886 0.265478 0.004358
0.977886 0.265478 0.002914
0.977886 0.265478 0.001947
0.977886 0.265478 0.001300
0.977886 0.207832 0.847730
0.977886 0.207832 0.846702
0.977886 0.207832 0.845209
0.977886 0.207832 0.843046
0.977886 0.207832 0.839918
0.977886 0.207832 0.835407
0.977886 0.207832 0.828926
0.977886 0.207832 0.819668
0.977886 0.207832 0.806547
0.977886 0.207832 0.788163
0.977886 0.207832 0.762813
0.977886 0.207832 0.728616
0.977886 0.207832 0.683830
0.977886 0.207832 0.627406
0.977886 0.207832 0.559708
0.977886 0.207832 0.483119
0.977886 0.207832 0.402074
0.977886 0.207832 0.322229
0.977886 0.207832 0.248991
0.977886 0.207832 0.186158
0.977886 0.207832 0.135329
0.977886 0.207832 0.096173
0.977886 0.207832 0.067156
0.977886 0.207832 0.046280
0.977886 0.207832 0.031588
0.977886 0.207832 0.021411
0.977886 0.207832 0.014442
0.977886 0.207832 0.009708
0.977886 0.207832 0.006510
0.977886 0.207832 0.004358
0.977886 0.207832 0.002914
0.977886 0.207832 0.001947
0.977886 0.207832 0.001300
0.977886 0.162327 0.847730
0.977886 0.162327 0.846702
0.977886 0.162327 0.845209
0.977886 0.162327 0.843046
0.977886 0.162327 0.839918
0.977886 0.162327 0.835407
0.977886 0.162327 0.828926
0.977886 0.162327 0.819668
0.977886 0.162327 0.806547
0.977886 0.162327 0.788163
0.977886 0.162327 0.762813
0.977886 0.162327 0.728616
0.977886 0.162327 0.683830
0.977886 0.162327 0.627406
0.977886 0.162327 0.559708
0.977886 0.162327 0.483119
0.977886 0.162327 0.402074
0.977886 0.162327 0.322229
0.977886 0.162327 0.248991
0.977886 0.162327 0.186158
0.977886 0.162327 0.135329
0.977886 0.162327 0.096173
0.977886 0.162327 0.067156
0.977886 0.162327 0.046280
0.977886 0.162327 0.031588
0.977886 0.162327 0.021411
0.977886 0.162327 0.014442
0.977886 0.162327 0.009708
0.977886 0.162327 0.006510
0.977886 0.162327 0.004358
0.977886 0.162327 0.002914
0.977886 0.162327 0.001947
0.977886 0.162327 0.001300
0.977886 0.127722 0.847730
0.977886 0.127722 0.846702
0.977886 0.127722 0.845209
0.977886 0.127722 0.843046
0.977886 0.127722 0.839918
0.977886 0.127722 0.835407
0.977886 0.127722 0.828926
0.977886 0.127722 0.819668
0.977886 0.127722 0.806547
0.977886 0.127722 0.788163
0.977886 0.127722 0.762813
0.977886 0.127722 0.728616
0.977886 0.127722 0.683830
0.977886 0.127722 0.627406
0.977886 0.127722 0.559708
0.977886 0.127722 0.483119
0.977886 0.127722 0.402074
0.977886 0.127722 0.322229
0.977886 0.127722 0.248991
0.977886 0.127722 0.186158
0.977886 0.127722 0.135329
0.977886 0.127722 0.096173
0.977886 0.127722 0.067156
0.977886 0.127722 0.046280
0.977886 0.127722 0.031588
0.977886 0.127722 0.021411
0.977886 0.127722 0.014442
0.977886 0.127722 0.009708
0.977886 0.127722 0.006510
0.977886 0.127722 0.004358
0.977886 0.127722 0.002914
0.977886 0.127722 0.001947
0.977886 0.127722 0.001300
0.977886 0.102143 0.847730
0.977886 0.102143 0.846702
0.977886 0.102143 0.845209
0.977886 0.102143 0.843046
0.977886 0.102143 0.839918
0.977886 0.102143 0.835407
0.977886 0.102143 0.828926
0.977886 0.102143 0.819668
0.977886 0.102143 0.806547
0.977886 0.102143 0.788163
0.977886 0.102143 0.762813
0.977886 0.102143 0.728616
0.977886 0.102143 0.683830
0.977886 0.102143 0.627406
0.977886 0.102143 0.559708
0.977886 0.102143 0.483119
0.977886 0.102143 0.402074
0.977886 0.102143 0.322229
0.977886 0.102143 0.248991
0.977886 0.102143 0.186158
0.977886 0.102143 0.135329
0.977886 0.102143 0.096173
0.977886 0.102143 0.067156
0.977886 0.102143 0.046280
0.977886 0.102143 0.031588
0.977886 0.102143 0.021411
0.977886 0.102143 0.014442
0.977886 0.102143 0.009708
0.977886 0.102143 0.006510
0.977886 0.102143 0.004358
0.977886 0.102143 0.002914
0.977886 0.102143 0.001947
0.977886 0.102143 0.001300
0.977886 0.083632 0.847730
0.977886 0.083632 0.846702
0.977886 0.083632 0.845209
0.977886 0.083632 0.843046
0.977886 0.083632 0.839918
0.977886 0.083632 0.835407
0.977886 0.083632 0.828926
0.977886 0.083632 0.819668
0.977886 0.083632 0.806547
0.977886 0.083632 0.788163
0.977886 0.083632 0.762813
0.977886 0.083632 0.728616
0.977886 0.083632 0.683830
0.977886 0.083632 0.627406
0.977886 0.083632 0.559708
0.977886 0.083632 0.483119
0.977886 0.083632 0.402074
0.977886 0.083632 0.322229
0.977886 0.083632 0.248991
0.977886 0.083632 0.186158
0.977886 0.083632 0.135329
0.977886 0.083632 0.096173
0.977886 0.083632 0.067156
0.977886 0.083632 0.046280
0.977886 0.083632 0.031588
0.977886 0.083632 0.021411
0.977886 0.083632 0.014442
0.977886 0.083632 0.009708
0.977886 0.083632 0.006510
0.977886 0.083632 0.004358
0.977886 0.083632 0.002914
0.977886 0.083632 0.001947
0.977886 0.083632 0.001300
0.977886 0.070439 0.847730
0.977886 0.070439 0.846702
0.977886 0.070439 0.845209
0.977886 0.070439 0.843046
0.977886 0.070439 0.839918
0.977886 0.070439 0.835407
0.977886 0.070439 0.828926
0.977886 0.070439 0.819668
0.977886 0.070439 0.806547
0.977886 0.070439 0.788163
0.977886 0.070439 0.762813
0.977886 0.070439 0.728616
0.977886 0.070439 0.683830
0.977886 0.070439 0.627406
0.977886 0.070439 0.559708
0.977886 0.070439 0.483119
0.977886 0.070439 0.402074
0.977886 0.070439 0.322229
0.977886 0.070439 0.248991
0.977886 0.070439 0.186158
0.977886 0.070439 0.135329
0.977886 0.070439 0.096173
0.977886 0.070439 0.067156
0.977886 0.070439 0.046280
0.977886 0.070439 0.031588
0.977886 0.070439 0.021411
0.977886 0.070439 0.014442
0.977886 0.070439 0.009708
0.977886 0.070439 0.006510
0.977886 0.070439 0.004358
0.977886 0.070439 0.002914
0.977886 0.070439 0.001947
0.977886 0.070439 0.001300
0.977886 0.061139 0.847730
0.977886 0.061139 0.846702
0.977886 0.061139 0.845209
0.977886 0.061139 0.843046
0.977886 0.061139 0.839918
0.977886 0.061139 0.835407
0.977886 0.061139 0.828926
0.977886 0.061139 0.819668
0.977886 0.061139 0.806547
0.977886 0.061139 0.788163
0.977886 0.061139 0.762813
0.977886 0.061139 0.728616
0.977886 0.061139 0.683830
0.977886 0.061139 0.627406
0.977886 0.061139 0.559708
0.977886 0.061139 0.483119
0.977886 0.061139 0.402074
0.977886 0.061139 0.322229
0.977886 0.061139 0.248991
0.977886 0.061139 0.186158
0.977886 0.061139 0.135329
0.977886 0.061139 0.096173
0.977886 0.061139 0.067156
0.977886 0.061139 0.046280
0.977886 0.061139 0.031588
0.977886 0.061139 0.021411
0.977886 0.061139 0.014442
