negative/cool blue.cube
#Created by: LUT Generator
#Copyright: (C) Copyright 2026
TITLE "负片-冷蓝调"
LUT_3D_SIZE 9
0.833198 0.893388 0.984765
0.833198 0.893388 0.959781
0.833198 0.893388 0.898604
0.833198 0.893388 0.769642
0.833198 0.893388 0.566228
0.833198 0.893388 0.354836
0.833198 0.893388 0.210009
0.833198 0.893388 0.135683
0.833198 0.893388 0.102821
0.833198 0.866231 0.984765
0.833198 0.866231 0.959781
0.833198 0.866231 0.898604
0.833198 0.866231 0.769642
0.833198 0.866231 0.566228
0.833198 0.866231 0.354836
0.833198 0.866231 0.210009
0.833198 0.866231 0.135683
0.833198 0.866231 0.102821
0.833198 0.800198 0.984765
0.833198 0.800198 0.959781
0.833198 0.800198 0.898604
0.833198 0.800198 0.769642
0.833198 0.800198 0.566228
0.833198 0.800198 0.354836
0.833198 0.800198 0.210009
0.833198 0.800198 0.135683
0.833198 0.800198 0.102821
0.833198 0.663333 0.984765
0.833198 0.663333 0.959781
0.833198 0.663333 0.898604
0.833198 0.663333 0.769642
0.833198 0.663333 0.566228
0.833198 0.663333 0.354836
0.833198 0.663333 0.210009
0.833198 0.663333 0.135683
0.833198 0.663333 0.102821
0.833198 0.455012 0.984765
0.833198 0.455012 0.959781
0.833198 0.455012 0.898604
0.833198 0.455012 0.769642
0.833198 0.455012 0.566228
0.833198 0.455012 0.354836
0.833198 0.455012 0.210009
0.833198 0.455012 0.135683
0.833198 0.455012 0.102821
0.833198 0.251627 0.984765
0.833198 0.251627 0.959781
0.833198 0.251627 0.898604
0.833198 0.251627 0.769642
0.833198 0.251627 0.566228
0.833198 0.251627 0.354836
0.833198 0.251627 0.210009
0.833198 0.251627 0.135683
0.833198 0.251627 0.102821
0.833198 0.124316 0.984765
0.833198 0.124316 0.959781
0.833198 0.124316 0.898604
0.833198 0.124316 0.769642
0.833198 0.124316 0.566228
0.833198 0.124316 0.354836
0.833198 0.124316 0.210009
0.833198 0.124316 0.135683
0.833198 0.124316 0.102821
0.833198 0.065834 0.984765
0.833198 0.065834 0.959781
0.833198 0.065834 0.898604
0.833198 0.065834 0.769642
0.833198 0.065834 0.566228
0.833198 0.065834 0.354836
0.833198 0.065834 0.210009
0.833198 0.065834 0.135683
0.833198 0.065834 0.102821
0.833198 0.042947 0.984765
0.833198 0.042947 0.959781
0.833198 0.042947 0.898604
0.833198 0.042947 0.769642
0.833198 0.042947 0.566228
0.833198 0.042947 0.354836
0.833198 0.042947 0.210009
0.833198 0.042947 0.135683
0.833198 0.042947 0.102821
0.805763 0.893388 0.984765
0.805763 0.893388 0.959781
0.805763 0.893388 0.898604
0.805763 0.893388 0.769642
0.805763 0.893388 0.566228
0.805763 0.893388 0.354836
0.805763 0.893388 0.210009
0.805763 0.893388 0.135683
0.805763 0.893388 0.102821
0.805763 0.866231 0.984765
0.805763 0.866231 0.959781
0.805763 0.866231 0.898604
0.805763 0.866231 0.769642
0.805763 0.866231 0.566228
0.805763 0.866231 0.354836
0.805763 0.866231 0.210009
0.805763 0.866231 0.135683
0.805763 0.866231 0.102821
0.805763 0.800198 0.984765
0.805763 0.800198 0.959781
0.805763 0.800198 0.898604
0.805763 0.800198 0.769642
0.805763 0.800198 0.566228
0.805763 0.800198 0.354836
0.805763 0.800198 0.210009
0.805763 0.800198 0.135683
0.805763 0.800198 0.102821
0.805763 0.663333 0.984765
0.805763 0.663333 0.959781
0.805763 0.663333 0.898604
0.805763 0.663333 0.769642
0.805763 0.663333 0.566228
0.805763 0.663333 0.354836
0.805763 0.663333 0.210009
0.805763 0.663333 0.135683
0.805763 0.663333 0.102821
0.805763 0.455012 0.984765
0.805763 0.455012 0.959781
0.805763 0.455012 0.898604
0.805763 0.455012 0.769642
0.805763 0.455012 0.566228
0.805763 0.455012 0.354836
0.805763 0.455012 0.210009
0.805763 0.455012 0.135683
0.805763 0.455012 0.102821
0.805763 0.251627 0.984765
0.805763 0.251627 0.959781
0.805763 0.251627 0.898604
0.805763 0.251627 0.769642
0.805763 0.251627 0.566228
0.805763 0.251627 0.354836
0.805763 0.251627 0.210009
0.805763 0.251627 0.135683
0.805763 0.251627 0.102821
0.805763 0.124316 0.984765
0.805763 0.124316 0.959781
0.805763 0.124316 0.898604
0.805763 0.124316 0.769642
0.805763 0.124316 0.566228
0.805763 0.124316 0.354836
0.805763 0.124316 0.210009
0.805763 0.124316 0.135683
0.805763 0.124316 0.102821
0.805763 0.065834 0.984765
0.805763 0.065834 0.959781
0.805763 0.065834 0.898604
0.805763 0.065834 0.769642
0.805763 0.065834 0.566228
0.805763 0.065834 0.354836
0.805763 0.065834 0.210009
0.805763 0.065834 0.135683
0.805763 0.065834 0.102821
0.805763 0.042947 0.984765
0.805763 0.042947 0.959781
0.805763 0.042947 0.898604
0.805763 0.042947 0.769642
0.805763 0.042947 0.566228
0.805763 0.042947 0.354836
0.805763 0.042947 0.210009
0.805763 0.042947 0.135683
0.805763 0.042947 0.102821
0.739235 0.893388 0.984765
0.739235 0.893388 0.959781
0.739235 0.893388 0.898604
0.739235 0.893388 0.769642
0.739235 0.893388 0.566228
0.739235 0.893388 0.354836
0.739235 0.893388 0.210009
0.739235 0.893388 0.135683
0.739235 0.893388 0.102821
0.739235 0.866231 0.984765
0.739235 0.866231 0.959781
0.739235 0.866231 0.898604
0.739235 0.866231 0.769642
0.739235 0.866231 0.566228
0.739235 0.866231 0.354836
0.739235 0.866231 0.210009
0.739235 0.866231 0.135683
0.739235 0.866231 0.102821
0.739235 0.800198 0.984765
0.739235 0.800198 0.959781
0.739235 0.800198 0.898604
0.739235 0.800198 0.769642
0.739235 0.800198 0.566228
0.739235 0.800198 0.354836
0.739235 0.800198 0.210009
0.739235 0.800198 0.135683
0.739235 0.800198 0.102821
0.739235 0.663333 0.984765
0.739235 0.663333 0.959781
0.739235 0.663333 0.898604
0.739235 0.663333 0.769642
0.739235 0.663333 0.566228
0.739235 0.663333 0.354836
0.739235 0.663333 0.210009
0.739235 0.663333 0.135683
0.739235 0.663333 0.102821
0.739235 0.455012 0.984765
0.739235 0.455012 0.959781
0.739235 0.455012 0.898604
0.739235 0.455012 0.769642
0.739235 0.455012 0.566228
0.739235 0.455012 0.354836
0.739235 0.455012 0.210009
0.739235 0.455012 0.135683
0.739235 0.455012 0.102821
0.739235 0.251627 0.984765
0.739235 0.251627 0.959781
0.739235 0.251627 0.898604
0.739235 0.251627 0.769642
0.739235 0.251627 0.566228
0.739235 0.251627 0.354836
0.739235 0.251627 0.210009
0.739235 0.251627 0.135683
0.739235 0.251627 0.102821
0.739235 0.124316 0.984765
0.739235 0.124316 0.959781
0.739235 0.124316 0.898604
0.739235 0.124316 0.769642
0.739235 0.124316 0.566228
0.739235 0.124316 0.354836
0.739235 0.124316 0.210009
0.739235 0.124316 0.135683
0.739235 0.124316 0.102821
0.739235 0.065834 0.984765
0.739235 0.065834 0.959781
0.739235 0.065834 0.898604
0.739235 0.065834 0.769642
0.739235 0.065834 0.566228
0.739235 0.065834 0.354836
0.739235 0.065834 0.210009
0.739235 0.065834 0.135683
0.739235 0.065834 0.102821
0.739235 0.042947 0.984765
0.739235 0.042947 0.959781
0.739235 0.042947 0.898604
0.739235 0.042947 0.769642
0.739235 0.042947 0.566228
0.739235 0.042947 0.354836
0.739235 0.042947 0.210009
0.739235 0.042947 0.135683
0.739235 0.042947 0.102821
0.602235 0.893388 0.984765
0.602235 0.893388 0.959781
0.602235 0.893388 0.898604
0.602235 0.893388 0.769642
0.602235 0.893388 0.566228
0.602235 0.893388 0.354836
0.602235 0.893388 0.210009
0.602235 0.893388 0.135683
0.602235 0.893388 0.102821
0.602235 0.866231 0.984765
0.602235 0.866231 0.959781
0.602235 0.866231 0.898604
0.602235 0.866231 0.769642
0.602235 0.866231 0.566228
0.602235 0.866231 0.354836
0.602235 0.866231 0.210009
0.602235 0.866231 0.135683
0.602235 0.866231 0.102821
0.602235 0.800198 0.984765
0.602235 0.800198 0.959781
0.602235 0.800198 0.898604
0.602235 0.800198 0.769642
0.602235 0.800198 0.566228
0.602235 0.800198 0.354836
0.602235 0.800198 0.210009
0.602235 0.800198 0.135683
0.602235 0.800198 0.102821
0.602235 0.663333 0.984765
0.602235 0.663333 0.959781
0.602235 0.663333 0.898604
0.602235 0.663333 0.769642
0.602235 0.663333 0.566228
0.602235 0.663333 0.354836
0.602235 0.663333 0.210009
0.602235 0.663333 0.135683
0.602235 0.663333 0.102821
0.602235 0.455012 0.984765
0.602235 0.455012 0.959781
0.602235 0.455012 0.898604
0.602235 0.455012 0.769642
0.602235 0.455012 0.566228
0.602235 0.455012 0.354836
0.602235 0.455012 0.210009
0.602235 0.455012 0.135683
0.602235 0.455012 0.102821
0.602235 0.251627 0.984765
0.602235 0.251627 0.959781
0.602235 0.251627 0.898604
0.602235 0.251627 0.769642
0.602235 0.251627 0.566228
0.602235 0.251627 0.354836
0.602235 0.251627 0.210009
0.602235 0.251627 0.135683
0.602235 0.251627 0.102821
0.602235 0.124316 0.984765
0.602235 0.124316 0.959781
0.602235 0.124316 0.898604
0.602235 0.124316 0.769642
0.602235 0.124316 0.566228
0.602235 0.124316 0.354836
0.602235 0.124316 0.210009
0.602235 0.124316 0.135683
0.602235 0.124316 0.102821
0.602235 0.065834 0.984765
0.602235 0.065834 0.959781
0.602235 0.065834 0.898604
0.602235 0.065834 0.769642
0.602235 0.065834 0.566228
0.602235 0.065834 0.354836
0.602235 0.065834 0.210009
0.602235 0.065834 0.135683
0.602235 0.065834 0.102821
0.602235 0.042947 0.984765
0.602235 0.042947 0.959781
0.602235 0.042947 0.898604
0.602235 0.042947 0.769642
0.602235 0.042947 0.566228
0.602235 0.042947 0.354836
0.602235 0.042947 0.210009
0.602235 0.042947 0.135683
0.602235 0.042947 0.102821
0.396539 0.893388 0.984765
0.396539 0.893388 0.959781
0.396539 0.893388 0.898604
0.396539 0.893388 0.769642
0.396539 0.893388 0.566228
0.396539 0.893388 0.354836
0.396539 0.893388 0.210009
0.396539 0.893388 0.135683
0.396539 0.893388 0.102821
0.396539 0.866231 0.984765
0.396539 0.866231 0.959781
0.396539 0.866231 0.898604
0.396539 0.866231 0.769642
0.396539 0.866231 0.566228
0.396539 0.866231 0.354836
0.396539 0.866231 0.210009
0.396539 0.866231 0.135683
0.396539 0.866231 0.102821
0.396539 0.800198 0.984765
0.396539 0.800198 0.959781
0.396539 0.800198 0.898604
0.396539 0.800198 0.769642
0.396539 0.800198 0.566228
0.396539 0.800198 0.354836
0.396539 0.800198 0.210009
0.396539 0.800198 0.135683
0.396539 0.800198 0.102821
0.396539 0.663333 0.984765
0.396539 0.663333 0.959781
0.396539 0.663333 0.898604
0.396539 0.663333 0.769642
0.396539 0.663333 0.566228
0.396539 0.663333 0.354836
0.396539 0.663333 0.210009
0.396539 0.663333 0.135683
0.396539 0.663333 0.102821
0.396539 0.455012 0.984765
0.396539 0.455012 0.959781
0.396539 0.455012 0.898604
0.396539 0.455012 0.769642
0.396539 0.455012 0.566228
0.396539 0.455012 0.354836
0.396539 0.455012 0.210009
0.396539 0.455012 0.135683
0.396539 0.455012 0.102821
0.396539 0.251627 0.984765
0.396539 0.251627 0.959781
0.396539 0.251627 0.898604
0.396539 0.251627 0.769642
0.396539 0.251627 0.566228
0.396539 0.251627 0.354836
0.396539 0.251627 0.210009
0.396539 0.251627 0.135683
0.396539 0.251627 0.102821
0.396539 0.124316 0.984765
0.396539 0.124316 0.959781
0.396539 0.124316 0.898604
0.396539 0.124316 0.769642
0.396539 0.124316 0.566228
0.396539 0.124316 0.354836
0.396539 0.124316 0.210009
0.396539 0.124316 0.135683
0.396539 0.124316 0.102821
0.396539 0.065834 0.984765
0.396539 0.065834 0.959781
0.396539 0.065834 0.898604
0.396539 0.065834 0.769642
0.396539 0.065834 0.566228
0.396539 0.065834 0.354836
0.396539 0.065834 0.210009
0.396539 0.065834 0.135683
0.396539 0.065834 0.102821
0.396539 0.042947 0.984765
0.396539 0.042947 0.959781
0.396539 0.042947 0.898604
0.396539 0.042947 0.769642
0.396539 0.042947 0.566228
0.396539 0.042947 0.354836
0.396539 0.042947 0.210009
0.396539 0.042947 0.135683
0.396539 0.042947 0.102821
0.200467 0.893388 0.984765
0.200467 0.893388 0.959781
0.200467 0.893388 0.898604
0.200467 0.893388 0.769642
0.200467 0.893388 0.566228
0.200467 0.893388 0.354836
0.200467 0.893388 0.210009
0.200467 0.893388 0.135683
0.200467 0.893388 0.102821
0.200467 0.866231 0.984765
0.200467 0.866231 0.959781
0.200467 0.866231 0.898604
0.200467 0.866231 0.769642
0.200467 0.866231 0.566228
0.200467 0.866231 0.354836
0.200467 0.866231 0.210009
0.200467 0.866231 0.135683
0.200467 0.866231 0.102821
0.200467 0.800198 0.984765
0.200467 0.800198 0.959781
0.200467 0.800198 0.898604
0.200467 0.800198 0.769642
0.200467 0.800198 0.566228
0.200467 0.800198 0.354836
0.200467 0.800198 0.210009
0.200467 0.800198 0.135683
0.200467 0.800198 0.102821
0.200467 0.663333 0.984765
0.200467 0.663333 0.959781
0.200467 0.663333 0.898604
0.200467 0.663333 0.769642
0.200467 0.663333 0.566228
0.200467 0.663333 0.354836
0.200467 0.663333 0.210009
0.200467 0.663333 0.135683
0.200467 0.663333 0.102821
0.200467 0.455012 0.984765
0.200467 0.455012 0.959781
0.200467 0.455012 0.898604
0.200467 0.455012 0.769642
0.200467 0.455012 0.566228
0.200467 0.455012 0.354836
0.200467 0.455012 0.210009
0.200467 0.455012 0.135683
0.200467 0.455012 0.102821
0.200467 0.251627 0.984765
0.200467 0.251627 0.959781
0.200467 0.251627 0.898604
0.200467 0.251627 0.769642
0.200467 0.251627 0.566228
0.200467 0.251627 0.354836
0.200467 0.251627 0.210009
0.200467 0.251627 0.135683
0.200467 0.251627 0.102821
0.200467 0.124316 0.984765
0.200467 0.124316 0.959781
0.200467 0.124316 0.898604
0.200467 0.124316 0.769642
0.200467 0.124316 0.566228
0.200467 0.124316 0.354836
0.200467 0.124316 0.210009
0.200467 0.124316 0.135683
0.200467 0.124316 0.102821
0.200467 0.065834 0.984765
0.200467 0.065834 0.959781
0.200467 0.065834 0.898604
0.200467 0.065834 0.769642
0.200467 0.065834 0.566228
0.200467 0.065834 0.354836
0.200467 0.065834 0.210009
0.200467 0.065834 0.135683
0.200467 0.065834 0.102821
0.200467 0.042947 0.984765
0.200467 0.042947 0.959781
0.200467 0.042947 0.898604
0.200467 0.042947 0.769642
0.200467 0.042947 0.566228
0.200467 0.042947 0.354836
0.200467 0.042947 0.210009
0.200467 0.042947 0.135683
0.200467 0.042947 0.102821
0.081910 0.893388 0.984765
0.081910 0.893388 0.959781
0.081910 0.893388 0.898604
0.081910 0.893388 0.769642
0.081910 0.893388 0.566228
0.081910 0.893388 0.354836
0.081910 0.893388 0.210009
0.081910 0.893388 0.135683
0.081910 0.893388 0.102821
0.081910 0.866231 0.984765
0.081910 0.866231 0.959781
0.081910 0.866231 0.898604
0.081910 0.866231 0.769642
0.081910 0.866231 0.566228
0.081910 0.866231 0.354836
0.081910 0.866231 0.210009
0.081910 0.866231 0.135683
0.081910 0.866231 0.102821
0.081910 0.800198 0.984765
0.081910 0.800198 0.959781
0.081910 0.800198 0.898604
0.081910 0.800198 0.769642
0.081910 0.800198 0.566228
0.081910 0.800198 0.354836
0.081910 0.800198 0.210009
0.081910 0.800198 0.135683
0.081910 0.800198 0.102821
0.081910 0.663333 0.984765
0.081910 0.663333 0.959781
0.081910 0.663333 0.898604
0.081910 0.663333 0.769642
0.081910 0.663333 0.566228
0.081910 0.663333 0.354836
0.081910 0.663333 0.210009
0.081910 0.663333 0.135683
0.081910 0.663333 0.102821
0.081910 0.455012 0.984765
0.081910 0.455012 0.959781
0.081910 0.455012 0.898604
0.081910 0.455012 0.769642
0.081910 0.455012 0.566228
0.081910 0.455012 0.354836
0.081910 0.455012 0.210009
0.081910 0.455012 0.135683
0.081910 0.455012 0.102821
0.081910 0.251627 0.984765
0.081910 0.251627 0.959781
0.081910 0.251627 0.898604
0.081910 0.251627 0.769642
0.081910 0.251627 0.566228
0.081910 0.251627 0.354836
0.081910 0.251627 0.210009
0.081910 0.251627 0.135683
0.081910 0.251627 0.102821
0.081910 0.124316 0.984765
0.081910 0.124316 0.959781
0.081910 0.124316 0.898604
0.081910 0.124316 0.769642
0.081910 0.124316 0.566228
0.081910 0.124316 0.354836
0.081910 0.124316 0.210009
0.081910 0.124316 0.135683
0.081910 0.124316 0.102821
0.081910 0.065834 0.984765
0.081910 0.065834 0.959781
0.081910 0.065834 0.898604
0.081910 0.065834 0.769642
0.081910 0.065834 0.566228
0.081910 0.065834 0.354836
0.081910 0.065834 0.210009
0.081910 0.065834 0.135683
0.081910 0.065834 0.102821
0.081910 0.042947 0.984765
0.081910 0.042947 0.959781
0.081910 0.042947 0.898604
0.081910 0.042947 0.769642
0.081910 0.042947 0.566228
0.081910 0.042947 0.354836
0.081910 0.042947 0.210009
0.081910 0.042947 0.135683
0.081910 0.042947 0.102821
0.029719 0.893388 0.984765
0.029719 0.893388 0.959781
0.029719 0.893388 0.898604
0.029719 0.893388 0.769642
0.029719 0.893388 0.566228
0.029719 0.893388 0.354836
0.029719 0.893388 0.210009
0.029719 0.893388 0.135683
0.029719 0.893388 0.102821
0.029719 0.866231 0.984765
0.029719 0.866231 0.959781
0.029719 0.866231 0.898604
0.029719 0.866231 0.769642
0.029719 0.866231 0.566228
0.029719 0.866231 0.354836
0.029719 0.866231 0.210009
0.029719 0.866231 0.135683
0.029719 0.866231 0.102821
0.029719 0.800198 0.984765
0.029719 0.800198 0.959781
0.029719 0.800198 0.898604
0.029719 0.800198 0.769642
0.029719 0.800198 0.566228
0.029719 0.800198 0.354836
0.029719 0.800198 0.210009
0.029719 0.800198 0.135683
0.029719 0.800198 0.102821
0.029719 0.663333 0.984765
0.029719 0.663333 0.959781
0.029719 0.663333 0.898604
0.029719 0.663333 0.769642
0.029719 0.663333 0.566228
0.029719 0.663333 0.354836
0.029719 0.663333 0.210009
0.029719 0.663333 0.135683
0.029719 0.663333 0.102821
0.029719 0.455012 0.984765
0.029719 0.455012 0.959781
0.029719 0.455012 0.898604
0.029719 0.455012 0.769642
0.029719 0.455012 0.566228
0.029719 0.455012 0.354836
0.029719 0.455012 0.210009
0.029719 0.455012 0.135683
0.029719 0.455012 0.102821
0.029719 0.251627 0.984765
0.029719 0.251627 0.959781
0.029719 0.251627 0.898604
0.029719 0.251627 0.769642
0.029719 0.251627 0.566228
0.029719 0.251627 0.354836
0.029719 0.251627 0.210009
0.029719 0.251627 0.135683
0.029719 0.251627 0.102821
0.029719 0.124316 0.984765
0.029719 0.124316 0.959781
0.029719 0.124316 0.898604
0.029719 0.124316 0.769642
0.029719 0.124316 0.566228
0.029719 0.124316 0.354836
0.029719 0.124316 0.210009
0.029719 0.124316 0.135683
0.029719 0.124316 0.102821
0.029719 0.065834 0.984765
0.029719 0.065834 0.959781
0.029719 0.065834 0.898604
0.029719 0.065834 0.769642
0.029719 0.065834 0.566228
0.029719 0.065834 0.354836
0.029719 0.065834 0.210009
0.029719 0.065834 0.135683
0.029719 0.065834 0.102821
0.029719 0.042947 0.984765
0.029719 0.042947 0.959781
0.029719 0.042947 0.898604
0.029719 0.042947 0.769642
0.029719 0.042947 0.566228
0.029719 0.042947 0.354836
0.029719 0.042947 0.210009
0.029719 0.042947 0.135683
0.029719 0.042947 0.102821
0.010229 0.893388 0.984765
0.010229 0.893388 0.959781
0.010229 0.893388 0.898604
0.010229 0.893388 0.769642
0.010229 0.893388 0.566228
0.010229 0.893388 0.354836
0.010229 0.893388 0.210009
0.010229 0.893388 0.135683
0.010229 0.893388 0.102821
0.010229 0.866231 0.984765
0.010229 0.866231 0.959781
0.010229 0.866231 0.898604
0.010229 0.866231 0.769642
0.010229 0.866231 0.566228
0.010229 0.866231 0.354836
0.010229 0.866231 0.210009
0.010229 0.866231 0.135683
0.010229 0.866231 0.102821
0.010229 0.800198 0.984765
0.010229 0.800198 0.959781
0.010229 0.800198 0.898604
0.010229 0.800198 0.769642
0.010229 0.800198 0.566228
0.010229 0.800198 0.354836
0.010229 0.800198 0.210009
0.010229 0.800198 0.135683
0.010229 0.800198 0.102821
0.010229 0.663333 0.984765
0.010229 0.663333 0.959781
0.010229 0.663333 0.898604
0.010229 0.663333 0.769642
0.010229 0.663333 0.566228
0.010229 0.663333 0.354836
0.010229 0.663333 0.210009
0.010229 0.663333 0.135683
0.010229 0.663333 0.102821
0.010229 0.455012 0.984765
0.010229 0.455012 0.959781
0.010229 0.455012 0.898604
0.010229 0.455012 0.769642
0.010229 0.455012 0.566228
0.010229 0.455012 0.354836
0.010229 0.455012 0.210009
0.010229 0.455012 0.135683
0.010229 0.455012 0.102821
0.010229 0.251627 0.984765
0.010229 0.251627 0.959781
0.010229 0.251627 0.898604
0.010229 0.251627 0.769642
0.010229 0.251627 0.566228
0.010229 0.251627 0.354836
0.010229 0.251627 0.210009
0.010229 0.251627 0.135683
0.010229 0.251627 0.102821
0.010229 0.124316 0.984765
0.010229 0.124316 0.959781
0.010229 0.124316 0.898604
0.010229 0.124316 0.769642
0.010229 0.124316 0.566228
0.010229 0.124316 0.354836
0.010229 0.124316 0.210009
0.010229 0.124316 0.135683
0.010229 0.124316 0.102821
0.010229 0.065834 0.984765
0.010229 0.065834 0.959781
0.010229 0.065834 0.898604
0.010229 0.065834 0.769642
0.010229 0.065834 0.566228
0.010229 0.065834 0.354836
0.010229 0.065834 0.210009
0.010229 0.065834 0.135683
0.010229 0.065834 0.102821
0.010229 0.042947 0.984765
0.010229 0.042947 0.959781
0.010229 0.042947 0.898604
0.010229 0.042947 0.769642
0.010229 0.042947 0.566228
0.010229 0.042947 0.354836
0.010229 0.042947 0.210009
0.010229 0.042947 0.135683
0.010229 0.042947 0.102821
