negative/cool blue.cube
#Created by: LUT Generator
#Copyright: (C) Copyright 2026
TITLE "负片-冷蓝调"
LUT_3D_SIZE 5
0.833198 0.893388 0.984765
0.833198 0.893388 0.898604
0.833198 0.893388 0.566228
0.833198 0.893388 0.210009
0.833198 0.893388 0.102821
0.833198 0.800198 0.984765
0.833198 0.800198 0.898604
0.833198 0.800198 0.566228
0.833198 0.800198 0.210009
0.833198 0.800198 0.102821
0.833198 0.455012 0.984765
0.833198 0.455012 0.898604
0.833198 0.455012 0.566228
0.833198 0.455012 0.210009
0.833198 0.455012 0.102821
0.833198 0.124316 0.984765
0.833198 0.124316 0.898604
0.833198 0.124316 0.566228
0.833198 0.124316 0.210009
0.833198 0.124316 0.102821
0.833198 0.042947 0.984765
0.833198 0.042947 0.898604
0.833198 0.042947 0.566228
0.833198 0.042947 0.210009
0.833198 0.042947 0.102821
0.739235 0.893388 0.984765
0.739235 0.893388 0.898604
0.739235 0.893388 0.566228
0.739235 0.893388 0.210009
0.739235 0.893388 0.102821
0.739235 0.800198 0.984765
0.739235 0.800198 0.898604
0.739235 0.800198 0.566228
0.739235 0.800198 0.210009
0.739235 0.800198 0.102821
0.739235 0.455012 0.984765
0.739235 0.455012 0.898604
0.739235 0.455012 0.566228
0.739235 0.455012 0.210009
0.739235 0.455012 0.102821
0.739235 0.124316 0.984765
0.739235 0.124316 0.898604
0.739235 0.124316 0.566228
0.739235 0.124316 0.210009
0.739235 0.124316 0.102821
0.739235 0.042947 0.984765
0.739235 0.042947 0.898604
0.739235 0.042947 0.566228
0.739235 0.042947 0.210009
0.739235 0.042947 0.102821
0.396539 0.893388 0.984765
0.396539 0.893388 0.898604
0.396539 0.893388 0.566228
0.396539 0.893388 0.210009
0.396539 0.893388 0.102821
0.396539 0.800198 0.984765
0.396539 0.800198 0.898604
0.396539 0.800198 0.566228
0.396539 0.800198 0.210009
0.396539 0.800198 0.102821
0.396539 0.455012 0.984765
0.396539 0.455012 0.898604
0.396539 0.455012 0.566228
0.396539 0.455012 0.210009
0.396539 0.455012 0.102821
0.396539 0.124316 0.984765
0.396539 0.124316 0.898604
0.396539 0.124316 0.566228
0.396539 0.124316 0.210009
0.396539 0.124316 0.102821
0.396539 0.042947 0.984765
0.396539 0.042947 0.898604
0.396539 0.042947 0.566228
0.396539 0.042947 0.210009
0.396539 0.042947 0.102821
0.081910 0.893388 0.984765
0.081910 0.893388 0.898604
0.081910 0.893388 0.566228
0.081910 0.893388 0.210009
0.081910 0.893388 0.102821
0.081910 0.800198 0.984765
0.081910 0.800198 0.898604
0.081910 0.800198 0.566228
0.081910 0.800198 0.210009
0.081910 0.800198 0.102821
0.081910 0.455012 0.984765
0.081910 0.455012 0.898604
0.081910 0.455012 0.566228
0.081910 0.455012 0.210009
0.081910 0.455012 0.102821
0.081910 0.124316 0.984765
0.081910 0.124316 0.898604
0.081910 0.124316 0.566228
0.081910 0.124316 0.210009
0.081910 0.124316 0.102821
0.081910 0.042947 0.984765
0.081910 0.042947 0.898604
0.081910 0.042947 0.566228
0.081910 0.042947 0.210009
0.081910 0.042947 0.102821
0.010229 0.893388 0.984765
0.010229 0.893388 0.898604
0.010229 0.893388 0.566228
0.010229 0.893388 0.210009
0.010229 0.893388 0.102821
0.010229 0.800198 0.984765
0.010229 0.800198 0.898604
0.010229 0.800198 0.566228
0.010229 0.800198 0.210009
0.010229 0.800198 0.102821
0.010229 0.455012 0.984765
0.010229 0.455012 0.898604
0.010229 0.455012 0.566228
0.010229 0.455012 0.210009
0.010229 0.455012 0.102821
0.010229 0.124316 0.984765
0.010229 0.124316 0.898604
0.010229 0.124316 0.566228
0.010229 0.124316 0.210009
0.010229 0.124316 0.102821
0.010229 0.042947 0.984765
0.010229 0.042947 0.898604
0.010229 0.042947 0.566228
0.010229 0.042947 0.210009
0.010229 0.042947 0.102821
