negative/cool blue.cube
#Created by: LUT Generator
#Copyright: (C) Copyright 2026
TITLE "负片-冷蓝调"
LUT_3D_SIZE 33
0.833198 0.893388 0.984765
0.833198 0.893388 0.980534
0.833198 0.893388 0.975161
0.833198 0.893388 0.968359
0.833198 0.893388 0.959781
0.833198 0.893388 0.949018
0.833198 0.893388 0.935593
0.833198 0.893388 0.918977
0.833198 0.893388 0.898604
0.833198 0.893388 0.873908
0.833198 0.893388 0.844386
0.833198 0.893388 0.809675
0.833198 0.893388 0.769642
0.833198 0.893388 0.724486
0.833198 0.893388 0.674799
0.833198 0.893388 0.621590
0.833198 0.893388 0.566228
0.833198 0.893388 0.510311
0.833198 0.893388 0.455487
0.833198 0.893388 0.403259
0.833198 0.893388 0.354836
0.833198 0.893388 0.311042
0.833198 0.893388 0.272303
0.833198 0.893388 0.238692
0.833198 0.893388 0.210009
0.833198 0.893388 0.185867
0.833198 0.893388 0.165781
0.833198 0.893388 0.149225
0.833198 0.893388 0.135683
0.833198 0.893388 0.124673
0.833198 0.893388 0.115766
0.833198 0.893388 0.108588
0.833198 0.893388 0.102821
0.833198 0.888781 0.984765
0.833198 0.888781 0.980534
0.833198 0.888781 0.975161
0.833198 0.888781 0.968359
0.833198 0.888781 0.959781
0.833198 0.888781 0.949018
0.833198 0.888781 0.935593
0.833198 0.888781 0.918977
0.833198 0.888781 0.898604
0.833198 0.888781 0.873908
0.833198 0.888781 0.844386
0.833198 0.888781 0.809675
0.833198 0.888781 0.769642
0.833198 0.888781 0.724486
0.833198 0.888781 0.674799
0.833198 0.888781 0.621590
0.833198 0.888781 0.566228
0.833198 0.888781 0.510311
0.833198 0.888781 0.455487
0.833198 0.888781 0.403259
0.833198 0.888781 0.354836
0.833198 0.888781 0.311042
0.833198 0.888781 0.272303
0.833198 0.888781 0.238692
0.833198 0.888781 0.210009
0.833198 0.888781 0.185867
0.833198 0.888781 0.165781
0.833198 0.888781 0.149225
0.833198 0.888781 0.135683
0.833198 0.888781 0.124673
0.833198 0.888781 0.115766
0.833198 0.888781 0.108588
0.833198 0.888781 0.102821
0.833198 0.882935 0.984765
0.833198 0.882935 0.980534
0.833198 0.882935 0.975161
0.833198 0.882935 0.968359
0.833198 0.882935 0.959781
0.833198 0.882935 0.949018
0.833198 0.882935 0.935593
0.833198 0.882935 0.918977
0.833198 0.882935 0.898604
0.833198 0.882935 0.873908
0.833198 0.882935 0.844386
0.833198 0.882935 0.809675
0.833198 0.882935 0.769642
0.833198 0.882935 0.724486
0.833198 0.882935 0.674799
0.833198 0.882935 0.621590
0.833198 0.882935 0.566228
0.833198 0.882935 0.510311
0.833198 0.882935 0.455487
0.833198 0.882935 0.403259
0.833198 0.882935 0.354836
0.833198 0.882935 0.311042
0.833198 0.882935 0.272303
0.833198 0.882935 0.238692
0.833198 0.882935 0.210009
0.833198 0.882935 0.185867
0.833198 0.882935 0.165781
0.833198 0.882935 0.149225
0.833198 0.882935 0.135683
0.833198 0.882935 0.124673
0.833198 0.882935 0.115766
0.833198 0.882935 0.108588
0.833198 0.882935 0.102821
0.833198 0.875543 0.984765
0.833198 0.875543 0.980534
0.833198 0.875543 0.975161
0.833198 0.875543 0.968359
0.833198 0.875543 0.959781
0.833198 0.875543 0.949018
0.833198 0.875543 0.935593
0.833198 0.875543 0.918977
0.833198 0.875543 0.898604
0.833198 0.875543 0.873908
0.833198 0.875543 0.844386
0.833198 0.875543 0.809675
0.833198 0.875543 0.769642
0.833198 0.875543 0.724486
0.833198 0.875543 0.674799
0.833198 0.875543 0.621590
0.833198 0.875543 0.566228
0.833198 0.875543 0.510311
0.833198 0.875543 0.455487
0.833198 0.875543 0.403259
0.833198 0.875543 0.354836
0.833198 0.875543 0.311042
0.833198 0.875543 0.272303
0.833198 0.875543 0.238692
0.833198 0.875543 0.210009
0.833198 0.875543 0.185867
0.833198 0.875543 0.165781
0.833198 0.875543 0.149225
0.833198 0.875543 0.135683
0.833198 0.875543 0.124673
0.833198 0.875543 0.115766
0.833198 0.875543 0.108588
0.833198 0.875543 0.102821
0.833198 0.866231 0.984765
0.833198 0.866231 0.980534
0.833198 0.866231 0.975161
0.833198 0.866231 0.968359
0.833198 0.866231 0.959781
0.833198 0.866231 0.949018
0.833198 0.866231 0.935593
0.833198 0.866231 0.918977
0.833198 0.866231 0.898604
0.833198 0.866231 0.873908
0.833198 0.866231 0.844386
0.833198 0.866231 0.809675
0.833198 0.866231 0.769642
0.833198 0.866231 0.724486
0.833198 0.866231 0.674799
0.833198 0.866231 0.621590
0.833198 0.866231 0.566228
0.833198 0.866231 0.510311
0.833198 0.866231 0.455487
0.833198 0.866231 0.403259
0.833198 0.866231 0.354836
0.833198 0.866231 0.311042
0.833198 0.866231 0.272303
0.833198 0.866231 0.238692
0.833198 0.866231 0.210009
0.833198 0.866231 0.185867
0.833198 0.866231 0.165781
0.833198 0.866231 0.149225
0.833198 0.866231 0.135683
0.833198 0.866231 0.124673
0.833198 0.866231 0.115766
0.833198 0.866231 0.108588
0.833198 0.866231 0.102821
0.833198 0.854565 0.984765
0.833198 0.854565 0.980534
0.833198 0.854565 0.975161
0.833198 0.854565 0.968359
0.833198 0.854565 0.959781
0.833198 0.854565 0.949018
0.833198 0.854565 0.935593
0.833198 0.854565 0.918977
0.833198 0.854565 0.898604
0.833198 0.854565 0.873908
0.833198 0.854565 0.844386
0.833198 0.854565 0.809675
0.833198 0.854565 0.769642
0.833198 0.854565 0.724486
0.833198 0.854565 0.674799
0.833198 0.854565 0.621590
0.833198 0.854565 0.566228
0.833198 0.854565 0.510311
0.833198 0.854565 0.455487
0.833198 0.854565 0.403259
0.833198 0.854565 0.354836
0.833198 0.854565 0.311042
0.833198 0.854565 0.272303
0.833198 0.854565 0.238692
0.833198 0.854565 0.210009
0.833198 0.854565 0.185867
0.833198 0.854565 0.165781
0.833198 0.854565 0.149225
0.833198 0.854565 0.135683
0.833198 0.854565 0.124673
0.833198 0.854565 0.115766
0.833198 0.854565 0.108588
0.833198 0.854565 0.102821
0.833198 0.840043 0.984765
0.833198 0.840043 0.980534
0.833198 0.840043 0.975161
0.833198 0.840043 0.968359
0.833198 0.840043 0.959781
0.833198 0.840043 0.949018
0.833198 0.840043 0.935593
0.833198 0.840043 0.918977
0.833198 0.840043 0.898604
0.833198 0.840043 0.873908
0.833198 0.840043 0.844386
0.833198 0.840043 0.809675
0.833198 0.840043 0.769642
0.833198 0.840043 0.724486
0.833198 0.840043 0.674799
0.833198 0.840043 0.621590
0.833198 0.840043 0.566228
0.833198 0.840043 0.510311
0.833198 0.840043 0.455487
0.833198 0.840043 0.403259
0.833198 0.840043 0.354836
0.833198 0.840043 0.311042
0.833198 0.840043 0.272303
0.833198 0.840043 0.238692
0.833198 0.840043 0.210009
0.833198 0.840043 0.185867
0.833198 0.840043 0.165781
0.833198 0.840043 0.149225
0.833198 0.840043 0.135683
0.833198 0.840043 0.124673
0.833198 0.840043 0.115766
0.833198 0.840043 0.108588
0.833198 0.840043 0.102821
0.833198 0.822114 0.984765
0.833198 0.822114 0.980534
0.833198 0.822114 0.975161
0.833198 0.822114 0.968359
0.833198 0.822114 0.959781
0.833198 0.822114 0.949018
0.833198 0.822114 0.935593
0.833198 0.822114 0.918977
0.833198 0.822114 0.898604
0.833198 0.822114 0.873908
0.833198 0.822114 0.844386
0.833198 0.822114 0.809675
0.833198 0.822114 0.769642
0.833198 0.822114 0.724486
0.833198 0.822114 0.674799
0.833198 0.822114 0.621590
0.833198 0.822114 0.566228
0.833198 0.822114 0.510311
0.833198 0.822114 0.455487
0.833198 0.822114 0.403259
0.833198 0.822114 0.354836
0.833198 0.822114 0.311042
0.833198 0.822114 0.272303
0.833198 0.822114 0.238692
0.833198 0.822114 0.210009
0.833198 0.822114 0.185867
0.833198 0.822114 0.165781
0.833198 0.822114 0.149225
0.833198 0.822114 0.135683
0.833198 0.822114 0.124673
0.833198 0.822114 0.115766
0.833198 0.822114 0.108588
0.833198 0.822114 0.102821
0.833198 0.800198 0.984765
0.833198 0.800198 0.980534
0.833198 0.800198 0.975161
0.833198 0.800198 0.968359
0.833198 0.800198 0.959781
0.833198 0.800198 0.949018
0.833198 0.800198 0.935593
0.833198 0.800198 0.918977
0.833198 0.800198 0.898604
0.833198 0.800198 0.873908
0.833198 0.800198 0.844386
0.833198 0.800198 0.809675
0.833198 0.800198 0.769642
0.833198 0.800198 0.724486
0.833198 0.800198 0.674799
0.833198 0.800198 0.621590
0.833198 0.800198 0.566228
0.833198 0.800198 0.510311
0.833198 0.800198 0.455487
0.833198 0.800198 0.403259
0.833198 0.800198 0.354836
0.833198 0.800198 0.311042
0.833198 0.800198 0.272303
0.833198 0.800198 0.238692
0.833198 0.800198 0.210009
0.833198 0.800198 0.185867
0.833198 0.800198 0.165781
0.833198 0.800198 0.149225
0.833198 0.800198 0.135683
0.833198 0.800198 0.124673
0.833198 0.800198 0.115766
0.833198 0.800198 0.108588
0.833198 0.800198 0.102821
0.833198 0.773736 0.984765
0.833198 0.773736 0.980534
0.833198 0.773736 0.975161
0.833198 0.773736 0.968359
0.833198 0.773736 0.959781
0.833198 0.773736 0.949018
0.833198 0.773736 0.935593
0.833198 0.773736 0.918977
0.833198 0.773736 0.898604
0.833198 0.773736 0.873908
0.833198 0.773736 0.844386
0.833198 0.773736 0.809675
0.833198 0.773736 0.769642
0.833198 0.773736 0.724486
0.833198 0.773736 0.674799
0.833198 0.773736 0.621590
0.833198 0.773736 0.566228
0.833198 0.773736 0.510311
0.833198 0.773736 0.455487
0.833198 0.773736 0.403259
0.833198 0.773736 0.354836
0.833198 0.773736 0.311042
0.833198 0.773736 0.272303
0.833198 0.773736 0.238692
0.833198 0.773736 0.210009
0.833198 0.773736 0.185867
0.833198 0.773736 0.165781
0.833198 0.773736 0.149225
0.833198 0.773736 0.135683
0.833198 0.773736 0.124673
0.833198 0.773736 0.115766
0.833198 0.773736 0.108588
0.833198 0.773736 0.102821
0.833198 0.742256 0.984765
0.833198 0.742256 0.980534
0.833198 0.742256 0.975161
0.833198 0.742256 0.968359
0.833198 0.742256 0.959781
0.833198 0.742256 0.949018
0.833198 0.742256 0.935593
0.833198 0.742256 0.918977
0.833198 0.742256 0.898604
0.833198 0.742256 0.873908
0.833198 0.742256 0.844386
0.833198 0.742256 0.809675
0.833198 0.742256 0.769642
0.833198 0.742256 0.724486
0.833198 0.742256 0.674799
0.833198 0.742256 0.621590
0.833198 0.742256 0.566228
0.833198 0.742256 0.510311
0.833198 0.742256 0.455487
0.833198 0.742256 0.403259
0.833198 0.742256 0.354836
0.833198 0.742256 0.311042
0.833198 0.742256 0.272303
0.833198 0.742256 0.238692
0.833198 0.742256 0.210009
0.833198 0.742256 0.185867
0.833198 0.742256 0.165781
0.833198 0.742256 0.149225
0.833198 0.742256 0.135683
0.833198 0.742256 0.124673
0.833198 0.742256 0.115766
0.833198 0.742256 0.108588
0.833198 0.742256 0.102821
0.833198 0.705462 0.984765
0.833198 0.705462 0.980534
0.833198 0.705462 0.975161
0.833198 0.705462 0.968359
0.833198 0.705462 0.959781
0.833198 0.705462 0.949018
0.833198 0.705462 0.935593
0.833198 0.705462 0.918977
0.833198 0.705462 0.898604
0.833198 0.705462 0.873908
0.833198 0.705462 0.844386
0.833198 0.705462 0.809675
0.833198 0.705462 0.769642
0.833198 0.705462 0.724486
0.833198 0.705462 0.674799
0.833198 0.705462 0.621590
0.833198 0.705462 0.566228
0.833198 0.705462 0.510311
0.833198 0.705462 0.455487
0.833198 0.705462 0.403259
0.833198 0.705462 0.354836
0.833198 0.705462 0.311042
0.833198 0.705462 0.272303
0.833198 0.705462 0.238692
0.833198 0.705462 0.210009
0.833198 0.705462 0.185867
0.833198 0.705462 0.165781
0.833198 0.705462 0.149225
0.833198 0.705462 0.135683
0.833198 0.705462 0.124673
0.833198 0.705462 0.115766
0.833198 0.705462 0.108588
0.833198 0.705462 0.102821
0.833198 0.663333 0.984765
0.833198 0.663333 0.980534
0.833198 0.663333 0.975161
0.833198 0.663333 0.968359
0.833198 0.663333 0.959781
0.833198 0.663333 0.949018
0.833198 0.663333 0.935593
0.833198 0.663333 0.918977
0.833198 0.663333 0.898604
0.833198 0.663333 0.873908
0.833198 0.663333 0.844386
0.833198 0.663333 0.809675
0.833198 0.663333 0.769642
0.833198 0.663333 0.724486
0.833198 0.663333 0.674799
0.833198 0.663333 0.621590
0.833198 0.663333 0.566228
0.833198 0.663333 0.510311
0.833198 0.663333 0.455487
0.833198 0.663333 0.403259
0.833198 0.663333 0.354836
0.833198 0.663333 0.311042
0.833198 0.663333 0.272303
0.833198 0.663333 0.238692
0.833198 0.663333 0.210009
0.833198 0.663333 0.185867
0.833198 0.663333 0.165781
0.833198 0.663333 0.149225
0.833198 0.663333 0.135683
0.833198 0.663333 0.124673
0.833198 0.663333 0.115766
0.833198 0.663333 0.108588
0.833198 0.663333 0.102821
0.833198 0.616227 0.984765
0.833198 0.616227 0.980534
0.833198 0.616227 0.975161
0.833198 0.616227 0.968359
0.833198 0.616227 0.959781
0.833198 0.616227 0.949018
0.833198 0.616227 0.935593
0.833198 0.616227 0.918977
0.833198 0.616227 0.898604
0.833198 0.616227 0.873908
0.833198 0.616227 0.844386
0.833198 0.616227 0.809675
0.833198 0.616227 0.769642
0.833198 0.616227 0.724486
0.833198 0.616227 0.674799
0.833198 0.616227 0.621590
0.833198 0.616227 0.566228
0.833198 0.616227 0.510311
0.833198 0.616227 0.455487
0.833198 0.616227 0.403259
0.833198 0.616227 0.354836
0.833198 0.616227 0.311042
0.833198 0.616227 0.272303
0.833198 0.616227 0.238692
0.833198 0.616227 0.210009
0.833198 0.616227 0.185867
0.833198 0.616227 0.165781
0.833198 0.616227 0.149225
0.833198 0.616227 0.135683
0.833198 0.616227 0.124673
0.833198 0.616227 0.115766
0.833198 0.616227 0.108588
0.833198 0.616227 0.102821
0.833198 0.564933 0.984765
0.833198 0.564933 0.980534
0.833198 0.564933 0.975161
0.833198 0.564933 0.968359
0.833198 0.564933 0.959781
0.833198 0.564933 0.949018
0.833198 0.564933 0.935593
0.833198 0.564933 0.918977
0.833198 0.564933 0.898604
0.833198 0.564933 0.873908
0.833198 0.564933 0.844386
0.833198 0.564933 0.809675
0.833198 0.564933 0.769642
0.833198 0.564933 0.724486
0.833198 0.564933 0.674799
0.833198 0.564933 0.621590
0.833198 0.564933 0.566228
0.833198 0.564933 0.510311
0.833198 0.564933 0.455487
0.833198 0.564933 0.403259
0.833198 0.564933 0.354836
0.833198 0.564933 0.311042
0.833198 0.564933 0.272303
0.833198 0.564933 0.238692
0.833198 0.564933 0.210009
0.833198 0.564933 0.185867
0.833198 0.564933 0.165781
0.833198 0.564933 0.149225
0.833198 0.564933 0.135683
0.833198 0.564933 0.124673
0.833198 0.564933 0.115766
0.833198 0.564933 0.108588
0.833198 0.564933 0.102821
0.833198 0.510672 0.984765
0.833198 0.510672 0.980534
0.833198 0.510672 0.975161
0.833198 0.510672 0.968359
0.833198 0.510672 0.959781
0.833198 0.510672 0.949018
0.833198 0.510672 0.935593
0.833198 0.510672 0.918977
0.833198 0.510672 0.898604
0.833198 0.510672 0.873908
0.833198 0.510672 0.844386
0.833198 0.510672 0.809675
0.833198 0.510672 0.769642
0.833198 0.510672 0.724486
0.833198 0.510672 0.674799
0.833198 0.510672 0.621590
0.833198 0.510672 0.566228
0.833198 0.510672 0.510311
0.833198 0.510672 0.455487
0.833198 0.510672 0.403259
0.833198 0.510672 0.354836
0.833198 0.510672 0.311042
0.833198 0.510672 0.272303
0.833198 0.510672 0.238692
0.833198 0.510672 0.210009
0.833198 0.510672 0.185867
0.833198 0.510672 0.165781
0.833198 0.510672 0.149225
0.833198 0.510672 0.135683
0.833198 0.510672 0.124673
0.833198 0.510672 0.115766
0.833198 0.510672 0.108588
0.833198 0.510672 0.102821
0.833198 0.455012 0.984765
0.833198 0.455012 0.980534
0.833198 0.455012 0.975161
0.833198 0.455012 0.968359
0.833198 0.455012 0.959781
0.833198 0.455012 0.949018
0.833198 0.455012 0.935593
0.833198 0.455012 0.918977
0.833198 0.455012 0.898604
0.833198 0.455012 0.873908
0.833198 0.455012 0.844386
0.833198 0.455012 0.809675
0.833198 0.455012 0.769642
0.833198 0.455012 0.724486
0.833198 0.455012 0.674799
0.833198 0.455012 0.621590
0.833198 0.455012 0.566228
0.833198 0.455012 0.510311
0.833198 0.455012 0.455487
0.833198 0.455012 0.403259
0.833198 0.455012 0.354836
0.833198 0.455012 0.311042
0.833198 0.455012 0.272303
0.833198 0.455012 0.238692
0.833198 0.455012 0.210009
0.833198 0.455012 0.185867
0.833198 0.455012 0.165781
0.833198 0.455012 0.149225
0.833198 0.455012 0.135683
0.833198 0.455012 0.124673
0.833198 0.455012 0.115766
0.833198 0.455012 0.108588
0.833198 0.455012 0.102821
0.833198 0.399698 0.984765
0.833198 0.399698 0.980534
0.833198 0.399698 0.975161
0.833198 0.399698 0.968359
0.833198 0.399698 0.959781
0.833198 0.399698 0.949018
0.833198 0.399698 0.935593
0.833198 0.399698 0.918977
0.833198 0.399698 0.898604
0.833198 0.399698 0.873908
0.833198 0.399698 0.844386
0.833198 0.399698 0.809675
0.833198 0.399698 0.769642
0.833198 0.399698 0.724486
0.833198 0.399698 0.674799
0.833198 0.399698 0.621590
0.833198 0.399698 0.566228
0.833198 0.399698 0.510311
0.833198 0.399698 0.455487
0.833198 0.399698 0.403259
0.833198 0.399698 0.354836
0.833198 0.399698 0.311042
0.833198 0.399698 0.272303
0.833198 0.399698 0.238692
0.833198 0.399698 0.210009
0.833198 0.399698 0.185867
0.833198 0.399698 0.165781
0.833198 0.399698 0.149225
0.833198 0.399698 0.135683
0.833198 0.399698 0.124673
0.833198 0.399698 0.115766
0.833198 0.399698 0.108588
0.833198 0.399698 0.102821
0.833198 0.346442 0.984765
0.833198 0.346442 0.980534
0.833198 0.346442 0.975161
0.833198 0.346442 0.968359
0.833198 0.346442 0.959781
0.833198 0.346442 0.949018
0.833198 0.346442 0.935593
0.833198 0.346442 0.918977
0.833198 0.346442 0.898604
0.833198 0.346442 0.873908
0.833198 0.346442 0.844386
0.833198 0.346442 0.809675
0.833198 0.346442 0.769642
0.833198 0.346442 0.724486
0.833198 0.346442 0.674799
0.833198 0.346442 0.621590
0.833198 0.346442 0.566228
0.833198 0.346442 0.510311
0.833198 0.346442 0.455487
0.833198 0.346442 0.403259
0.833198 0.346442 0.354836
0.833198 0.346442 0.311042
0.833198 0.346442 0.272303
0.833198 0.346442 0.238692
0.833198 0.346442 0.210009
0.833198 0.346442 0.185867
0.833198 0.346442 0.165781
0.833198 0.346442 0.149225
0.833198 0.346442 0.135683
0.833198 0.346442 0.124673
0.833198 0.346442 0.115766
0.833198 0.346442 0.108588
0.833198 0.346442 0.102821
0.833198 0.296722 0.984765
0.833198 0.296722 0.980534
0.833198 0.296722 0.975161
0.833198 0.296722 0.968359
0.833198 0.296722 0.959781
0.833198 0.296722 0.949018
0.833198 0.296722 0.935593
0.833198 0.296722 0.918977
0.833198 0.296722 0.898604
0.833198 0.296722 0.873908
0.833198 0.296722 0.844386
0.833198 0.296722 0.809675
0.833198 0.296722 0.769642
0.833198 0.296722 0.724486
0.833198 0.296722 0.674799
0.833198 0.296722 0.621590
0.833198 0.296722 0.566228
0.833198 0.296722 0.510311
0.833198 0.296722 0.455487
0.833198 0.296722 0.403259
0.833198 0.296722 0.354836
0.833198 0.296722 0.311042
0.833198 0.296722 0.272303
0.833198 0.296722 0.238692
0.833198 0.296722 0.210009
0.833198 0.296722 0.185867
0.833198 0.296722 0.165781
0.833198 0.296722 0.149225
0.833198 0.296722 0.135683
0.833198 0.296722 0.124673
0.833198 0.296722 0.115766
0.833198 0.296722 0.108588
0.833198 0.296722 0.102821
0.833198 0.251627 0.984765
0.833198 0.251627 0.980534
0.833198 0.251627 0.975161
0.833198 0.251627 0.968359
0.833198 0.251627 0.959781
0.833198 0.251627 0.949018
0.833198 0.251627 0.935593
0.833198 0.251627 0.918977
0.833198 0.251627 0.898604
0.833198 0.251627 0.873908
0.833198 0.251627 0.844386
0.833198 0.251627 0.809675
0.833198 0.251627 0.769642
0.833198 0.251627 0.724486
0.833198 0.251627 0.674799
0.833198 0.251627 0.621590
0.833198 0.251627 0.566228
0.833198 0.251627 0.510311
0.833198 0.251627 0.455487
0.833198 0.251627 0.403259
0.833198 0.251627 0.354836
0.833198 0.251627 0.311042
0.833198 0.251627 0.272303
0.833198 0.251627 0.238692
0.833198 0.251627 0.210009
0.833198 0.251627 0.185867
0.833198 0.251627 0.165781
0.833198 0.251627 0.149225
0.833198 0.251627 0.135683
0.833198 0.251627 0.124673
0.833198 0.251627 0.115766
0.833198 0.251627 0.108588
0.833198 0.251627 0.102821
0.833198 0.211798 0.984765
0.833198 0.211798 0.980534
0.833198 0.211798 0.975161
0.833198 0.211798 0.968359
0.833198 0.211798 0.959781
0.833198 0.211798 0.949018
0.833198 0.211798 0.935593
0.833198 0.211798 0.918977
0.833198 0.211798 0.898604
0.833198 0.211798 0.873908
0.833198 0.211798 0.844386
0.833198 0.211798 0.809675
0.833198 0.211798 0.769642
0.833198 0.211798 0.724486
0.833198 0.211798 0.674799
0.833198 0.211798 0.621590
0.833198 0.211798 0.566228
0.833198 0.211798 0.510311
0.833198 0.211798 0.455487
0.833198 0.211798 0.403259
0.833198 0.211798 0.354836
0.833198 0.211798 0.311042
0.833198 0.211798 0.272303
0.833198 0.211798 0.238692
0.833198 0.211798 0.210009
0.833198 0.211798 0.185867
0.833198 0.211798 0.165781
0.833198 0.211798 0.149225
0.833198 0.211798 0.135683
0.833198 0.211798 0.124673
0.833198 0.211798 0.115766
0.833198 0.211798 0.108588
0.833198 0.211798 0.102821
0.833198 0.177442 0.984765
0.833198 0.177442 0.980534
0.833198 0.177442 0.975161
0.833198 0.177442 0.968359
0.833198 0.177442 0.959781
0.833198 0.177442 0.949018
0.833198 0.177442 0.935593
0.833198 0.177442 0.918977
0.833198 0.177442 0.898604
0.833198 0.177442 0.873908
0.833198 0.177442 0.844386
0.833198 0.177442 0.809675
0.833198 0.177442 0.769642
0.833198 0.177442 0.724486
0.833198 0.177442 0.674799
0.833198 0.177442 0.621590
0.833198 0.177442 0.566228
0.833198 0.177442 0.510311
0.833198 0.177442 0.455487
0.833198 0.177442 0.403259
0.833198 0.177442 0.354836
0.833198 0.177442 0.311042
0.833198 0.177442 0.272303
0.833198 0.177442 0.238692
0.833198 0.177442 0.210009
0.833198 0.177442 0.185867
0.833198 0.177442 0.165781
0.833198 0.177442 0.149225
0.833198 0.177442 0.135683
0.833198 0.177442 0.124673
0.833198 0.177442 0.115766
0.833198 0.177442 0.108588
0.833198 0.177442 0.102821
0.833198 0.148414 0.984765
0.833198 0.148414 0.980534
0.833198 0.148414 0.975161
0.833198 0.148414 0.968359
0.833198 0.148414 0.959781
0.833198 0.148414 0.949018
0.833198 0.148414 0.935593
0.833198 0.148414 0.918977
0.833198 0.148414 0.898604
0.833198 0.148414 0.873908
0.833198 0.148414 0.844386
0.833198 0.148414 0.809675
0.833198 0.148414 0.769642
0.833198 0.148414 0.724486
0.833198 0.148414 0.674799
0.833198 0.148414 0.621590
0.833198 0.148414 0.566228
0.833198 0.148414 0.510311
0.833198 0.148414 0.455487
0.833198 0.148414 0.403259
0.833198 0.148414 0.354836
0.833198 0.148414 0.311042
0.833198 0.148414 0.272303
0.833198 0.148414 0.238692
0.833198 0.148414 0.210009
0.833198 0.148414 0.185867
0.833198 0.148414 0.165781
0.833198 0.148414 0.149225
0.833198 0.148414 0.135683
0.833198 0.148414 0.124673
0.833198 0.148414 0.115766
0.833198 0.148414 0.108588
0.833198 0.148414 0.102821
0.833198 0.124316 0.984765
0.833198 0.124316 0.980534
0.833198 0.124316 0.975161
0.833198 0.124316 0.968359
0.833198 0.124316 0.959781
0.833198 0.124316 0.949018
0.833198 0.124316 0.935593
0.833198 0.124316 0.918977
0.833198 0.124316 0.898604
0.833198 0.124316 0.873908
0.833198 0.124316 0.844386
0.833198 0.124316 0.809675
0.833198 0.124316 0.769642
0.833198 0.124316 0.724486
0.833198 0.124316 0.674799
0.833198 0.124316 0.621590
0.833198 0.124316 0.566228
0.833198 0.124316 0.510311
0.833198 0.124316 0.455487
0.833198 0.124316 0.403259
0.833198 0.124316 0.354836
0.833198 0.124316 0.311042
0.833198 0.124316 0.272303
0.833198 0.124316 0.238692
0.833198 0.124316 0.210009
0.833198 0.124316 0.185867
0.833198 0.124316 0.165781
0.833198 0.124316 0.149225
0.833198 0.124316 0.135683
0.833198 0.124316 0.124673
0.833198 0.124316 0.115766
0.833198 0.124316 0.108588
0.833198 0.124316 0.102821
0.833198 0.104605 0.984765
0.833198 0.104605 0.980534
0.833198 0.104605 0.975161
0.833198 0.104605 0.968359
0.833198 0.104605 0.959781
0.833198 0.104605 0.949018
0.833198 0.104605 0.935593
0.833198 0.104605 0.918977
0.833198 0.104605 0.898604
0.833198 0.104605 0.873908
0.833198 0.104605 0.844386
0.833198 0.104605 0.809675
0.833198 0.104605 0.769642
0.833198 0.104605 0.724486
0.833198 0.104605 0.674799
0.833198 0.104605 0.621590
0.833198 0.104605 0.566228
0.833198 0.104605 0.510311
0.833198 0.104605 0.455487
0.833198 0.104605 0.403259
0.833198 0.104605 0.354836
0.833198 0.104605 0.311042
0.833198 0.104605 0.272303
0.833198 0.104605 0.238692
0.833198 0.104605 0.210009
0.833198 0.104605 0.185867
0.833198 0.104605 0.165781
0.833198 0.104605 0.149225
0.833198 0.104605 0.135683
0.833198 0.104605 0.124673
0.833198 0.104605 0.115766
0.833198 0.104605 0.108588
0.833198 0.104605 0.102821
0.833198 0.088679 0.984765
0.833198 0.088679 0.980534
0.833198 0.088679 0.975161
0.833198 0.088679 0.968359
0.833198 0.088679 0.959781
0.833198 0.088679 0.949018
0.833198 0.088679 0.935593
0.833198 0.088679 0.918977
0.833198 0.088679 0.898604
0.833198 0.088679 0.873908
0.833198 0.088679 0.844386
0.833198 0.088679 0.809675
0.833198 0.088679 0.769642
0.833198 0.088679 0.724486
0.833198 0.088679 0.674799
0.833198 0.088679 0.621590
0.833198 0.088679 0.566228
0.833198 0.088679 0.510311
0.833198 0.088679 0.455487
0.833198 0.088679 0.403259
0.833198 0.088679 0.354836
0.833198 0.088679 0.311042
0.833198 0.088679 0.272303
0.833198 0.088679 0.238692
0.833198 0.088679 0.210009
0.833198 0.088679 0.185867
0.833198 0.088679 0.165781
