negative/faded vintage.cube
#Created by: LUT Generator
#Copyright: (C) Copyright 2026
TITLE "负片-褪色复古"
LUT_3D_SIZE 5
0.898482 0.784561 0.646200
0.898482 0.784561 0.572761
0.898482 0.784561 0.400000
0.898482 0.784561 0.227239
0.898482 0.784561 0.153800
0.898482 0.692221 0.646200
0.898482 0.692221 0.572761
0.898482 0.692221 0.400000
0.898482 0.692221 0.227239
0.898482 0.692221 0.153800
0.898482 0.475000 0.646200
0.898482 0.475000 0.572761
0.898482 0.475000 0.400000
0.898482 0.475000 0.227239
0.898482 0.475000 0.153800
0.898482 0.257779 0.646200
0.898482 0.257779 0.572761
0.898482 0.257779 0.400000
0.898482 0.257779 0.227239
0.898482 0.257779 0.153800
0.898482 0.165439 0.646200
0.898482 0.165439 0.572761
0.898482 0.165439 0.400000
0.898482 0.165439 0.227239
0.898482 0.165439 0.153800
0.794532 0.784561 0.646200
0.794532 0.784561 0.572761
0.794532 0.784561 0.400000
0.794532 0.784561 0.227239
0.794532 0.784561 0.153800
0.794532 0.692221 0.646200
0.794532 0.692221 0.572761
0.794532 0.692221 0.400000
0.794532 0.692221 0.227239
0.794532 0.692221 0.153800
0.794532 0.475000 0.646200
0.794532 0.475000 0.572761
0.794532 0.475000 0.400000
0.794532 0.475000 0.227239
0.794532 0.475000 0.153800
0.794532 0.257779 0.646200
0.794532 0.257779 0.572761
0.794532 0.257779 0.400000
0.794532 0.257779 0.227239
0.794532 0.257779 0.153800
0.794532 0.165439 0.646200
0.794532 0.165439 0.572761
0.794532 0.165439 0.400000
0.794532 0.165439 0.227239
0.794532 0.165439 0.153800
0.550000 0.784561 0.646200
0.550000 0.784561 0.572761
0.550000 0.784561 0.400000
0.550000 0.784561 0.227239
0.550000 0.784561 0.153800
0.550000 0.692221 0.646200
0.550000 0.692221 0.572761
0.550000 0.692221 0.400000
0.550000 0.692221 0.227239
0.550000 0.692221 0.153800
0.550000 0.475000 0.646200
0.550000 0.475000 0.572761
0.550000 0.475000 0.400000
0.550000 0.475000 0.227239
0.550000 0.475000 0.153800
0.550000 0.257779 0.646200
0.550000 0.257779 0.572761
0.550000 0.257779 0.400000
0.550000 0.257779 0.227239
0.550000 0.257779 0.153800
0.550000 0.165439 0.646200
0.550000 0.165439 0.572761
0.550000 0.165439 0.400000
0.550000 0.165439 0.227239
0.550000 0.165439 0.153800
0.305468 0.784561 0.646200
0.305468 0.784561 0.572761
0.305468 0.784561 0.400000
0.305468 0.784561 0.227239
0.305468 0.784561 0.153800
0.305468 0.692221 0.646200
0.305468 0.692221 0.572761
0.305468 0.692221 0.400000
0.305468 0.692221 0.227239
0.305468 0.692221 0.153800
0.305468 0.475000 0.646200
0.305468 0.475000 0.572761
0.305468 0.475000 0.400000
0.305468 0.475000 0.227239
0.305468 0.475000 0.153800
0.305468 0.257779 0.646200
0.305468 0.257779 0.572761
0.305468 0.257779 0.400000
0.305468 0.257779 0.227239
0.305468 0.257779 0.153800
0.305468 0.165439 0.646200
0.305468 0.165439 0.572761
0.305468 0.165439 0.400000
0.305468 0.165439 0.227239
0.305468 0.165439 0.153800
0.201518 0.784561 0.646200
0.201518 0.784561 0.572761
0.201518 0.784561 0.400000
0.201518 0.784561 0.227239
0.201518 0.784561 0.153800
0.201518 0.692221 0.646200
0.201518 0.692221 0.572761
0.201518 0.692221 0.400000
0.201518 0.692221 0.227239
0.201518 0.692221 0.153800
0.201518 0.475000 0.646200
0.201518 0.475000 0.572761
0.201518 0.475000 0.400000
0.201518 0.475000 0.227239
0.201518 0.475000 0.153800
0.201518 0.257779 0.646200
0.201518 0.257779 0.572761
0.201518 0.257779 0.400000
0.201518 0.257779 0.227239
0.201518 0.257779 0.153800
0.201518 0.165439 0.646200
0.201518 0.165439 0.572761
0.201518 0.165439 0.400000
0.201518 0.165439 0.227239
0.201518 0.165439 0.153800
