negative/faded vintage.cube
#Created by: LUT Generator
#Copyright: (C) Copyright 2026
TITLE "负片-褪色复古"
LUT_3D_SIZE 33
0.898482 0.784561 0.646200
0.898482 0.784561 0.641181
0.898482 0.784561 0.635255
0.898482 0.784561 0.628286
0.898482 0.784561 0.620130
0.898482 0.784561 0.610639
0.898482 0.784561 0.599667
0.898482 0.784561 0.587079
0.898482 0.784561 0.572761
0.898482 0.784561 0.556635
0.898482 0.784561 0.538674
0.898482 0.784561 0.518915
0.898482 0.784561 0.497473
0.898482 0.784561 0.474545
0.898482 0.784561 0.450411
0.898482 0.784561 0.425426
0.898482 0.784561 0.400000
0.898482 0.784561 0.374574
0.898482 0.784561 0.349589
0.898482 0.784561 0.325455
0.898482 0.784561 0.302527
0.898482 0.784561 0.281085
0.898482 0.784561 0.261326
0.898482 0.784561 0.243365
0.898482 0.784561 0.227239
0.898482 0.784561 0.212921
0.898482 0.784561 0.200333
0.898482 0.784561 0.189361
0.898482 0.784561 0.179870
0.898482 0.784561 0.171714
0.898482 0.784561 0.164745
0.898482 0.784561 0.158819
0.898482 0.784561 0.153800
0.898482 0.778250 0.646200
0.898482 0.778250 0.641181
0.898482 0.778250 0.635255
0.898482 0.778250 0.628286
0.898482 0.778250 0.620130
0.898482 0.778250 0.610639
0.898482 0.778250 0.599667
0.898482 0.778250 0.587079
0.898482 0.778250 0.572761
0.898482 0.778250 0.556635
0.898482 0.778250 0.538674
0.898482 0.778250 0.518915
0.898482 0.778250 0.497473
0.898482 0.778250 0.474545
0.898482 0.778250 0.450411
0.898482 0.778250 0.425426
0.898482 0.778250 0.400000
0.898482 0.778250 0.374574
0.898482 0.778250 0.349589
0.898482 0.778250 0.325455
0.898482 0.778250 0.302527
0.898482 0.778250 0.281085
0.898482 0.778250 0.261326
0.898482 0.778250 0.243365
0.898482 0.778250 0.227239
0.898482 0.778250 0.212921
0.898482 0.778250 0.200333
0.898482 0.778250 0.189361
0.898482 0.778250 0.179870
0.898482 0.778250 0.171714
0.898482 0.778250 0.164745
0.898482 0.778250 0.158819
0.898482 0.778250 0.153800
0.898482 0.770798 0.646200
0.898482 0.770798 0.641181
0.898482 0.770798 0.635255
0.898482 0.770798 0.628286
0.898482 0.770798 0.620130
0.898482 0.770798 0.610639
0.898482 0.770798 0.599667
0.898482 0.770798 0.587079
0.898482 0.770798 0.572761
0.898482 0.770798 0.556635
0.898482 0.770798 0.538674
0.898482 0.770798 0.518915
0.898482 0.770798 0.497473
0.898482 0.770798 0.474545
0.898482 0.770798 0.450411
0.898482 0.770798 0.425426
0.898482 0.770798 0.400000
0.898482 0.770798 0.374574
0.898482 0.770798 0.349589
0.898482 0.770798 0.325455
0.898482 0.770798 0.302527
0.898482 0.770798 0.281085
0.898482 0.770798 0.261326
0.898482 0.770798 0.243365
0.898482 0.770798 0.227239
0.898482 0.770798 0.212921
0.898482 0.770798 0.200333
0.898482 0.770798 0.189361
0.898482 0.770798 0.179870
0.898482 0.770798 0.171714
0.898482 0.770798 0.164745
0.898482 0.770798 0.158819
0.898482 0.770798 0.153800
0.898482 0.762035 0.646200
0.898482 0.762035 0.641181
0.898482 0.762035 0.635255
0.898482 0.762035 0.628286
0.898482 0.762035 0.620130
0.898482 0.762035 0.610639
0.898482 0.762035 0.599667
0.898482 0.762035 0.587079
0.898482 0.762035 0.572761
0.898482 0.762035 0.556635
0.898482 0.762035 0.538674
0.898482 0.762035 0.518915
0.898482 0.762035 0.497473
0.898482 0.762035 0.474545
0.898482 0.762035 0.450411
0.898482 0.762035 0.425426
0.898482 0.762035 0.400000
0.898482 0.762035 0.374574
0.898482 0.762035 0.349589
0.898482 0.762035 0.325455
0.898482 0.762035 0.302527
0.898482 0.762035 0.281085
0.898482 0.762035 0.261326
0.898482 0.762035 0.243365
0.898482 0.762035 0.227239
0.898482 0.762035 0.212921
0.898482 0.762035 0.200333
0.898482 0.762035 0.189361
0.898482 0.762035 0.179870
0.898482 0.762035 0.171714
0.898482 0.762035 0.164745
0.898482 0.762035 0.158819
0.898482 0.762035 0.153800
0.898482 0.751781 0.646200
0.898482 0.751781 0.641181
0.898482 0.751781 0.635255
0.898482 0.751781 0.628286
0.898482 0.751781 0.620130
0.898482 0.751781 0.610639
0.898482 0.751781 0.599667
0.898482 0.751781 0.587079
0.898482 0.751781 0.572761
0.898482 0.751781 0.556635
0.898482 0.751781 0.538674
0.898482 0.751781 0.518915
0.898482 0.751781 0.497473
0.898482 0.751781 0.474545
0.898482 0.751781 0.450411
0.898482 0.751781 0.425426
0.898482 0.751781 0.400000
0.898482 0.751781 0.374574
0.898482 0.751781 0.349589
0.898482 0.751781 0.325455
0.898482 0.751781 0.302527
0.898482 0.751781 0.281085
0.898482 0.751781 0.261326
0.898482 0.751781 0.243365
0.898482 0.751781 0.227239
0.898482 0.751781 0.212921
0.898482 0.751781 0.200333
0.898482 0.751781 0.189361
0.898482 0.751781 0.179870
0.898482 0.751781 0.171714
0.898482 0.751781 0.164745
0.898482 0.751781 0.158819
0.898482 0.751781 0.153800
0.898482 0.739848 0.646200
0.898482 0.739848 0.641181
0.898482 0.739848 0.635255
0.898482 0.739848 0.628286
0.898482 0.739848 0.620130
0.898482 0.739848 0.610639
0.898482 0.739848 0.599667
0.898482 0.739848 0.587079
0.898482 0.739848 0.572761
0.898482 0.739848 0.556635
0.898482 0.739848 0.538674
0.898482 0.739848 0.518915
0.898482 0.739848 0.497473
0.898482 0.739848 0.474545
0.898482 0.739848 0.450411
0.898482 0.739848 0.425426
0.898482 0.739848 0.400000
0.898482 0.739848 0.374574
0.898482 0.739848 0.349589
0.898482 0.739848 0.325455
0.898482 0.739848 0.302527
0.898482 0.739848 0.281085
0.898482 0.739848 0.261326
0.898482 0.739848 0.243365
0.898482 0.739848 0.227239
0.898482 0.739848 0.212921
0.898482 0.739848 0.200333
0.898482 0.739848 0.189361
0.898482 0.739848 0.179870
0.898482 0.739848 0.171714
0.898482 0.739848 0.164745
0.898482 0.739848 0.158819
0.898482 0.739848 0.153800
0.898482 0.726052 0.646200
0.898482 0.726052 0.641181
0.898482 0.726052 0.635255
0.898482 0.726052 0.628286
0.898482 0.726052 0.620130
0.898482 0.726052 0.610639
0.898482 0.726052 0.599667
0.898482 0.726052 0.587079
0.898482 0.726052 0.572761
0.898482 0.726052 0.556635
0.898482 0.726052 0.538674
0.898482 0.726052 0.518915
0.898482 0.726052 0.497473
0.898482 0.726052 0.474545
0.898482 0.726052 0.450411
0.898482 0.726052 0.425426
0.898482 0.726052 0.400000
0.898482 0.726052 0.374574
0.898482 0.726052 0.349589
0.898482 0.726052 0.325455
0.898482 0.726052 0.302527
0.898482 0.726052 0.281085
0.898482 0.726052 0.261326
0.898482 0.726052 0.243365
0.898482 0.726052 0.227239
0.898482 0.726052 0.212921
0.898482 0.726052 0.200333
0.898482 0.726052 0.189361
0.898482 0.726052 0.179870
0.898482 0.726052 0.171714
0.898482 0.726052 0.164745
0.898482 0.726052 0.158819
0.898482 0.726052 0.153800
0.898482 0.710224 0.646200
0.898482 0.710224 0.641181
0.898482 0.710224 0.635255
0.898482 0.710224 0.628286
0.898482 0.710224 0.620130
0.898482 0.710224 0.610639
0.898482 0.710224 0.599667
0.898482 0.710224 0.587079
0.898482 0.710224 0.572761
0.898482 0.710224 0.556635
0.898482 0.710224 0.538674
0.898482 0.710224 0.518915
0.898482 0.710224 0.497473
0.898482 0.710224 0.474545
0.898482 0.710224 0.450411
0.898482 0.710224 0.425426
0.898482 0.710224 0.400000
0.898482 0.710224 0.374574
0.898482 0.710224 0.349589
0.898482 0.710224 0.325455
0.898482 0.710224 0.302527
0.898482 0.710224 0.281085
0.898482 0.710224 0.261326
0.898482 0.710224 0.243365
0.898482 0.710224 0.227239
0.898482 0.710224 0.212921
0.898482 0.710224 0.200333
0.898482 0.710224 0.189361
0.898482 0.710224 0.179870
0.898482 0.710224 0.171714
0.898482 0.710224 0.164745
0.898482 0.710224 0.158819
0.898482 0.710224 0.153800
0.898482 0.692221 0.646200
0.898482 0.692221 0.641181
0.898482 0.692221 0.635255
0.898482 0.692221 0.628286
0.898482 0.692221 0.620130
0.898482 0.692221 0.610639
0.898482 0.692221 0.599667
0.898482 0.692221 0.587079
0.898482 0.692221 0.572761
0.898482 0.692221 0.556635
0.898482 0.692221 0.538674
0.898482 0.692221 0.518915
0.898482 0.692221 0.497473
0.898482 0.692221 0.474545
0.898482 0.692221 0.450411
0.898482 0.692221 0.425426
0.898482 0.692221 0.400000
0.898482 0.692221 0.374574
0.898482 0.692221 0.349589
0.898482 0.692221 0.325455
0.898482 0.692221 0.302527
0.898482 0.692221 0.281085
0.898482 0.692221 0.261326
0.898482 0.692221 0.243365
0.898482 0.692221 0.227239
0.898482 0.692221 0.212921
0.898482 0.692221 0.200333
0.898482 0.692221 0.189361
0.898482 0.692221 0.179870
0.898482 0.692221 0.171714
0.898482 0.692221 0.164745
0.898482 0.692221 0.158819
0.898482 0.692221 0.153800
0.898482 0.671945 0.646200
0.898482 0.671945 0.641181
0.898482 0.671945 0.635255
0.898482 0.671945 0.628286
0.898482 0.671945 0.620130
0.898482 0.671945 0.610639
0.898482 0.671945 0.599667
0.898482 0.671945 0.587079
0.898482 0.671945 0.572761
0.898482 0.671945 0.556635
0.898482 0.671945 0.538674
0.898482 0.671945 0.518915
0.898482 0.671945 0.497473
0.898482 0.671945 0.474545
0.898482 0.671945 0.450411
0.898482 0.671945 0.425426
0.898482 0.671945 0.400000
0.898482 0.671945 0.374574
0.898482 0.671945 0.349589
0.898482 0.671945 0.325455
0.898482 0.671945 0.302527
0.898482 0.671945 0.281085
0.898482 0.671945 0.261326
0.898482 0.671945 0.243365
0.898482 0.671945 0.227239
0.898482 0.671945 0.212921
0.898482 0.671945 0.200333
0.898482 0.671945 0.189361
0.898482 0.671945 0.179870
0.898482 0.671945 0.171714
0.898482 0.671945 0.164745
0.898482 0.671945 0.158819
0.898482 0.671945 0.153800
0.898482 0.649362 0.646200
0.898482 0.649362 0.641181
0.898482 0.649362 0.635255
0.898482 0.649362 0.628286
0.898482 0.649362 0.620130
0.898482 0.649362 0.610639
0.898482 0.649362 0.599667
0.898482 0.649362 0.587079
0.898482 0.649362 0.572761
0.898482 0.649362 0.556635
0.898482 0.649362 0.538674
0.898482 0.649362 0.518915
0.898482 0.649362 0.497473
0.898482 0.649362 0.474545
0.898482 0.649362 0.450411
0.898482 0.649362 0.425426
0.898482 0.649362 0.400000
0.898482 0.649362 0.374574
0.898482 0.649362 0.349589
0.898482 0.649362 0.325455
0.898482 0.649362 0.302527
0.898482 0.649362 0.281085
0.898482 0.649362 0.261326
0.898482 0.649362 0.243365
0.898482 0.649362 0.227239
0.898482 0.649362 0.212921
0.898482 0.649362 0.200333
0.898482 0.649362 0.189361
0.898482 0.649362 0.179870
0.898482 0.649362 0.171714
0.898482 0.649362 0.164745
0.898482 0.649362 0.158819
0.898482 0.649362 0.153800
0.898482 0.624519 0.646200
0.898482 0.624519 0.641181
0.898482 0.624519 0.635255
0.898482 0.624519 0.628286
0.898482 0.624519 0.620130
0.898482 0.624519 0.610639
0.898482 0.624519 0.599667
0.898482 0.624519 0.587079
0.898482 0.624519 0.572761
0.898482 0.624519 0.556635
0.898482 0.624519 0.538674
0.898482 0.624519 0.518915
0.898482 0.624519 0.497473
0.898482 0.624519 0.474545
0.898482 0.624519 0.450411
0.898482 0.624519 0.425426
0.898482 0.624519 0.400000
0.898482 0.624519 0.374574
0.898482 0.624519 0.349589
0.898482 0.624519 0.325455
0.898482 0.624519 0.302527
0.898482 0.624519 0.281085
0.898482 0.624519 0.261326
0.898482 0.624519 0.243365
0.898482 0.624519 0.227239
0.898482 0.624519 0.212921
0.898482 0.624519 0.200333
0.898482 0.624519 0.189361
0.898482 0.624519 0.179870
0.898482 0.624519 0.171714
0.898482 0.624519 0.164745
0.898482 0.624519 0.158819
0.898482 0.624519 0.153800
0.898482 0.597558 0.646200
0.898482 0.597558 0.641181
0.898482 0.597558 0.635255
0.898482 0.597558 0.628286
0.898482 0.597558 0.620130
0.898482 0.597558 0.610639
0.898482 0.597558 0.599667
0.898482 0.597558 0.587079
0.898482 0.597558 0.572761
0.898482 0.597558 0.556635
0.898482 0.597558 0.538674
0.898482 0.597558 0.518915
0.898482 0.597558 0.497473
0.898482 0.597558 0.474545
0.898482 0.597558 0.450411
0.898482 0.597558 0.425426
0.898482 0.597558 0.400000
0.898482 0.597558 0.374574
0.898482 0.597558 0.349589
0.898482 0.597558 0.325455
0.898482 0.597558 0.302527
0.898482 0.597558 0.281085
0.898482 0.597558 0.261326
0.898482 0.597558 0.243365
0.898482 0.597558 0.227239
0.898482 0.597558 0.212921
0.898482 0.597558 0.200333
0.898482 0.597558 0.189361
0.898482 0.597558 0.179870
0.898482 0.597558 0.171714
0.898482 0.597558 0.164745
0.898482 0.597558 0.158819
0.898482 0.597558 0.153800
0.898482 0.568729 0.646200
0.898482 0.568729 0.641181
0.898482 0.568729 0.635255
0.898482 0.568729 0.628286
0.898482 0.568729 0.620130
0.898482 0.568729 0.610639
0.898482 0.568729 0.599667
0.898482 0.568729 0.587079
0.898482 0.568729 0.572761
0.898482 0.568729 0.556635
0.898482 0.568729 0.538674
0.898482 0.568729 0.518915
0.898482 0.568729 0.497473
0.898482 0.568729 0.474545
0.898482 0.568729 0.450411
0.898482 0.568729 0.425426
0.898482 0.568729 0.400000
0.898482 0.568729 0.374574
0.898482 0.568729 0.349589
0.898482 0.568729 0.325455
0.898482 0.568729 0.302527
0.898482 0.568729 0.281085
0.898482 0.568729 0.261326
0.898482 0.568729 0.243365
0.898482 0.568729 0.227239
0.898482 0.568729 0.212921
0.898482 0.568729 0.200333
0.898482 0.568729 0.189361
0.898482 0.568729 0.179870
0.898482 0.568729 0.171714
0.898482 0.568729 0.164745
0.898482 0.568729 0.158819
0.898482 0.568729 0.153800
0.898482 0.538384 0.646200
0.898482 0.538384 0.641181
0.898482 0.538384 0.635255
0.898482 0.538384 0.628286
0.898482 0.538384 0.620130
0.898482 0.538384 0.610639
0.898482 0.538384 0.599667
0.898482 0.538384 0.587079
0.898482 0.538384 0.572761
0.898482 0.538384 0.556635
0.898482 0.538384 0.538674
0.898482 0.538384 0.518915
0.898482 0.538384 0.497473
0.898482 0.538384 0.474545
0.898482 0.538384 0.450411
0.898482 0.538384 0.425426
0.898482 0.538384 0.400000
0.898482 0.538384 0.374574
0.898482 0.538384 0.349589
0.898482 0.538384 0.325455
0.898482 0.538384 0.302527
0.898482 0.538384 0.281085
0.898482 0.538384 0.261326
0.898482 0.538384 0.243365
0.898482 0.538384 0.227239
0.898482 0.538384 0.212921
0.898482 0.538384 0.200333
0.898482 0.538384 0.189361
0.898482 0.538384 0.179870
0.898482 0.538384 0.171714
0.898482 0.538384 0.164745
0.898482 0.538384 0.158819
0.898482 0.538384 0.153800
0.898482 0.506969 0.646200
0.898482 0.506969 0.641181
0.898482 0.506969 0.635255
0.898482 0.506969 0.628286
0.898482 0.506969 0.620130
0.898482 0.506969 0.610639
0.898482 0.506969 0.599667
0.898482 0.506969 0.587079
0.898482 0.506969 0.572761
0.898482 0.506969 0.556635
0.898482 0.506969 0.538674
0.898482 0.506969 0.518915
0.898482 0.506969 0.497473
0.898482 0.506969 0.474545
0.898482 0.506969 0.450411
0.898482 0.506969 0.425426
0.898482 0.506969 0.400000
0.898482 0.506969 0.374574
0.898482 0.506969 0.349589
0.898482 0.506969 0.325455
0.898482 0.506969 0.302527
0.898482 0.506969 0.281085
0.898482 0.506969 0.261326
0.898482 0.506969 0.243365
0.898482 0.506969 0.227239
0.898482 0.506969 0.212921
0.898482 0.506969 0.200333
0.898482 0.506969 0.189361
0.898482 0.506969 0.179870
0.898482 0.506969 0.171714
0.898482 0.506969 0.164745
0.898482 0.506969 0.158819
0.898482 0.506969 0.153800
0.898482 0.475000 0.646200
0.898482 0.475000 0.641181
0.898482 0.475000 0.635255
0.898482 0.475000 0.628286
0.898482 0.475000 0.620130
0.898482 0.475000 0.610639
0.898482 0.475000 0.599667
0.898482 0.475000 0.587079
0.898482 0.475000 0.572761
0.898482 0.475000 0.556635
0.898482 0.475000 0.538674
0.898482 0.475000 0.518915
0.898482 0.475000 0.497473
0.898482 0.475000 0.474545
0.898482 0.475000 0.450411
0.898482 0.475000 0.425426
0.898482 0.475000 0.400000
0.898482 0.475000 0.374574
0.898482 0.475000 0.349589
0.898482 0.475000 0.325455
0.898482 0.475000 0.302527
0.898482 0.475000 0.281085
0.898482 0.475000 0.261326
0.898482 0.475000 0.243365
0.898482 0.475000 0.227239
0.898482 0.475000 0.212921
0.898482 0.475000 0.200333
0.898482 0.475000 0.189361
0.898482 0.475000 0.179870
0.898482 0.475000 0.171714
0.898482 0.475000 0.164745
0.898482 0.475000 0.158819
0.898482 0.475000 0.153800
0.898482 0.443031 0.646200
0.898482 0.443031 0.641181
0.898482 0.443031 0.635255
0.898482 0.443031 0.628286
0.898482 0.443031 0.620130
0.898482 0.443031 0.610639
0.898482 0.443031 0.599667
0.898482 0.443031 0.587079
0.898482 0.443031 0.572761
0.898482 0.443031 0.556635
0.898482 0.443031 0.538674
0.898482 0.443031 0.518915
0.898482 0.443031 0.497473
0.898482 0.443031 0.474545
0.898482 0.443031 0.450411
0.898482 0.443031 0.425426
0.898482 0.443031 0.400000
0.898482 0.443031 0.374574
0.898482 0.443031 0.349589
0.898482 0.443031 0.325455
0.898482 0.443031 0.302527
0.898482 0.443031 0.281085
0.898482 0.443031 0.261326
0.898482 0.443031 0.243365
0.898482 0.443031 0.227239
0.898482 0.443031 0.212921
0.898482 0.443031 0.200333
0.898482 0.443031 0.189361
0.898482 0.443031 0.179870
0.898482 0.443031 0.171714
0.898482 0.443031 0.164745
0.898482 0.443031 0.158819
0.898482 0.443031 0.153800
0.898482 0.411616 0.646200
0.898482 0.411616 0.641181
0.898482 0.411616 0.635255
0.898482 0.411616 0.628286
0.898482 0.411616 0.620130
0.898482 0.411616 0.610639
0.898482 0.411616 0.599667
0.898482 0.411616 0.587079
0.898482 0.411616 0.572761
0.898482 0.411616 0.556635
0.898482 0.411616 0.538674
0.898482 0.411616 0.518915
0.898482 0.411616 0.497473
0.898482 0.411616 0.474545
0.898482 0.411616 0.450411
0.898482 0.411616 0.425426
0.898482 0.411616 0.400000
0.898482 0.411616 0.374574
0.898482 0.411616 0.349589
0.898482 0.411616 0.325455
0.898482 0.411616 0.302527
0.898482 0.411616 0.281085
0.898482 0.411616 0.261326
0.898482 0.411616 0.243365
0.898482 0.411616 0.227239
0.898482 0.411616 0.212921
0.898482 0.411616 0.200333
0.898482 0.411616 0.189361
0.898482 0.411616 0.179870
0.898482 0.411616 0.171714
0.898482 0.411616 0.164745
0.898482 0.411616 0.158819
0.898482 0.411616 0.153800
0.898482 0.381271 0.646200
0.898482 0.381271 0.641181
0.898482 0.381271 0.635255
0.898482 0.381271 0.628286
0.898482 0.381271 0.620130
0.898482 0.381271 0.610639
0.898482 0.381271 0.599667
0.898482 0.381271 0.587079
0.898482 0.381271 0.572761
0.898482 0.381271 0.556635
0.898482 0.381271 0.538674
0.898482 0.381271 0.518915
0.898482 0.381271 0.497473
0.898482 0.381271 0.474545
0.898482 0.381271 0.450411
0.898482 0.381271 0.425426
0.898482 0.381271 0.400000
0.898482 0.381271 0.374574
0.898482 0.381271 0.349589
0.898482 0.381271 0.325455
0.898482 0.381271 0.302527
0.898482 0.381271 0.281085
0.898482 0.381271 0.261326
0.898482 0.381271 0.243365
0.898482 0.381271 0.227239
0.898482 0.381271 0.212921
0.898482 0.381271 0.200333
0.898482 0.381271 0.189361
0.898482 0.381271 0.179870
0.898482 0.381271 0.171714
0.898482 0.381271 0.164745
0.898482 0.381271 0.158819
0.898482 0.381271 0.153800
0.898482 0.352442 0.646200
0.898482 0.352442 0.641181
0.898482 0.352442 0.635255
0.898482 0.352442 0.628286
0.898482 0.352442 0.620130
0.898482 0.352442 0.610639
0.898482 0.352442 0.599667
0.898482 0.352442 0.587079
0.898482 0.352442 0.572761
0.898482 0.352442 0.556635
0.898482 0.352442 0.538674
0.898482 0.352442 0.518915
0.898482 0.352442 0.497473
0.898482 0.352442 0.474545
0.898482 0.352442 0.450411
0.898482 0.352442 0.425426
0.898482 0.352442 0.400000
0.898482 0.352442 0.374574
0.898482 0.352442 0.349589
0.898482 0.352442 0.325455
0.898482 0.352442 0.302527
0.898482 0.352442 0.281085
0.898482 0.352442 0.261326
0.898482 0.352442 0.243365
0.898482 0.352442 0.227239
0.898482 0.352442 0.212921
0.898482 0.352442 0.200333
0.898482 0.352442 0.189361
0.898482 0.352442 0.179870
0.898482 0.352442 0.171714
0.898482 0.352442 0.164745
0.898482 0.352442 0.158819
0.898482 0.352442 0.153800
0.898482 0.325481 0.646200
0.898482 0.325481 0.641181
0.898482 0.325481 0.635255
0.898482 0.325481 0.628286
0.898482 0.325481 0.620130
0.898482 0.325481 0.610639
0.898482 0.325481 0.599667
0.898482 0.325481 0.587079
0.898482 0.325481 0.572761
0.898482 0.325481 0.556635
0.898482 0.325481 0.538674
0.898482 0.325481 0.518915
0.898482 0.325481 0.497473
0.898482 0.325481 0.474545
0.898482 0.325481 0.450411
0.898482 0.325481 0.425426
0.898482 0.325481 0.400000
0.898482 0.325481 0.374574
0.898482 0.325481 0.349589
0.898482 0.325481 0.325455
0.898482 0.325481 0.302527
0.898482 0.325481 0.281085
0.898482 0.325481 0.261326
0.898482 0.325481 0.243365
0.898482 0.325481 0.227239
0.898482 0.325481 0.212921
0.898482 0.325481 0.200333
0.898482 0.325481 0.189361
0.898482 0.325481 0.179870
0.898482 0.325481 0.171714
0.898482 0.325481 0.164745
0.898482 0.325481 0.158819
0.898482 0.325481 0.153800
0.898482 0.300638 0.646200
0.898482 0.300638 0.641181
0.898482 0.300638 0.635255
0.898482 0.300638 0.628286
0.898482 0.300638 0.620130
0.898482 0.300638 0.610639
0.898482 0.300638 0.599667
0.898482 0.300638 0.587079
0.898482 0.300638 0.572761
0.898482 0.300638 0.556635
0.898482 0.300638 0.538674
0.898482 0.300638 0.518915
0.898482 0.300638 0.497473
0.898482 0.300638 0.474545
0.898482 0.300638 0.450411
0.898482 0.300638 0.425426
0.898482 0.300638 0.400000
0.898482 0.300638 0.374574
0.898482 0.300638 0.349589
0.898482 0.300638 0.325455
0.898482 0.300638 0.302527
0.898482 0.300638 0.281085
0.898482 0.300638 0.261326
0.898482 0.300638 0.243365
0.898482 0.300638 0.227239
0.898482 0.300638 0.212921
0.898482 0.300638 0.200333
0.898482 0.300638 0.189361
0.898482 0.300638 0.179870
0.898482 0.300638 0.171714
0.898482 0.300638 0.164745
0.898482 0.300638 0.158819
0.898482 0.300638 0.153800
0.898482 0.278055 0.646200
0.898482 0.278055 0.641181
0.898482 0.278055 0.635255
0.898482 0.278055 0.628286
0.898482 0.278055 0.620130
0.898482 0.278055 0.610639
0.898482 0.278055 0.599667
0.898482 0.278055 0.587079
0.898482 0.278055 0.572761
0.898482 0.278055 0.556635
0.898482 0.278055 0.538674
0.898482 0.278055 0.518915
0.898482 0.278055 0.497473
0.898482 0.278055 0.474545
0.898482 0.278055 0.450411
0.898482 0.278055 0.425426
0.898482 0.278055 0.400000
0.898482 0.278055 0.374574
0.898482 0.278055 0.349589
0.898482 0.278055 0.325455
0.898482 0.278055 0.302527
0.898482 0.278055 0.281085
0.898482 0.278055 0.261326
0.898482 0.278055 0.243365
0.898482 0.278055 0.227239
0.898482 0.278055 0.212921
0.898482 0.278055 0.200333
0.898482 0.278055 0.189361
0.898482 0.278055 0.179870
0.898482 0.278055 0.171714
0.898482 0.278055 0.164745
0.898482 0.278055 0.158819
0.898482 0.278055 0.153800
0.898482 0.257779 0.646200
0.898482 0.257779 0.641181
0.898482 0.257779 0.635255
0.898482 0.257779 0.628286
0.898482 0.257779 0.620130
0.898482 0.257779 0.610639
0.898482 0.257779 0.599667
0.898482 0.257779 0.587079
0.898482 0.257779 0.572761
0.898482 0.257779 0.556635
0.898482 0.257779 0.538674
0.898482 0.257779 0.518915
0.898482 0.257779 0.497473
0.898482 0.257779 0.474545
0.898482 0.257779 0.450411
0.898482 0.257779 0.425426
0.898482 0.257779 0.400000
0.898482 0.257779 0.374574
0.898482 0.257779 0.349589
0.898482 0.257779 0.325455
0.898482 0.257779 0.302527
0.898482 0.257779 0.281085
0.898482 0.257779 0.261326
0.898482 0.257779 0.243365
0.898482 0.257779 0.227239
0.898482 0.257779 0.212921
0.898482 0.257779 0.200333
0.898482 0.257779 0.189361
0.898482 0.257779 0.179870
0.898482 0.257779 0.171714
0.898482 0.257779 0.164745
0.898482 0.257779 0.158819
0.898482 0.257779 0.153800
0.898482 0.239776 0.646200
0.898482 0.239776 0.641181
0.898482 0.239776 0.635255
0.898482 0.239776 0.628286
0.898482 0.239776 0.620130
0.898482 0.239776 0.610639
0.898482 0.239776 0.599667
0.898482 0.239776 0.587079
0.898482 0.239776 0.572761
0.898482 0.239776 0.556635
0.898482 0.239776 0.538674
0.898482 0.239776 0.518915
0.898482 0.239776 0.497473
0.898482 0.239776 0.474545
0.898482 0.239776 0.450411
0.898482 0.239776 0.425426
0.898482 0.239776 0.400000
0.898482 0.239776 0.374574
0.898482 0.239776 0.349589
0.898482 0.239776 0.325455
0.898482 0.239776 0.302527
0.898482 0.239776 0.281085
0.898482 0.239776 0.261326
0.898482 0.239776 0.243365
0.898482 0.239776 0.227239
0.898482 0.239776 0.212921
0.898482 0.239776 0.200333
0.898482 0.239776 0.189361
0.898482 0.239776 0.179870
0.898482 0.239776 0.171714
0.898482 0.239776 0.164745
0.898482 0.239776 0.158819
0.898482 0.239776 0.153800
0.898482 0.223948 0.646200
0.898482 0.223948 0.641181
0.898482 0.223948 0.635255
0.898482 0.223948 0.628286
0.898482 0.223948 0.620130
0.898482 0.223948 0.610639
0.898482 0.223948 0.599667
0.898482 0.223948 0.587079
0.898482 0.223948 0.572761
0.898482 0.223948 0.556635
0.898482 0.223948 0.538674
0.898482 0.223948 0.518915
0.898482 0.223948 0.497473
0.898482 0.223948 0.474545
0.898482 0.223948 0.450411
0.898482 0.223948 0.425426
0.898482 0.223948 0.400000
0.898482 0.223948 0.374574
0.898482 0.223948 0.349589
0.898482 0.223948 0.325455
0.898482 0.223948 0.302527
0.898482 0.223948 0.281085
0.898482 0.223948 0.261326
0.898482 0.223948 0.243365
0.898482 0.223948 0.227239
0.898482 0.223948 0.212921
0.898482 0.223948 0.200333
