negative/faded vintage.cube
#Created by: LUT Generator
#Copyright: (C) Copyright 2026
TITLE "负片-褪色复古"
LUT_3D_SIZE 9
0.898482 0.784561 0.646200
0.898482 0.784561 0.620130
0.898482 0.784561 0.572761
0.898482 0.784561 0.497473
0.898482 0.784561 0.400000
0.898482 0.784561 0.302527
0.898482 0.784561 0.227239
0.898482 0.784561 0.179870
0.898482 0.784561 0.153800
0.898482 0.751781 0.646200
0.898482 0.751781 0.620130
0.898482 0.751781 0.572761
0.898482 0.751781 0.497473
0.898482 0.751781 0.400000
0.898482 0.751781 0.302527
0.898482 0.751781 0.227239
0.898482 0.751781 0.179870
0.898482 0.751781 0.153800
0.898482 0.692221 0.646200
0.898482 0.692221 0.620130
0.898482 0.692221 0.572761
0.898482 0.692221 0.497473
0.898482 0.692221 0.400000
0.898482 0.692221 0.302527
0.898482 0.692221 0.227239
0.898482 0.692221 0.179870
0.898482 0.692221 0.153800
0.898482 0.597558 0.646200
0.898482 0.597558 0.620130
0.898482 0.597558 0.572761
0.898482 0.597558 0.497473
0.898482 0.597558 0.400000
0.898482 0.597558 0.302527
0.898482 0.597558 0.227239
0.898482 0.597558 0.179870
0.898482 0.597558 0.153800
0.898482 0.475000 0.646200
0.898482 0.475000 0.620130
0.898482 0.475000 0.572761
0.898482 0.475000 0.497473
0.898482 0.475000 0.400000
0.898482 0.475000 0.302527
0.898482 0.475000 0.227239
0.898482 0.475000 0.179870
0.898482 0.475000 0.153800
0.898482 0.352442 0.646200
0.898482 0.352442 0.620130
0.898482 0.352442 0.572761
0.898482 0.352442 0.497473
0.898482 0.352442 0.400000
0.898482 0.352442 0.302527
0.898482 0.352442 0.227239
0.898482 0.352442 0.179870
0.898482 0.352442 0.153800
0.898482 0.257779 0.646200
0.898482 0.257779 0.620130
0.898482 0.257779 0.572761
0.898482 0.257779 0.497473
0.898482 0.257779 0.400000
0.898482 0.257779 0.302527
0.898482 0.257779 0.227239
0.898482 0.257779 0.179870
0.898482 0.257779 0.153800
0.898482 0.198219 0.646200
0.898482 0.198219 0.620130
0.898482 0.198219 0.572761
0.898482 0.198219 0.497473
0.898482 0.198219 0.400000
0.898482 0.198219 0.302527
0.898482 0.198219 0.227239
0.898482 0.198219 0.179870
0.898482 0.198219 0.153800
0.898482 0.165439 0.646200
0.898482 0.165439 0.620130
0.898482 0.165439 0.572761
0.898482 0.165439 0.497473
0.898482 0.165439 0.400000
0.898482 0.165439 0.302527
0.898482 0.165439 0.227239
0.898482 0.165439 0.179870
0.898482 0.165439 0.153800
0.861581 0.784561 0.646200
0.861581 0.784561 0.620130
0.861581 0.784561 0.572761
0.861581 0.784561 0.497473
0.861581 0.784561 0.400000
0.861581 0.784561 0.302527
0.861581 0.784561 0.227239
0.861581 0.784561 0.179870
0.861581 0.784561 0.153800
0.861581 0.751781 0.646200
0.861581 0.751781 0.620130
0.861581 0.751781 0.572761
0.861581 0.751781 0.497473
0.861581 0.751781 0.400000
0.861581 0.751781 0.302527
0.861581 0.751781 0.227239
0.861581 0.751781 0.179870
0.861581 0.751781 0.153800
0.861581 0.692221 0.646200
0.861581 0.692221 0.620130
0.861581 0.692221 0.572761
0.861581 0.692221 0.497473
0.861581 0.692221 0.400000
0.861581 0.692221 0.302527
0.861581 0.692221 0.227239
0.861581 0.692221 0.179870
0.861581 0.692221 0.153800
0.861581 0.597558 0.646200
0.861581 0.597558 0.620130
0.861581 0.597558 0.572761
0.861581 0.597558 0.497473
0.861581 0.597558 0.400000
0.861581 0.597558 0.302527
0.861581 0.597558 0.227239
0.861581 0.597558 0.179870
0.861581 0.597558 0.153800
0.861581 0.475000 0.646200
0.861581 0.475000 0.620130
0.861581 0.475000 0.572761
0.861581 0.475000 0.497473
0.861581 0.475000 0.400000
0.861581 0.475000 0.302527
0.861581 0.475000 0.227239
0.861581 0.475000 0.179870
0.861581 0.475000 0.153800
0.861581 0.352442 0.646200
0.861581 0.352442 0.620130
0.861581 0.352442 0.572761
0.861581 0.352442 0.497473
0.861581 0.352442 0.400000
0.861581 0.352442 0.302527
0.861581 0.352442 0.227239
0.861581 0.352442 0.179870
0.861581 0.352442 0.153800
0.861581 0.257779 0.646200
0.861581 0.257779 0.620130
0.861581 0.257779 0.572761
0.861581 0.257779 0.497473
0.861581 0.257779 0.400000
0.861581 0.257779 0.302527
0.861581 0.257779 0.227239
0.861581 0.257779 0.179870
0.861581 0.257779 0.153800
0.861581 0.198219 0.646200
0.861581 0.198219 0.620130
0.861581 0.198219 0.572761
0.861581 0.198219 0.497473
0.861581 0.198219 0.400000
0.861581 0.198219 0.302527
0.861581 0.198219 0.227239
0.861581 0.198219 0.179870
0.861581 0.198219 0.153800
0.861581 0.165439 0.646200
0.861581 0.165439 0.620130
0.861581 0.165439 0.572761
0.861581 0.165439 0.497473
0.861581 0.165439 0.400000
0.861581 0.165439 0.302527
0.861581 0.165439 0.227239
0.861581 0.165439 0.179870
0.861581 0.165439 0.153800
0.794532 0.784561 0.646200
0.794532 0.784561 0.620130
0.794532 0.784561 0.572761
0.794532 0.784561 0.497473
0.794532 0.784561 0.400000
0.794532 0.784561 0.302527
0.794532 0.784561 0.227239
0.794532 0.784561 0.179870
0.794532 0.784561 0.153800
0.794532 0.751781 0.646200
0.794532 0.751781 0.620130
0.794532 0.751781 0.572761
0.794532 0.751781 0.497473
0.794532 0.751781 0.400000
0.794532 0.751781 0.302527
0.794532 0.751781 0.227239
0.794532 0.751781 0.179870
0.794532 0.751781 0.153800
0.794532 0.692221 0.646200
0.794532 0.692221 0.620130
0.794532 0.692221 0.572761
0.794532 0.692221 0.497473
0.794532 0.692221 0.400000
0.794532 0.692221 0.302527
0.794532 0.692221 0.227239
0.794532 0.692221 0.179870
0.794532 0.692221 0.153800
0.794532 0.597558 0.646200
0.794532 0.597558 0.620130
0.794532 0.597558 0.572761
0.794532 0.597558 0.497473
0.794532 0.597558 0.400000
0.794532 0.597558 0.302527
0.794532 0.597558 0.227239
0.794532 0.597558 0.179870
0.794532 0.597558 0.153800
0.794532 0.475000 0.646200
0.794532 0.475000 0.620130
0.794532 0.475000 0.572761
0.794532 0.475000 0.497473
0.794532 0.475000 0.400000
0.794532 0.475000 0.302527
0.794532 0.475000 0.227239
0.794532 0.475000 0.179870
0.794532 0.475000 0.153800
0.794532 0.352442 0.646200
0.794532 0.352442 0.620130
0.794532 0.352442 0.572761
0.794532 0.352442 0.497473
0.794532 0.352442 0.400000
0.794532 0.352442 0.302527
0.794532 0.352442 0.227239
0.794532 0.352442 0.179870
0.794532 0.352442 0.153800
0.794532 0.257779 0.646200
0.794532 0.257779 0.620130
0.794532 0.257779 0.572761
0.794532 0.257779 0.497473
0.794532 0.257779 0.400000
0.794532 0.257779 0.302527
0.794532 0.257779 0.227239
0.794532 0.257779 0.179870
0.794532 0.257779 0.153800
0.794532 0.198219 0.646200
0.794532 0.198219 0.620130
0.794532 0.198219 0.572761
0.794532 0.198219 0.497473
0.794532 0.198219 0.400000
0.794532 0.198219 0.302527
0.794532 0.198219 0.227239
0.794532 0.198219 0.179870
0.794532 0.198219 0.153800
0.794532 0.165439 0.646200
0.794532 0.165439 0.620130
0.794532 0.165439 0.572761
0.794532 0.165439 0.497473
0.794532 0.165439 0.400000
0.794532 0.165439 0.302527
0.794532 0.165439 0.227239
0.794532 0.165439 0.179870
0.794532 0.165439 0.153800
0.687968 0.784561 0.646200
0.687968 0.784561 0.620130
0.687968 0.784561 0.572761
0.687968 0.784561 0.497473
0.687968 0.784561 0.400000
0.687968 0.784561 0.302527
0.687968 0.784561 0.227239
0.687968 0.784561 0.179870
0.687968 0.784561 0.153800
0.687968 0.751781 0.646200
0.687968 0.751781 0.620130
0.687968 0.751781 0.572761
0.687968 0.751781 0.497473
0.687968 0.751781 0.400000
0.687968 0.751781 0.302527
0.687968 0.751781 0.227239
0.687968 0.751781 0.179870
0.687968 0.751781 0.153800
0.687968 0.692221 0.646200
0.687968 0.692221 0.620130
0.687968 0.692221 0.572761
0.687968 0.692221 0.497473
0.687968 0.692221 0.400000
0.687968 0.692221 0.302527
0.687968 0.692221 0.227239
0.687968 0.692221 0.179870
0.687968 0.692221 0.153800
0.687968 0.597558 0.646200
0.687968 0.597558 0.620130
0.687968 0.597558 0.572761
0.687968 0.597558 0.497473
0.687968 0.597558 0.400000
0.687968 0.597558 0.302527
0.687968 0.597558 0.227239
0.687968 0.597558 0.179870
0.687968 0.597558 0.153800
0.687968 0.475000 0.646200
0.687968 0.475000 0.620130
0.687968 0.475000 0.572761
0.687968 0.475000 0.497473
0.687968 0.475000 0.400000
0.687968 0.475000 0.302527
0.687968 0.475000 0.227239
0.687968 0.475000 0.179870
0.687968 0.475000 0.153800
0.687968 0.352442 0.646200
0.687968 0.352442 0.620130
0.687968 0.352442 0.572761
0.687968 0.352442 0.497473
0.687968 0.352442 0.400000
0.687968 0.352442 0.302527
0.687968 0.352442 0.227239
0.687968 0.352442 0.179870
0.687968 0.352442 0.153800
0.687968 0.257779 0.646200
0.687968 0.257779 0.620130
0.687968 0.257779 0.572761
0.687968 0.257779 0.497473
0.687968 0.257779 0.400000
0.687968 0.257779 0.302527
0.687968 0.257779 0.227239
0.687968 0.257779 0.179870
0.687968 0.257779 0.153800
0.687968 0.198219 0.646200
0.687968 0.198219 0.620130
0.687968 0.198219 0.572761
0.687968 0.198219 0.497473
0.687968 0.198219 0.400000
0.687968 0.198219 0.302527
0.687968 0.198219 0.227239
0.687968 0.198219 0.179870
0.687968 0.198219 0.153800
0.687968 0.165439 0.646200
0.687968 0.165439 0.620130
0.687968 0.165439 0.572761
0.687968 0.165439 0.497473
0.687968 0.165439 0.400000
0.687968 0.165439 0.302527
0.687968 0.165439 0.227239
0.687968 0.165439 0.179870
0.687968 0.165439 0.153800
0.550000 0.784561 0.646200
0.550000 0.784561 0.620130
0.550000 0.784561 0.572761
0.550000 0.784561 0.497473
0.550000 0.784561 0.400000
0.550000 0.784561 0.302527
0.550000 0.784561 0.227239
0.550000 0.784561 0.179870
0.550000 0.784561 0.153800
0.550000 0.751781 0.646200
0.550000 0.751781 0.620130
0.550000 0.751781 0.572761
0.550000 0.751781 0.497473
0.550000 0.751781 0.400000
0.550000 0.751781 0.302527
0.550000 0.751781 0.227239
0.550000 0.751781 0.179870
0.550000 0.751781 0.153800
0.550000 0.692221 0.646200
0.550000 0.692221 0.620130
0.550000 0.692221 0.572761
0.550000 0.692221 0.497473
0.550000 0.692221 0.400000
0.550000 0.692221 0.302527
0.550000 0.692221 0.227239
0.550000 0.692221 0.179870
0.550000 0.692221 0.153800
0.550000 0.597558 0.646200
0.550000 0.597558 0.620130
0.550000 0.597558 0.572761
0.550000 0.597558 0.497473
0.550000 0.597558 0.400000
0.550000 0.597558 0.302527
0.550000 0.597558 0.227239
0.550000 0.597558 0.179870
0.550000 0.597558 0.153800
0.550000 0.475000 0.646200
0.550000 0.475000 0.620130
0.550000 0.475000 0.572761
0.550000 0.475000 0.497473
0.550000 0.475000 0.400000
0.550000 0.475000 0.302527
0.550000 0.475000 0.227239
0.550000 0.475000 0.179870
0.550000 0.475000 0.153800
0.550000 0.352442 0.646200
0.550000 0.352442 0.620130
0.550000 0.352442 0.572761
0.550000 0.352442 0.497473
0.550000 0.352442 0.400000
0.550000 0.352442 0.302527
0.550000 0.352442 0.227239
0.550000 0.352442 0.179870
0.550000 0.352442 0.153800
0.550000 0.257779 0.646200
0.550000 0.257779 0.620130
0.550000 0.257779 0.572761
0.550000 0.257779 0.497473
0.550000 0.257779 0.400000
0.550000 0.257779 0.302527
0.550000 0.257779 0.227239
0.550000 0.257779 0.179870
0.550000 0.257779 0.153800
0.550000 0.198219 0.646200
0.550000 0.198219 0.620130
0.550000 0.198219 0.572761
0.550000 0.198219 0.497473
0.550000 0.198219 0.400000
0.550000 0.198219 0.302527
0.550000 0.198219 0.227239
0.550000 0.198219 0.179870
0.550000 0.198219 0.153800
0.550000 0.165439 0.646200
0.550000 0.165439 0.620130
0.550000 0.165439 0.572761
0.550000 0.165439 0.497473
0.550000 0.165439 0.400000
0.550000 0.165439 0.302527
0.550000 0.165439 0.227239
0.550000 0.165439 0.179870
0.550000 0.165439 0.153800
0.412032 0.784561 0.646200
0.412032 0.784561 0.620130
0.412032 0.784561 0.572761
0.412032 0.784561 0.497473
0.412032 0.784561 0.400000
0.412032 0.784561 0.302527
0.412032 0.784561 0.227239
0.412032 0.784561 0.179870
0.412032 0.784561 0.153800
0.412032 0.751781 0.646200
0.412032 0.751781 0.620130
0.412032 0.751781 0.572761
0.412032 0.751781 0.497473
0.412032 0.751781 0.400000
0.412032 0.751781 0.302527
0.412032 0.751781 0.227239
0.412032 0.751781 0.179870
0.412032 0.751781 0.153800
0.412032 0.692221 0.646200
0.412032 0.692221 0.620130
0.412032 0.692221 0.572761
0.412032 0.692221 0.497473
0.412032 0.692221 0.400000
0.412032 0.692221 0.302527
0.412032 0.692221 0.227239
0.412032 0.692221 0.179870
0.412032 0.692221 0.153800
0.412032 0.597558 0.646200
0.412032 0.597558 0.620130
0.412032 0.597558 0.572761
0.412032 0.597558 0.497473
0.412032 0.597558 0.400000
0.412032 0.597558 0.302527
0.412032 0.597558 0.227239
0.412032 0.597558 0.179870
0.412032 0.597558 0.153800
0.412032 0.475000 0.646200
0.412032 0.475000 0.620130
0.412032 0.475000 0.572761
0.412032 0.475000 0.497473
0.412032 0.475000 0.400000
0.412032 0.475000 0.302527
0.412032 0.475000 0.227239
0.412032 0.475000 0.179870
0.412032 0.475000 0.153800
0.412032 0.352442 0.646200
0.412032 0.352442 0.620130
0.412032 0.352442 0.572761
0.412032 0.352442 0.497473
0.412032 0.352442 0.400000
0.412032 0.352442 0.302527
0.412032 0.352442 0.227239
0.412032 0.352442 0.179870
0.412032 0.352442 0.153800
0.412032 0.257779 0.646200
0.412032 0.257779 0.620130
0.412032 0.257779 0.572761
0.412032 0.257779 0.497473
0.412032 0.257779 0.400000
0.412032 0.257779 0.302527
0.412032 0.257779 0.227239
0.412032 0.257779 0.179870
0.412032 0.257779 0.153800
0.412032 0.198219 0.646200
0.412032 0.198219 0.620130
0.412032 0.198219 0.572761
0.412032 0.198219 0.497473
0.412032 0.198219 0.400000
0.412032 0.198219 0.302527
0.412032 0.198219 0.227239
0.412032 0.198219 0.179870
0.412032 0.198219 0.153800
0.412032 0.165439 0.646200
0.412032 0.165439 0.620130
0.412032 0.165439 0.572761
0.412032 0.165439 0.497473
0.412032 0.165439 0.400000
0.412032 0.165439 0.302527
0.412032 0.165439 0.227239
0.412032 0.165439 0.179870
0.412032 0.165439 0.153800
0.305468 0.784561 0.646200
0.305468 0.784561 0.620130
0.305468 0.784561 0.572761
0.305468 0.784561 0.497473
0.305468 0.784561 0.400000
0.305468 0.784561 0.302527
0.305468 0.784561 0.227239
0.305468 0.784561 0.179870
0.305468 0.784561 0.153800
0.305468 0.751781 0.646200
0.305468 0.751781 0.620130
0.305468 0.751781 0.572761
0.305468 0.751781 0.497473
0.305468 0.751781 0.400000
0.305468 0.751781 0.302527
0.305468 0.751781 0.227239
0.305468 0.751781 0.179870
0.305468 0.751781 0.153800
0.305468 0.692221 0.646200
0.305468 0.692221 0.620130
0.305468 0.692221 0.572761
0.305468 0.692221 0.497473
0.305468 0.692221 0.400000
0.305468 0.692221 0.302527
0.305468 0.692221 0.227239
0.305468 0.692221 0.179870
0.305468 0.692221 0.153800
0.305468 0.597558 0.646200
0.305468 0.597558 0.620130
0.305468 0.597558 0.572761
0.305468 0.597558 0.497473
0.305468 0.597558 0.400000
0.305468 0.597558 0.302527
0.305468 0.597558 0.227239
0.305468 0.597558 0.179870
0.305468 0.597558 0.153800
0.305468 0.475000 0.646200
0.305468 0.475000 0.620130
0.305468 0.475000 0.572761
0.305468 0.475000 0.497473
0.305468 0.475000 0.400000
0.305468 0.475000 0.302527
0.305468 0.475000 0.227239
0.305468 0.475000 0.179870
0.305468 0.475000 0.153800
0.305468 0.352442 0.646200
0.305468 0.352442 0.620130
0.305468 0.352442 0.572761
0.305468 0.352442 0.497473
0.305468 0.352442 0.400000
0.305468 0.352442 0.302527
0.305468 0.352442 0.227239
0.305468 0.352442 0.179870
0.305468 0.352442 0.153800
0.305468 0.257779 0.646200
0.305468 0.257779 0.620130
0.305468 0.257779 0.572761
0.305468 0.257779 0.497473
0.305468 0.257779 0.400000
0.305468 0.257779 0.302527
0.305468 0.257779 0.227239
0.305468 0.257779 0.179870
0.305468 0.257779 0.153800
0.305468 0.198219 0.646200
0.305468 0.198219 0.620130
0.305468 0.198219 0.572761
0.305468 0.198219 0.497473
0.305468 0.198219 0.400000
0.305468 0.198219 0.302527
0.305468 0.198219 0.227239
0.305468 0.198219 0.179870
0.305468 0.198219 0.153800
0.305468 0.165439 0.646200
0.305468 0.165439 0.620130
0.305468 0.165439 0.572761
0.305468 0.165439 0.497473
0.305468 0.165439 0.400000
0.305468 0.165439 0.302527
0.305468 0.165439 0.227239
0.305468 0.165439 0.179870
0.305468 0.165439 0.153800
0.238419 0.784561 0.646200
0.238419 0.784561 0.620130
0.238419 0.784561 0.572761
0.238419 0.784561 0.497473
0.238419 0.784561 0.400000
0.238419 0.784561 0.302527
0.238419 0.784561 0.227239
0.238419 0.784561 0.179870
0.238419 0.784561 0.153800
0.238419 0.751781 0.646200
0.238419 0.751781 0.620130
0.238419 0.751781 0.572761
0.238419 0.751781 0.497473
0.238419 0.751781 0.400000
0.238419 0.751781 0.302527
0.238419 0.751781 0.227239
0.238419 0.751781 0.179870
0.238419 0.751781 0.153800
0.238419 0.692221 0.646200
0.238419 0.692221 0.620130
0.238419 0.692221 0.572761
0.238419 0.692221 0.497473
0.238419 0.692221 0.400000
0.238419 0.692221 0.302527
0.238419 0.692221 0.227239
0.238419 0.692221 0.179870
0.238419 0.692221 0.153800
0.238419 0.597558 0.646200
0.238419 0.597558 0.620130
0.238419 0.597558 0.572761
0.238419 0.597558 0.497473
0.238419 0.597558 0.400000
0.238419 0.597558 0.302527
0.238419 0.597558 0.227239
0.238419 0.597558 0.179870
0.238419 0.597558 0.153800
0.238419 0.475000 0.646200
0.238419 0.475000 0.620130
0.238419 0.475000 0.572761
0.238419 0.475000 0.497473
0.238419 0.475000 0.400000
0.238419 0.475000 0.302527
0.238419 0.475000 0.227239
0.238419 0.475000 0.179870
0.238419 0.475000 0.153800
0.238419 0.352442 0.646200
0.238419 0.352442 0.620130
0.238419 0.352442 0.572761
0.238419 0.352442 0.497473
0.238419 0.352442 0.400000
0.238419 0.352442 0.302527
0.238419 0.352442 0.227239
0.238419 0.352442 0.179870
0.238419 0.352442 0.153800
0.238419 0.257779 0.646200
0.238419 0.257779 0.620130
0.238419 0.257779 0.572761
0.238419 0.257779 0.497473
0.238419 0.257779 0.400000
0.238419 0.257779 0.302527
0.238419 0.257779 0.227239
0.238419 0.257779 0.179870
0.238419 0.257779 0.153800
0.238419 0.198219 0.646200
0.238419 0.198219 0.620130
0.238419 0.198219 0.572761
0.238419 0.198219 0.497473
0.238419 0.198219 0.400000
0.238419 0.198219 0.302527
0.238419 0.198219 0.227239
0.238419 0.198219 0.179870
0.238419 0.198219 0.153800
0.238419 0.165439 0.646200
0.238419 0.165439 0.620130
0.238419 0.165439 0.572761
0.238419 0.165439 0.497473
0.238419 0.165439 0.400000
0.238419 0.165439 0.302527
0.238419 0.165439 0.227239
0.238419 0.165439 0.179870
0.238419 0.165439 0.153800
0.201518 0.784561 0.646200
0.201518 0.784561 0.620130
0.201518 0.784561 0.572761
0.201518 0.784561 0.497473
0.201518 0.784561 0.400000
0.201518 0.784561 0.302527
0.201518 0.784561 0.227239
0.201518 0.784561 0.179870
0.201518 0.784561 0.153800
0.201518 0.751781 0.646200
0.201518 0.751781 0.620130
0.201518 0.751781 0.572761
0.201518 0.751781 0.497473
0.201518 0.751781 0.400000
0.201518 0.751781 0.302527
0.201518 0.751781 0.227239
0.201518 0.751781 0.179870
0.201518 0.751781 0.153800
0.201518 0.692221 0.646200
0.201518 0.692221 0.620130
0.201518 0.692221 0.572761
0.201518 0.692221 0.497473
0.201518 0.692221 0.400000
0.201518 0.692221 0.302527
0.201518 0.692221 0.227239
0.201518 0.692221 0.179870
0.201518 0.692221 0.153800
0.201518 0.597558 0.646200
0.201518 0.597558 0.620130
0.201518 0.597558 0.572761
0.201518 0.597558 0.497473
0.201518 0.597558 0.400000
0.201518 0.597558 0.302527
0.201518 0.597558 0.227239
0.201518 0.597558 0.179870
0.201518 0.597558 0.153800
0.201518 0.475000 0.646200
0.201518 0.475000 0.620130
0.201518 0.475000 0.572761
0.201518 0.475000 0.497473
0.201518 0.475000 0.400000
0.201518 0.475000 0.302527
0.201518 0.475000 0.227239
0.201518 0.475000 0.179870
0.201518 0.475000 0.153800
0.201518 0.352442 0.646200
0.201518 0.352442 0.620130
0.201518 0.352442 0.572761
0.201518 0.352442 0.497473
0.201518 0.352442 0.400000
0.201518 0.352442 0.302527
0.201518 0.352442 0.227239
0.201518 0.352442 0.179870
0.201518 0.352442 0.153800
0.201518 0.257779 0.646200
0.201518 0.257779 0.620130
0.201518 0.257779 0.572761
0.201518 0.257779 0.497473
0.201518 0.257779 0.400000
0.201518 0.257779 0.302527
0.201518 0.257779 0.227239
0.201518 0.257779 0.179870
0.201518 0.257779 0.153800
0.201518 0.198219 0.646200
0.201518 0.198219 0.620130
0.201518 0.198219 0.572761
0.201518 0.198219 0.497473
0.201518 0.198219 0.400000
0.201518 0.198219 0.302527
0.201518 0.198219 0.227239
0.201518 0.198219 0.179870
0.201518 0.198219 0.153800
0.201518 0.165439 0.646200
0.201518 0.165439 0.620130
0.201518 0.165439 0.572761
0.201518 0.165439 0.497473
0.201518 0.165439 0.400000
0.201518 0.165439 0.302527
0.201518 0.165439 0.227239
0.201518 0.165439 0.179870
0.201518 0.165439 0.153800
