negative/high contrast.cube
#Created by: LUT Generator
#Copyright: (C) Copyright 2026
TITLE "负片-高对比戏剧"
LUT_3D_SIZE 5
0.969704 0.959681 0.899683
0.969704 0.959681 0.883011
0.969704 0.959681 0.434671
0.969704 0.959681 0.013241
0.969704 0.959681 0.000202
0.969704 0.942913 0.899683
0.969704 0.942913 0.883011
0.969704 0.942913 0.434671
0.969704 0.942913 0.013241
0.969704 0.942913 0.000202
0.969704 0.485000 0.899683
0.969704 0.485000 0.883011
0.969704 0.485000 0.434671
0.969704 0.485000 0.013241
0.969704 0.485000 0.000202
0.969704 0.027087 0.899683
0.969704 0.027087 0.883011
0.969704 0.027087 0.434671
0.969704 0.027087 0.013241
0.969704 0.027087 0.000202
0.969704 0.010319 0.899683
0.969704 0.010319 0.883011
0.969704 0.010319 0.434671
0.969704 0.010319 0.013241
0.969704 0.010319 0.000202
0.954099 0.959681 0.899683
0.954099 0.959681 0.883011
0.954099 0.959681 0.434671
0.954099 0.959681 0.013241
0.954099 0.959681 0.000202
0.954099 0.942913 0.899683
0.954099 0.942913 0.883011
0.954099 0.942913 0.434671
0.954099 0.942913 0.013241
0.954099 0.942913 0.000202
0.954099 0.485000 0.899683
0.954099 0.485000 0.883011
0.954099 0.485000 0.434671
0.954099 0.485000 0.013241
0.954099 0.485000 0.000202
0.954099 0.027087 0.899683
0.954099 0.027087 0.883011
0.954099 0.027087 0.434671
0.954099 0.027087 0.013241
0.954099 0.027087 0.000202
0.954099 0.010319 0.899683
0.954099 0.010319 0.883011
0.954099 0.010319 0.434671
0.954099 0.010319 0.013241
0.954099 0.010319 0.000202
0.518615 0.959681 0.899683
0.518615 0.959681 0.883011
0.518615 0.959681 0.434671
0.518615 0.959681 0.013241
0.518615 0.959681 0.000202
0.518615 0.942913 0.899683
0.518615 0.942913 0.883011
0.518615 0.942913 0.434671
0.518615 0.942913 0.013241
0.518615 0.942913 0.000202
0.518615 0.485000 0.899683
0.518615 0.485000 0.883011
0.518615 0.485000 0.434671
0.518615 0.485000 0.013241
0.518615 0.485000 0.000202
0.518615 0.027087 0.899683
0.518615 0.027087 0.883011
0.518615 0.027087 0.434671
0.518615 0.027087 0.013241
0.518615 0.027087 0.000202
0.518615 0.010319 0.899683
0.518615 0.010319 0.883011
0.518615 0.010319 0.434671
0.518615 0.010319 0.013241
0.518615 0.010319 0.000202
0.042637 0.959681 0.899683
0.042637 0.959681 0.883011
0.042637 0.959681 0.434671
0.042637 0.959681 0.013241
0.042637 0.959681 0.000202
0.042637 0.942913 0.899683
0.042637 0.942913 0.883011
0.042637 0.942913 0.434671
0.042637 0.942913 0.013241
0.042637 0.942913 0.000202
0.042637 0.485000 0.899683
0.042637 0.485000 0.883011
0.042637 0.485000 0.434671
0.042637 0.485000 0.013241
0.042637 0.485000 0.000202
0.042637 0.027087 0.899683
0.042637 0.027087 0.883011
0.042637 0.027087 0.434671
0.042637 0.027087 0.013241
0.042637 0.027087 0.000202
0.042637 0.010319 0.899683
0.042637 0.010319 0.883011
0.042637 0.010319 0.434671
0.042637 0.010319 0.013241
0.042637 0.010319 0.000202
0.020558 0.959681 0.899683
0.020558 0.959681 0.883011
0.020558 0.959681 0.434671
0.020558 0.959681 0.013241
0.020558 0.959681 0.000202
0.020558 0.942913 0.899683
0.020558 0.942913 0.883011
0.020558 0.942913 0.434671
0.020558 0.942913 0.013241
0.020558 0.942913 0.000202
0.020558 0.485000 0.899683
0.020558 0.485000 0.883011
0.020558 0.485000 0.434671
0.020558 0.485000 0.013241
0.020558 0.485000 0.000202
0.020558 0.027087 0.899683
0.020558 0.027087 0.883011
0.020558 0.027087 0.434671
0.020558 0.027087 0.013241
0.020558 0.027087 0.000202
0.020558 0.010319 0.899683
0.020558 0.010319 0.883011
0.020558 0.010319 0.434671
0.020558 0.010319 0.013241
0.020558 0.010319 0.000202
