negative/high contrast.cube
#Created by: LUT Generator
#Copyright: (C) Copyright 2026
TITLE "负片-高对比戏剧"
LUT_3D_SIZE 33
0.969704 0.959681 0.899683
0.969704 0.959681 0.899478
0.969704 0.959681 0.899139
0.969704 0.959681 0.898581
0.969704 0.959681 0.897663
0.969704 0.959681 0.896154
0.969704 0.959681 0.893676
0.969704 0.959681 0.889620
0.969704 0.959681 0.883011
0.969704 0.959681 0.872320
0.969704 0.959681 0.855236
0.969704 0.959681 0.828453
0.969704 0.959681 0.787702
0.969704 0.959681 0.728444
0.969704 0.959681 0.647727
0.969704 0.959681 0.547090
0.969704 0.959681 0.434671
0.969704 0.959681 0.323634
0.969704 0.959681 0.226664
0.969704 0.959681 0.150793
0.969704 0.959681 0.096459
0.969704 0.959681 0.060013
0.969704 0.959681 0.036649
0.969704 0.959681 0.022113
0.969704 0.959681 0.013241
0.969704 0.959681 0.007892
0.969704 0.959681 0.004690
0.969704 0.959681 0.002782
0.969704 0.959681 0.001648
0.969704 0.959681 0.000976
0.969704 0.959681 0.000578
0.969704 0.959681 0.000342
0.969704 0.959681 0.000202
0.969704 0.959475 0.899683
0.969704 0.959475 0.899478
0.969704 0.959475 0.899139
0.969704 0.959475 0.898581
0.969704 0.959475 0.897663
0.969704 0.959475 0.896154
0.969704 0.959475 0.893676
0.969704 0.959475 0.889620
0.969704 0.959475 0.883011
0.969704 0.959475 0.872320
0.969704 0.959475 0.855236
0.969704 0.959475 0.828453
0.969704 0.959475 0.787702
0.969704 0.959475 0.728444
0.969704 0.959475 0.647727
0.969704 0.959475 0.547090
0.969704 0.959475 0.434671
0.969704 0.959475 0.323634
0.969704 0.959475 0.226664
0.969704 0.959475 0.150793
0.969704 0.959475 0.096459
0.969704 0.959475 0.060013
0.969704 0.959475 0.036649
0.969704 0.959475 0.022113
0.969704 0.959475 0.013241
0.969704 0.959475 0.007892
0.969704 0.959475 0.004690
0.969704 0.959475 0.002782
0.969704 0.959475 0.001648
0.969704 0.959475 0.000976
0.969704 0.959475 0.000578
0.969704 0.959475 0.000342
0.969704 0.959475 0.000202
0.969704 0.959134 0.899683
0.969704 0.959134 0.899478
0.969704 0.959134 0.899139
0.969704 0.959134 0.898581
0.969704 0.959134 0.897663
0.969704 0.959134 0.896154
0.969704 0.959134 0.893676
0.969704 0.959134 0.889620
0.969704 0.959134 0.883011
0.969704 0.959134 0.872320
0.969704 0.959134 0.855236
0.969704 0.959134 0.828453
0.969704 0.959134 0.787702
0.969704 0.959134 0.728444
0.969704 0.959134 0.647727
0.969704 0.959134 0.547090
0.969704 0.959134 0.434671
0.969704 0.959134 0.323634
0.969704 0.959134 0.226664
0.969704 0.959134 0.150793
0.969704 0.959134 0.096459
0.969704 0.959134 0.060013
0.969704 0.959134 0.036649
0.969704 0.959134 0.022113
0.969704 0.959134 0.013241
0.969704 0.959134 0.007892
0.969704 0.959134 0.004690
0.969704 0.959134 0.002782
0.969704 0.959134 0.001648
0.969704 0.959134 0.000976
0.969704 0.959134 0.000578
0.969704 0.959134 0.000342
0.969704 0.959134 0.000202
0.969704 0.958574 0.899683
0.969704 0.958574 0.899478
0.969704 0.958574 0.899139
0.969704 0.958574 0.898581
0.969704 0.958574 0.897663
0.969704 0.958574 0.896154
0.969704 0.958574 0.893676
0.969704 0.958574 0.889620
0.969704 0.958574 0.883011
0.969704 0.958574 0.872320
0.969704 0.958574 0.855236
0.969704 0.958574 0.828453
0.969704 0.958574 0.787702
0.969704 0.958574 0.728444
0.969704 0.958574 0.647727
0.969704 0.958574 0.547090
0.969704 0.958574 0.434671
0.969704 0.958574 0.323634
0.969704 0.958574 0.226664
0.969704 0.958574 0.150793
0.969704 0.958574 0.096459
0.969704 0.958574 0.060013
0.969704 0.958574 0.036649
0.969704 0.958574 0.022113
0.969704 0.958574 0.013241
0.969704 0.958574 0.007892
0.969704 0.958574 0.004690
0.969704 0.958574 0.002782
0.969704 0.958574 0.001648
0.969704 0.958574 0.000976
0.969704 0.958574 0.000578
0.969704 0.958574 0.000342
0.969704 0.958574 0.000202
0.969704 0.957651 0.899683
0.969704 0.957651 0.899478
0.969704 0.957651 0.899139
0.969704 0.957651 0.898581
0.969704 0.957651 0.897663
0.969704 0.957651 0.896154
0.969704 0.957651 0.893676
0.969704 0.957651 0.889620
0.969704 0.957651 0.883011
0.969704 0.957651 0.872320
0.969704 0.957651 0.855236
0.969704 0.957651 0.828453
0.969704 0.957651 0.787702
0.969704 0.957651 0.728444
0.969704 0.957651 0.647727
0.969704 0.957651 0.547090
0.969704 0.957651 0.434671
0.969704 0.957651 0.323634
0.969704 0.957651 0.226664
0.969704 0.957651 0.150793
0.969704 0.957651 0.096459
0.969704 0.957651 0.060013
0.969704 0.957651 0.036649
0.969704 0.957651 0.022113
0.969704 0.957651 0.013241
0.969704 0.957651 0.007892
0.969704 0.957651 0.004690
0.969704 0.957651 0.002782
0.969704 0.957651 0.001648
0.969704 0.957651 0.000976
0.969704 0.957651 0.000578
0.969704 0.957651 0.000342
0.969704 0.957651 0.000202
0.969704 0.956133 0.899683
0.969704 0.956133 0.899478
0.969704 0.956133 0.899139
0.969704 0.956133 0.898581
0.969704 0.956133 0.897663
0.969704 0.956133 0.896154
0.969704 0.956133 0.893676
0.969704 0.956133 0.889620
0.969704 0.956133 0.883011
0.969704 0.956133 0.872320
0.969704 0.956133 0.855236
0.969704 0.956133 0.828453
0.969704 0.956133 0.787702
0.969704 0.956133 0.728444
0.969704 0.956133 0.647727
0.969704 0.956133 0.547090
0.969704 0.956133 0.434671
0.969704 0.956133 0.323634
0.969704 0.956133 0.226664
0.969704 0.956133 0.150793
0.969704 0.956133 0.096459
0.969704 0.956133 0.060013
0.969704 0.956133 0.036649
0.969704 0.956133 0.022113
0.969704 0.956133 0.013241
0.969704 0.956133 0.007892
0.969704 0.956133 0.004690
0.969704 0.956133 0.002782
0.969704 0.956133 0.001648
0.969704 0.956133 0.000976
0.969704 0.956133 0.000578
0.969704 0.956133 0.000342
0.969704 0.956133 0.000202
0.969704 0.953642 0.899683
0.969704 0.953642 0.899478
0.969704 0.953642 0.899139
0.969704 0.953642 0.898581
0.969704 0.953642 0.897663
0.969704 0.953642 0.896154
0.969704 0.953642 0.893676
0.969704 0.953642 0.889620
0.969704 0.953642 0.883011
0.969704 0.953642 0.872320
0.969704 0.953642 0.855236
0.969704 0.953642 0.828453
0.969704 0.953642 0.787702
0.969704 0.953642 0.728444
0.969704 0.953642 0.647727
0.969704 0.953642 0.547090
0.969704 0.953642 0.434671
0.969704 0.953642 0.323634
0.969704 0.953642 0.226664
0.969704 0.953642 0.150793
0.969704 0.953642 0.096459
0.969704 0.953642 0.060013
0.969704 0.953642 0.036649
0.969704 0.953642 0.022113
0.969704 0.953642 0.013241
0.969704 0.953642 0.007892
0.969704 0.953642 0.004690
0.969704 0.953642 0.002782
0.969704 0.953642 0.001648
0.969704 0.953642 0.000976
0.969704 0.953642 0.000578
0.969704 0.953642 0.000342
0.969704 0.953642 0.000202
0.969704 0.949562 0.899683
0.969704 0.949562 0.899478
0.969704 0.949562 0.899139
0.969704 0.949562 0.898581
0.969704 0.949562 0.897663
0.969704 0.949562 0.896154
0.969704 0.949562 0.893676
0.969704 0.949562 0.889620
0.969704 0.949562 0.883011
0.969704 0.949562 0.872320
0.969704 0.949562 0.855236
0.969704 0.949562 0.828453
0.969704 0.949562 0.787702
0.969704 0.949562 0.728444
0.969704 0.949562 0.647727
0.969704 0.949562 0.547090
0.969704 0.949562 0.434671
0.969704 0.949562 0.323634
0.969704 0.949562 0.226664
0.969704 0.949562 0.150793
0.969704 0.949562 0.096459
0.969704 0.949562 0.060013
0.969704 0.949562 0.036649
0.969704 0.949562 0.022113
0.969704 0.949562 0.013241
0.969704 0.949562 0.007892
0.969704 0.949562 0.004690
0.969704 0.949562 0.002782
0.969704 0.949562 0.001648
0.969704 0.949562 0.000976
0.969704 0.949562 0.000578
0.969704 0.949562 0.000342
0.969704 0.949562 0.000202
0.969704 0.942913 0.899683
0.969704 0.942913 0.899478
0.969704 0.942913 0.899139
0.969704 0.942913 0.898581
0.969704 0.942913 0.897663
0.969704 0.942913 0.896154
0.969704 0.942913 0.893676
0.969704 0.942913 0.889620
0.969704 0.942913 0.883011
0.969704 0.942913 0.872320
0.969704 0.942913 0.855236
0.969704 0.942913 0.828453
0.969704 0.942913 0.787702
0.969704 0.942913 0.728444
0.969704 0.942913 0.647727
0.969704 0.942913 0.547090
0.969704 0.942913 0.434671
0.969704 0.942913 0.323634
0.969704 0.942913 0.226664
0.969704 0.942913 0.150793
0.969704 0.942913 0.096459
0.969704 0.942913 0.060013
0.969704 0.942913 0.036649
0.969704 0.942913 0.022113
0.969704 0.942913 0.013241
0.969704 0.942913 0.007892
0.969704 0.942913 0.004690
0.969704 0.942913 0.002782
0.969704 0.942913 0.001648
0.969704 0.942913 0.000976
0.969704 0.942913 0.000578
0.969704 0.942913 0.000342
0.969704 0.942913 0.000202
0.969704 0.932153 0.899683
0.969704 0.932153 0.899478
0.969704 0.932153 0.899139
0.969704 0.932153 0.898581
0.969704 0.932153 0.897663
0.969704 0.932153 0.896154
0.969704 0.932153 0.893676
0.969704 0.932153 0.889620
0.969704 0.932153 0.883011
0.969704 0.932153 0.872320
0.969704 0.932153 0.855236
0.969704 0.932153 0.828453
0.969704 0.932153 0.787702
0.969704 0.932153 0.728444
0.969704 0.932153 0.647727
0.969704 0.932153 0.547090
0.969704 0.932153 0.434671
0.969704 0.932153 0.323634
0.969704 0.932153 0.226664
0.969704 0.932153 0.150793
0.969704 0.932153 0.096459
0.969704 0.932153 0.060013
0.969704 0.932153 0.036649
0.969704 0.932153 0.022113
0.969704 0.932153 0.013241
0.969704 0.932153 0.007892
0.969704 0.932153 0.004690
0.969704 0.932153 0.002782
0.969704 0.932153 0.001648
0.969704 0.932153 0.000976
0.969704 0.932153 0.000578
0.969704 0.932153 0.000342
0.969704 0.932153 0.000202
0.969704 0.914945 0.899683
0.969704 0.914945 0.899478
0.969704 0.914945 0.899139
0.969704 0.914945 0.898581
0.969704 0.914945 0.897663
0.969704 0.914945 0.896154
0.969704 0.914945 0.893676
0.969704 0.914945 0.889620
0.969704 0.914945 0.883011
0.969704 0.914945 0.872320
0.969704 0.914945 0.855236
0.969704 0.914945 0.828453
0.969704 0.914945 0.787702
0.969704 0.914945 0.728444
0.969704 0.914945 0.647727
0.969704 0.914945 0.547090
0.969704 0.914945 0.434671
0.969704 0.914945 0.323634
0.969704 0.914945 0.226664
0.969704 0.914945 0.150793
0.969704 0.914945 0.096459
0.969704 0.914945 0.060013
0.969704 0.914945 0.036649
0.969704 0.914945 0.022113
0.969704 0.914945 0.013241
0.969704 0.914945 0.007892
0.969704 0.914945 0.004690
0.969704 0.914945 0.002782
0.969704 0.914945 0.001648
0.969704 0.914945 0.000976
0.969704 0.914945 0.000578
0.969704 0.914945 0.000342
0.969704 0.914945 0.000202
0.969704 0.887935 0.899683
0.969704 0.887935 0.899478
0.969704 0.887935 0.899139
0.969704 0.887935 0.898581
0.969704 0.887935 0.897663
0.969704 0.887935 0.896154
0.969704 0.887935 0.893676
0.969704 0.887935 0.889620
0.969704 0.887935 0.883011
0.969704 0.887935 0.872320
0.969704 0.887935 0.855236
0.969704 0.887935 0.828453
0.969704 0.887935 0.787702
0.969704 0.887935 0.728444
0.969704 0.887935 0.647727
0.969704 0.887935 0.547090
0.969704 0.887935 0.434671
0.969704 0.887935 0.323634
0.969704 0.887935 0.226664
0.969704 0.887935 0.150793
0.969704 0.887935 0.096459
0.969704 0.887935 0.060013
0.969704 0.887935 0.036649
0.969704 0.887935 0.022113
0.969704 0.887935 0.013241
0.969704 0.887935 0.007892
0.969704 0.887935 0.004690
0.969704 0.887935 0.002782
0.969704 0.887935 0.001648
0.969704 0.887935 0.000976
0.969704 0.887935 0.000578
0.969704 0.887935 0.000342
0.969704 0.887935 0.000202
0.969704 0.846757 0.899683
0.969704 0.846757 0.899478
0.969704 0.846757 0.899139
0.969704 0.846757 0.898581
0.969704 0.846757 0.897663
0.969704 0.846757 0.896154
0.969704 0.846757 0.893676
0.969704 0.846757 0.889620
0.969704 0.846757 0.883011
0.969704 0.846757 0.872320
0.969704 0.846757 0.855236
0.969704 0.846757 0.828453
0.969704 0.846757 0.787702
0.969704 0.846757 0.728444
0.969704 0.846757 0.647727
0.969704 0.846757 0.547090
0.969704 0.846757 0.434671
0.969704 0.846757 0.323634
0.969704 0.846757 0.226664
0.969704 0.846757 0.150793
0.969704 0.846757 0.096459
0.969704 0.846757 0.060013
0.969704 0.846757 0.036649
0.969704 0.846757 0.022113
0.969704 0.846757 0.013241
0.969704 0.846757 0.007892
0.969704 0.846757 0.004690
0.969704 0.846757 0.002782
0.969704 0.846757 0.001648
0.969704 0.846757 0.000976
0.969704 0.846757 0.000578
0.969704 0.846757 0.000342
0.969704 0.846757 0.000202
0.969704 0.786696 0.899683
0.969704 0.786696 0.899478
0.969704 0.786696 0.899139
0.969704 0.786696 0.898581
0.969704 0.786696 0.897663
0.969704 0.786696 0.896154
0.969704 0.786696 0.893676
0.969704 0.786696 0.889620
0.969704 0.786696 0.883011
0.969704 0.786696 0.872320
0.969704 0.786696 0.855236
0.969704 0.786696 0.828453
0.969704 0.786696 0.787702
0.969704 0.786696 0.728444
0.969704 0.786696 0.647727
0.969704 0.786696 0.547090
0.969704 0.786696 0.434671
0.969704 0.786696 0.323634
0.969704 0.786696 0.226664
0.969704 0.786696 0.150793
0.969704 0.786696 0.096459
0.969704 0.786696 0.060013
0.969704 0.786696 0.036649
0.969704 0.786696 0.022113
0.969704 0.786696 0.013241
0.969704 0.786696 0.007892
0.969704 0.786696 0.004690
0.969704 0.786696 0.002782
0.969704 0.786696 0.001648
0.969704 0.786696 0.000976
0.969704 0.786696 0.000578
0.969704 0.786696 0.000342
0.969704 0.786696 0.000202
0.969704 0.704506 0.899683
0.969704 0.704506 0.899478
0.969704 0.704506 0.899139
0.969704 0.704506 0.898581
0.969704 0.704506 0.897663
0.969704 0.704506 0.896154
0.969704 0.704506 0.893676
0.969704 0.704506 0.889620
0.969704 0.704506 0.883011
0.969704 0.704506 0.872320
0.969704 0.704506 0.855236
0.969704 0.704506 0.828453
0.969704 0.704506 0.787702
0.969704 0.704506 0.728444
0.969704 0.704506 0.647727
0.969704 0.704506 0.547090
0.969704 0.704506 0.434671
0.969704 0.704506 0.323634
0.969704 0.704506 0.226664
0.969704 0.704506 0.150793
0.969704 0.704506 0.096459
0.969704 0.704506 0.060013
0.969704 0.704506 0.036649
0.969704 0.704506 0.022113
0.969704 0.704506 0.013241
0.969704 0.704506 0.007892
0.969704 0.704506 0.004690
0.969704 0.704506 0.002782
0.969704 0.704506 0.001648
0.969704 0.704506 0.000976
0.969704 0.704506 0.000578
0.969704 0.704506 0.000342
0.969704 0.704506 0.000202
0.969704 0.601336 0.899683
0.969704 0.601336 0.899478
0.969704 0.601336 0.899139
0.969704 0.601336 0.898581
0.969704 0.601336 0.897663
0.969704 0.601336 0.896154
0.969704 0.601336 0.893676
0.969704 0.601336 0.889620
0.969704 0.601336 0.883011
0.969704 0.601336 0.872320
0.969704 0.601336 0.855236
0.969704 0.601336 0.828453
0.969704 0.601336 0.787702
0.969704 0.601336 0.728444
0.969704 0.601336 0.647727
0.969704 0.601336 0.547090
0.969704 0.601336 0.434671
0.969704 0.601336 0.323634
0.969704 0.601336 0.226664
0.969704 0.601336 0.150793
0.969704 0.601336 0.096459
0.969704 0.601336 0.060013
0.969704 0.601336 0.036649
0.969704 0.601336 0.022113
0.969704 0.601336 0.013241
0.969704 0.601336 0.007892
0.969704 0.601336 0.004690
0.969704 0.601336 0.002782
0.969704 0.601336 0.001648
0.969704 0.601336 0.000976
0.969704 0.601336 0.000578
0.969704 0.601336 0.000342
0.969704 0.601336 0.000202
0.969704 0.485000 0.899683
0.969704 0.485000 0.899478
0.969704 0.485000 0.899139
0.969704 0.485000 0.898581
0.969704 0.485000 0.897663
0.969704 0.485000 0.896154
0.969704 0.485000 0.893676
0.969704 0.485000 0.889620
0.969704 0.485000 0.883011
0.969704 0.485000 0.872320
0.969704 0.485000 0.855236
0.969704 0.485000 0.828453
0.969704 0.485000 0.787702
0.969704 0.485000 0.728444
0.969704 0.485000 0.647727
0.969704 0.485000 0.547090
0.969704 0.485000 0.434671
0.969704 0.485000 0.323634
0.969704 0.485000 0.226664
0.969704 0.485000 0.150793
0.969704 0.485000 0.096459
0.969704 0.485000 0.060013
0.969704 0.485000 0.036649
0.969704 0.485000 0.022113
0.969704 0.485000 0.013241
0.969704 0.485000 0.007892
0.969704 0.485000 0.004690
0.969704 0.485000 0.002782
0.969704 0.485000 0.001648
0.969704 0.485000 0.000976
0.969704 0.485000 0.000578
0.969704 0.485000 0.000342
0.969704 0.485000 0.000202
0.969704 0.368664 0.899683
0.969704 0.368664 0.899478
0.969704 0.368664 0.899139
0.969704 0.368664 0.898581
0.969704 0.368664 0.897663
0.969704 0.368664 0.896154
0.969704 0.368664 0.893676
0.969704 0.368664 0.889620
0.969704 0.368664 0.883011
0.969704 0.368664 0.872320
0.969704 0.368664 0.855236
0.969704 0.368664 0.828453
0.969704 0.368664 0.787702
0.969704 0.368664 0.728444
0.969704 0.368664 0.647727
0.969704 0.368664 0.547090
0.969704 0.368664 0.434671
0.969704 0.368664 0.323634
0.969704 0.368664 0.226664
0.969704 0.368664 0.150793
0.969704 0.368664 0.096459
0.969704 0.368664 0.060013
0.969704 0.368664 0.036649
0.969704 0.368664 0.022113
0.969704 0.368664 0.013241
0.969704 0.368664 0.007892
0.969704 0.368664 0.004690
0.969704 0.368664 0.002782
0.969704 0.368664 0.001648
0.969704 0.368664 0.000976
0.969704 0.368664 0.000578
0.969704 0.368664 0.000342
0.969704 0.368664 0.000202
0.969704 0.265494 0.899683
0.969704 0.265494 0.899478
0.969704 0.265494 0.899139
0.969704 0.265494 0.898581
0.969704 0.265494 0.897663
0.969704 0.265494 0.896154
0.969704 0.265494 0.893676
0.969704 0.265494 0.889620
0.969704 0.265494 0.883011
0.969704 0.265494 0.872320
0.969704 0.265494 0.855236
0.969704 0.265494 0.828453
0.969704 0.265494 0.787702
0.969704 0.265494 0.728444
0.969704 0.265494 0.647727
0.969704 0.265494 0.547090
0.969704 0.265494 0.434671
0.969704 0.265494 0.323634
0.969704 0.265494 0.226664
0.969704 0.265494 0.150793
0.969704 0.265494 0.096459
0.969704 0.265494 0.060013
0.969704 0.265494 0.036649
0.969704 0.265494 0.022113
0.969704 0.265494 0.013241
0.969704 0.265494 0.007892
0.969704 0.265494 0.004690
0.969704 0.265494 0.002782
0.969704 0.265494 0.001648
0.969704 0.265494 0.000976
0.969704 0.265494 0.000578
0.969704 0.265494 0.000342
0.969704 0.265494 0.000202
0.969704 0.183304 0.899683
0.969704 0.183304 0.899478
0.969704 0.183304 0.899139
0.969704 0.183304 0.898581
0.969704 0.183304 0.897663
0.969704 0.183304 0.896154
0.969704 0.183304 0.893676
0.969704 0.183304 0.889620
0.969704 0.183304 0.883011
0.969704 0.183304 0.872320
0.969704 0.183304 0.855236
0.969704 0.183304 0.828453
0.969704 0.183304 0.787702
0.969704 0.183304 0.728444
0.969704 0.183304 0.647727
0.969704 0.183304 0.547090
0.969704 0.183304 0.434671
0.969704 0.183304 0.323634
0.969704 0.183304 0.226664
0.969704 0.183304 0.150793
0.969704 0.183304 0.096459
0.969704 0.183304 0.060013
0.969704 0.183304 0.036649
0.969704 0.183304 0.022113
0.969704 0.183304 0.013241
0.969704 0.183304 0.007892
0.969704 0.183304 0.004690
0.969704 0.183304 0.002782
0.969704 0.183304 0.001648
0.969704 0.183304 0.000976
0.969704 0.183304 0.000578
0.969704 0.183304 0.000342
0.969704 0.183304 0.000202
0.969704 0.123243 0.899683
0.969704 0.123243 0.899478
0.969704 0.123243 0.899139
0.969704 0.123243 0.898581
0.969704 0.123243 0.897663
0.969704 0.123243 0.896154
0.969704 0.123243 0.893676
0.969704 0.123243 0.889620
0.969704 0.123243 0.883011
0.969704 0.123243 0.872320
0.969704 0.123243 0.855236
0.969704 0.123243 0.828453
0.969704 0.123243 0.787702
0.969704 0.123243 0.728444
0.969704 0.123243 0.647727
0.969704 0.123243 0.547090
0.969704 0.123243 0.434671
0.969704 0.123243 0.323634
0.969704 0.123243 0.226664
0.969704 0.123243 0.150793
0.969704 0.123243 0.096459
0.969704 0.123243 0.060013
0.969704 0.123243 0.036649
0.969704 0.123243 0.022113
0.969704 0.123243 0.013241
0.969704 0.123243 0.007892
0.969704 0.123243 0.004690
0.969704 0.123243 0.002782
0.969704 0.123243 0.001648
0.969704 0.123243 0.000976
0.969704 0.123243 0.000578
0.969704 0.123243 0.000342
0.969704 0.123243 0.000202
0.969704 0.082065 0.899683
0.969704 0.082065 0.899478
0.969704 0.082065 0.899139
0.969704 0.082065 0.898581
0.969704 0.082065 0.897663
0.969704 0.082065 0.896154
0.969704 0.082065 0.893676
0.969704 0.082065 0.889620
0.969704 0.082065 0.883011
0.969704 0.082065 0.872320
0.969704 0.082065 0.855236
0.969704 0.082065 0.828453
0.969704 0.082065 0.787702
0.969704 0.082065 0.728444
0.969704 0.082065 0.647727
0.969704 0.082065 0.547090
0.969704 0.082065 0.434671
0.969704 0.082065 0.323634
0.969704 0.082065 0.226664
0.969704 0.082065 0.150793
0.969704 0.082065 0.096459
0.969704 0.082065 0.060013
0.969704 0.082065 0.036649
0.969704 0.082065 0.022113
0.969704 0.082065 0.013241
0.969704 0.082065 0.007892
0.969704 0.082065 0.004690
0.969704 0.082065 0.002782
0.969704 0.082065 0.001648
0.969704 0.082065 0.000976
0.969704 0.082065 0.000578
0.969704 0.082065 0.000342
0.969704 0.082065 0.000202
0.969704 0.055055 0.899683
0.969704 0.055055 0.899478
0.969704 0.055055 0.899139
0.969704 0.055055 0.898581
0.969704 0.055055 0.897663
0.969704 0.055055 0.896154
0.969704 0.055055 0.893676
0.969704 0.055055 0.889620
0.969704 0.055055 0.883011
0.969704 0.055055 0.872320
0.969704 0.055055 0.855236
0.969704 0.055055 0.828453
0.969704 0.055055 0.787702
0.969704 0.055055 0.728444
0.969704 0.055055 0.647727
0.969704 0.055055 0.547090
0.969704 0.055055 0.434671
0.969704 0.055055 0.323634
0.969704 0.055055 0.226664
0.969704 0.055055 0.150793
0.969704 0.055055 0.096459
0.969704 0.055055 0.060013
0.969704 0.055055 0.036649
0.969704 0.055055 0.022113
0.969704 0.055055 0.013241
0.969704 0.055055 0.007892
0.969704 0.055055 0.004690
0.969704 0.055055 0.002782
0.969704 0.055055 0.001648
0.969704 0.055055 0.000976
0.969704 0.055055 0.000578
0.969704 0.055055 0.000342
0.969704 0.055055 0.000202
0.969704 0.037847 0.899683
0.969704 0.037847 0.899478
0.969704 0.037847 0.899139
0.969704 0.037847 0.898581
0.969704 0.037847 0.897663
0.969704 0.037847 0.896154
0.969704 0.037847 0.893676
0.969704 0.037847 0.889620
0.969704 0.037847 0.883011
0.969704 0.037847 0.872320
0.969704 0.037847 0.855236
0.969704 0.037847 0.828453
0.969704 0.037847 0.787702
0.969704 0.037847 0.728444
0.969704 0.037847 0.647727
0.969704 0.037847 0.547090
0.969704 0.037847 0.434671
0.969704 0.037847 0.323634
0.969704 0.037847 0.226664
0.969704 0.037847 0.150793
0.969704 0.037847 0.096459
0.969704 0.037847 0.060013
0.969704 0.037847 0.036649
0.969704 0.037847 0.022113
0.969704 0.037847 0.013241
0.969704 0.037847 0.007892
0.969704 0.037847 0.004690
0.969704 0.037847 0.002782
0.969704 0.037847 0.001648
0.969704 0.037847 0.000976
0.969704 0.037847 0.000578
0.969704 0.037847 0.000342
0.969704 0.037847 0.000202
0.969704 0.027087 0.899683
0.969704 0.027087 0.899478
0.969704 0.027087 0.899139
0.969704 0.027087 0.898581
0.969704 0.027087 0.897663
0.969704 0.027087 0.896154
0.969704 0.027087 0.893676
0.969704 0.027087 0.889620
0.969704 0.027087 0.883011
0.969704 0.027087 0.872320
0.969704 0.027087 0.855236
0.969704 0.027087 0.828453
0.969704 0.027087 0.787702
0.969704 0.027087 0.728444
0.969704 0.027087 0.647727
0.969704 0.027087 0.547090
0.969704 0.027087 0.434671
0.969704 0.027087 0.323634
0.969704 0.027087 0.226664
0.969704 0.027087 0.150793
0.969704 0.027087 0.096459
0.969704 0.027087 0.060013
0.969704 0.027087 0.036649
0.969704 0.027087 0.022113
0.969704 0.027087 0.013241
0.969704 0.027087 0.007892
0.969704 0.027087 0.004690
0.969704 0.027087 0.002782
0.969704 0.027087 0.001648
0.969704 0.027087 0.000976
0.969704 0.027087 0.000578
0.969704 0.027087 0.000342
0.969704 0.027087 0.000202
0.969704 0.020438 0.899683
0.969704 0.020438 0.899478
0.969704 0.020438 0.899139
0.969704 0.020438 0.898581
0.969704 0.020438 0.897663
0.969704 0.020438 0.896154
0.969704 0.020438 0.893676
0.969704 0.020438 0.889620
0.969704 0.020438 0.883011
0.969704 0.020438 0.872320
0.969704 0.020438 0.855236
0.969704 0.020438 0.828453
0.969704 0.020438 0.787702
0.969704 0.020438 0.728444
0.969704 0.020438 0.647727
0.969704 0.020438 0.547090
0.969704 0.020438 0.434671
0.969704 0.020438 0.323634
0.969704 0.020438 0.226664
0.969704 0.020438 0.150793
0.969704 0.020438 0.096459
0.969704 0.020438 0.060013
0.969704 0.020438 0.036649
0.969704 0.020438 0.022113
0.969704 0.020438 0.013241
0.969704 0.020438 0.007892
0.969704 0.020438 0.004690
0.969704 0.020438 0.002782
0.969704 0.020438 0.001648
0.969704 0.020438 0.000976
0.969704 0.020438 0.000578
0.969704 0.020438 0.000342
0.969704 0.020438 0.000202
0.969704 0.016358 0.899683
0.969704 0.016358 0.899478
0.969704 0.016358 0.899139
0.969704 0.016358 0.898581
0.969704 0.016358 0.897663
0.969704 0.016358 0.896154
0.969704 0.016358 0.893676
0.969704 0.016358 0.889620
0.969704 0.016358 0.883011
0.969704 0.016358 0.872320
0.969704 0.016358 0.855236
0.969704 0.016358 0.828453
0.969704 0.016358 0.787702
0.969704 0.016358 0.728444
0.969704 0.016358 0.647727
0.969704 0.016358 0.547090
0.969704 0.016358 0.434671
0.969704 0.016358 0.323634
0.969704 0.016358 0.226664
0.969704 0.016358 0.150793
0.969704 0.016358 0.096459
0.969704 0.016358 0.060013
0.969704 0.016358 0.036649
0.969704 0.016358 0.022113
0.969704 0.016358 0.013241
0.969704 0.016358 0.007892
0.969704 0.016358 0.004690
