negative/high contrast.cube
#Created by: LUT Generator
#Copyright: (C) Copyright 2026
TITLE "负片-高对比戏剧"
LUT_3D_SIZE 9
0.969704 0.959681 0.899683
0.969704 0.959681 0.897663
0.969704 0.959681 0.883011
0.969704 0.959681 0.787702
0.969704 0.959681 0.434671
0.969704 0.959681 0.096459
0.969704 0.959681 0.013241
0.969704 0.959681 0.001648
0.969704 0.959681 0.000202
0.969704 0.957651 0.899683
0.969704 0.957651 0.897663
0.969704 0.957651 0.883011
0.969704 0.957651 0.787702
0.969704 0.957651 0.434671
0.969704 0.957651 0.096459
0.969704 0.957651 0.013241
0.969704 0.957651 0.001648
0.969704 0.957651 0.000202
0.969704 0.942913 0.899683
0.969704 0.942913 0.897663
0.969704 0.942913 0.883011
0.969704 0.942913 0.787702
0.969704 0.942913 0.434671
0.969704 0.942913 0.096459
0.969704 0.942913 0.013241
0.969704 0.942913 0.001648
0.969704 0.942913 0.000202
0.969704 0.846757 0.899683
0.969704 0.846757 0.897663
0.969704 0.846757 0.883011
0.969704 0.846757 0.787702
0.969704 0.846757 0.434671
0.969704 0.846757 0.096459
0.969704 0.846757 0.013241
0.969704 0.846757 0.001648
0.969704 0.846757 0.000202
0.969704 0.485000 0.899683
0.969704 0.485000 0.897663
0.969704 0.485000 0.883011
0.969704 0.485000 0.787702
0.969704 0.485000 0.434671
0.969704 0.485000 0.096459
0.969704 0.485000 0.013241
0.969704 0.485000 0.001648
0.969704 0.485000 0.000202
0.969704 0.123243 0.899683
0.969704 0.123243 0.897663
0.969704 0.123243 0.883011
0.969704 0.123243 0.787702
0.969704 0.123243 0.434671
0.969704 0.123243 0.096459
0.969704 0.123243 0.013241
0.969704 0.123243 0.001648
0.969704 0.123243 0.000202
0.969704 0.027087 0.899683
0.969704 0.027087 0.897663
0.969704 0.027087 0.883011
0.969704 0.027087 0.787702
0.969704 0.027087 0.434671
0.969704 0.027087 0.096459
0.969704 0.027087 0.013241
0.969704 0.027087 0.001648
0.969704 0.027087 0.000202
0.969704 0.012349 0.899683
0.969704 0.012349 0.897663
0.969704 0.012349 0.883011
0.969704 0.012349 0.787702
0.969704 0.012349 0.434671
0.969704 0.012349 0.096459
0.969704 0.012349 0.013241
0.969704 0.012349 0.001648
0.969704 0.012349 0.000202
0.969704 0.010319 0.899683
0.969704 0.010319 0.897663
0.969704 0.010319 0.883011
0.969704 0.010319 0.787702
0.969704 0.010319 0.434671
0.969704 0.010319 0.096459
0.969704 0.010319 0.013241
0.969704 0.010319 0.001648
0.969704 0.010319 0.000202
0.967815 0.959681 0.899683
0.967815 0.959681 0.897663
0.967815 0.959681 0.883011
0.967815 0.959681 0.787702
0.967815 0.959681 0.434671
0.967815 0.959681 0.096459
0.967815 0.959681 0.013241
0.967815 0.959681 0.001648
0.967815 0.959681 0.000202
0.967815 0.957651 0.899683
0.967815 0.957651 0.897663
0.967815 0.957651 0.883011
0.967815 0.957651 0.787702
0.967815 0.957651 0.434671
0.967815 0.957651 0.096459
0.967815 0.957651 0.013241
0.967815 0.957651 0.001648
0.967815 0.957651 0.000202
0.967815 0.942913 0.899683
0.967815 0.942913 0.897663
0.967815 0.942913 0.883011
0.967815 0.942913 0.787702
0.967815 0.942913 0.434671
0.967815 0.942913 0.096459
0.967815 0.942913 0.013241
0.967815 0.942913 0.001648
0.967815 0.942913 0.000202
0.967815 0.846757 0.899683
0.967815 0.846757 0.897663
0.967815 0.846757 0.883011
0.967815 0.846757 0.787702
0.967815 0.846757 0.434671
0.967815 0.846757 0.096459
0.967815 0.846757 0.013241
0.967815 0.846757 0.001648
0.967815 0.846757 0.000202
0.967815 0.485000 0.899683
0.967815 0.485000 0.897663
0.967815 0.485000 0.883011
0.967815 0.485000 0.787702
0.967815 0.485000 0.434671
0.967815 0.485000 0.096459
0.967815 0.485000 0.013241
0.967815 0.485000 0.001648
0.967815 0.485000 0.000202
0.967815 0.123243 0.899683
0.967815 0.123243 0.897663
0.967815 0.123243 0.883011
0.967815 0.123243 0.787702
0.967815 0.123243 0.434671
0.967815 0.123243 0.096459
0.967815 0.123243 0.013241
0.967815 0.123243 0.001648
0.967815 0.123243 0.000202
0.967815 0.027087 0.899683
0.967815 0.027087 0.897663
0.967815 0.027087 0.883011
0.967815 0.027087 0.787702
0.967815 0.027087 0.434671
0.967815 0.027087 0.096459
0.967815 0.027087 0.013241
0.967815 0.027087 0.001648
0.967815 0.027087 0.000202
0.967815 0.012349 0.899683
0.967815 0.012349 0.897663
0.967815 0.012349 0.883011
0.967815 0.012349 0.787702
0.967815 0.012349 0.434671
0.967815 0.012349 0.096459
0.967815 0.012349 0.013241
0.967815 0.012349 0.001648
0.967815 0.012349 0.000202
0.967815 0.010319 0.899683
0.967815 0.010319 0.897663
0.967815 0.010319 0.883011
0.967815 0.010319 0.787702
0.967815 0.010319 0.434671
0.967815 0.010319 0.096459
0.967815 0.010319 0.013241
0.967815 0.010319 0.001648
0.967815 0.010319 0.000202
0.954099 0.959681 0.899683
0.954099 0.959681 0.897663
0.954099 0.959681 0.883011
0.954099 0.959681 0.787702
0.954099 0.959681 0.434671
0.954099 0.959681 0.096459
0.954099 0.959681 0.013241
0.954099 0.959681 0.001648
0.954099 0.959681 0.000202
0.954099 0.957651 0.899683
0.954099 0.957651 0.897663
0.954099 0.957651 0.883011
0.954099 0.957651 0.787702
0.954099 0.957651 0.434671
0.954099 0.957651 0.096459
0.954099 0.957651 0.013241
0.954099 0.957651 0.001648
0.954099 0.957651 0.000202
0.954099 0.942913 0.899683
0.954099 0.942913 0.897663
0.954099 0.942913 0.883011
0.954099 0.942913 0.787702
0.954099 0.942913 0.434671
0.954099 0.942913 0.096459
0.954099 0.942913 0.013241
0.954099 0.942913 0.001648
0.954099 0.942913 0.000202
0.954099 0.846757 0.899683
0.954099 0.846757 0.897663
0.954099 0.846757 0.883011
0.954099 0.846757 0.787702
0.954099 0.846757 0.434671
0.954099 0.846757 0.096459
0.954099 0.846757 0.013241
0.954099 0.846757 0.001648
0.954099 0.846757 0.000202
0.954099 0.485000 0.899683
0.954099 0.485000 0.897663
0.954099 0.485000 0.883011
0.954099 0.485000 0.787702
0.954099 0.485000 0.434671
0.954099 0.485000 0.096459
0.954099 0.485000 0.013241
0.954099 0.485000 0.001648
0.954099 0.485000 0.000202
0.954099 0.123243 0.899683
0.954099 0.123243 0.897663
0.954099 0.123243 0.883011
0.954099 0.123243 0.787702
0.954099 0.123243 0.434671
0.954099 0.123243 0.096459
0.954099 0.123243 0.013241
0.954099 0.123243 0.001648
0.954099 0.123243 0.000202
0.954099 0.027087 0.899683
0.954099 0.027087 0.897663
0.954099 0.027087 0.883011
0.954099 0.027087 0.787702
0.954099 0.027087 0.434671
0.954099 0.027087 0.096459
0.954099 0.027087 0.013241
0.954099 0.027087 0.001648
0.954099 0.027087 0.000202
0.954099 0.012349 0.899683
0.954099 0.012349 0.897663
0.954099 0.012349 0.883011
0.954099 0.012349 0.787702
0.954099 0.012349 0.434671
0.954099 0.012349 0.096459
0.954099 0.012349 0.013241
0.954099 0.012349 0.001648
0.954099 0.012349 0.000202
0.954099 0.010319 0.899683
0.954099 0.010319 0.897663
0.954099 0.010319 0.883011
0.954099 0.010319 0.787702
0.954099 0.010319 0.434671
0.954099 0.010319 0.096459
0.954099 0.010319 0.013241
0.954099 0.010319 0.001648
0.954099 0.010319 0.000202
0.864225 0.959681 0.899683
0.864225 0.959681 0.897663
0.864225 0.959681 0.883011
0.864225 0.959681 0.787702
0.864225 0.959681 0.434671
0.864225 0.959681 0.096459
0.864225 0.959681 0.013241
0.864225 0.959681 0.001648
0.864225 0.959681 0.000202
0.864225 0.957651 0.899683
0.864225 0.957651 0.897663
0.864225 0.957651 0.883011
0.864225 0.957651 0.787702
0.864225 0.957651 0.434671
0.864225 0.957651 0.096459
0.864225 0.957651 0.013241
0.864225 0.957651 0.001648
0.864225 0.957651 0.000202
0.864225 0.942913 0.899683
0.864225 0.942913 0.897663
0.864225 0.942913 0.883011
0.864225 0.942913 0.787702
0.864225 0.942913 0.434671
0.864225 0.942913 0.096459
0.864225 0.942913 0.013241
0.864225 0.942913 0.001648
0.864225 0.942913 0.000202
0.864225 0.846757 0.899683
0.864225 0.846757 0.897663
0.864225 0.846757 0.883011
0.864225 0.846757 0.787702
0.864225 0.846757 0.434671
0.864225 0.846757 0.096459
0.864225 0.846757 0.013241
0.864225 0.846757 0.001648
0.864225 0.846757 0.000202
0.864225 0.485000 0.899683
0.864225 0.485000 0.897663
0.864225 0.485000 0.883011
0.864225 0.485000 0.787702
0.864225 0.485000 0.434671
0.864225 0.485000 0.096459
0.864225 0.485000 0.013241
0.864225 0.485000 0.001648
0.864225 0.485000 0.000202
0.864225 0.123243 0.899683
0.864225 0.123243 0.897663
0.864225 0.123243 0.883011
0.864225 0.123243 0.787702
0.864225 0.123243 0.434671
0.864225 0.123243 0.096459
0.864225 0.123243 0.013241
0.864225 0.123243 0.001648
0.864225 0.123243 0.000202
0.864225 0.027087 0.899683
0.864225 0.027087 0.897663
0.864225 0.027087 0.883011
0.864225 0.027087 0.787702
0.864225 0.027087 0.434671
0.864225 0.027087 0.096459
0.864225 0.027087 0.013241
0.864225 0.027087 0.001648
0.864225 0.027087 0.000202
0.864225 0.012349 0.899683
0.864225 0.012349 0.897663
0.864225 0.012349 0.883011
0.864225 0.012349 0.787702
0.864225 0.012349 0.434671
0.864225 0.012349 0.096459
0.864225 0.012349 0.013241
0.864225 0.012349 0.001648
0.864225 0.012349 0.000202
0.864225 0.010319 0.899683
0.864225 0.010319 0.897663
0.864225 0.010319 0.883011
0.864225 0.010319 0.787702
0.864225 0.010319 0.434671
0.864225 0.010319 0.096459
0.864225 0.010319 0.013241
0.864225 0.010319 0.001648
0.864225 0.010319 0.000202
0.518615 0.959681 0.899683
0.518615 0.959681 0.897663
0.518615 0.959681 0.883011
0.518615 0.959681 0.787702
0.518615 0.959681 0.434671
0.518615 0.959681 0.096459
0.518615 0.959681 0.013241
0.518615 0.959681 0.001648
0.518615 0.959681 0.000202
0.518615 0.957651 0.899683
0.518615 0.957651 0.897663
0.518615 0.957651 0.883011
0.518615 0.957651 0.787702
0.518615 0.957651 0.434671
0.518615 0.957651 0.096459
0.518615 0.957651 0.013241
0.518615 0.957651 0.001648
0.518615 0.957651 0.000202
0.518615 0.942913 0.899683
0.518615 0.942913 0.897663
0.518615 0.942913 0.883011
0.518615 0.942913 0.787702
0.518615 0.942913 0.434671
0.518615 0.942913 0.096459
0.518615 0.942913 0.013241
0.518615 0.942913 0.001648
0.518615 0.942913 0.000202
0.518615 0.846757 0.899683
0.518615 0.846757 0.897663
0.518615 0.846757 0.883011
0.518615 0.846757 0.787702
0.518615 0.846757 0.434671
0.518615 0.846757 0.096459
0.518615 0.846757 0.013241
0.518615 0.846757 0.001648
0.518615 0.846757 0.000202
0.518615 0.485000 0.899683
0.518615 0.485000 0.897663
0.518615 0.485000 0.883011
0.518615 0.485000 0.787702
0.518615 0.485000 0.434671
0.518615 0.485000 0.096459
0.518615 0.485000 0.013241
0.518615 0.485000 0.001648
0.518615 0.485000 0.000202
0.518615 0.123243 0.899683
0.518615 0.123243 0.897663
0.518615 0.123243 0.883011
0.518615 0.123243 0.787702
0.518615 0.123243 0.434671
0.518615 0.123243 0.096459
0.518615 0.123243 0.013241
0.518615 0.123243 0.001648
0.518615 0.123243 0.000202
0.518615 0.027087 0.899683
0.518615 0.027087 0.897663
0.518615 0.027087 0.883011
0.518615 0.027087 0.787702
0.518615 0.027087 0.434671
0.518615 0.027087 0.096459
0.518615 0.027087 0.013241
0.518615 0.027087 0.001648
0.518615 0.027087 0.000202
0.518615 0.012349 0.899683
0.518615 0.012349 0.897663
0.518615 0.012349 0.883011
0.518615 0.012349 0.787702
0.518615 0.012349 0.434671
0.518615 0.012349 0.096459
0.518615 0.012349 0.013241
0.518615 0.012349 0.001648
0.518615 0.012349 0.000202
0.518615 0.010319 0.899683
0.518615 0.010319 0.897663
0.518615 0.010319 0.883011
0.518615 0.010319 0.787702
0.518615 0.010319 0.434671
0.518615 0.010319 0.096459
0.518615 0.010319 0.013241
0.518615 0.010319 0.001648
0.518615 0.010319 0.000202
0.151423 0.959681 0.899683
0.151423 0.959681 0.897663
0.151423 0.959681 0.883011
0.151423 0.959681 0.787702
0.151423 0.959681 0.434671
0.151423 0.959681 0.096459
0.151423 0.959681 0.013241
0.151423 0.959681 0.001648
0.151423 0.959681 0.000202
0.151423 0.957651 0.899683
0.151423 0.957651 0.897663
0.151423 0.957651 0.883011
0.151423 0.957651 0.787702
0.151423 0.957651 0.434671
0.151423 0.957651 0.096459
0.151423 0.957651 0.013241
0.151423 0.957651 0.001648
0.151423 0.957651 0.000202
0.151423 0.942913 0.899683
0.151423 0.942913 0.897663
0.151423 0.942913 0.883011
0.151423 0.942913 0.787702
0.151423 0.942913 0.434671
0.151423 0.942913 0.096459
0.151423 0.942913 0.013241
0.151423 0.942913 0.001648
0.151423 0.942913 0.000202
0.151423 0.846757 0.899683
0.151423 0.846757 0.897663
0.151423 0.846757 0.883011
0.151423 0.846757 0.787702
0.151423 0.846757 0.434671
0.151423 0.846757 0.096459
0.151423 0.846757 0.013241
0.151423 0.846757 0.001648
0.151423 0.846757 0.000202
0.151423 0.485000 0.899683
0.151423 0.485000 0.897663
0.151423 0.485000 0.883011
0.151423 0.485000 0.787702
0.151423 0.485000 0.434671
0.151423 0.485000 0.096459
0.151423 0.485000 0.013241
0.151423 0.485000 0.001648
0.151423 0.485000 0.000202
0.151423 0.123243 0.899683
0.151423 0.123243 0.897663
0.151423 0.123243 0.883011
0.151423 0.123243 0.787702
0.151423 0.123243 0.434671
0.151423 0.123243 0.096459
0.151423 0.123243 0.013241
0.151423 0.123243 0.001648
0.151423 0.123243 0.000202
0.151423 0.027087 0.899683
0.151423 0.027087 0.897663
0.151423 0.027087 0.883011
0.151423 0.027087 0.787702
0.151423 0.027087 0.434671
0.151423 0.027087 0.096459
0.151423 0.027087 0.013241
0.151423 0.027087 0.001648
0.151423 0.027087 0.000202
0.151423 0.012349 0.899683
0.151423 0.012349 0.897663
0.151423 0.012349 0.883011
0.151423 0.012349 0.787702
0.151423 0.012349 0.434671
0.151423 0.012349 0.096459
0.151423 0.012349 0.013241
0.151423 0.012349 0.001648
0.151423 0.012349 0.000202
0.151423 0.010319 0.899683
0.151423 0.010319 0.897663
0.151423 0.010319 0.883011
0.151423 0.010319 0.787702
0.151423 0.010319 0.434671
0.151423 0.010319 0.096459
0.151423 0.010319 0.013241
0.151423 0.010319 0.001648
0.151423 0.010319 0.000202
0.042637 0.959681 0.899683
0.042637 0.959681 0.897663
0.042637 0.959681 0.883011
0.042637 0.959681 0.787702
0.042637 0.959681 0.434671
0.042637 0.959681 0.096459
0.042637 0.959681 0.013241
0.042637 0.959681 0.001648
0.042637 0.959681 0.000202
0.042637 0.957651 0.899683
0.042637 0.957651 0.897663
0.042637 0.957651 0.883011
0.042637 0.957651 0.787702
0.042637 0.957651 0.434671
0.042637 0.957651 0.096459
0.042637 0.957651 0.013241
0.042637 0.957651 0.001648
0.042637 0.957651 0.000202
0.042637 0.942913 0.899683
0.042637 0.942913 0.897663
0.042637 0.942913 0.883011
0.042637 0.942913 0.787702
0.042637 0.942913 0.434671
0.042637 0.942913 0.096459
0.042637 0.942913 0.013241
0.042637 0.942913 0.001648
0.042637 0.942913 0.000202
0.042637 0.846757 0.899683
0.042637 0.846757 0.897663
0.042637 0.846757 0.883011
0.042637 0.846757 0.787702
0.042637 0.846757 0.434671
0.042637 0.846757 0.096459
0.042637 0.846757 0.013241
0.042637 0.846757 0.001648
0.042637 0.846757 0.000202
0.042637 0.485000 0.899683
0.042637 0.485000 0.897663
0.042637 0.485000 0.883011
0.042637 0.485000 0.787702
0.042637 0.485000 0.434671
0.042637 0.485000 0.096459
0.042637 0.485000 0.013241
0.042637 0.485000 0.001648
0.042637 0.485000 0.000202
0.042637 0.123243 0.899683
0.042637 0.123243 0.897663
0.042637 0.123243 0.883011
0.042637 0.123243 0.787702
0.042637 0.123243 0.434671
0.042637 0.123243 0.096459
0.042637 0.123243 0.013241
0.042637 0.123243 0.001648
0.042637 0.123243 0.000202
0.042637 0.027087 0.899683
0.042637 0.027087 0.897663
0.042637 0.027087 0.883011
0.042637 0.027087 0.787702
0.042637 0.027087 0.434671
0.042637 0.027087 0.096459
0.042637 0.027087 0.013241
0.042637 0.027087 0.001648
0.042637 0.027087 0.000202
0.042637 0.012349 0.899683
0.042637 0.012349 0.897663
0.042637 0.012349 0.883011
0.042637 0.012349 0.787702
0.042637 0.012349 0.434671
0.042637 0.012349 0.096459
0.042637 0.012349 0.013241
0.042637 0.012349 0.001648
0.042637 0.012349 0.000202
0.042637 0.010319 0.899683
0.042637 0.010319 0.897663
0.042637 0.010319 0.883011
0.042637 0.010319 0.787702
0.042637 0.010319 0.434671
0.042637 0.010319 0.096459
0.042637 0.010319 0.013241
0.042637 0.010319 0.001648
0.042637 0.010319 0.000202
0.023576 0.959681 0.899683
0.023576 0.959681 0.897663
0.023576 0.959681 0.883011
0.023576 0.959681 0.787702
0.023576 0.959681 0.434671
0.023576 0.959681 0.096459
0.023576 0.959681 0.013241
0.023576 0.959681 0.001648
0.023576 0.959681 0.000202
0.023576 0.957651 0.899683
0.023576 0.957651 0.897663
0.023576 0.957651 0.883011
0.023576 0.957651 0.787702
0.023576 0.957651 0.434671
0.023576 0.957651 0.096459
0.023576 0.957651 0.013241
0.023576 0.957651 0.001648
0.023576 0.957651 0.000202
0.023576 0.942913 0.899683
0.023576 0.942913 0.897663
0.023576 0.942913 0.883011
0.023576 0.942913 0.787702
0.023576 0.942913 0.434671
0.023576 0.942913 0.096459
0.023576 0.942913 0.013241
0.023576 0.942913 0.001648
0.023576 0.942913 0.000202
0.023576 0.846757 0.899683
0.023576 0.846757 0.897663
0.023576 0.846757 0.883011
0.023576 0.846757 0.787702
0.023576 0.846757 0.434671
0.023576 0.846757 0.096459
0.023576 0.846757 0.013241
0.023576 0.846757 0.001648
0.023576 0.846757 0.000202
0.023576 0.485000 0.899683
0.023576 0.485000 0.897663
0.023576 0.485000 0.883011
0.023576 0.485000 0.787702
0.023576 0.485000 0.434671
0.023576 0.485000 0.096459
0.023576 0.485000 0.013241
0.023576 0.485000 0.001648
0.023576 0.485000 0.000202
0.023576 0.123243 0.899683
0.023576 0.123243 0.897663
0.023576 0.123243 0.883011
0.023576 0.123243 0.787702
0.023576 0.123243 0.434671
0.023576 0.123243 0.096459
0.023576 0.123243 0.013241
0.023576 0.123243 0.001648
0.023576 0.123243 0.000202
0.023576 0.027087 0.899683
0.023576 0.027087 0.897663
0.023576 0.027087 0.883011
0.023576 0.027087 0.787702
0.023576 0.027087 0.434671
0.023576 0.027087 0.096459
0.023576 0.027087 0.013241
0.023576 0.027087 0.001648
0.023576 0.027087 0.000202
0.023576 0.012349 0.899683
0.023576 0.012349 0.897663
0.023576 0.012349 0.883011
0.023576 0.012349 0.787702
0.023576 0.012349 0.434671
0.023576 0.012349 0.096459
0.023576 0.012349 0.013241
0.023576 0.012349 0.001648
0.023576 0.012349 0.000202
0.023576 0.010319 0.899683
0.023576 0.010319 0.897663
0.023576 0.010319 0.883011
0.023576 0.010319 0.787702
0.023576 0.010319 0.434671
0.023576 0.010319 0.096459
0.023576 0.010319 0.013241
0.023576 0.010319 0.001648
0.023576 0.010319 0.000202
0.020558 0.959681 0.899683
0.020558 0.959681 0.897663
0.020558 0.959681 0.883011
0.020558 0.959681 0.787702
0.020558 0.959681 0.434671
0.020558 0.959681 0.096459
0.020558 0.959681 0.013241
0.020558 0.959681 0.001648
0.020558 0.959681 0.000202
0.020558 0.957651 0.899683
0.020558 0.957651 0.897663
0.020558 0.957651 0.883011
0.020558 0.957651 0.787702
0.020558 0.957651 0.434671
0.020558 0.957651 0.096459
0.020558 0.957651 0.013241
0.020558 0.957651 0.001648
0.020558 0.957651 0.000202
0.020558 0.942913 0.899683
0.020558 0.942913 0.897663
0.020558 0.942913 0.883011
0.020558 0.942913 0.787702
0.020558 0.942913 0.434671
0.020558 0.942913 0.096459
0.020558 0.942913 0.013241
0.020558 0.942913 0.001648
0.020558 0.942913 0.000202
0.020558 0.846757 0.899683
0.020558 0.846757 0.897663
0.020558 0.846757 0.883011
0.020558 0.846757 0.787702
0.020558 0.846757 0.434671
0.020558 0.846757 0.096459
0.020558 0.846757 0.013241
0.020558 0.846757 0.001648
0.020558 0.846757 0.000202
0.020558 0.485000 0.899683
0.020558 0.485000 0.897663
0.020558 0.485000 0.883011
0.020558 0.485000 0.787702
0.020558 0.485000 0.434671
0.020558 0.485000 0.096459
0.020558 0.485000 0.013241
0.020558 0.485000 0.001648
0.020558 0.485000 0.000202
0.020558 0.123243 0.899683
0.020558 0.123243 0.897663
0.020558 0.123243 0.883011
0.020558 0.123243 0.787702
0.020558 0.123243 0.434671
0.020558 0.123243 0.096459
0.020558 0.123243 0.013241
0.020558 0.123243 0.001648
0.020558 0.123243 0.000202
0.020558 0.027087 0.899683
0.020558 0.027087 0.897663
0.020558 0.027087 0.883011
0.020558 0.027087 0.787702
0.020558 0.027087 0.434671
0.020558 0.027087 0.096459
0.020558 0.027087 0.013241
0.020558 0.027087 0.001648
0.020558 0.027087 0.000202
0.020558 0.012349 0.899683
0.020558 0.012349 0.897663
0.020558 0.012349 0.883011
0.020558 0.012349 0.787702
0.020558 0.012349 0.434671
0.020558 0.012349 0.096459
0.020558 0.012349 0.013241
0.020558 0.012349 0.001648
0.020558 0.012349 0.000202
0.020558 0.010319 0.899683
0.020558 0.010319 0.897663
0.020558 0.010319 0.883011
0.020558 0.010319 0.787702
0.020558 0.010319 0.434671
0.020558 0.010319 0.096459
0.020558 0.010319 0.013241
0.020558 0.010319 0.001648
0.020558 0.010319 0.000202
