retro/复古棕.cube
#Created by: Adobe Photoshop Export Color Lookup Plugin
#Copyright: (C) Copyright 2026 汉图
TITLE "Ricotta调色优化.psd"
#LUT size
LUT_3D_SIZE 34
#data domain
DOMAIN_MIN 0.0 0.0 0.0
DOMAIN_MAX 1.0 1.0 1.0
#LUT data points
0.148193 0.148193 0.148193
0.148193 0.148193 0.148193
0.148193 0.148193 0.148193
0.151642 0.148193 0.148193
0.168823 0.148193 0.148193
0.187012 0.148193 0.148193
0.205994 0.148193 0.148193
0.226318 0.148193 0.148193
0.248566 0.148193 0.148193
0.273193 0.148193 0.148193
0.300903 0.148193 0.148193
0.332642 0.148193 0.148193
0.369019 0.148193 0.148193
0.409729 0.148193 0.148193
0.454376 0.148193 0.148193
0.501984 0.148193 0.148193
0.551727 0.148193 0.148193
0.603241 0.148193 0.148193
0.652008 0.148193 0.148193
0.698151 0.148193 0.148193
0.740997 0.148193 0.148193
0.780060 0.148193 0.148193
0.814911 0.148193 0.148193
0.849579 0.148193 0.148193
0.882477 0.148193 0.148193
0.911957 0.148193 0.148193
0.938629 0.148193 0.148193
0.963287 0.148193 0.148193
0.985657 0.148193 0.148193
1.000000 0.148193 0.148193
1.000000 0.148193 0.148193
1.000000 0.148193 0.148193
1.000000 0.148193 0.148193
1.000000 0.148193 0.148193
0.148193 0.149445 0.148193
0.148193 0.149567 0.148193
0.148193 0.150574 0.148193
0.150909 0.150421 0.148193
0.167603 0.151093 0.148193
0.185272 0.151550 0.148193
0.203674 0.152039 0.148193
0.223511 0.151947 0.148193
0.245300 0.151306 0.148193
0.269440 0.149902 0.148193
0.296631 0.148193 0.148193
0.327881 0.148193 0.148193
0.363770 0.148193 0.148193
0.404144 0.148193 0.148193
0.448059 0.148193 0.148193
0.495148 0.148193 0.148193
0.545013 0.148193 0.148193
0.596497 0.148193 0.148193
0.645996 0.148193 0.148193
0.692505 0.148193 0.148193
0.735657 0.148193 0.148193
0.775116 0.148193 0.148193
0.810822 0.148193 0.148193
0.845764 0.148193 0.148193
0.878235 0.148193 0.148193
0.907318 0.148193 0.148193
0.933807 0.148193 0.148193
0.958466 0.148193 0.148193
0.981964 0.148193 0.148193
0.999054 0.148193 0.148193
1.000000 0.148193 0.148193
1.000000 0.148193 0.148193
1.000000 0.148193 0.148193
1.000000 0.148193 0.148193
0.148193 0.156860 0.148193
0.148193 0.157166 0.148193
0.148193 0.157288 0.148193
0.150909 0.160522 0.148193
0.166656 0.161041 0.148193
0.183228 0.161224 0.148193
0.201416 0.162201 0.148193
0.220886 0.162964 0.148193
0.242340 0.162994 0.148193
0.266235 0.162537 0.148193
0.293182 0.161438 0.148193
0.324005 0.159790 0.148193
0.359375 0.157684 0.148193
0.399323 0.154724 0.148193
0.443207 0.150818 0.148193
0.489960 0.148193 0.148193
0.539612 0.148193 0.148193
0.590942 0.148193 0.148193
0.640747 0.148193 0.148193
0.687500 0.148193 0.148193
0.731171 0.148193 0.148193
0.771118 0.148193 0.148193
0.808136 0.148193 0.148193
0.843109 0.148193 0.148193
0.875366 0.148193 0.148193
0.904144 0.148193 0.148193
0.930481 0.148193 0.148193
0.955139 0.148193 0.148193
0.978729 0.148193 0.148193
0.996857 0.148193 0.148193
1.000000 0.148193 0.148193
1.000000 0.148193 0.148193
1.000000 0.148193 0.148193
1.000000 0.148193 0.148193
0.148193 0.170105 0.148193
0.148193 0.170532 0.148193
0.148193 0.170776 0.148193
0.148193 0.170868 0.148193
0.165466 0.174835 0.148193
0.182831 0.175354 0.148193
0.199799 0.174316 0.148193
0.218414 0.174133 0.148193
0.239380 0.174438 0.148193
0.262909 0.174591 0.148193
0.289429 0.174316 0.148193
0.319855 0.173553 0.148193
0.354889 0.172455 0.148193
0.394226 0.170868 0.148193
0.437378 0.168854 0.148193
0.483887 0.166077 0.148193
0.532898 0.162811 0.148193
0.584045 0.158295 0.148193
0.633789 0.153656 0.148193
0.680573 0.148193 0.148193
0.724396 0.148193 0.148193
0.764832 0.148193 0.148193
0.803314 0.148193 0.148193
0.838470 0.148193 0.148193
0.870514 0.148193 0.148193
0.899628 0.148193 0.148193
0.926422 0.148193 0.148193
0.951599 0.148193 0.148193
0.975708 0.148193 0.148193
0.994904 0.148193 0.148193
1.000000 0.148193 0.148193
1.000000 0.148193 0.148193
1.000000 0.148193 0.148193
1.000000 0.148193 0.148193
0.148193 0.185486 0.148193
0.148193 0.185883 0.148193
0.148193 0.185944 0.148193
0.148193 0.185883 0.148193
0.158447 0.185944 0.148193
0.179077 0.189484 0.148193
0.199036 0.190491 0.148193
0.217133 0.188965 0.148193
0.236237 0.187073 0.148193
0.258484 0.186554 0.148193
0.284363 0.186707 0.148193
0.314148 0.186707 0.148193
0.348480 0.186401 0.148193
0.387207 0.185791 0.148193
0.429871 0.184937 0.148193
0.476227 0.183472 0.148193
0.525299 0.181793 0.148193
0.576447 0.179626 0.148193
0.626770 0.176514 0.148193
0.674072 0.173126 0.148193
0.718384 0.168884 0.148193
0.759857 0.164154 0.148193
0.798950 0.159424 0.148193
0.834473 0.155548 0.148193
0.866547 0.151764 0.148193
0.895721 0.148193 0.148193
0.922882 0.148193 0.148193
0.948395 0.148193 0.148193
0.972778 0.148193 0.148193
0.992859 0.148193 0.148193
1.000000 0.148193 0.148193
1.000000 0.148193 0.148193
1.000000 0.148193 0.148193
1.000000 0.148193 0.148193
0.148193 0.201904 0.148193
0.148193 0.202271 0.148193
0.148193 0.202423 0.148193
0.148193 0.202271 0.148193
0.151642 0.202118 0.148193
0.172607 0.201782 0.148193
0.193176 0.204681 0.148193
0.216461 0.206970 0.148193
0.236481 0.205231 0.148193
0.257141 0.202393 0.148193
0.280792 0.200439 0.148193
0.309113 0.199921 0.148193
0.342773 0.200287 0.148193
0.381012 0.200439 0.148193
0.423523 0.200348 0.148193
0.469543 0.199921 0.148193
0.518738 0.199127 0.148193
0.570099 0.198181 0.148193
0.620697 0.196472 0.148193
0.668396 0.194458 0.148193
0.713226 0.191925 0.148193
0.756927 0.189301 0.148193
0.796204 0.186462 0.148193
0.846619 0.185394 0.148193
0.880371 0.182373 0.148193
0.909058 0.179077 0.148193
0.935486 0.175873 0.148193
0.960327 0.172668 0.148193
0.982147 0.169922 0.148193
0.996857 0.167847 0.148193
1.000000 0.166687 0.148193
1.000000 0.166779 0.148193
1.000000 0.167328 0.148193
1.000000 0.169128 0.148193
0.148193 0.221375 0.148193
0.148193 0.221741 0.148193
0.148193 0.221985 0.148193
0.148193 0.221863 0.148193
0.148193 0.221436 0.148193
0.167694 0.221008 0.148193
0.188782 0.220398 0.148193
0.209900 0.222443 0.148193
0.238007 0.226685 0.148193
0.261169 0.224762 0.148193
0.284821 0.221466 0.148193
0.311249 0.218170 0.148193
0.343109 0.216766 0.148193
0.380219 0.216492 0.148193
0.423004 0.217041 0.148193
0.469238 0.217316 0.148193
0.518341 0.217316 0.148193
0.569885 0.217010 0.148193
0.620178 0.216248 0.148193
0.667755 0.215088 0.148193
0.715729 0.213684 0.148193
0.760773 0.212219 0.148193
0.801727 0.210480 0.148193
0.838165 0.208557 0.148193
0.879333 0.207916 0.148193
0.909058 0.205688 0.148193
0.936096 0.203674 0.148193
0.961151 0.201782 0.148193
0.984802 0.199982 0.148193
0.999695 0.198425 0.148193
1.000000 0.197327 0.148193
1.000000 0.197052 0.148193
1.000000 0.197632 0.148193
1.000000 0.199310 0.148193
0.148193 0.241425 0.148193
0.148193 0.241669 0.148193
0.148193 0.242035 0.148193
0.148193 0.242126 0.148193
0.148193 0.241638 0.148193
0.157623 0.240997 0.148193
0.183716 0.240387 0.148193
0.205139 0.239655 0.148193
0.227051 0.240692 0.148193
0.261261 0.247742 0.148193
0.288086 0.245880 0.148193
0.315277 0.242340 0.148193
0.345520 0.238525 0.148193
0.379547 0.235474 0.148193
0.419281 0.234344 0.148193
0.464142 0.234497 0.148193
0.512848 0.235291 0.148193
0.564240 0.235718 0.148193
0.614594 0.235657 0.148193
0.664551 0.235565 0.148193
0.712860 0.235107 0.148193
0.758392 0.234283 0.148193
0.799469 0.233215 0.148193
0.836426 0.231842 0.148193
0.869904 0.230286 0.148193
0.900360 0.228851 0.148193
0.928314 0.226959 0.148193
0.954071 0.225281 0.148193
0.978210 0.223724 0.148193
0.997192 0.222137 0.148193
1.000000 0.221039 0.148193
1.000000 0.220551 0.148193
1.000000 0.220703 0.148193
1.000000 0.221741 0.148193
0.148193 0.262268 0.148193
0.148193 0.262482 0.148193
0.148193 0.262848 0.148193
0.148193 0.263092 0.148193
0.148193 0.262878 0.148193
0.148193 0.262268 0.148193
0.175262 0.261444 0.148193
0.199799 0.260681 0.148193
0.222137 0.259827 0.148193
0.245117 0.259796 0.148193
0.284576 0.269501 0.148193
0.316620 0.268707 0.148193
0.348602 0.265381 0.148193
0.382355 0.261200 0.148193
0.418488 0.256927 0.148193
0.459229 0.254578 0.148193
0.503754 0.253204 0.148193
0.554840 0.254425 0.148193
0.606995 0.255676 0.148193
0.657959 0.256409 0.148193
0.706177 0.256653 0.148193
0.751282 0.256439 0.148193
0.792236 0.255737 0.148193
0.829163 0.254822 0.148193
0.862793 0.253662 0.148193
0.893585 0.252228 0.148193
0.921753 0.250732 0.148193
0.947876 0.249115 0.148193
0.972351 0.247528 0.148193
0.992889 0.246094 0.148193
1.000000 0.244873 0.148193
1.000000 0.244171 0.148193
1.000000 0.244080 0.148193
1.000000 0.244873 0.148193
0.148193 0.286041 0.148193
0.148193 0.286316 0.148193
0.148193 0.286530 0.148193
0.148193 0.286835 0.148193
0.148193 0.286987 0.148193
0.148193 0.286346 0.148193
0.162354 0.285492 0.148193
0.192810 0.284576 0.148193
0.217438 0.283600 0.148193
0.241394 0.282715 0.148193
0.266022 0.281860 0.148193
0.309296 0.293152 0.148193
0.349609 0.294861 0.148193
0.386658 0.291840 0.148193
0.423798 0.287354 0.148193
0.462860 0.283051 0.148193
0.504333 0.278503 0.148193
0.552338 0.277679 0.148193
0.601562 0.277039 0.148193
0.652344 0.278534 0.148193
0.700073 0.279449 0.148193
0.744415 0.279755 0.148193
0.785065 0.279419 0.148193
0.821930 0.278717 0.148193
0.855469 0.277740 0.148193
0.886230 0.276581 0.148193
0.914673 0.275177 0.148193
0.941101 0.273560 0.148193
0.965942 0.272125 0.148193
0.988647 0.270630 0.148193
1.000000 0.269562 0.148193
1.000000 0.268768 0.148193
1.000000 0.268555 0.148193
1.000000 0.269257 0.148193
0.148193 0.313019 0.148193
0.148193 0.313263 0.148193
0.148193 0.313477 0.148193
0.148193 0.313812 0.148193
0.148193 0.314209 0.148193
0.148193 0.314026 0.148193
0.148376 0.313141 0.148193
0.183258 0.312195 0.148193
0.211273 0.311127 0.148193
0.237244 0.310059 0.148193
0.263489 0.309082 0.148193
0.290955 0.307953 0.148193
0.338135 0.320618 0.148193
0.388306 0.326050 0.148193
0.430969 0.323822 0.148193
0.471649 0.319519 0.148193
0.515381 0.315430 0.148193
0.559082 0.310699 0.148193
0.602478 0.305939 0.148193
0.647675 0.303741 0.148193
0.692993 0.303253 0.148193
0.737000 0.304077 0.148193
0.777496 0.304230 0.148193
0.814301 0.303833 0.148193
0.847809 0.303131 0.148193
0.878632 0.302002 0.148193
0.907074 0.300720 0.148193
0.933777 0.299286 0.148193
0.959015 0.297791 0.148193
0.983215 0.296448 0.148193
0.999756 0.295502 0.148193
1.000000 0.294769 0.148193
1.000000 0.294617 0.148193
1.000000 0.295166 0.148193
0.148193 0.344116 0.148193
0.148193 0.344391 0.148193
0.148193 0.344696 0.148193
0.148193 0.345154 0.148193
0.148193 0.345795 0.148193
0.148193 0.346161 0.148193
0.148193 0.345673 0.148193
0.168518 0.344757 0.148193
0.203491 0.343750 0.148193
0.232208 0.342896 0.148193
0.260803 0.342255 0.148193
0.290649 0.341492 0.148193
0.326416 0.344330 0.148193
0.380920 0.360199 0.148193
0.443512 0.370850 0.148193
0.492432 0.369995 0.148193
0.536133 0.364777 0.148193
0.578583 0.358582 0.148193
0.619446 0.351501 0.148193
0.658630 0.343597 0.148193
0.697815 0.337494 0.148193
0.736969 0.333801 0.148193
0.776215 0.333344 0.148193
0.812683 0.333252 0.148193
0.845917 0.332764 0.148193
0.876465 0.331909 0.148193
0.904816 0.330597 0.148193
0.931396 0.329132 0.148193
0.956543 0.327759 0.148193
0.980316 0.326324 0.148193
0.999237 0.325287 0.148193
1.000000 0.324677 0.148193
1.000000 0.324463 0.148193
1.000000 0.324951 0.148193
0.148193 0.383087 0.148193
0.148193 0.383392 0.148193
0.148193 0.383636 0.148193
0.148193 0.384247 0.148193
0.148193 0.385071 0.148193
0.148193 0.385986 0.148193
0.148193 0.386230 0.148193
0.153290 0.385559 0.148193
0.193512 0.384888 0.148193
0.226624 0.384369 0.148193
0.258423 0.384430 0.148193
0.291809 0.384674 0.148193
0.327728 0.384888 0.148193
0.378174 0.396118 0.148193
0.438599 0.412567 0.148193
0.511810 0.428192 0.148193
0.561951 0.425995 0.148193
0.604828 0.418579 0.148193
0.644348 0.409515 0.148193
0.681915 0.399841 0.148193
0.717316 0.389648 0.148193
0.750366 0.379089 0.148193
0.783630 0.371765 0.148193
0.816467 0.367645 0.148193
0.848969 0.367188 0.148193
0.878906 0.366333 0.148193
0.906738 0.365082 0.148193
0.932892 0.363586 0.148193
0.957733 0.362030 0.148193
0.981476 0.360504 0.148193
0.999481 0.359253 0.148193
1.000000 0.358459 0.148193
1.000000 0.358124 0.148193
1.000000 0.358521 0.148193
0.148193 0.431732 0.148193
0.148193 0.432037 0.148193
0.148193 0.432129 0.148193
0.148193 0.432831 0.148193
0.148193 0.433807 0.148193
0.148193 0.434906 0.148193
0.148193 0.435974 0.148193
0.148193 0.436005 0.148193
0.176971 0.435791 0.148193
0.219208 0.435822 0.148193
0.255066 0.436188 0.148193
0.292236 0.436737 0.148193
0.332031 0.437592 0.148193
0.375092 0.438324 0.148193
0.419586 0.438660 0.148193
0.480011 0.452820 0.148193
0.554199 0.470001 0.148193
0.605286 0.468842 0.148193
0.647125 0.460846 0.148193
0.683777 0.450043 0.148193
0.718048 0.438507 0.148193
0.750336 0.426941 0.148193
0.780853 0.415436 0.148193
0.809540 0.404022 0.148193
0.838623 0.396698 0.148193
0.868378 0.394592 0.148193
0.896973 0.393951 0.148193
0.923828 0.392975 0.148193
0.949310 0.391846 0.148193
0.973724 0.390778 0.148193
0.995178 0.389893 0.148193
1.000000 0.389587 0.148193
1.000000 0.389526 0.148193
1.000000 0.390076 0.148193
0.148193 0.482147 0.148193
0.148193 0.482452 0.148193
0.148193 0.482544 0.148193
0.148193 0.482697 0.148193
0.148193 0.482849 0.148193
0.148193 0.483276 0.148193
0.148193 0.484070 0.148193
0.148193 0.484039 0.148193
0.157013 0.483124 0.148193
0.204254 0.482544 0.148193
0.244507 0.482239 0.148193
0.283478 0.482422 0.148193
0.325165 0.482758 0.148193
0.369232 0.482910 0.148193
0.415253 0.482819 0.148193
0.461365 0.482025 0.148193
0.519135 0.492523 0.148193
0.590240 0.509430 0.148193
0.645020 0.511505 0.148193
0.685608 0.502838 0.148193
0.719238 0.490112 0.148193
0.751068 0.477844 0.148193
0.781281 0.465790 0.148193
0.809662 0.453644 0.148193
0.836517 0.441620 0.148193
0.862457 0.431061 0.148193
0.888794 0.424652 0.148193
0.915924 0.423462 0.148193
0.941956 0.422943 0.148193
0.966980 0.422424 0.148193
0.989716 0.421906 0.148193
1.000000 0.421936 0.148193
1.000000 0.422272 0.148193
1.000000 0.423157 0.148193
0.148193 0.529724 0.148193
0.148193 0.529999 0.148193
0.148193 0.530060 0.148193
0.148193 0.529938 0.148193
0.148193 0.529785 0.148193
0.148193 0.529663 0.148193
0.148193 0.529938 0.148193
0.148193 0.530243 0.148193
0.148193 0.529694 0.148193
0.180603 0.528809 0.148193
0.229858 0.528381 0.148193
0.271606 0.528168 0.148193
0.314484 0.528107 0.148193
0.360321 0.528015 0.148193
0.407562 0.527466 0.148193
0.455170 0.526337 0.148193
0.501526 0.524628 0.148193
0.556671 0.531677 0.148193
0.624207 0.548431 0.148193
0.681519 0.553650 0.148193
0.720612 0.544403 0.148193
0.752197 0.531006 0.148193
0.782135 0.518066 0.148193
0.810242 0.505371 0.148193
0.836792 0.492889 0.148193
0.862000 0.480591 0.148193
0.886047 0.468658 0.148193
0.909943 0.458923 0.148193
0.934875 0.454437 0.148193
0.960388 0.454468 0.148193
0.984528 0.454712 0.148193
1.000000 0.455353 0.148193
1.000000 0.456451 0.148193
1.000000 0.458008 0.148193
0.148193 0.574310 0.148193
0.148193 0.574768 0.148193
0.148193 0.574982 0.148193
0.148193 0.575134 0.148193
0.148193 0.575165 0.148193
0.148193 0.575378 0.148193
0.148193 0.575989 0.148193
0.148193 0.576965 0.148193
0.148193 0.577271 0.148193
0.159668 0.576569 0.148193
0.211121 0.575775 0.148193
0.256958 0.574890 0.148193
0.301514 0.573975 0.148193
0.347931 0.572754 0.148193
0.396027 0.571136 0.148193
0.444244 0.568970 0.148193
0.491791 0.566437 0.148193
0.537750 0.563629 0.148193
0.588989 0.567505 0.148193
0.652679 0.584045 0.148193
0.713440 0.593353 0.148193
0.752167 0.585052 0.148193
0.782440 0.571533 0.148193
0.810730 0.558380 0.148193
0.837341 0.545624 0.148193
0.862579 0.533081 0.148193
0.886688 0.520874 0.148193
0.909882 0.509094 0.148193
0.932465 0.497742 0.148193
0.955170 0.488892 0.148193
0.979523 0.487946 0.148193
1.000000 0.489075 0.148193
1.000000 0.490417 0.148193
1.000000 0.492249 0.148193
0.148193 0.615143 0.148193
0.148193 0.615356 0.148193
0.148193 0.615448 0.148193
0.148193 0.615570 0.148193
0.148193 0.615753 0.148193
0.148193 0.616058 0.148193
0.148193 0.616577 0.148193
0.148193 0.617340 0.148193
0.148193 0.617950 0.148193
0.148193 0.617615 0.148193
0.181885 0.616638 0.148193
0.237854 0.615509 0.148193
0.283997 0.614258 0.148193
0.330994 0.612885 0.148193
0.380096 0.611084 0.148193
0.429321 0.608948 0.148193
0.477814 0.606445 0.148193
0.525330 0.603577 0.148193
0.571014 0.600586 0.148193
0.619202 0.601959 0.148193
0.679443 0.619141 0.148193
0.742035 0.631256 0.148193
0.781525 0.624969 0.148193
0.810638 0.611938 0.148193
0.837402 0.598724 0.148193
0.862701 0.585938 0.148193
0.886902 0.573456 0.148193
0.910187 0.561523 0.148193
0.932739 0.550079 0.148193
0.954834 0.539154 0.148193
0.976685 0.529388 0.148193
0.996277 0.522705 0.148193
1.000000 0.524719 0.148193
1.000000 0.527039 0.148193
0.148193 0.654144 0.148193
0.148193 0.654510 0.148193
0.148193 0.667908 0.148193
0.148193 0.668457 0.148193
0.148193 0.668579 0.148193
0.148193 0.668671 0.148193
0.148193 0.668823 0.148193
0.148193 0.669159 0.148193
0.148193 0.669830 0.148193
0.148193 0.669708 0.148193
0.161774 0.668640 0.148193
0.219269 0.667267 0.148193
0.269592 0.665619 0.148193
0.318573 0.663666 0.148193
0.369385 0.661346 0.148193
0.420441 0.658600 0.148193
0.470551 0.655396 0.148193
0.519196 0.651886 0.148193
0.565735 0.648193 0.148193
0.610413 0.644501 0.148193
0.655334 0.643250 0.148193
0.712219 0.659149 0.148193
0.771667 0.671082 0.148193
0.812225 0.668182 0.148193
0.840973 0.656342 0.148193
0.865784 0.642456 0.148193
0.889374 0.629089 0.148193
0.912079 0.616333 0.148193
0.934082 0.604126 0.148193
0.955719 0.592590 0.148193
0.977112 0.581970 0.148193
0.996185 0.572479 0.148193
1.000000 0.565155 0.148193
1.000000 0.561981 0.148193
0.148193 0.694885 0.148193
0.148193 0.695923 0.148193
0.148193 0.697540 0.148193
0.148193 0.700470 0.148193
0.148193 0.701172 0.148193
0.148193 0.701538 0.148193
0.148193 0.701721 0.148193
0.148193 0.701965 0.148193
0.148193 0.702393 0.148193
0.148193 0.702759 0.148193
0.148193 0.701996 0.148193
0.188263 0.700714 0.148193
0.246979 0.699188 0.148193
0.296753 0.697266 0.148193
0.347351 0.695099 0.148193
0.399048 0.692657 0.148193
0.450531 0.689850 0.148193
0.500244 0.686859 0.148193
0.548431 0.683685 0.148193
0.594849 0.680603 0.148193
0.639008 0.677521 0.148193
0.681366 0.674805 0.148193
0.736450 0.690277 0.148193
0.792908 0.703033 0.148193
0.835327 0.704193 0.148193
0.864471 0.694427 0.148193
0.888214 0.680878 0.148193
0.911041 0.667755 0.148193
0.933044 0.655304 0.148193
0.954590 0.643616 0.148193
0.975891 0.632812 0.148193
0.995026 0.622955 0.148193
1.000000 0.614075 0.148193
1.000000 0.607056 0.148193
0.148193 0.727386 0.148193
0.148193 0.728607 0.148193
0.148193 0.729736 0.148193
0.148193 0.730927 0.148193
0.148193 0.731812 0.148193
0.148193 0.732330 0.148193
0.148193 0.732697 0.148193
0.148193 0.732880 0.148193
0.148193 0.733276 0.148193
0.148193 0.733795 0.148193
0.148193 0.733643 0.148193
0.161743 0.732574 0.148193
0.221558 0.731140 0.148193
0.273956 0.729462 0.148193
0.324768 0.727600 0.148193
0.377106 0.725464 0.148193
0.429230 0.723022 0.148193
0.480164 0.720398 0.148193
0.529724 0.717621 0.148193
0.577423 0.714752 0.148193
0.622986 0.712097 0.148193
0.666351 0.709412 0.148193
0.707489 0.706757 0.148193
0.759491 0.720551 0.148193
0.812408 0.733551 0.148193
0.856445 0.738617 0.148193
0.886078 0.730835 0.148193
0.909119 0.717682 0.148193
0.931305 0.705109 0.148193
0.952881 0.693298 0.148193
0.974182 0.682312 0.148193
0.993530 0.672333 0.148193
1.000000 0.663391 0.148193
1.000000 0.655396 0.148193
0.148193 0.757996 0.148193
0.148193 0.759094 0.148193
0.148193 0.760223 0.148193
0.148193 0.761261 0.148193
0.148193 0.762085 0.148193
0.148193 0.762604 0.148193
0.148193 0.762878 0.148193
0.148193 0.763092 0.148193
0.148193 0.763367 0.148193
0.148193 0.763763 0.148193
0.148193 0.764099 0.148193
0.148193 0.763428 0.148193
0.189697 0.762177 0.148193
0.250183 0.760590 0.148193
0.301697 0.758972 0.148193
0.354309 0.757111 0.148193
0.407440 0.755127 0.148193
0.459747 0.753113 0.148193
0.510834 0.751099 0.148193
0.560089 0.749146 0.148193
0.607452 0.747253 0.148193
0.652740 0.745453 0.148193
0.695679 0.743683 0.148193
0.736023 0.741852 0.148193
0.784790 0.753815 0.148193
0.834229 0.767059 0.148193
0.879822 0.775818 0.148193
0.910156 0.770233 0.148193
0.932617 0.757874 0.148193
0.954346 0.746124 0.148193
0.975677 0.735138 0.148193
0.994629 0.725067 0.148193
1.000000 0.715881 0.148193
1.000000 0.707703 0.148193
0.148193 0.791504 0.148193
0.148193 0.792114 0.148193
0.148193 0.792694 0.148193
0.148193 0.793152 0.148193
0.148193 0.793457 0.148193
0.148193 0.793671 0.148193
0.148193 0.793854 0.148193
0.148193 0.793915 0.148193
0.148193 0.794159 0.148193
0.148193 0.794556 0.148193
0.148193 0.794983 0.148193
0.148193 0.794952 0.148193
0.161896 0.793915 0.148193
0.225830 0.792572 0.148193
0.279602 0.791138 0.148193
0.332367 0.789459 0.148193
0.386139 0.787720 0.148193
0.439423 0.785919 0.148193
0.491791 0.784088 0.148193
0.542267 0.782227 0.148193
0.590759 0.780457 0.148193
0.637146 0.778748 0.148193
0.681091 0.777100 0.148193
0.722717 0.775421 0.148193
0.761353 0.773651 0.148193
0.806458 0.783325 0.148193
0.852509 0.796356 0.148193
0.897949 0.806458 0.148193
0.929077 0.802887 0.148193
0.952728 0.793335 0.148193
0.974213 0.782532 0.148193
0.993561 0.772430 0.148193
1.000000 0.763123 0.148193
1.000000 0.754669 0.148193
0.148193 0.820923 0.148193
0.148193 0.821289 0.148193
0.148193 0.821594 0.148193
0.148193 0.821838 0.148193
0.148193 0.821991 0.148193
0.148193 0.822021 0.148193
0.148193 0.822052 0.148193
0.148193 0.822205 0.148193
0.148193 0.822327 0.148193
0.148193 0.822662 0.148193
0.148193 0.823120 0.148193
0.148193 0.823547 0.148193
0.148193 0.823029 0.148193
0.196259 0.821899 0.148193
0.256317 0.820587 0.148193
0.309448 0.819275 0.148193
0.363617 0.817749 0.148193
0.417908 0.816162 0.148193
0.471130 0.814606 0.148193
0.522919 0.812958 0.148193
0.572601 0.811371 0.148193
0.620148 0.809753 0.148193
0.665344 0.808258 0.148193
0.707855 0.806732 0.148193
0.747772 0.805145 0.148193
0.783691 0.802216 0.148193
0.825256 0.809540 0.148193
0.868073 0.822327 0.148193
0.912170 0.832367 0.148193
0.945404 0.831970 0.148193
0.970306 0.824921 0.148193
0.990326 0.814911 0.148193
1.000000 0.805634 0.148193
1.000000 0.796997 0.148193
0.148193 0.848694 0.148193
0.148193 0.849152 0.148193
0.148193 0.849396 0.148193
0.148193 0.849457 0.148193
0.148193 0.849426 0.148193
0.148193 0.849304 0.148193
0.148193 0.849091 0.148193
0.148193 0.848907 0.148193
0.148193 0.848816 0.148193
0.148193 0.848877 0.148193
0.148193 0.848999 0.148193
0.148193 0.849335 0.148193
0.148193 0.849213 0.148193
0.164948 0.848175 0.148193
0.230835 0.846893 0.148193
0.285370 0.845520 0.148193
0.339386 0.844025 0.148193
0.393799 0.842560 0.148193
0.447906 0.841125 0.148193
0.500793 0.839722 0.148193
0.551727 0.838501 0.148193
0.600464 0.837250 0.148193
0.646881 0.835907 0.148193
0.690735 0.834564 0.148193
0.731720 0.833099 0.148193
0.769897 0.831512 0.148193
0.804199 0.828705 0.148193
0.842926 0.834473 0.148193
0.882996 0.846771 0.148193
0.925659 0.856506 0.148193
0.960571 0.859039 0.148193
0.986145 0.854095 0.148193
1.000000 0.844696 0.148193
1.000000 0.835968 0.148193
0.148193 0.873810 0.148193
0.148193 0.874268 0.148193
0.148193 0.874573 0.148193
0.148193 0.874634 0.148193
0.148193 0.874573 0.148193
0.148193 0.874420 0.148193
0.148193 0.874298 0.148193
0.148193 0.874176 0.148193
0.148193 0.874023 0.148193
0.148193 0.874023 0.148193
0.148193 0.874084 0.148193
0.148193 0.874207 0.148193
0.148193 0.874329 0.148193
0.148193 0.873657 0.148193
0.202728 0.872406 0.148193
0.261871 0.871002 0.148193
0.315796 0.869568 0.148193
0.370117 0.868134 0.148193
0.424896 0.866760 0.148193
0.478455 0.865448 0.148193
0.530487 0.864288 0.148193
0.580353 0.863190 0.148193
0.627777 0.862152 0.148193
0.672882 0.860962 0.148193
0.715149 0.859741 0.148193
0.754456 0.858307 0.148193
0.791016 0.856720 0.148193
0.824615 0.855072 0.148193
0.860626 0.859283 0.148193
0.898499 0.870697 0.148193
