retro/复古棕.cube
#Created by: Adobe Photoshop Export Color Lookup Plugin
#Copyright: (C) Copyright 2026 汉图
TITLE "Ricotta调色优化.psd"
#LUT size
LUT_3D_SIZE 7
#data domain
#LUT data points
DOMAIN_MIN 0.000000 0.000000 0.000000
DOMAIN_MAX 0.909091 0.909091 0.909091
0.148193 0.148193 0.148193
0.187012 0.148193 0.148193
0.300903 0.148193 0.148193
0.501984 0.148193 0.148193
0.740997 0.148193 0.148193
0.911957 0.148193 0.148193
1.000000 0.148193 0.148193
0.148193 0.201904 0.148193
0.172607 0.201782 0.148193
0.280792 0.200439 0.148193
0.469543 0.199921 0.148193
0.713226 0.191925 0.148193
0.909058 0.179077 0.148193
1.000000 0.166687 0.148193
0.148193 0.313019 0.148193
0.148193 0.314026 0.148193
0.263489 0.309082 0.148193
0.471649 0.319519 0.148193
0.692993 0.303253 0.148193
0.878632 0.302002 0.148193
0.999756 0.295502 0.148193
0.148193 0.529724 0.148193
0.148193 0.529663 0.148193
0.229858 0.528381 0.148193
0.455170 0.526337 0.148193
0.720612 0.544403 0.148193
0.862000 0.480591 0.148193
0.984528 0.454712 0.148193
0.148193 0.727386 0.148193
0.148193 0.732330 0.148193
0.148193 0.733643 0.148193
0.377106 0.725464 0.148193
0.622986 0.712097 0.148193
0.856445 0.738617 0.148193
0.974182 0.682312 0.148193
0.148193 0.873810 0.148193
0.148193 0.874420 0.148193
0.148193 0.874084 0.148193
0.261871 0.871002 0.148193
0.530487 0.864288 0.148193
0.754456 0.858307 0.148193
0.939453 0.880371 0.148193
0.148193 0.979919 0.148193
0.148193 0.979767 0.148193
0.148193 0.980286 0.148193
0.148193 0.977386 0.148193
0.432983 0.974304 0.148193
0.674438 0.971222 0.148193
0.851898 0.966309 0.151947
0.148193 0.148193 0.148193
0.198608 0.148193 0.148193
0.313599 0.148193 0.148193
0.510895 0.148193 0.148193
0.745819 0.148193 0.148193
0.908142 0.148193 0.148193
1.000000 0.148193 0.148193
0.148193 0.202332 0.148193
0.191986 0.202881 0.148193
0.297028 0.202393 0.148193
0.487762 0.196503 0.148193
0.729279 0.180878 0.148193
0.905579 0.164703 0.148193
1.000000 0.160797 0.148193
0.148193 0.307037 0.148193
0.152985 0.310181 0.148193
0.276489 0.308197 0.148193
0.475861 0.309143 0.148193
0.700714 0.301483 0.148193
0.876617 0.296173 0.148193
0.997650 0.289886 0.148193
0.148193 0.517822 0.148193
0.148193 0.518158 0.148193
0.236328 0.521637 0.148193
0.459198 0.517578 0.148193
0.714600 0.526337 0.148193
0.856445 0.465576 0.148193
0.983093 0.452850 0.148193
0.148193 0.718933 0.148193
0.148193 0.723938 0.148193
0.148193 0.725586 0.148193
0.384460 0.718048 0.148193
0.625397 0.704803 0.148193
0.854736 0.728607 0.148193
0.971344 0.673706 0.148193
0.148193 0.869965 0.148193
0.148193 0.870178 0.148193
0.148193 0.870544 0.148193
0.283356 0.869446 0.148193
0.542816 0.862610 0.148193
0.760590 0.857025 0.148193
0.943695 0.880829 0.148193
0.148193 0.976227 0.170502
0.148193 0.976074 0.169952
0.148193 0.976501 0.171478
0.209930 0.977722 0.175232
0.457825 0.974731 0.180511
0.686218 0.970886 0.190094
0.857147 0.966064 0.201294
0.148193 0.148193 0.160950
0.209290 0.148193 0.160034
0.313263 0.148193 0.159424
0.529388 0.148193 0.184998
0.758789 0.148193 0.201843
0.910553 0.148193 0.214233
1.000000 0.148193 0.232056
0.148193 0.200226 0.161865
0.193298 0.196503 0.160767
0.310242 0.187958 0.158630
0.525848 0.175446 0.177979
0.752716 0.160522 0.194672
0.908325 0.177582 0.215698
1.000000 0.157471 0.212402
0.148193 0.303436 0.157135
0.189453 0.303802 0.159088
0.312347 0.303986 0.164062
0.517792 0.300385 0.170624
0.734558 0.293091 0.178589
0.888489 0.287842 0.189972
1.000000 0.287933 0.208405
0.148193 0.497040 0.187592
0.192108 0.498627 0.190186
0.276337 0.509277 0.174774
0.484619 0.506104 0.176422
0.709991 0.490601 0.182556
0.858246 0.457642 0.201080
0.985413 0.459839 0.225128
0.148193 0.701233 0.209198
0.148193 0.707123 0.198364
0.230865 0.710297 0.196472
0.423279 0.710114 0.198273
0.647247 0.698364 0.197723
0.857330 0.711975 0.201630
0.968109 0.659424 0.242584
0.148193 0.859741 0.233948
0.148193 0.859924 0.233704
0.174164 0.861084 0.234467
0.349854 0.863708 0.236969
0.580017 0.858398 0.238159
0.777130 0.853180 0.242950
0.953674 0.879547 0.251831
0.148193 0.972168 0.300659
0.148193 0.972260 0.300995
0.161682 0.972870 0.302979
0.311981 0.974243 0.308594
0.510040 0.972656 0.312531
0.712799 0.968842 0.319885
0.869110 0.964447 0.329926
0.164520 0.148193 0.378754
0.225006 0.148193 0.374603
0.334625 0.148193 0.359772
0.506500 0.148193 0.360992
0.744141 0.148193 0.419617
0.917786 0.148193 0.434937
1.000000 0.148193 0.433929
0.148193 0.191284 0.383057
0.202484 0.186737 0.377808
0.324249 0.171600 0.364227
0.506317 0.148193 0.362244
0.747223 0.148193 0.415649
0.913818 0.148193 0.427094
1.000000 0.159668 0.435822
0.148193 0.304688 0.390564
0.148193 0.297974 0.393585
0.303436 0.282806 0.392883
0.521057 0.265320 0.385071
0.757538 0.266968 0.414398
0.898407 0.286407 0.422363
1.000000 0.322632 0.458679
0.148193 0.486023 0.388855
0.160004 0.485687 0.390594
0.314758 0.485626 0.396912
0.533630 0.484772 0.407928
0.724152 0.480286 0.416321
0.873932 0.478546 0.431000
0.991302 0.481323 0.453918
0.213928 0.677063 0.414154
0.267151 0.678101 0.423096
0.391022 0.680298 0.446320
0.510559 0.691284 0.441956
0.685577 0.687195 0.442108
0.853821 0.678040 0.441833
0.965729 0.646545 0.464417
0.312164 0.840057 0.511169
0.347351 0.842102 0.516510
0.372589 0.846558 0.486389
0.472473 0.852203 0.476624
0.636536 0.853302 0.480347
0.803650 0.848145 0.479675
0.960144 0.865204 0.480194
0.265747 0.964508 0.537689
0.270630 0.965607 0.526245
0.323364 0.966919 0.519287
0.435730 0.968445 0.524292
0.576965 0.969604 0.529022
0.749786 0.966248 0.532410
0.887634 0.962463 0.537567
0.192657 0.148193 0.649231
0.243774 0.148193 0.646515
0.353485 0.148193 0.635925
0.516998 0.148193 0.618896
0.703033 0.148193 0.626190
0.884033 0.148193 0.659454
1.000000 0.148193 0.673462
0.148193 0.178955 0.648590
0.220642 0.173248 0.646027
0.337433 0.151947 0.636108
0.509521 0.148193 0.619995
0.700470 0.148193 0.623871
0.884796 0.148193 0.657623
1.000000 0.148193 0.670532
0.148193 0.278381 0.658813
0.148193 0.273834 0.657410
0.303802 0.262909 0.649902
0.497955 0.242035 0.633636
0.704315 0.219971 0.631195
0.888367 0.228302 0.657623
1.000000 0.248169 0.667847
0.148193 0.462128 0.657959
0.148193 0.458649 0.657745
0.290833 0.451447 0.658936
0.495270 0.434509 0.652710
0.710449 0.411987 0.643555
0.889832 0.443970 0.668396
0.999634 0.469940 0.678894
0.149170 0.664886 0.651123
0.223785 0.664398 0.651703
0.351105 0.663391 0.653717
0.534912 0.663666 0.659576
0.721863 0.664856 0.668243
0.864838 0.661987 0.673279
0.982117 0.661255 0.681519
0.317139 0.823853 0.658539
0.354218 0.824249 0.662262
0.447266 0.825653 0.672394
0.588165 0.831177 0.694122
0.697876 0.841797 0.693970
0.833832 0.840851 0.695435
0.963043 0.836334 0.690277
0.404327 0.954193 0.721130
0.436005 0.954437 0.724701
0.514862 0.955170 0.734741
0.588409 0.958801 0.730835
0.669464 0.963287 0.721771
0.793732 0.963409 0.726288
0.911041 0.959564 0.726410
0.221619 0.148193 0.826630
0.265320 0.148193 0.825348
0.370758 0.148193 0.820892
0.529297 0.148193 0.813354
0.697784 0.148193 0.800293
0.853851 0.148193 0.804871
0.990173 0.148193 0.820282
0.192657 0.160370 0.823700
0.243103 0.151703 0.822693
0.351868 0.148193 0.818329
0.515594 0.148193 0.810181
0.691040 0.148193 0.798309
0.852478 0.148193 0.803894
0.990479 0.148193 0.819977
0.148193 0.257477 0.826447
0.178864 0.253296 0.824188
0.309937 0.242645 0.820557
0.489075 0.221710 0.812683
0.679016 0.182129 0.799652
0.849915 0.148193 0.802643
0.991699 0.150696 0.819092
0.148193 0.421326 0.826721
0.148193 0.415558 0.826080
0.267731 0.403198 0.824524
0.461090 0.383209 0.818054
0.666260 0.347107 0.806152
0.849792 0.325348 0.805756
0.992554 0.365417 0.821747
0.148193 0.630524 0.822876
0.165741 0.629547 0.823242
0.296570 0.625580 0.823578
0.472900 0.618225 0.824097
0.667053 0.594666 0.817810
0.847809 0.567993 0.810455
0.992310 0.614166 0.830750
0.210968 0.814117 0.819824
0.255798 0.814026 0.820160
0.360687 0.813446 0.820862
0.520874 0.812775 0.822357
0.697388 0.813110 0.825867
0.855927 0.817841 0.834198
0.970184 0.818512 0.838989
0.384674 0.942780 0.818695
0.415344 0.942993 0.820557
0.493927 0.944061 0.826233
0.612946 0.945892 0.836548
0.749298 0.948822 0.853027
0.843109 0.956116 0.859955
0.937439 0.955688 0.863098
0.245270 0.148193 0.948334
0.285614 0.148193 0.947968
0.385620 0.148193 0.945709
0.537354 0.148193 0.942505
0.703461 0.148193 0.937012
0.852631 0.148193 0.930054
0.978546 0.148193 0.933105
0.221375 0.148193 0.946838
0.263824 0.148193 0.946320
0.366455 0.148193 0.944183
0.523102 0.148193 0.940948
0.695007 0.148193 0.935974
0.849121 0.148193 0.929504
0.977905 0.148193 0.932770
0.148193 0.237854 0.945923
0.203613 0.233856 0.945618
0.318695 0.222198 0.944214
0.489258 0.197937 0.941650
0.675385 0.148193 0.936310
0.840668 0.148193 0.929535
0.976166 0.148193 0.932220
0.148193 0.373322 0.946930
0.148193 0.371887 0.946198
0.250214 0.359406 0.944183
0.434387 0.336273 0.941101
0.640503 0.298828 0.935974
0.824707 0.243622 0.929352
0.973907 0.211731 0.932312
0.148193 0.590240 0.944183
0.148193 0.587036 0.944305
0.229523 0.575897 0.943939
0.402313 0.555573 0.943115
0.613098 0.523590 0.938873
0.809052 0.472107 0.932861
0.969910 0.447174 0.933472
0.148193 0.787048 0.941559
0.148193 0.785980 0.941467
0.271301 0.783112 0.941376
0.433380 0.778168 0.941559
0.622833 0.769531 0.942047
0.801636 0.745392 0.939270
0.962036 0.718109 0.935699
0.221832 0.941528 0.940338
0.260132 0.941254 0.940308
0.354309 0.940887 0.940582
0.504913 0.940552 0.941376
0.676880 0.939911 0.942413
0.835175 0.940002 0.944580
0.956848 0.944427 0.950745
