retro/复古棕.cube
#Created by: Adobe Photoshop Export Color Lookup Plugin
#Copyright: (C) Copyright 2026 汉图
TITLE "Ricotta调色优化.psd"
#LUT size
LUT_3D_SIZE 4
#data domain
DOMAIN_MIN 0.0 0.0 0.0
DOMAIN_MAX 1.0 1.0 1.0
#LUT data points
0.148193 0.148193 0.148193
0.332642 0.148193 0.148193
0.814911 0.148193 0.148193
1.000000 0.148193 0.148193
0.148193 0.344116 0.148193
0.290649 0.341492 0.148193
0.776215 0.333344 0.148193
1.000000 0.324951 0.148193
0.148193 0.791504 0.148193
0.148193 0.794952 0.148193
0.681091 0.777100 0.148193
1.000000 0.754669 0.148193
0.148193 1.000000 0.204010
0.148193 1.000000 0.204559
0.511200 1.000000 0.223419
0.901001 1.000000 0.323273
0.148193 0.148193 0.193024
0.348450 0.148193 0.191071
0.833710 0.148193 0.241882
1.000000 0.148651 0.291229
0.148193 0.332825 0.188873
0.350922 0.334534 0.198608
0.803986 0.324554 0.218536
1.000000 0.331787 0.268463
0.148987 0.768219 0.266724
0.273315 0.773407 0.248291
0.710327 0.764984 0.252686
1.000000 0.734924 0.330444
0.148193 1.000000 0.414001
0.259399 1.000000 0.417542
0.580963 1.000000 0.432831
0.915588 1.000000 0.515289
0.204681 0.148193 0.730743
0.389740 0.148193 0.718140
0.768829 0.148193 0.707123
1.000000 0.148193 0.742676
0.148193 0.295898 0.735840
0.331238 0.278107 0.726715
0.768127 0.227417 0.709717
1.000000 0.275452 0.740967
0.189301 0.726624 0.726074
0.388794 0.724884 0.727783
0.779968 0.728241 0.742218
1.000000 0.730286 0.758728
0.492035 1.000000 0.795319
0.600037 1.000000 0.808105
0.744873 1.000000 0.801971
0.955261 1.000000 0.827454
0.256165 0.148193 1.000000
0.414429 0.148193 1.000000
0.761322 0.148193 0.999542
1.000000 0.148193 0.999664
0.148193 0.249786 1.000000
0.338135 0.229553 1.000000
0.731506 0.148193 0.999329
1.000000 0.148193 1.000000
0.148193 0.655365 1.000000
0.260223 0.640961 1.000000
0.682617 0.597717 1.000000
1.000000 0.502319 1.000000
0.413391 1.000000 0.996765
0.536804 1.000000 0.996857
0.807190 1.000000 0.997131
1.000000 1.000000 1.000000
