backup-gold-v1/lut/回忆录-f.cube
#Created by: Adobe Photoshop Export Color Lookup Plugin
TITLE "多场景样片-v1.0.psd"
#LUT size
LUT_3D_SIZE 34
#data domain
DOMAIN_MIN 0.0 0.0 0.0
DOMAIN_MAX 1.0 1.0 1.0
#LUT data points
0.007446 0.058258 0.007812
0.022705 0.057983 0.003113
0.043640 0.062531 0.009003
0.070129 0.067261 0.013916
0.098175 0.070953 0.016296
0.125427 0.074341 0.017975
0.153229 0.076935 0.018738
0.182159 0.079041 0.018646
0.212097 0.083099 0.020447
0.242798 0.088440 0.024384
0.274231 0.096588 0.031342
0.306549 0.104767 0.038422
0.339539 0.113251 0.045746
0.372955 0.122314 0.053284
0.407318 0.131500 0.061127
0.442261 0.141205 0.069153
0.477448 0.150879 0.077576
0.512573 0.160706 0.085754
0.547424 0.170410 0.094177
0.582123 0.180115 0.102325
0.616455 0.190155 0.110565
0.650055 0.199890 0.118927
0.683075 0.209564 0.126862
0.715607 0.218964 0.135010
0.747375 0.228363 0.142700
0.778137 0.237366 0.150177
0.808197 0.246185 0.157532
0.837311 0.254883 0.164948
0.865479 0.263123 0.171814
0.892487 0.271179 0.178497
0.918518 0.278870 0.184937
0.919006 0.278992 0.185089
0.919006 0.278992 0.185089
0.919006 0.278992 0.185089
0.008545 0.069336 0.004913
0.025909 0.076019 0.009644
0.048401 0.080811 0.013916
0.073090 0.087891 0.021057
0.098938 0.094757 0.027588
0.125977 0.100891 0.032806
0.153717 0.106537 0.037109
0.182617 0.111847 0.040771
0.212677 0.118286 0.046051
0.243439 0.125336 0.052094
0.275177 0.132599 0.057983
0.307343 0.140106 0.064301
0.340393 0.148132 0.070862
0.374115 0.156097 0.077606
0.408478 0.164398 0.084564
0.443451 0.172821 0.091705
0.478668 0.181793 0.099091
0.513794 0.190582 0.106506
0.548706 0.199432 0.113983
0.583130 0.208557 0.121735
0.617462 0.217438 0.129211
0.651062 0.226196 0.136627
0.684357 0.235229 0.144012
0.716675 0.243958 0.151581
0.748352 0.252441 0.158813
0.779388 0.260712 0.165802
0.809479 0.269257 0.172729
0.838287 0.277100 0.179382
0.866455 0.284790 0.185913
0.893463 0.292419 0.192261
0.919434 0.299622 0.198364
0.919952 0.299774 0.198486
0.919952 0.299774 0.198486
0.919952 0.299774 0.198486
0.013031 0.097626 0.026154
0.029663 0.100647 0.024353
0.046753 0.099304 0.015381
0.072540 0.106903 0.021576
0.098572 0.114014 0.028442
0.125763 0.120605 0.034210
0.153534 0.126404 0.038361
0.182495 0.132050 0.042114
0.212555 0.138519 0.047272
0.243317 0.145355 0.053223
0.275116 0.152374 0.059418
0.307220 0.159607 0.065460
0.340302 0.167053 0.071991
0.374054 0.174866 0.078674
0.408386 0.182770 0.085541
0.443390 0.190948 0.092743
0.478638 0.199249 0.100098
0.513763 0.207855 0.107727
0.548645 0.216309 0.115143
0.583099 0.224731 0.122650
0.617462 0.233307 0.130127
0.651062 0.241882 0.137573
0.684357 0.250244 0.145111
0.716675 0.258575 0.152374
0.748352 0.266815 0.159546
0.779419 0.274872 0.166534
0.809479 0.282898 0.173401
0.838348 0.290497 0.180084
0.866455 0.297974 0.186584
0.893463 0.305176 0.192902
0.919434 0.312195 0.199005
0.919952 0.312378 0.199127
0.919952 0.312378 0.199127
0.919952 0.312378 0.199127
0.016602 0.124817 0.042297
0.034393 0.126190 0.038147
0.045258 0.125702 0.021271
0.068756 0.123108 0.020538
0.097412 0.132172 0.026398
0.124420 0.139008 0.032104
0.152710 0.145508 0.036682
0.182007 0.151764 0.040833
0.212280 0.158661 0.046570
0.243103 0.165436 0.052521
0.274872 0.172272 0.058411
0.307037 0.179260 0.064758
0.340118 0.186493 0.071320
0.373749 0.194122 0.078033
0.408081 0.201752 0.084930
0.443237 0.209595 0.092133
0.478485 0.217682 0.099518
0.513611 0.225677 0.106934
0.548523 0.233734 0.114594
0.583008 0.242096 0.122101
0.617310 0.250244 0.129608
0.650940 0.258331 0.137024
0.684204 0.266418 0.144440
0.716461 0.274353 0.151917
0.748291 0.282471 0.159088
0.779297 0.290222 0.166107
0.809387 0.297729 0.173035
0.838196 0.305237 0.179718
0.866333 0.312378 0.186188
0.893402 0.319366 0.192505
0.919373 0.326172 0.198639
0.919891 0.326202 0.198761
0.919891 0.326202 0.198761
0.919891 0.326202 0.198761
0.019653 0.152771 0.056793
0.038727 0.152557 0.051270
0.042755 0.152344 0.028595
0.068817 0.149933 0.024963
0.091675 0.147644 0.025085
0.122986 0.158020 0.030029
0.151184 0.164764 0.034454
0.180450 0.171234 0.038605
0.211151 0.178162 0.043915
0.242310 0.185364 0.050293
0.273712 0.192749 0.057556
0.306702 0.200134 0.063934
0.339874 0.207458 0.070496
0.373413 0.214691 0.077179
0.407806 0.222076 0.084229
0.443115 0.229675 0.091400
0.478333 0.237396 0.098785
0.513428 0.245178 0.106232
0.548370 0.252960 0.113708
0.582825 0.260895 0.121429
0.617188 0.268921 0.128967
0.650818 0.276733 0.136414
0.683960 0.284546 0.143799
0.716370 0.292145 0.151367
0.748169 0.299744 0.158569
0.779114 0.307220 0.165619
0.809265 0.314575 0.172485
0.838104 0.321655 0.179199
0.866241 0.328613 0.185699
0.893280 0.335297 0.192078
0.919281 0.341858 0.198181
0.919800 0.342041 0.198303
0.919800 0.342041 0.198303
0.919800 0.342041 0.198303
0.022522 0.180176 0.068970
0.042145 0.179779 0.063751
0.045441 0.179626 0.041138
0.064819 0.178314 0.029816
0.092621 0.173248 0.028961
0.115448 0.172638 0.028503
0.149780 0.185028 0.031982
0.178955 0.191528 0.035919
0.209320 0.198517 0.041779
0.240601 0.205658 0.047791
0.272797 0.212982 0.054291
0.305481 0.220337 0.061188
0.338531 0.227997 0.068359
0.373016 0.235565 0.075134
0.407471 0.243469 0.083008
0.442688 0.250946 0.090210
0.478088 0.258514 0.097900
0.513245 0.266083 0.105408
0.548096 0.273682 0.112885
0.582642 0.281250 0.120392
0.617004 0.289093 0.128204
0.650635 0.296661 0.135651
0.683685 0.304077 0.143036
0.716187 0.311615 0.150421
0.748016 0.318878 0.157654
0.778839 0.326050 0.164948
0.809113 0.333130 0.171844
0.837952 0.340118 0.178619
0.866150 0.346710 0.185150
0.893188 0.353333 0.191498
0.919159 0.359589 0.197601
0.919678 0.359772 0.197723
0.919678 0.359772 0.197723
0.919678 0.359772 0.197723
0.024200 0.208496 0.080566
0.044769 0.207977 0.075287
0.048218 0.207794 0.052826
0.060486 0.206696 0.034760
0.088684 0.204437 0.030426
0.116394 0.198761 0.031097
0.140472 0.198944 0.030579
0.177551 0.213074 0.033600
0.207703 0.219604 0.038727
0.239014 0.226685 0.045288
0.271118 0.234100 0.051605
0.303986 0.241486 0.058319
0.337433 0.248901 0.065399
0.371368 0.256378 0.073029
0.406647 0.264008 0.080048
0.441742 0.272003 0.088165
0.477936 0.279907 0.095612
0.512878 0.287994 0.104248
0.547729 0.295654 0.111908
0.582458 0.302979 0.119446
0.616791 0.310333 0.127014
0.650452 0.317810 0.134766
0.683472 0.325012 0.142242
0.716034 0.332184 0.149567
0.747833 0.339325 0.156830
0.778625 0.346283 0.163910
0.808960 0.353119 0.171021
0.837799 0.359863 0.177887
0.865997 0.366364 0.184418
0.893005 0.372711 0.190765
0.919037 0.378754 0.196686
0.919556 0.378937 0.196777
0.919556 0.378937 0.196777
0.919556 0.378937 0.196777
0.025391 0.237274 0.091522
0.046936 0.236816 0.086548
0.050537 0.236633 0.064087
0.055389 0.236176 0.038940
0.083313 0.234436 0.033997
0.113647 0.229706 0.032013
0.140808 0.225403 0.032288
0.166565 0.226227 0.031708
0.206543 0.242340 0.036224
0.237427 0.248749 0.041840
0.269501 0.255829 0.048737
0.301788 0.263031 0.056030
0.335297 0.270294 0.063110
0.370026 0.277954 0.069824
0.404694 0.285553 0.077484
0.440125 0.293304 0.085571
0.476166 0.301147 0.092987
0.511322 0.309296 0.101715
0.546112 0.317291 0.110352
0.582581 0.324707 0.116913
0.616547 0.332733 0.125916
0.650208 0.339966 0.133453
0.683258 0.347046 0.140991
0.715790 0.354065 0.148621
0.747650 0.360901 0.155853
0.778442 0.367767 0.162994
0.808563 0.374390 0.170013
0.837646 0.380829 0.176788
0.865875 0.387207 0.183350
0.892853 0.393372 0.189697
0.918823 0.399323 0.195892
0.919373 0.399353 0.195984
0.919373 0.399353 0.195984
0.919373 0.399353 0.195984
0.028198 0.266937 0.103485
0.050110 0.266510 0.099060
0.053802 0.266357 0.076630
0.053406 0.266266 0.047791
0.078400 0.264587 0.039429
0.108459 0.262817 0.034088
0.139862 0.255524 0.035156
0.166412 0.252991 0.034760
0.193665 0.254700 0.034302
0.236298 0.272217 0.039581
0.267517 0.278046 0.045349
0.300171 0.285217 0.052582
0.334442 0.292816 0.058655
0.368073 0.300018 0.066986
0.402863 0.307617 0.074646
0.438110 0.315308 0.082733
0.474335 0.323364 0.090118
0.509735 0.331177 0.098907
0.545593 0.338898 0.106476
0.579926 0.346558 0.115387
0.615112 0.354340 0.123077
0.649811 0.361847 0.130676
0.683655 0.369049 0.138489
0.715576 0.376892 0.147186
0.747375 0.383575 0.154755
0.778198 0.390259 0.161926
0.808258 0.396790 0.168945
0.837402 0.403076 0.175720
0.865631 0.409271 0.182343
0.892670 0.415192 0.188751
0.918640 0.421021 0.194916
0.919189 0.421082 0.195038
0.919189 0.421082 0.195038
0.919189 0.421082 0.195038
0.031799 0.297424 0.116028
0.053802 0.297089 0.111908
0.057709 0.296967 0.089661
0.057373 0.296844 0.061859
0.074066 0.295441 0.046051
0.103455 0.293671 0.040314
0.135345 0.289581 0.037750
0.166962 0.282532 0.038116
0.192749 0.281158 0.037750
0.221588 0.283569 0.037109
0.266785 0.302856 0.042877
0.298492 0.308350 0.048828
0.332031 0.315460 0.055786
0.366455 0.323120 0.063141
0.401337 0.330658 0.070801
0.437012 0.338196 0.078796
0.472595 0.345947 0.087311
0.507874 0.353546 0.095795
0.543793 0.361267 0.103394
0.578430 0.368927 0.112366
0.612335 0.376465 0.121429
0.648438 0.383698 0.127808
0.681091 0.391602 0.136627
0.712921 0.399170 0.145660
0.747009 0.405945 0.151764
0.778534 0.412872 0.158966
0.807892 0.420166 0.167511
0.837158 0.426270 0.174500
0.865387 0.432281 0.181213
0.892395 0.438080 0.187622
0.918396 0.443726 0.193604
0.918945 0.443817 0.193817
0.918945 0.443817 0.193817
0.918945 0.443817 0.193817
0.035522 0.328247 0.128815
0.057709 0.328003 0.124847
0.061432 0.327881 0.102936
0.061218 0.327789 0.075531
0.069366 0.327148 0.052124
0.098297 0.325470 0.046539
0.129578 0.323730 0.040680
0.162689 0.316864 0.041046
0.193726 0.310333 0.041595
0.219910 0.310089 0.040375
0.250275 0.312988 0.040009
0.297852 0.333923 0.046051
0.330475 0.339569 0.052399
0.364838 0.346588 0.058655
0.399292 0.353851 0.067413
0.434784 0.361450 0.075378
0.470367 0.369049 0.083954
0.505768 0.376617 0.092407
0.542023 0.384338 0.100067
0.576508 0.392059 0.109070
0.611908 0.399567 0.116730
0.645630 0.406952 0.125793
0.679504 0.414246 0.133362
0.712921 0.421539 0.140930
0.745605 0.428467 0.148499
0.776031 0.435638 0.157104
0.805176 0.442566 0.165894
0.836731 0.448914 0.171356
0.865570 0.455353 0.178040
0.891693 0.461884 0.186096
0.917938 0.467407 0.192352
0.918701 0.467529 0.192474
0.918701 0.467529 0.192474
0.918701 0.467529 0.192474
0.039612 0.359924 0.141663
0.061554 0.359772 0.137787
0.065247 0.359680 0.116333
0.065033 0.359589 0.089294
0.064606 0.359467 0.058258
0.093292 0.357635 0.053162
0.124176 0.355499 0.047546
0.157166 0.352203 0.043579
0.190796 0.344543 0.044281
0.220703 0.339630 0.044342
0.247833 0.339386 0.043213
0.279358 0.342896 0.042908
0.329498 0.365814 0.049286
0.362854 0.371490 0.055908
0.396790 0.377411 0.063599
0.432404 0.385223 0.071686
0.468384 0.392914 0.080292
0.504761 0.400757 0.087769
0.539948 0.408112 0.096436
0.574768 0.415558 0.105469
0.610199 0.423157 0.113190
0.643738 0.430389 0.122223
0.676544 0.437744 0.131348
0.711487 0.444702 0.137390
0.742645 0.451813 0.146362
0.773132 0.458771 0.155304
0.805511 0.465454 0.160736
0.833801 0.471924 0.169403
0.862793 0.478271 0.176117
0.890411 0.484283 0.182648
0.915436 0.490509 0.190765
0.915985 0.490631 0.190918
0.915985 0.490631 0.190918
0.915985 0.490631 0.190918
0.043793 0.392090 0.154510
0.065613 0.392029 0.150848
0.069427 0.391937 0.129822
0.069183 0.391876 0.103149
0.068939 0.391785 0.074890
0.088501 0.390167 0.059814
0.118805 0.388123 0.054474
0.151154 0.385925 0.049164
0.185547 0.379944 0.047729
0.219086 0.372559 0.047791
0.248383 0.369354 0.047272
0.276093 0.369080 0.046051
0.309235 0.373566 0.045776
0.362091 0.397949 0.052551
0.396088 0.403748 0.059479
0.430908 0.409821 0.066681
0.466766 0.417450 0.075012
0.502411 0.424927 0.083862
0.538910 0.432709 0.091431
0.572662 0.439728 0.101593
0.608185 0.447449 0.109344
0.641937 0.454651 0.118469
0.676178 0.461914 0.126129
0.708405 0.468872 0.135193
0.741211 0.475952 0.142609
0.773102 0.482605 0.149902
0.802643 0.489410 0.158752
0.832581 0.495422 0.165680
0.859833 0.501984 0.173981
0.889374 0.507782 0.179016
0.916077 0.513519 0.185303
0.916595 0.513611 0.185425
0.916595 0.513611 0.185425
0.916595 0.513611 0.185425
0.048065 0.424683 0.167664
0.069794 0.424652 0.164032
0.073456 0.424561 0.143311
0.073242 0.424530 0.117126
0.072906 0.424408 0.089111
0.083435 0.423645 0.066406
0.113098 0.422028 0.060577
0.145447 0.418884 0.056335
0.179321 0.416748 0.050415
0.214355 0.409210 0.050659
0.248352 0.401611 0.050690
0.276672 0.399902 0.050232
0.305084 0.399597 0.048889
0.339813 0.404572 0.048737
0.394989 0.430939 0.055817
0.429626 0.436768 0.063171
0.464447 0.442566 0.070618
0.500183 0.449829 0.079163
0.536560 0.457672 0.087158
0.570404 0.464539 0.097290
0.606140 0.472137 0.105194
0.640015 0.479370 0.114166
0.674255 0.486572 0.121979
0.706543 0.493408 0.130951
0.739502 0.500366 0.138672
0.770111 0.506958 0.147369
0.801025 0.513672 0.154846
0.831055 0.519928 0.161865
0.860077 0.526123 0.168610
0.886322 0.532074 0.176697
0.912933 0.537476 0.183014
0.913483 0.537598 0.183136
0.913483 0.537598 0.183136
0.913483 0.537598 0.183136
0.052612 0.458038 0.181061
0.074188 0.458069 0.177765
0.077911 0.458008 0.157227
0.077698 0.457977 0.131561
0.077393 0.457855 0.103760
0.078186 0.457764 0.073029
0.108368 0.455383 0.068207
0.139587 0.453430 0.062256
0.172852 0.451630 0.056366
0.208344 0.446869 0.053314
0.243622 0.438263 0.054382
0.277130 0.431000 0.054504
0.305756 0.430695 0.053131
0.334808 0.430328 0.051392
0.370819 0.436371 0.051361
0.428772 0.464508 0.059082
0.463623 0.470367 0.066742
0.498322 0.476013 0.074402
0.533142 0.482544 0.083313
0.568298 0.490021 0.092407
0.603973 0.497559 0.100372
0.637726 0.504669 0.109589
0.672333 0.511932 0.117371
0.704742 0.518707 0.126556
0.737701 0.525696 0.134064
0.768188 0.532257 0.143097
0.799469 0.538910 0.150330
0.829498 0.544891 0.157379
0.856842 0.550781 0.165924
0.884644 0.556824 0.172546
0.911621 0.562714 0.178955
0.912231 0.562866 0.179077
0.912231 0.562866 0.179077
0.912231 0.562866 0.179077
0.057281 0.491913 0.194458
0.078583 0.492035 0.191315
0.082245 0.492004 0.171326
0.082001 0.491913 0.145844
0.081696 0.491852 0.118622
0.081390 0.491791 0.089600
0.103058 0.490021 0.075134
0.134003 0.487915 0.069611
0.166962 0.486023 0.063721
0.201355 0.484039 0.057495
0.237915 0.475952 0.058044
0.273376 0.467651 0.058258
0.306183 0.462494 0.057587
0.335266 0.462158 0.056091
0.365112 0.461823 0.054169
0.402496 0.468628 0.054291
0.462708 0.498596 0.062134
0.497528 0.504333 0.070282
0.531769 0.509735 0.078156
0.565765 0.515564 0.087402
0.601562 0.523315 0.095367
0.636810 0.530670 0.103241
0.670044 0.537537 0.112610
0.702576 0.544250 0.121857
0.735596 0.551208 0.129486
0.766418 0.557526 0.138580
0.797546 0.564117 0.145813
0.826202 0.570282 0.154633
0.855347 0.576569 0.161560
0.883240 0.582428 0.168182
0.908447 0.587952 0.176208
0.909027 0.588135 0.176331
0.909027 0.588135 0.176331
0.909027 0.588135 0.176331
0.062134 0.525940 0.207886
0.083221 0.526093 0.204956
0.086884 0.526062 0.185303
0.086670 0.526031 0.160187
0.086395 0.525970 0.133453
0.086029 0.525909 0.104950
0.098236 0.523865 0.082855
0.128479 0.522675 0.076569
0.160980 0.520660 0.070831
0.195099 0.518585 0.064850
0.231232 0.514526 0.060669
0.268097 0.506317 0.061096
0.303986 0.497955 0.061310
0.335724 0.493958 0.060669
0.365570 0.493591 0.058868
0.395905 0.493195 0.056915
0.434265 0.500763 0.057190
0.496307 0.532715 0.065308
0.530914 0.538177 0.073700
0.565277 0.543671 0.081757
0.598969 0.549164 0.089691
0.634369 0.556915 0.098022
0.666504 0.563110 0.108704
0.700592 0.570374 0.116547
0.732056 0.576782 0.125854
0.764343 0.583649 0.133423
0.794128 0.589813 0.142487
0.824249 0.596252 0.149689
0.853485 0.602417 0.156586
0.879913 0.607635 0.165131
0.906677 0.613342 0.171631
0.907349 0.613586 0.171753
0.907349 0.613586 0.171753
0.907349 0.613586 0.171753
0.067078 0.559814 0.221222
0.087769 0.559998 0.218414
0.091583 0.559998 0.199066
0.091339 0.559937 0.174561
0.091034 0.559875 0.148041
0.090546 0.559814 0.119995
0.092285 0.559631 0.088776
0.122833 0.557373 0.083435
0.155182 0.555267 0.077972
0.189056 0.553101 0.072083
0.224274 0.551483 0.064941
0.261932 0.543945 0.064728
0.299011 0.535431 0.065094
0.335236 0.527740 0.064240
0.365997 0.525421 0.063629
0.396301 0.525024 0.061523
0.426697 0.524597 0.059631
0.466064 0.532990 0.060150
0.529266 0.565735 0.068481
0.564331 0.571960 0.077057
0.598145 0.577454 0.085266
0.631409 0.582916 0.093353
0.664124 0.588989 0.102966
0.698334 0.596191 0.111237
0.730133 0.602661 0.120361
0.762207 0.609497 0.128235
0.792297 0.615417 0.137146
0.822510 0.621796 0.144440
0.851624 0.628052 0.151642
0.878235 0.633575 0.159973
0.905243 0.639343 0.166534
0.905792 0.639374 0.166656
0.905792 0.639374 0.166656
0.905792 0.639374 0.166656
0.072205 0.593170 0.234558
0.092499 0.593384 0.231689
0.096039 0.593384 0.212738
0.095825 0.593353 0.188568
0.095581 0.593323 0.162506
0.095276 0.593231 0.134888
0.094604 0.593140 0.104675
0.118103 0.591003 0.091400
0.150146 0.588776 0.085907
0.183014 0.587250 0.079163
0.218414 0.584900 0.073517
0.255096 0.581635 0.068146
0.293213 0.574036 0.067688
0.330597 0.565002 0.068054
0.366333 0.556732 0.068268
0.396698 0.556366 0.066498
0.427277 0.555939 0.064362
0.457703 0.555573 0.061951
0.497528 0.564697 0.063019
0.560303 0.597473 0.071655
0.597198 0.605621 0.080383
0.630493 0.610931 0.088684
0.663239 0.616241 0.096832
0.695984 0.621918 0.105164
0.729218 0.629059 0.113098
0.758667 0.634491 0.123871
0.791595 0.641907 0.130035
0.820557 0.647705 0.139099
0.848083 0.653229 0.147766
0.876495 0.659332 0.154816
0.903442 0.664642 0.161438
0.903992 0.664856 0.161560
0.903992 0.664856 0.161560
0.903992 0.664856 0.161560
0.077332 0.626495 0.247559
0.097351 0.626770 0.244934
0.100830 0.626801 0.226379
0.100647 0.626740 0.202515
0.100403 0.626709 0.176819
0.100067 0.626587 0.149506
0.099670 0.626526 0.120575
0.113800 0.624329 0.099121
0.144531 0.622772 0.092651
0.177826 0.620392 0.087494
0.212311 0.618958 0.080597
0.248627 0.616425 0.074585
0.286896 0.610107 0.072357
0.325256 0.602264 0.071747
0.362610 0.593109 0.072113
0.397125 0.587433 0.071289
0.427704 0.587067 0.069122
0.457977 0.586670 0.067047
0.488464 0.586243 0.064575
0.528595 0.596375 0.065582
0.591003 0.628510 0.074677
0.629547 0.638824 0.083527
0.662292 0.643768 0.091980
0.694519 0.648956 0.100189
0.725769 0.654175 0.108521
0.756653 0.660034 0.118042
0.788086 0.666931 0.125824
0.816956 0.672485 0.134979
0.846436 0.678741 0.142212
0.874542 0.684570 0.149170
0.899872 0.689636 0.157410
0.900543 0.689972 0.157593
0.900543 0.689972 0.157593
0.900543 0.689972 0.157593
0.082306 0.659332 0.260498
0.101959 0.659668 0.257935
0.105652 0.659668 0.239929
0.105438 0.659637 0.216217
0.105042 0.659607 0.191071
0.104645 0.659515 0.163788
0.104248 0.659424 0.135498
0.107300 0.659271 0.104523
0.138977 0.656647 0.099396
0.171509 0.655243 0.092896
0.206970 0.651550 0.088715
0.242554 0.649841 0.081696
0.280121 0.646973 0.075745
0.319214 0.639069 0.075287
0.357605 0.629700 0.075836
0.395264 0.620453 0.076111
0.428131 0.617981 0.074158
0.458374 0.617554 0.071869
0.488800 0.617126 0.069763
0.518646 0.616699 0.067108
0.559692 0.627441 0.068451
0.620850 0.659302 0.077667
0.661163 0.671448 0.086395
0.693359 0.676544 0.095184
0.724884 0.681549 0.103394
0.755402 0.686218 0.111664
0.786224 0.692017 0.119476
0.816620 0.698456 0.127075
0.844421 0.704041 0.136169
0.870941 0.709259 0.145020
0.898132 0.714905 0.151825
0.898926 0.714996 0.152008
0.898926 0.714996 0.152008
0.898926 0.714996 0.152008
0.087372 0.691437 0.273163
0.106781 0.691772 0.270660
0.110199 0.691803 0.252960
0.110016 0.691742 0.229828
0.109741 0.691711 0.204834
0.109467 0.691650 0.178253
0.109039 0.691559 0.149841
0.107452 0.691467 0.117035
0.134735 0.688995 0.107056
0.166840 0.687561 0.100830
0.200714 0.685791 0.094330
0.237000 0.681946 0.089813
0.273682 0.680359 0.082611
0.312805 0.675354 0.078674
0.352386 0.666138 0.079376
0.391113 0.657654 0.078674
0.428467 0.648193 0.078918
0.458954 0.647736 0.076904
0.489044 0.647339 0.074585
0.519012 0.646912 0.072021
0.548889 0.646484 0.069458
0.590240 0.657959 0.071289
0.650208 0.689240 0.080627
0.692352 0.703552 0.089386
0.723938 0.708649 0.098206
0.754486 0.713287 0.106445
0.784302 0.718201 0.114716
0.813110 0.722656 0.122375
0.840790 0.727814 0.131622
0.869354 0.733948 0.138824
0.896515 0.739960 0.145721
0.897156 0.740112 0.145844
0.897156 0.740112 0.145844
0.897156 0.740112 0.145844
0.092499 0.723236 0.285614
0.111603 0.723572 0.283264
0.114990 0.723602 0.265900
0.114777 0.723572 0.243103
0.114532 0.723541 0.218384
0.114227 0.723480 0.192017
0.113800 0.723389 0.164032
0.113190 0.723328 0.134918
0.130310 0.720520 0.114868
0.162201 0.718994 0.108612
0.195648 0.717468 0.102020
0.230743 0.715881 0.095306
0.267883 0.712769 0.089508
0.305878 0.711029 0.082123
0.346405 0.701782 0.082794
0.385742 0.693207 0.082123
0.424408 0.683716 0.082611
0.459320 0.677368 0.081757
0.489532 0.676971 0.079376
0.519714 0.676575 0.077179
0.549255 0.676147 0.074524
0.578491 0.675690 0.071716
0.619904 0.688141 0.074066
0.679047 0.718658 0.083435
0.722656 0.735077 0.092346
0.753540 0.739899 0.101074
0.783386 0.744690 0.109344
0.812195 0.749054 0.117218
0.839966 0.753540 0.125031
0.867432 0.758759 0.132385
0.892975 0.763336 0.141144
0.895477 0.764618 0.139496
0.895477 0.764618 0.139496
0.895477 0.764618 0.139496
0.097626 0.754150 0.297943
0.116180 0.754517 0.295624
0.119812 0.754578 0.278412
0.119415 0.754517 0.256042
0.119110 0.754456 0.231689
0.118835 0.754425 0.205658
0.118439 0.754364 0.178223
0.118011 0.754272 0.149200
0.125275 0.752869 0.121002
0.156830 0.751282 0.114807
0.191071 0.748291 0.109741
0.225647 0.746643 0.103088
0.262054 0.744965 0.096008
0.300262 0.741699 0.090210
0.340118 0.736877 0.086029
0.380493 0.728424 0.085510
0.419495 0.718689 0.086121
0.457245 0.709076 0.086609
0.489868 0.706055 0.084442
0.520050 0.705658 0.082031
0.549561 0.705200 0.079437
0.578735 0.704803 0.076935
0.607574 0.704346 0.074066
0.649261 0.717529 0.076721
0.707184 0.747345 0.086060
0.752258 0.765900 0.095154
0.782196 0.770569 0.103607
0.811035 0.775269 0.112030
0.839081 0.779358 0.119843
0.865875 0.783600 0.127228
0.891571 0.787811 0.134430
0.892181 0.787903 0.134705
0.892181 0.787903 0.134705
0.892181 0.787903 0.134705
0.102692 0.784302 0.309814
0.120972 0.784668 0.307526
0.124298 0.784760 0.290863
0.124084 0.784698 0.268738
0.123840 0.784637 0.244537
0.123535 0.784607 0.218811
0.123199 0.784546 0.191711
0.122742 0.784485 0.162903
0.120422 0.784332 0.126770
0.152740 0.781494 0.122223
0.185760 0.779724 0.115845
0.220428 0.777985 0.109222
0.256592 0.776245 0.102386
0.294495 0.773163 0.096680
0.333923 0.769714 0.090912
0.374817 0.761475 0.090088
0.414856 0.752930 0.089478
0.452942 0.742981 0.090088
0.490051 0.734589 0.089203
0.520477 0.734009 0.086975
0.550049 0.733643 0.084534
0.579163 0.733154 0.081909
0.607849 0.732697 0.079010
0.636047 0.732239 0.076080
0.677948 0.746216 0.079193
0.734222 0.775269 0.088776
0.781097 0.796051 0.097839
0.810089 0.800323 0.106201
0.837860 0.804779 0.114502
0.864685 0.809174 0.122223
0.890503 0.813019 0.129486
0.891022 0.813110 0.129639
0.891022 0.813110 0.129639
0.891022 0.813110 0.129639
0.107483 0.813690 0.321228
0.125702 0.814087 0.319305
0.128937 0.814117 0.302551
0.128784 0.814087 0.280853
0.128510 0.814056 0.257263
0.128143 0.814026 0.231812
0.127655 0.813934 0.204773
0.127197 0.813904 0.176361
0.126251 0.813782 0.145111
0.147583 0.812195 0.128021
0.181610 0.809204 0.123230
0.214813 0.808838 0.115265
0.251648 0.805481 0.109894
0.288879 0.803711 0.102966
0.328003 0.800171 0.097290
0.368835 0.795044 0.093109
0.409363 0.786346 0.092621
0.448608 0.776367 0.093445
0.486359 0.767914 0.092590
0.520844 0.761658 0.091705
0.550354 0.761230 0.089264
0.579529 0.760864 0.086700
0.608246 0.760437 0.084229
0.636444 0.759949 0.081268
0.663696 0.759460 0.078308
0.705627 0.774139 0.081848
0.760712 0.802429 0.091400
0.809052 0.825165 0.100098
0.836914 0.829315 0.108673
0.863739 0.833679 0.116608
0.889587 0.837799 0.124237
0.890137 0.837921 0.124512
