backup-gold-v1/lut/回忆录-f.cube
#Created by: Adobe Photoshop Export Color Lookup Plugin
TITLE "多场景样片-v1.0.psd"
#LUT size
LUT_3D_SIZE 4
#data domain
DOMAIN_MIN 0.0 0.0 0.0
DOMAIN_MAX 1.0 1.0 1.0
#LUT data points
0.007446 0.058258 0.007812
0.306549 0.104767 0.038422
0.683075 0.209564 0.126862
0.919006 0.278992 0.185089
0.039612 0.359924 0.141663
0.279358 0.342896 0.042908
0.676544 0.437744 0.131348
0.915985 0.490631 0.190918
0.092499 0.723236 0.285614
0.230743 0.715881 0.095306
0.619904 0.688141 0.074066
0.895477 0.764618 0.139496
0.130554 0.947357 0.373840
0.194611 0.943573 0.147430
0.610260 0.885712 0.106995
0.832764 0.900726 0.093872
0.056549 0.124176 0.325653
0.263824 0.117249 0.270081
0.648315 0.185425 0.324188
0.903137 0.228363 0.337463
0.059418 0.284302 0.302826
0.326477 0.368652 0.344666
0.698059 0.454926 0.404022
0.938629 0.508514 0.440002
0.108795 0.697784 0.509155
0.378296 0.724945 0.478424
0.668854 0.712250 0.385956
0.926392 0.779816 0.420776
0.138123 0.935638 0.598816
0.410767 0.954407 0.561493
0.653839 0.929047 0.406036
0.887939 0.930359 0.407074
0.140564 0.223969 0.668335
0.340698 0.192413 0.643463
0.590118 0.210541 0.564850
0.804169 0.270050 0.605316
0.145142 0.382965 0.653473
0.388153 0.445374 0.679169
0.647003 0.448181 0.628174
0.881531 0.485901 0.669678
0.136230 0.570618 0.636139
0.406769 0.652161 0.670044
0.722290 0.739868 0.704895
0.960907 0.801971 0.747162
0.185547 0.863922 0.794373
0.441101 0.917786 0.807007
0.742035 0.961304 0.771454
0.949860 0.963776 0.737946
0.194946 0.286377 0.855988
0.357819 0.241547 0.848907
0.656372 0.266418 0.748932
0.795258 0.273743 0.729889
0.194000 0.453735 0.848511
0.427917 0.493927 0.870300
0.707764 0.484131 0.812073
0.854095 0.497711 0.791901
0.208557 0.581970 0.806000
0.449921 0.679291 0.843933
0.753082 0.776459 0.887146
0.929779 0.798096 0.871918
0.188995 0.759033 0.831146
0.455536 0.842712 0.868164
0.781860 0.939911 0.910400
0.971985 0.971710 0.907166
