backup-gold-v1/lut/回忆录-f.cube
#Created by: Adobe Photoshop Export Color Lookup Plugin
TITLE "多场景样片-v1.0.psd"
#LUT size
LUT_3D_SIZE 7
#data domain
#LUT data points
DOMAIN_MIN 0.000000 0.000000 0.000000
DOMAIN_MAX 0.909091 0.909091 0.909091
0.007446 0.058258 0.007812
0.125427 0.074341 0.017975
0.274231 0.096588 0.031342
0.442261 0.141205 0.069153
0.616455 0.190155 0.110565
0.778137 0.237366 0.150177
0.918518 0.278870 0.184937
0.022522 0.180176 0.068970
0.115448 0.172638 0.028503
0.272797 0.212982 0.054291
0.442688 0.250946 0.090210
0.617004 0.289093 0.128204
0.778839 0.326050 0.164948
0.919159 0.359589 0.197601
0.035522 0.328247 0.128815
0.098297 0.325470 0.046539
0.250275 0.312988 0.040009
0.434784 0.361450 0.075378
0.611908 0.399567 0.116730
0.776031 0.435638 0.157104
0.917938 0.467407 0.192352
0.057281 0.491913 0.194458
0.081390 0.491791 0.089600
0.237915 0.475952 0.058044
0.402496 0.468628 0.054291
0.601562 0.523315 0.095367
0.766418 0.557526 0.138580
0.908447 0.587952 0.176208
0.082306 0.659332 0.260498
0.104645 0.659515 0.163788
0.206970 0.651550 0.088715
0.395264 0.620453 0.076111
0.559692 0.627441 0.068451
0.755402 0.686218 0.111664
0.898132 0.714905 0.151825
0.107483 0.813690 0.321228
0.128143 0.814026 0.231812
0.181610 0.809204 0.123230
0.368835 0.795044 0.093109
0.550354 0.761230 0.089264
0.705627 0.774139 0.081848
0.889587 0.837799 0.124237
0.130463 0.946808 0.373627
0.149597 0.947266 0.289825
0.161438 0.944916 0.153290
0.342407 0.934784 0.120392
0.541138 0.900055 0.108673
0.692474 0.884064 0.099243
0.832275 0.900238 0.093811
0.027740 0.085571 0.141144
0.114410 0.083282 0.119873
0.255371 0.101746 0.138702
0.436005 0.125488 0.148529
0.616455 0.156677 0.159180
0.778137 0.190460 0.175140
0.918518 0.220978 0.190979
0.031677 0.150391 0.130493
0.135284 0.185730 0.149841
0.277649 0.212738 0.167999
0.447205 0.251678 0.196503
0.622559 0.291412 0.225342
0.784943 0.329071 0.253113
0.925659 0.362854 0.278198
0.044067 0.314941 0.221771
0.155090 0.326080 0.208588
0.265778 0.319550 0.166962
0.443695 0.366425 0.196075
0.621246 0.406647 0.226807
0.784332 0.441986 0.255310
0.925171 0.471832 0.280273
0.059845 0.487671 0.294434
0.178375 0.491211 0.274414
0.250336 0.486603 0.187103
0.419983 0.476654 0.184906
0.611816 0.527832 0.212799
0.777069 0.563660 0.243073
0.918945 0.594391 0.270538
0.082306 0.659332 0.358032
0.200378 0.660248 0.338409
0.223694 0.658844 0.217316
0.410126 0.636841 0.200592
0.579285 0.637360 0.199280
0.765411 0.689667 0.226654
0.909027 0.720062 0.253906
0.107483 0.813690 0.412476
0.220856 0.816010 0.395782
0.225464 0.815521 0.267426
0.381378 0.805511 0.217926
0.571686 0.771606 0.214203
0.726929 0.785004 0.211487
0.900574 0.840820 0.236084
0.130463 0.946808 0.459534
0.239014 0.949707 0.444824
0.243530 0.949524 0.319794
0.358185 0.941040 0.242981
0.555664 0.917328 0.225555
0.714294 0.895508 0.223480
0.854065 0.912109 0.221558
0.050323 0.116364 0.294250
0.140137 0.103394 0.281372
0.236145 0.110046 0.243378
0.396301 0.142914 0.274078
0.583405 0.171356 0.293396
0.760651 0.197784 0.302094
0.913696 0.222290 0.306854
0.053894 0.188019 0.285736
0.159546 0.217010 0.296631
0.258026 0.214996 0.271240
0.427032 0.240540 0.300568
0.613922 0.261414 0.310333
0.784943 0.282501 0.316010
0.925659 0.305542 0.325562
0.053619 0.260132 0.273193
0.164764 0.292603 0.286133
0.292633 0.336121 0.311340
0.451996 0.372040 0.335663
0.628571 0.413605 0.364838
0.793427 0.450562 0.390015
0.935822 0.482361 0.411438
0.078491 0.458801 0.385986
0.186676 0.478638 0.386200
0.313202 0.490143 0.369171
0.440796 0.486115 0.329224
0.623657 0.534546 0.358734
0.790161 0.573853 0.385925
0.934204 0.606384 0.408478
0.097046 0.636139 0.462952
0.203369 0.655762 0.458466
0.340302 0.659760 0.435089
0.426239 0.654144 0.348358
0.601959 0.647888 0.349121
0.781372 0.697174 0.372803
0.925720 0.729553 0.395996
0.116852 0.799438 0.525879
0.220856 0.816010 0.517090
0.362854 0.817535 0.493286
0.403931 0.813782 0.376709
0.595276 0.789825 0.363373
0.752014 0.797882 0.364227
0.915771 0.845978 0.383392
0.133270 0.941742 0.577637
0.239014 0.949707 0.563202
0.381348 0.953217 0.541931
0.383423 0.952362 0.398773
0.574005 0.939636 0.374237
0.742493 0.909851 0.375824
0.881805 0.926880 0.375702
0.084808 0.158569 0.453430
0.152710 0.135559 0.453186
0.282806 0.145416 0.410492
0.381134 0.149384 0.379700
0.540070 0.189667 0.410767
0.714722 0.217957 0.435394
0.866486 0.243530 0.449005
0.083649 0.239929 0.450928
0.189209 0.254089 0.457092
0.297668 0.241241 0.440063
0.403961 0.250671 0.406952
0.569977 0.280487 0.438263
0.743195 0.301331 0.456390
0.895813 0.318359 0.464508
0.093384 0.292480 0.432526
0.194550 0.335907 0.447601
0.316010 0.366760 0.460876
0.429840 0.369507 0.437836
0.607941 0.396667 0.468140
0.783752 0.415649 0.478607
0.935638 0.432037 0.483002
0.085938 0.387970 0.427185
0.199127 0.421875 0.441254
0.325958 0.458160 0.455902
0.468842 0.502777 0.478455
0.636047 0.542114 0.504669
0.801605 0.582703 0.532837
0.946503 0.616577 0.555328
0.117828 0.604431 0.549316
0.224182 0.625214 0.553040
0.351898 0.646851 0.553253
0.483215 0.660858 0.529114
0.626495 0.660339 0.497620
0.795807 0.705200 0.526123
0.942566 0.741669 0.549683
0.137604 0.767670 0.622345
0.239349 0.788696 0.623657
0.369080 0.812225 0.620575
0.511292 0.818726 0.590118
0.614624 0.811646 0.514740
0.778229 0.811218 0.518250
0.932800 0.854279 0.540161
0.154236 0.910004 0.679901
0.252319 0.929596 0.678497
0.384003 0.953308 0.672607
0.533478 0.956299 0.640625
0.597626 0.951630 0.539520
0.773468 0.925293 0.532654
0.910614 0.942352 0.533478
0.124542 0.205353 0.609772
0.175049 0.175446 0.609650
0.305664 0.176910 0.587372
0.432617 0.192383 0.534393
0.531830 0.193054 0.514496
0.672729 0.235809 0.540833
0.821442 0.262146 0.567169
0.121979 0.283173 0.609253
0.220398 0.292664 0.614532
0.312653 0.267212 0.610199
0.452789 0.281281 0.563080
0.554871 0.286957 0.540070
0.697876 0.320923 0.566711
0.847137 0.340454 0.589203
0.128998 0.350098 0.596252
0.220795 0.388458 0.609833
0.348267 0.406311 0.618866
0.473297 0.396484 0.598175
0.582367 0.408020 0.571320
0.739044 0.435394 0.601898
0.889343 0.452850 0.619598
0.138245 0.402618 0.573761
0.235168 0.445831 0.589813
0.357635 0.498199 0.608856
0.490234 0.530426 0.625244
0.613220 0.539337 0.605896
0.781708 0.565826 0.635162
0.936066 0.584167 0.646820
0.121826 0.520050 0.579285
0.232697 0.554413 0.593933
0.364777 0.592499 0.609253
0.505554 0.633881 0.626984
0.651886 0.674225 0.643005
0.810944 0.713776 0.669800
0.956665 0.751556 0.695740
0.157135 0.738037 0.704346
0.261963 0.755676 0.705505
0.390259 0.781952 0.711945
0.532410 0.806671 0.713654
0.658447 0.821625 0.683289
0.804626 0.825317 0.663452
0.950928 0.864166 0.689453
0.177246 0.875702 0.765533
0.275757 0.896149 0.769409
0.405762 0.922394 0.773376
0.550049 0.950958 0.772827
0.685425 0.959320 0.736206
0.795715 0.949371 0.679749
0.938904 0.957520 0.683533
0.163788 0.250702 0.750061
0.198792 0.214050 0.749969
0.317963 0.210541 0.742310
0.466370 0.223450 0.695251
0.583679 0.232483 0.654633
0.672729 0.235809 0.635803
0.794800 0.273590 0.658173
0.161652 0.319946 0.749634
0.250885 0.329895 0.755280
0.328125 0.297241 0.754822
0.479126 0.303802 0.720337
0.602112 0.317780 0.674530
0.694824 0.321716 0.659576
0.816101 0.352997 0.681091
0.163910 0.402130 0.742035
0.247711 0.432617 0.754150
0.377502 0.442017 0.761353
0.491364 0.418701 0.753448
0.628571 0.435059 0.705475
0.724396 0.442139 0.691559
0.847382 0.471283 0.714844
0.174438 0.459534 0.722076
0.260956 0.497498 0.736145
0.382690 0.548340 0.755157
0.522644 0.568848 0.767670
0.655182 0.564423 0.744110
0.756805 0.576996 0.726746
0.894501 0.602875 0.755219
0.173279 0.526917 0.704987
0.270111 0.557953 0.718018
0.397339 0.605835 0.736481
0.536469 0.664642 0.757324
0.671326 0.697937 0.775909
0.789825 0.711304 0.762299
0.940247 0.735931 0.788727
0.157135 0.642456 0.715607
0.263702 0.676361 0.730377
0.398163 0.716980 0.747437
0.544525 0.759857 0.765320
0.689423 0.803192 0.784760
0.823242 0.833496 0.791779
0.965668 0.871826 0.818024
0.188843 0.840668 0.830719
0.290985 0.873077 0.845337
0.426331 0.893066 0.844238
0.570709 0.922333 0.852600
0.714691 0.950348 0.856201
0.820831 0.962616 0.819397
0.959839 0.967590 0.812469
0.194946 0.286377 0.855988
0.218658 0.244415 0.855896
0.328613 0.242615 0.853882
0.482971 0.249939 0.814209
0.614777 0.263428 0.763977
0.718475 0.262390 0.747284
0.794800 0.273590 0.729736
0.193237 0.349670 0.855621
0.275665 0.359528 0.861389
0.343353 0.321259 0.860840
0.491241 0.321655 0.839142
0.632080 0.338928 0.788330
0.736359 0.342590 0.766235
0.816101 0.352997 0.752106
0.191864 0.442017 0.851593
0.272644 0.458771 0.860352
0.399872 0.469452 0.868652
0.501495 0.439484 0.867035
0.655426 0.451965 0.823517
0.762207 0.460785 0.793549
0.846924 0.471222 0.784790
0.203430 0.501648 0.832672
0.282288 0.535736 0.846375
0.400604 0.585083 0.866394
0.546753 0.597900 0.876587
0.674866 0.582733 0.862793
0.791565 0.596832 0.823639
0.881989 0.608246 0.821594
0.210205 0.555176 0.812103
0.295074 0.592987 0.826233
0.416443 0.646698 0.847534
0.557098 0.705811 0.869446
0.696289 0.727509 0.884094
0.821381 0.731049 0.858826
0.916473 0.746613 0.858398
0.196472 0.641235 0.802979
0.291870 0.671997 0.816284
0.423401 0.713684 0.833710
0.571350 0.760071 0.852753
0.714417 0.817902 0.874542
0.838806 0.850708 0.891998
0.951202 0.867615 0.891144
0.188843 0.757874 0.830719
0.290985 0.790924 0.845337
0.426147 0.833069 0.863708
0.576630 0.878357 0.883484
0.726196 0.922638 0.902863
0.857819 0.954834 0.913788
0.971222 0.971191 0.907074
