backup-gold-v1/lut/摩卡-f.cube
#Created by: Adobe Photoshop Export Color Lookup Plugin
TITLE "多场景样片-v1.0.psd"
#LUT size
LUT_3D_SIZE 34
#data domain
DOMAIN_MIN 0.0 0.0 0.0
DOMAIN_MAX 1.0 1.0 1.0
#LUT data points
0.010223 0.010773 0.009338
0.010223 0.010773 0.009338
0.011292 0.011169 0.010651
0.018097 0.017090 0.015900
0.024750 0.023346 0.020874
0.029724 0.028198 0.024780
0.034668 0.032959 0.028534
0.039642 0.037720 0.032501
0.044708 0.042542 0.036438
0.049835 0.047516 0.040497
0.054993 0.052490 0.044525
0.060333 0.057648 0.048828
0.065765 0.062927 0.053192
0.071259 0.068207 0.057617
0.076782 0.073608 0.062225
0.082550 0.079163 0.066833
0.088257 0.084747 0.071594
0.094055 0.090454 0.076385
0.099976 0.096222 0.081390
0.106018 0.102112 0.086365
0.112091 0.108032 0.091614
0.118286 0.114075 0.096802
0.124512 0.120178 0.102264
0.130798 0.126373 0.107605
0.137238 0.132690 0.113281
0.143677 0.139008 0.118896
0.150208 0.145447 0.124542
0.156738 0.151917 0.130341
0.163391 0.158539 0.136292
0.170135 0.165222 0.142365
0.176910 0.171936 0.148346
0.183685 0.178680 0.154541
0.190552 0.185547 0.160797
0.197540 0.192474 0.167267
0.019043 0.018219 0.016479
0.023682 0.022400 0.020111
0.029419 0.027924 0.024536
0.034424 0.032684 0.028412
0.039490 0.037537 0.032349
0.044495 0.042358 0.036316
0.049561 0.047272 0.040283
0.054810 0.052307 0.044434
0.060120 0.057434 0.048645
0.065491 0.062622 0.053009
0.071014 0.067993 0.057404
0.076599 0.073395 0.062012
0.082245 0.078888 0.066559
0.087982 0.084534 0.071411
0.093750 0.090179 0.076141
0.099731 0.095978 0.081146
0.105713 0.101837 0.086182
0.111847 0.107758 0.091400
0.117981 0.113800 0.096619
0.124207 0.119904 0.101959
0.130585 0.126129 0.107513
0.136932 0.132355 0.112946
0.143372 0.138733 0.118622
0.149872 0.145142 0.124268
0.156464 0.151672 0.130188
0.163116 0.158264 0.136017
0.169800 0.164856 0.142090
0.176605 0.171631 0.148041
0.183380 0.178345 0.154327
0.190216 0.185211 0.160461
0.197205 0.192139 0.166931
0.204193 0.199127 0.173309
0.211212 0.206146 0.179810
0.218262 0.213226 0.186310
0.034698 0.032928 0.028656
0.039459 0.037506 0.032288
0.044281 0.042145 0.036133
0.049377 0.047089 0.040070
0.054565 0.052094 0.044281
0.059845 0.057190 0.048401
0.065247 0.062408 0.052826
0.070770 0.067749 0.057190
0.076324 0.073151 0.061798
0.081970 0.078644 0.066376
0.087738 0.084259 0.071167
0.093597 0.089935 0.076050
0.099518 0.095734 0.080933
0.105469 0.101532 0.085999
0.111542 0.107483 0.091095
0.117706 0.113525 0.096466
0.123932 0.119629 0.101715
0.130249 0.125793 0.107239
0.136627 0.132111 0.112671
0.143066 0.138397 0.118347
0.149597 0.144867 0.123993
0.156158 0.151398 0.129913
0.162811 0.157959 0.135742
0.169525 0.164581 0.141785
0.176239 0.171265 0.147766
0.183075 0.178070 0.154022
0.189941 0.184906 0.160248
0.196869 0.191833 0.166565
0.203857 0.198761 0.173126
0.210846 0.205811 0.179443
0.217896 0.212891 0.186157
0.225037 0.220001 0.192688
0.232208 0.227203 0.199524
0.239319 0.234375 0.206177
0.049835 0.047516 0.040497
0.054810 0.052307 0.044434
0.059875 0.057190 0.048462
0.065002 0.062164 0.052582
0.070496 0.067505 0.057037
0.076019 0.072876 0.061554
0.081696 0.078400 0.066223
0.087463 0.083984 0.070923
0.093292 0.089661 0.075836
0.099182 0.095398 0.080627
0.105164 0.101257 0.085785
0.111298 0.107208 0.090851
0.117401 0.113220 0.096161
0.123657 0.119354 0.101501
0.129974 0.125549 0.106934
0.136322 0.131805 0.112457
0.142792 0.138153 0.118073
0.149292 0.144592 0.123779
0.155853 0.151062 0.129578
0.162476 0.157593 0.135529
0.169159 0.164215 0.141449
0.175964 0.170959 0.147614
0.182770 0.177765 0.153687
0.189575 0.184540 0.160004
0.196533 0.191498 0.166229
0.203461 0.198456 0.172760
0.210510 0.205475 0.179138
0.217590 0.212524 0.185760
0.224670 0.219635 0.192322
0.231812 0.226807 0.199127
0.239014 0.234039 0.205872
0.246246 0.241333 0.212830
0.253448 0.248627 0.219604
0.260742 0.255981 0.226685
0.065796 0.062927 0.053162
0.070984 0.067963 0.057434
0.076294 0.073120 0.061737
0.081696 0.078400 0.066223
0.087158 0.083710 0.070648
0.093018 0.089355 0.075531
0.098877 0.095123 0.080475
0.104889 0.100983 0.085510
0.110931 0.106903 0.090576
0.117126 0.112946 0.095856
0.123352 0.119049 0.101257
0.129669 0.125244 0.106628
0.136078 0.131531 0.112274
0.142487 0.137848 0.117767
0.148987 0.144257 0.123566
0.155548 0.150757 0.129242
0.162170 0.157288 0.135223
0.168854 0.163910 0.141083
0.175629 0.170624 0.147278
0.182404 0.177399 0.153290
0.189270 0.184265 0.159668
0.196167 0.191162 0.165955
0.203186 0.198151 0.172363
0.210144 0.205109 0.178772
0.217224 0.212219 0.185394
0.224365 0.219330 0.192169
0.231476 0.226471 0.198761
0.238708 0.233734 0.205658
0.245850 0.240936 0.212341
0.253113 0.248291 0.219391
0.260406 0.255646 0.226288
0.267761 0.263031 0.233490
0.275146 0.270447 0.240509
0.282501 0.277863 0.247803
0.082550 0.079193 0.066833
0.087982 0.084534 0.071411
0.093536 0.089905 0.075928
0.099182 0.095398 0.080719
0.104858 0.100922 0.085449
0.110687 0.106598 0.090424
0.116821 0.112640 0.095581
0.123077 0.118713 0.101013
0.129333 0.124908 0.106354
0.135651 0.131165 0.111908
0.142181 0.137512 0.117432
0.148621 0.143921 0.123260
0.155243 0.150421 0.129028
0.161835 0.156952 0.134918
0.168518 0.163635 0.140808
0.175323 0.170349 0.146973
0.182098 0.177063 0.153107
0.188965 0.183960 0.159332
0.195831 0.190796 0.165710
0.202789 0.197784 0.172058
0.209839 0.204803 0.178619
0.216919 0.211823 0.185059
0.223999 0.218964 0.191803
0.231171 0.226135 0.198395
0.238342 0.233337 0.205261
0.245514 0.240601 0.211975
0.252777 0.247955 0.219025
0.260040 0.255249 0.225983
0.267426 0.262634 0.233093
0.274750 0.270020 0.240051
0.282166 0.277527 0.247437
0.289520 0.285034 0.254578
0.296967 0.292542 0.261902
0.304443 0.300110 0.269440
0.100037 0.096252 0.081390
0.105713 0.101837 0.086182
0.111542 0.107452 0.091125
0.117432 0.113220 0.096130
0.123352 0.119049 0.101227
0.129333 0.124908 0.106384
0.135437 0.130890 0.111633
0.141846 0.137207 0.117249
0.148315 0.143616 0.122925
0.154938 0.150116 0.128845
0.161499 0.156647 0.134583
0.168213 0.163300 0.140686
0.174957 0.170013 0.146606
0.181763 0.176788 0.152893
0.188629 0.183594 0.158997
0.195496 0.190491 0.165405
0.202484 0.197449 0.171692
0.209473 0.204468 0.178284
0.216583 0.211517 0.184753
0.223633 0.218628 0.191437
0.230804 0.225800 0.198059
0.237946 0.233032 0.204895
0.245178 0.240265 0.211792
0.252411 0.247589 0.218658
0.259674 0.254913 0.225708
0.267029 0.262299 0.232697
0.274414 0.269684 0.239868
0.281769 0.277191 0.246979
0.289185 0.284637 0.254364
0.296661 0.292236 0.261536
0.304077 0.299744 0.269012
0.311584 0.307343 0.276306
0.319092 0.314972 0.283905
0.326599 0.322571 0.291260
0.118286 0.114105 0.096924
0.124237 0.119934 0.101959
0.130249 0.125793 0.107239
0.136353 0.131805 0.112396
0.142487 0.137848 0.117859
0.148682 0.143921 0.123138
0.154938 0.150116 0.128815
0.161194 0.156372 0.134338
0.167908 0.162994 0.140350
0.174622 0.169678 0.146271
0.181427 0.176453 0.152557
0.188293 0.183289 0.158783
0.195251 0.190186 0.165100
0.202179 0.197113 0.171509
0.209167 0.204102 0.177948
0.216217 0.211182 0.184540
0.223358 0.218323 0.191132
0.230469 0.225433 0.197876
0.237610 0.232697 0.204559
0.244812 0.239899 0.211456
0.252045 0.247253 0.218292
0.259369 0.254608 0.225403
0.266693 0.261963 0.232361
0.274048 0.269379 0.239532
0.281464 0.276855 0.246613
0.288849 0.284332 0.253998
0.296265 0.291870 0.261139
0.303741 0.299408 0.268646
0.311218 0.306976 0.275940
0.318695 0.314545 0.283478
0.326263 0.322205 0.291077
0.333771 0.329834 0.298584
0.341339 0.337463 0.306244
0.348877 0.345154 0.313812
0.137238 0.132690 0.113312
0.143372 0.138702 0.118591
0.149567 0.144867 0.124054
0.155884 0.151062 0.129578
0.162201 0.157318 0.135223
0.168518 0.163605 0.140839
0.174927 0.170013 0.146667
0.181427 0.176422 0.152466
0.187927 0.182953 0.158539
0.194885 0.189789 0.164734
0.201843 0.196777 0.171173
0.208862 0.203796 0.177551
0.215881 0.210876 0.184265
0.223022 0.217987 0.190765
0.230072 0.225098 0.197510
0.237305 0.232330 0.204163
0.244446 0.239563 0.211151
0.251740 0.246887 0.218018
0.259033 0.254211 0.225037
0.266327 0.261597 0.232086
0.273682 0.269012 0.239166
0.281097 0.276459 0.246368
0.288483 0.283966 0.253601
0.295929 0.291504 0.260956
0.303406 0.299072 0.268250
0.310822 0.306610 0.275665
0.318359 0.314240 0.283081
0.325867 0.321838 0.290771
0.333405 0.329468 0.298157
0.340912 0.337097 0.305878
0.348541 0.344818 0.313446
0.356079 0.352478 0.321228
0.363647 0.360229 0.328857
0.371246 0.367920 0.336761
0.156769 0.151917 0.130310
0.163086 0.158264 0.136047
0.169464 0.164551 0.141724
0.175934 0.170929 0.147522
0.182404 0.177399 0.153320
0.188965 0.183960 0.159363
0.195526 0.190491 0.165405
0.202148 0.197113 0.171478
0.208893 0.203796 0.177582
0.215576 0.210480 0.183868
0.222626 0.217590 0.190552
0.229767 0.224762 0.197174
0.236938 0.231964 0.203918
0.244141 0.239227 0.210724
0.251343 0.246552 0.217743
0.258667 0.253876 0.224670
0.266022 0.261261 0.231689
0.273346 0.268646 0.238770
0.280731 0.276123 0.246094
0.288116 0.283630 0.253174
0.295563 0.291138 0.260590
0.302979 0.298676 0.267792
0.310455 0.306213 0.275330
0.317902 0.313812 0.282684
0.325531 0.321411 0.290283
0.333069 0.329132 0.297852
0.340576 0.336792 0.305481
0.348145 0.344482 0.313080
0.355713 0.352142 0.320831
0.363342 0.359894 0.328705
0.370880 0.367523 0.336334
0.378510 0.375275 0.344177
0.386078 0.382996 0.352020
0.393707 0.390717 0.360016
0.176910 0.171967 0.148346
0.183411 0.178375 0.154327
0.189880 0.184875 0.160187
0.196503 0.191498 0.166321
0.203156 0.198151 0.172333
0.209808 0.204773 0.178619
0.216583 0.211548 0.184753
0.223328 0.218292 0.191162
0.230133 0.225128 0.197449
0.236908 0.231934 0.203979
0.243805 0.238953 0.210419
0.251038 0.246155 0.217377
0.258362 0.253540 0.224304
0.265656 0.260864 0.231384
0.272980 0.268250 0.238373
0.280365 0.275787 0.245697
0.287811 0.283295 0.252960
0.295197 0.290771 0.260223
0.302612 0.298309 0.267426
0.310181 0.305908 0.274963
0.317688 0.313477 0.282471
0.325165 0.321136 0.289917
0.332703 0.328796 0.297455
0.340240 0.336456 0.305084
0.347778 0.344086 0.312836
0.355377 0.351746 0.320374
0.362946 0.359467 0.328339
0.370544 0.367188 0.335938
0.378143 0.374847 0.343872
0.385742 0.382660 0.351624
0.393311 0.390350 0.359619
0.400909 0.398102 0.367371
0.408569 0.405853 0.375519
0.416168 0.413574 0.383331
0.197540 0.192474 0.167206
0.204224 0.199158 0.173401
0.210876 0.205811 0.179474
0.217590 0.212585 0.185822
0.224365 0.219330 0.192047
0.231140 0.226135 0.198578
0.237976 0.233032 0.204895
0.244812 0.239929 0.211456
0.251740 0.246887 0.218048
0.258698 0.253906 0.224701
0.265686 0.260895 0.231384
0.272675 0.268005 0.238220
0.280029 0.275421 0.245331
0.287445 0.282959 0.252716
0.294830 0.290436 0.259766
0.302338 0.297974 0.267334
0.309784 0.305511 0.274567
0.317291 0.313110 0.282166
0.324799 0.320740 0.289490
0.332336 0.328400 0.297180
0.339844 0.336060 0.304657
0.347412 0.343719 0.312469
0.354980 0.351410 0.320068
0.362579 0.359070 0.327881
0.370209 0.366882 0.335602
0.377747 0.374512 0.343475
0.385406 0.382324 0.351349
0.392944 0.389984 0.359192
0.400574 0.397736 0.367096
0.408203 0.405487 0.375092
0.415833 0.413208 0.383087
0.423401 0.420929 0.391022
0.431000 0.428711 0.399109
0.438599 0.436401 0.407074
0.218597 0.213623 0.186737
0.225342 0.220367 0.192963
0.232208 0.227203 0.199524
0.239014 0.234039 0.205872
0.245880 0.240997 0.212494
0.252777 0.247925 0.218933
0.259735 0.254944 0.225739
0.266693 0.261993 0.232361
0.273743 0.269043 0.239227
0.280731 0.276123 0.245972
0.287781 0.283264 0.252960
0.294861 0.290405 0.259827
0.301971 0.297577 0.266907
0.309418 0.305176 0.274231
0.316956 0.312775 0.281769
0.324463 0.320374 0.289185
0.332001 0.328064 0.296814
0.339539 0.335693 0.304382
0.347046 0.343353 0.312042
0.354645 0.351044 0.319733
0.362244 0.358734 0.327484
0.369781 0.366425 0.335266
0.377441 0.374176 0.343018
0.385040 0.381897 0.351044
0.392609 0.389648 0.358765
0.400238 0.397400 0.366821
0.407867 0.405121 0.374634
0.415436 0.412872 0.382782
0.423065 0.420624 0.390625
0.430603 0.428284 0.398773
0.438232 0.436066 0.406677
0.445801 0.443756 0.414917
0.453369 0.451447 0.422821
0.460938 0.459167 0.431030
0.240051 0.235077 0.206940
0.246918 0.242004 0.213379
0.253815 0.248962 0.220001
0.260773 0.255981 0.226654
0.267792 0.263031 0.233521
0.274750 0.270081 0.240173
0.281799 0.277191 0.247070
0.288849 0.284332 0.253937
0.295929 0.291504 0.261017
0.303009 0.298706 0.267883
0.310150 0.305908 0.275024
0.317291 0.313110 0.282013
0.324463 0.320404 0.289337
0.331573 0.327698 0.296326
0.339172 0.335327 0.304169
0.346710 0.342987 0.311615
0.354279 0.350677 0.319458
0.361877 0.358429 0.327057
0.369446 0.366089 0.334961
0.377075 0.373810 0.342621
0.384644 0.381531 0.350616
0.392273 0.389282 0.358368
0.399811 0.397034 0.366425
0.407440 0.404724 0.374237
0.415100 0.412506 0.382324
0.422729 0.420258 0.390320
0.430267 0.427948 0.398285
0.437866 0.435699 0.406311
0.445435 0.443390 0.414429
0.453003 0.451080 0.422546
0.460541 0.458740 0.430603
0.468170 0.466431 0.438690
0.475616 0.474030 0.446777
0.483185 0.481720 0.454987
0.261871 0.257080 0.227631
0.268768 0.264069 0.234436
0.275787 0.271149 0.241241
0.282837 0.278259 0.248108
0.289917 0.285400 0.254913
0.296967 0.292542 0.261902
0.304108 0.299744 0.268982
0.311249 0.307007 0.276062
0.318359 0.314240 0.283081
0.325562 0.321442 0.290344
0.332703 0.328796 0.297394
0.339844 0.336060 0.304779
0.347107 0.343353 0.312012
0.354279 0.350677 0.319397
0.361511 0.357971 0.326630
0.369141 0.365723 0.334534
0.376709 0.373474 0.342346
0.384308 0.381195 0.350189
0.391846 0.388855 0.357880
0.399475 0.396667 0.365967
0.407043 0.404358 0.373962
0.414734 0.412109 0.381866
0.422363 0.419891 0.390045
0.429932 0.427582 0.397858
0.437500 0.435333 0.406036
0.445068 0.443054 0.414001
0.452667 0.450714 0.422211
0.460266 0.458374 0.430176
0.467804 0.466034 0.438416
0.475311 0.473724 0.446381
0.482849 0.481384 0.454620
0.490295 0.488953 0.462555
0.497833 0.496613 0.470886
0.505280 0.504120 0.478882
0.283905 0.279358 0.249054
0.290955 0.286438 0.256104
0.298065 0.293640 0.262939
0.305176 0.300842 0.270081
0.312317 0.308075 0.277039
0.319427 0.315308 0.284241
0.326599 0.322601 0.291290
0.333771 0.329834 0.298645
0.341003 0.337128 0.305786
0.348145 0.344482 0.313202
0.355408 0.351776 0.320374
0.362610 0.359070 0.327942
0.369873 0.366486 0.335236
0.377075 0.373779 0.342804
0.384308 0.381226 0.350159
0.391510 0.388550 0.357788
0.399109 0.396271 0.365570
0.406769 0.403992 0.373627
0.414398 0.411743 0.381470
0.421936 0.419434 0.389557
0.429596 0.427246 0.397491
0.437134 0.434937 0.405640
0.444733 0.442657 0.413666
0.452301 0.450348 0.421783
0.459900 0.458038 0.429718
0.467377 0.465698 0.437927
0.474945 0.473358 0.446045
0.482483 0.480988 0.454163
0.489960 0.488617 0.462219
0.497437 0.496155 0.470428
0.504883 0.503815 0.478607
0.512390 0.511292 0.486664
0.519775 0.518829 0.494781
0.527191 0.526367 0.502960
0.306244 0.301910 0.271057
0.313354 0.309143 0.278198
0.320496 0.316406 0.285278
0.327667 0.323669 0.292419
0.334808 0.330933 0.299683
0.342041 0.338226 0.306854
0.349243 0.345520 0.314240
0.356476 0.352905 0.321594
0.363647 0.360229 0.328918
0.370911 0.367584 0.336395
0.378143 0.374908 0.343811
0.385406 0.382324 0.351379
0.392578 0.389618 0.358795
0.399841 0.397003 0.366333
0.407104 0.404358 0.373932
0.414368 0.411743 0.381531
0.421600 0.419098 0.389160
0.429199 0.426819 0.397125
0.436768 0.434570 0.405182
0.444366 0.442261 0.413239
0.451935 0.449982 0.421326
0.459503 0.457642 0.429596
0.467041 0.465302 0.437531
0.474609 0.473022 0.445740
0.482086 0.480591 0.453735
0.489594 0.488251 0.462006
0.497070 0.495819 0.469940
0.504578 0.503418 0.478271
0.511963 0.510925 0.486206
0.519440 0.518494 0.494507
0.526794 0.525970 0.502502
0.534210 0.533447 0.510742
0.541534 0.540894 0.518707
0.548981 0.548370 0.527039
0.328766 0.324738 0.293579
0.335876 0.332001 0.300629
0.343109 0.339325 0.308105
0.350281 0.346649 0.315186
0.357574 0.353973 0.322784
0.364746 0.361328 0.329956
0.371979 0.368683 0.337585
0.379181 0.376007 0.344818
0.386444 0.383392 0.352509
0.393677 0.390717 0.359863
0.400940 0.398102 0.367554
0.408173 0.405457 0.374969
0.415405 0.412842 0.382721
0.422668 0.420258 0.390198
0.429871 0.427582 0.397949
0.437134 0.434937 0.405518
0.444336 0.442261 0.413330
0.451599 0.449585 0.420898
0.459106 0.457245 0.429108
0.466675 0.464905 0.437012
0.474182 0.472595 0.445282
0.481750 0.480255 0.453308
0.489197 0.487823 0.461517
0.496704 0.495422 0.469513
0.504181 0.503052 0.477814
0.511658 0.510590 0.485870
0.519012 0.518066 0.493988
0.526489 0.525635 0.502106
0.533813 0.533081 0.510254
0.541229 0.540527 0.518402
0.548584 0.547974 0.526520
0.555939 0.555420 0.534668
0.563263 0.562836 0.542816
0.570587 0.570221 0.550934
0.351410 0.347717 0.316467
0.358612 0.355042 0.323761
0.365814 0.362396 0.331146
0.373077 0.369781 0.338593
0.380280 0.377075 0.346222
0.387543 0.384491 0.353546
0.394745 0.391815 0.361084
0.402008 0.399200 0.368591
0.409241 0.406555 0.376282
0.416473 0.413910 0.383728
0.423737 0.421295 0.391479
0.431000 0.428650 0.399017
0.438202 0.436035 0.406677
0.445404 0.443329 0.414337
0.452667 0.450684 0.422211
0.459869 0.457977 0.429810
0.467041 0.465363 0.437561
0.474182 0.472595 0.445221
0.481354 0.479858 0.453003
0.488831 0.487518 0.461029
0.496338 0.495087 0.469299
0.503815 0.502655 0.477325
0.511261 0.510223 0.485626
0.518646 0.517700 0.493591
0.526123 0.525299 0.501862
0.533478 0.532715 0.509796
0.540863 0.540161 0.518097
0.548218 0.547607 0.526062
0.555542 0.555115 0.534424
0.562927 0.562531 0.542328
0.570221 0.569916 0.550659
0.577545 0.577240 0.558624
0.584869 0.584656 0.566986
0.592133 0.591949 0.574921
0.374176 0.370911 0.339630
0.381378 0.378204 0.347198
0.388611 0.385529 0.354523
0.395813 0.392914 0.362244
0.403076 0.400269 0.369659
0.410400 0.407684 0.377411
0.417633 0.415070 0.384827
0.424835 0.422424 0.392609
0.432068 0.429749 0.400177
0.439301 0.437103 0.407928
0.446533 0.444458 0.415466
0.453705 0.451813 0.423309
0.460938 0.459106 0.430878
0.468109 0.466370 0.438751
0.475281 0.473694 0.446320
0.482483 0.481018 0.454224
0.489594 0.488190 0.461761
0.496704 0.495483 0.469696
0.503845 0.502686 0.477325
0.510895 0.509857 0.485168
0.518311 0.517395 0.493164
0.525787 0.524902 0.501404
0.533112 0.532349 0.509460
0.540466 0.539795 0.517700
0.547852 0.547272 0.525635
0.555206 0.554718 0.533936
0.562561 0.562164 0.542053
0.569855 0.569519 0.550201
0.577179 0.576935 0.558197
0.584534 0.584320 0.566559
0.591827 0.591705 0.574677
0.599091 0.599030 0.582764
0.606323 0.606323 0.590851
0.613617 0.613647 0.599030
0.396942 0.394043 0.363281
0.404175 0.401398 0.370972
0.411469 0.408813 0.378448
0.418701 0.416138 0.386200
0.425934 0.423553 0.393646
0.433136 0.430878 0.401428
0.440430 0.438232 0.408997
0.447571 0.445557 0.416779
0.454834 0.452881 0.424408
0.461975 0.460175 0.432251
0.469208 0.467499 0.439850
0.476349 0.474762 0.447693
0.483521 0.482056 0.455261
0.490631 0.489319 0.463043
0.497803 0.496552 0.470764
0.504852 0.503784 0.478607
0.511963 0.510925 0.486237
0.519073 0.518127 0.494049
0.526062 0.525238 0.501678
0.533142 0.532349 0.509644
0.540161 0.539490 0.517273
0.547516 0.546936 0.525513
0.554840 0.554352 0.533447
0.562225 0.561798 0.541809
0.569519 0.569153 0.549744
0.576904 0.576599 0.558044
0.584167 0.583954 0.566040
0.591492 0.591370 0.574371
0.598755 0.598694 0.582306
0.606018 0.605988 0.590576
0.613251 0.613281 0.598572
0.620422 0.620483 0.606781
0.627625 0.627686 0.614716
0.634644 0.634827 0.622833
0.419769 0.417267 0.387238
0.427063 0.424652 0.394836
0.434235 0.431976 0.402527
0.441467 0.439331 0.410187
0.448639 0.446655 0.417877
0.455902 0.453979 0.425446
0.463074 0.461273 0.433289
0.470245 0.468628 0.440887
0.477417 0.475861 0.448792
0.484589 0.483093 0.456360
0.491730 0.490387 0.464264
0.498810 0.497589 0.471832
0.505951 0.504822 0.479767
0.513000 0.511993 0.487366
0.520111 0.519226 0.495239
0.527161 0.526276 0.502869
0.534180 0.533447 0.510712
0.541168 0.540497 0.518311
0.548187 0.547638 0.526215
0.555206 0.554718 0.533783
0.562225 0.561798 0.541718
0.569183 0.568848 0.549316
0.576508 0.576233 0.557648
0.583832 0.583618 0.565643
0.591156 0.591003 0.573944
0.598450 0.598328 0.581909
0.605682 0.605652 0.590149
0.612885 0.612885 0.598175
0.620056 0.620117 0.606293
0.627197 0.627319 0.614441
0.634399 0.634491 0.622406
0.641449 0.641632 0.630524
0.648590 0.648773 0.638397
0.655609 0.655853 0.646454
0.442505 0.440399 0.411407
0.449768 0.447784 0.418976
0.456940 0.455078 0.426849
0.464172 0.462402 0.434448
0.471375 0.469727 0.442291
0.478516 0.476990 0.449829
0.485657 0.484192 0.457733
0.492798 0.491516 0.465363
0.499908 0.498657 0.473175
0.506989 0.505920 0.480804
0.514069 0.513062 0.488678
0.521210 0.520233 0.496338
0.528198 0.527374 0.504242
0.535248 0.534546 0.511810
0.542236 0.541626 0.519714
0.549316 0.548737 0.527283
0.556274 0.555786 0.535095
0.563263 0.562836 0.542816
0.570251 0.569885 0.550690
0.577209 0.576904 0.558350
0.584198 0.583984 0.566162
0.591125 0.590973 0.573853
0.598083 0.597961 0.581726
0.605316 0.605286 0.589661
0.612579 0.612549 0.597931
0.619690 0.619781 0.605896
0.626892 0.626984 0.614075
0.634033 0.634155 0.621979
0.641174 0.641327 0.630127
0.648315 0.648468 0.637970
0.655304 0.655518 0.645996
0.662415 0.662659 0.653839
0.669373 0.669647 0.661774
0.676361 0.676697 0.669495
0.465210 0.463470 0.435425
0.472412 0.470734 0.443298
0.479584 0.478088 0.451050
0.486755 0.485321 0.458771
0.493835 0.492554 0.466431
0.500977 0.499817 0.474304
0.508118 0.507019 0.482086
0.515137 0.514160 0.489807
0.522247 0.521332 0.497437
0.529297 0.528473 0.505280
0.536346 0.535614 0.512909
0.543304 0.542664 0.520752
0.550293 0.549744 0.528442
0.557343 0.556854 0.536255
0.564301 0.563934 0.543884
0.571259 0.570953 0.551788
0.578278 0.578003 0.559601
0.585236 0.585022 0.567322
0.592133 0.591980 0.574951
0.599091 0.599030 0.582825
0.605988 0.605957 0.590393
0.612915 0.612915 0.598267
0.619659 0.619781 0.605865
0.626556 0.626648 0.613617
0.633728 0.633850 0.621521
0.640808 0.640961 0.629700
0.647919 0.648132 0.637665
0.654938 0.655182 0.645569
0.662048 0.662323 0.653656
0.669037 0.669342 0.661407
0.676056 0.676392 0.669281
0.683014 0.683350 0.677032
0.689972 0.690338 0.684937
0.696869 0.697205 0.692444
0.487762 0.486420 0.459839
0.494965 0.493683 0.467773
0.502075 0.500885 0.475372
0.509155 0.508087 0.483246
0.516205 0.515228 0.490875
0.523315 0.522430 0.498779
0.530304 0.529510 0.506287
0.537384 0.536652 0.514282
0.544373 0.543762 0.521820
0.551422 0.550873 0.529785
0.558411 0.557922 0.537323
0.565369 0.565002 0.545197
0.572327 0.572021 0.552887
0.579315 0.579071 0.560822
0.586243 0.586121 0.568390
0.593231 0.593109 0.576324
0.600189 0.600067 0.583923
0.607056 0.607025 0.591766
0.613922 0.613953 0.599365
0.620880 0.620880 0.607178
0.627655 0.627716 0.614716
0.634369 0.634521 0.622528
0.641235 0.641357 0.630005
0.648010 0.648163 0.637756
0.654724 0.654938 0.645203
0.661682 0.661957 0.653259
0.668701 0.669006 0.661011
0.675690 0.675995 0.668945
0.682648 0.682983 0.676605
0.689667 0.689941 0.684448
0.696594 0.696899 0.692139
0.703491 0.703796 0.699829
0.710236 0.710663 0.707336
0.717041 0.717499 0.714966
0.510223 0.509125 0.484314
0.517303 0.516266 0.492218
0.524353 0.523499 0.499878
0.531372 0.530579 0.507568
0.538422 0.537720 0.515350
0.545441 0.544800 0.522980
0.552460 0.551910 0.530823
0.559418 0.558960 0.538605
0.566376 0.566010 0.546326
0.573395 0.573059 0.554047
0.580353 0.580078 0.561890
0.587341 0.587158 0.569702
0.594269 0.594147 0.577393
0.601227 0.601166 0.585052
0.608124 0.608063 0.592865
0.614899 0.614960 0.600464
0.621796 0.621857 0.608246
0.628601 0.628723 0.615875
0.635376 0.635529 0.623566
0.642151 0.642334 0.631165
0.648865 0.649078 0.638794
0.655701 0.655914 0.646393
0.662354 0.662598 0.653931
0.669067 0.669342 0.661438
0.675690 0.676025 0.668915
0.682434 0.682678 0.676392
0.689331 0.689636 0.684052
0.696259 0.696594 0.691772
0.703094 0.703461 0.699402
0.709930 0.710327 0.707092
0.716675 0.717072 0.714478
0.723450 0.723846 0.722107
