backup-gold-v1/lut/摩卡-f.cube
#Created by: Adobe Photoshop Export Color Lookup Plugin
TITLE "多场景样片-v1.0.psd"
#LUT size
LUT_3D_SIZE 7
#data domain
#LUT data points
DOMAIN_MIN 0.000000 0.000000 0.000000
DOMAIN_MAX 0.909091 0.909091 0.909091
0.010223 0.010773 0.009338
0.029724 0.028198 0.024780
0.054993 0.052490 0.044525
0.082550 0.079163 0.066833
0.112091 0.108032 0.091614
0.143677 0.139008 0.118896
0.176910 0.171936 0.148346
0.082550 0.079193 0.066833
0.110687 0.106598 0.090424
0.142181 0.137512 0.117432
0.175323 0.170349 0.146973
0.209839 0.204803 0.178619
0.245514 0.240601 0.211975
0.282166 0.277527 0.247437
0.176910 0.171967 0.148346
0.209808 0.204773 0.178619
0.243805 0.238953 0.210419
0.280365 0.275787 0.245697
0.317688 0.313477 0.282471
0.355377 0.351746 0.320374
0.393311 0.390350 0.359619
0.283905 0.279358 0.249054
0.319427 0.315308 0.284241
0.355408 0.351776 0.320374
0.391510 0.388550 0.357788
0.429596 0.427246 0.397491
0.467377 0.465698 0.437927
0.504883 0.503815 0.478607
0.396942 0.394043 0.363281
0.433136 0.430878 0.401428
0.469208 0.467499 0.439850
0.504852 0.503784 0.478607
0.540161 0.539490 0.517273
0.576904 0.576599 0.558044
0.613251 0.613281 0.598572
0.510223 0.509125 0.484314
0.545441 0.544800 0.522980
0.580353 0.580078 0.561890
0.614899 0.614960 0.600464
0.648865 0.649078 0.638794
0.682434 0.682678 0.676392
0.716675 0.717072 0.714478
0.620148 0.620209 0.606384
0.653992 0.654205 0.644440
0.687347 0.687683 0.681885
0.719940 0.720306 0.718170
0.751495 0.751862 0.752930
0.781799 0.782135 0.786102
0.810822 0.811096 0.817322
0.036896 0.034973 0.030273
0.106323 0.102325 0.086639
0.137512 0.132996 0.113525
0.170441 0.165527 0.142609
0.204834 0.199768 0.173828
0.240326 0.235413 0.207184
0.276886 0.272217 0.242279
0.090729 0.087189 0.073669
0.136047 0.131439 0.112183
0.168884 0.163971 0.141266
0.203217 0.198181 0.172363
0.238678 0.233704 0.205688
0.275146 0.270508 0.240662
0.312317 0.308105 0.277069
0.186676 0.181671 0.157288
0.238678 0.233704 0.205688
0.273438 0.268738 0.238800
0.310577 0.306274 0.275299
0.348206 0.344452 0.313171
0.386108 0.383026 0.351990
0.424164 0.421722 0.391876
0.294525 0.290070 0.259491
0.350006 0.346344 0.315063
0.386108 0.383026 0.351959
0.422333 0.419922 0.389984
0.460236 0.458405 0.430115
0.497864 0.496643 0.470825
0.534973 0.534210 0.511566
0.407867 0.405090 0.374756
0.463867 0.462067 0.434204
0.499603 0.498352 0.472748
0.534943 0.534180 0.511566
0.569916 0.569611 0.550201
0.606415 0.606384 0.591003
0.642242 0.642395 0.631256
0.520874 0.519958 0.496063
0.575195 0.574890 0.556213
0.609833 0.609833 0.594818
0.644012 0.644135 0.633209
0.677429 0.677765 0.670776
0.710266 0.710663 0.707489
0.743774 0.744110 0.744324
0.630341 0.630432 0.617920
0.682465 0.682709 0.676483
0.715149 0.715515 0.712799
0.746887 0.747253 0.747955
0.777374 0.777710 0.781189
0.806580 0.806854 0.812897
0.834351 0.834564 0.842285
0.070374 0.067413 0.056915
0.146759 0.142090 0.121613
0.233551 0.228546 0.200836
0.269806 0.265106 0.235382
0.306946 0.302643 0.271790
0.344543 0.340759 0.309296
0.382477 0.379333 0.348297
0.129944 0.125488 0.106781
0.178528 0.173553 0.149750
0.268158 0.263336 0.233795
0.305145 0.300873 0.270081
0.342773 0.339020 0.307556
0.380707 0.377502 0.346497
0.418701 0.416199 0.386169
0.196564 0.191528 0.166382
0.248993 0.244110 0.215515
0.303497 0.299164 0.268433
0.341003 0.337219 0.305847
0.378937 0.375702 0.344696
0.417023 0.414398 0.384369
0.454895 0.452972 0.424530
0.305145 0.300873 0.270111
0.360870 0.357391 0.326172
0.417023 0.414398 0.384399
0.453125 0.451141 0.422577
0.490753 0.489349 0.463226
0.527985 0.527100 0.503723
0.564789 0.564362 0.544556
0.418701 0.416199 0.386230
0.474609 0.473022 0.445618
0.529694 0.528839 0.505676
0.564728 0.564301 0.544495
0.599518 0.599457 0.583191
0.635498 0.635651 0.623657
0.670807 0.671082 0.663422
0.531464 0.530670 0.507568
0.585632 0.585388 0.567627
0.638947 0.639038 0.627441
0.672455 0.672729 0.665283
0.705383 0.705811 0.701904
0.737549 0.737885 0.737579
0.769897 0.770233 0.773132
0.640503 0.640656 0.629242
0.692352 0.692688 0.687378
0.742218 0.742615 0.742676
0.772919 0.773254 0.776428
0.802307 0.802612 0.808167
0.830292 0.830536 0.838104
0.856781 0.856903 0.865723
0.107666 0.103699 0.087769
0.189850 0.184875 0.160187
0.280304 0.275726 0.245667
0.375275 0.371948 0.340912
0.413269 0.410675 0.380310
0.451202 0.449280 0.420685
0.488861 0.487488 0.460968
0.172058 0.167084 0.144012
0.223328 0.218353 0.191132
0.315857 0.311707 0.280518
0.411530 0.408905 0.378540
0.449402 0.447418 0.418762
0.487152 0.485779 0.459167
0.524414 0.523560 0.499908
0.242065 0.237122 0.208740
0.296326 0.291870 0.261230
0.351807 0.348175 0.316864
0.447662 0.445648 0.416870
0.485352 0.483978 0.457275
0.522644 0.521790 0.498047
0.559540 0.559082 0.538574
0.315887 0.311737 0.280548
0.371735 0.368408 0.337128
0.427826 0.425476 0.395721
0.483673 0.482208 0.455475
0.520935 0.520020 0.496124
0.557800 0.557343 0.536682
0.594421 0.594238 0.577576
0.429626 0.427277 0.397522
0.485321 0.483948 0.457184
0.540253 0.539581 0.517334
0.594391 0.594238 0.577545
0.628754 0.628815 0.616119
0.664093 0.664368 0.655853
0.698944 0.699249 0.694763
0.541992 0.541321 0.519165
0.596069 0.595947 0.579346
0.649048 0.649200 0.638885
0.700623 0.700958 0.696655
0.732788 0.733154 0.732422
0.763855 0.764221 0.766510
0.795105 0.795380 0.800507
0.650665 0.650879 0.640686
0.702179 0.702545 0.698395
0.751556 0.751953 0.753021
0.798065 0.798370 0.803650
0.826233 0.826477 0.833832
0.852905 0.853088 0.861786
0.877930 0.878052 0.887573
0.148224 0.143433 0.122833
0.235168 0.230164 0.202301
0.328339 0.324310 0.292999
0.424103 0.421661 0.391785
0.519012 0.518097 0.494080
0.555939 0.555389 0.534607
0.592499 0.592377 0.575470
0.216492 0.211426 0.184692
0.269775 0.265045 0.235352
0.364319 0.360901 0.329651
0.460205 0.458374 0.430054
0.554199 0.553650 0.532715
0.590820 0.590668 0.573639
0.626923 0.627014 0.613953
0.289154 0.284668 0.254364
0.344543 0.340790 0.309326
0.400574 0.397766 0.367065
0.496063 0.494812 0.468964
0.589142 0.588959 0.571716
0.625305 0.625336 0.612091
0.660736 0.661011 0.652191
0.364380 0.360962 0.329712
0.420532 0.418060 0.388092
0.476440 0.474884 0.447754
0.531464 0.530701 0.507568
0.623566 0.623627 0.610229
0.659088 0.659363 0.650269
0.694061 0.694366 0.689209
0.440460 0.438293 0.409119
0.496094 0.494843 0.468964
0.550781 0.550201 0.528992
0.604797 0.604675 0.589142
0.657501 0.657684 0.648468
0.692474 0.692780 0.687500
0.726410 0.726807 0.725342
0.552429 0.551910 0.530853
0.606445 0.606415 0.591034
0.659088 0.659332 0.650299
0.710358 0.710754 0.707550
0.759308 0.759613 0.761566
0.789276 0.789642 0.794189
0.819366 0.819641 0.826508
0.660706 0.661011 0.652161
0.711945 0.712372 0.709320
0.760773 0.761139 0.763123
0.806641 0.806915 0.812927
0.849030 0.849213 0.857788
0.874298 0.874420 0.883820
0.897888 0.898010 0.907623
0.191376 0.186371 0.161530
0.282013 0.277405 0.247284
0.376984 0.373718 0.342651
0.472717 0.471100 0.443542
0.566345 0.565979 0.546326
0.657379 0.657562 0.648376
0.692261 0.692627 0.687286
0.262726 0.257996 0.228638
0.317596 0.313416 0.282410
0.413208 0.410614 0.380280
0.508423 0.507324 0.482422
0.601166 0.601074 0.584991
0.690613 0.690948 0.685486
0.724731 0.725159 0.723511
0.337311 0.333435 0.302185
0.393280 0.390320 0.359497
0.449371 0.447388 0.418701
0.543671 0.543060 0.521057
0.635468 0.635590 0.623596
0.723206 0.723602 0.721802
0.756195 0.756561 0.758026
0.413269 0.410645 0.380280
0.469208 0.467529 0.439880
0.524414 0.523529 0.499908
0.578644 0.578430 0.559967
0.669128 0.669373 0.661591
0.754639 0.755035 0.756378
0.786346 0.786652 0.791046
0.488861 0.487518 0.461029
0.543701 0.543091 0.521057
0.597809 0.597687 0.581268
0.650787 0.650940 0.640808
0.702240 0.702606 0.698486
0.784851 0.785187 0.789429
0.815125 0.815399 0.822021
0.562988 0.562561 0.542572
0.616760 0.616821 0.602692
0.669159 0.669434 0.661652
0.720093 0.720428 0.718353
0.768402 0.768768 0.771423
0.813751 0.814056 0.820465
0.842438 0.842682 0.850891
0.670807 0.671051 0.663452
0.721649 0.722015 0.720123
0.769958 0.770264 0.773254
0.815125 0.815399 0.822052
0.856812 0.856964 0.865784
0.894501 0.894623 0.904205
0.916534 0.916626 0.926025
0.236755 0.231781 0.203735
0.330017 0.326080 0.294708
0.425781 0.423401 0.393585
0.520721 0.519836 0.495941
0.613159 0.613190 0.598480
0.702057 0.702454 0.698273
0.784729 0.785034 0.789337
0.310364 0.306091 0.275146
0.366089 0.362701 0.331482
0.461914 0.460144 0.432068
0.555908 0.555389 0.534576
0.647217 0.647400 0.636902
0.734283 0.734650 0.734070
0.813629 0.813904 0.820312
0.385986 0.382874 0.351837
0.442108 0.440002 0.410858
0.497742 0.496521 0.470764
0.590790 0.590637 0.573547
0.680695 0.681030 0.674377
0.765289 0.765625 0.768036
0.841064 0.841278 0.849457
0.461945 0.460175 0.432129
0.517273 0.516296 0.492065
0.571625 0.571320 0.552063
0.625305 0.625336 0.612061
0.713501 0.713928 0.711029
0.795074 0.795380 0.800476
0.866852 0.867004 0.876160
0.536652 0.535919 0.513397
0.590820 0.590668 0.573608
0.643982 0.644104 0.633179
0.695618 0.695984 0.691162
0.745300 0.745697 0.746216
0.823486 0.823700 0.830841
0.891022 0.891113 0.900757
0.609833 0.609863 0.594788
0.662384 0.662659 0.653992
0.713593 0.713989 0.711090
0.762360 0.762665 0.764893
0.808075 0.808319 0.814423
0.850311 0.850525 0.859131
0.913330 0.913422 0.922821
0.680786 0.681122 0.674438
0.731201 0.731598 0.730499
0.778931 0.779297 0.782898
0.823517 0.823761 0.830902
0.864410 0.864594 0.873718
0.901306 0.901428 0.911041
0.933838 0.933929 0.942810
