backup-gold-v1/lut/摩卡-f.cube
#Created by: Adobe Photoshop Export Color Lookup Plugin
TITLE "多场景样片-v1.0.psd"
#LUT size
LUT_3D_SIZE 4
#data domain
DOMAIN_MIN 0.0 0.0 0.0
DOMAIN_MAX 1.0 1.0 1.0
#LUT data points
0.010223 0.010773 0.009338
0.060333 0.057648 0.048828
0.124512 0.120178 0.102264
0.197540 0.192474 0.167267
0.197540 0.192474 0.167206
0.272675 0.268005 0.238220
0.354980 0.351410 0.320068
0.438599 0.436401 0.407074
0.442505 0.440399 0.411407
0.521210 0.520233 0.496338
0.598083 0.597961 0.581726
0.676361 0.676697 0.669495
0.683685 0.684052 0.677734
0.754303 0.754639 0.756073
0.818970 0.819275 0.826050
0.876465 0.876587 0.886047
0.077545 0.074341 0.062805
0.261108 0.256287 0.227020
0.343109 0.339325 0.308044
0.426666 0.424255 0.394379
0.219635 0.214630 0.187744
0.339233 0.335419 0.304047
0.422760 0.420319 0.390381
0.505646 0.504517 0.479462
0.466370 0.464630 0.436676
0.586700 0.586548 0.568909
0.661774 0.662018 0.653229
0.737152 0.737579 0.737152
0.705414 0.705811 0.701996
0.809784 0.810059 0.816254
0.868378 0.868561 0.877777
0.918823 0.918945 0.928284
0.165161 0.160278 0.137848
0.366852 0.363434 0.332153
0.575073 0.574829 0.556000
0.654266 0.654480 0.644897
0.323334 0.319244 0.288055
0.446533 0.444489 0.415771
0.650665 0.650848 0.640808
0.726715 0.727081 0.725525
0.490021 0.488617 0.462341
0.609558 0.609558 0.594574
0.723236 0.723633 0.721802
0.793976 0.794281 0.799347
0.726746 0.727142 0.725769
0.828186 0.828461 0.835815
0.911896 0.911987 0.921509
0.954803 0.954865 0.962860
0.264740 0.259979 0.230591
0.474091 0.472504 0.445068
0.676300 0.676636 0.669495
0.851562 0.851746 0.860291
0.430542 0.428223 0.398499
0.552002 0.551453 0.530334
0.747467 0.747833 0.748474
0.904633 0.904724 0.914337
0.594299 0.594177 0.577240
0.709045 0.709381 0.705994
0.812897 0.813141 0.819672
0.948944 0.949005 0.957214
0.747528 0.747925 0.748566
0.845917 0.846161 0.854553
0.925751 0.925781 0.934967
0.971863 0.972473 0.973419
