backup-gold-v1/lut/日系1996-f.cube
#Created by: Adobe Photoshop Export Color Lookup Plugin
TITLE "多场景样片-v1.0.psd"
#LUT size
LUT_3D_SIZE 7
#data domain
#LUT data points
DOMAIN_MIN 0.000000 0.000000 0.000000
DOMAIN_MAX 0.909091 0.909091 0.909091
0.071136 0.049286 0.056305
0.122223 0.060608 0.069122
0.217041 0.083221 0.093536
0.352814 0.119110 0.131378
0.510925 0.163513 0.177948
0.646576 0.202667 0.218872
0.735657 0.228760 0.246124
0.105865 0.152191 0.078583
0.143646 0.155182 0.080231
0.233795 0.160400 0.096741
0.360168 0.185089 0.133087
0.514496 0.221161 0.176514
0.649750 0.254059 0.214447
0.738647 0.276489 0.239868
0.155884 0.286743 0.120087
0.193817 0.288177 0.122375
0.263153 0.293854 0.127228
0.392303 0.297821 0.148102
0.540833 0.317627 0.187042
0.667358 0.343475 0.224762
0.750885 0.362885 0.250275
0.222443 0.452332 0.178833
0.260345 0.453125 0.181152
0.323669 0.457214 0.185608
0.427887 0.464905 0.195251
0.577271 0.467468 0.217804
0.706787 0.478973 0.247620
0.792969 0.490601 0.268982
0.294922 0.626953 0.244171
0.329895 0.627625 0.246277
0.395508 0.630249 0.250763
0.485718 0.638702 0.258240
0.615295 0.645782 0.272308
0.735291 0.640167 0.288025
0.830750 0.651581 0.306854
0.355316 0.769989 0.298981
0.388428 0.770569 0.300873
0.456390 0.773468 0.305420
0.542297 0.780060 0.312286
0.652008 0.789368 0.323090
0.774536 0.794159 0.337524
0.841583 0.779175 0.342621
0.394165 0.861450 0.334351
0.426392 0.862030 0.336182
0.494080 0.863373 0.340607
0.579254 0.868774 0.347260
0.686646 0.880188 0.357452
0.795135 0.885742 0.369476
0.878693 0.889191 0.379883
0.084930 0.059937 0.160767
0.117554 0.067291 0.147308
0.186188 0.083038 0.157471
0.333282 0.118073 0.205688
0.505463 0.162781 0.254486
0.646576 0.202637 0.293976
0.735687 0.228729 0.319336
0.100189 0.157654 0.180298
0.150024 0.162354 0.186249
0.236481 0.179504 0.201691
0.374725 0.209473 0.236023
0.531982 0.247711 0.276764
0.667175 0.282593 0.313568
0.756012 0.306274 0.338409
0.133759 0.285217 0.193329
0.177460 0.294189 0.199066
0.272705 0.303558 0.221558
0.397644 0.310944 0.242126
0.543091 0.339203 0.282532
0.676147 0.367493 0.315948
0.764557 0.386932 0.338409
0.189240 0.453125 0.218689
0.225769 0.459961 0.227264
0.334564 0.467316 0.266235
0.434143 0.475128 0.270782
0.584320 0.478912 0.293121
0.712097 0.492676 0.323975
0.793762 0.506531 0.347717
0.252319 0.628448 0.263306
0.297028 0.634460 0.284180
0.399109 0.641205 0.319946
0.497406 0.647614 0.325104
0.621613 0.655762 0.334473
0.745605 0.653656 0.351105
0.835419 0.661682 0.369598
0.305756 0.771362 0.307007
0.357544 0.777374 0.334961
0.454376 0.783844 0.367645
0.554230 0.788757 0.373444
0.662842 0.796967 0.380920
0.780792 0.803955 0.391876
0.851807 0.792633 0.398743
0.344269 0.862823 0.340576
0.396393 0.868774 0.368286
0.490601 0.875061 0.399323
0.591461 0.878876 0.405487
0.698242 0.888947 0.412262
0.801117 0.895416 0.421326
0.884796 0.898865 0.430328
0.101227 0.074524 0.272766
0.142517 0.078888 0.268524
0.196960 0.092926 0.241302
0.296112 0.115784 0.257812
0.461426 0.159607 0.315582
0.608673 0.199036 0.361359
0.705200 0.225739 0.389984
0.112946 0.163391 0.285492
0.163391 0.173492 0.294952
0.241425 0.187592 0.288330
0.340057 0.209473 0.300079
0.509735 0.247711 0.354065
0.657135 0.281982 0.394653
0.752777 0.306549 0.421021
0.138275 0.292480 0.309326
0.181702 0.298798 0.317169
0.273224 0.308960 0.330658
0.403107 0.331879 0.353790
0.560211 0.366089 0.391998
0.694489 0.397064 0.425629
0.782837 0.418182 0.448456
0.188141 0.445526 0.325806
0.225372 0.454285 0.332336
0.307922 0.470428 0.343781
0.444458 0.484497 0.375000
0.589111 0.491730 0.397675
0.714264 0.512177 0.429962
0.796417 0.529480 0.452759
0.251251 0.622314 0.350037
0.283173 0.630951 0.355164
0.355988 0.645477 0.367645
0.510071 0.656555 0.419830
0.627838 0.665955 0.424438
0.756012 0.667175 0.441071
0.840302 0.673370 0.460449
0.304932 0.768250 0.377075
0.333771 0.775574 0.381683
0.402313 0.787872 0.399963
0.560730 0.798523 0.460052
0.675049 0.806793 0.465057
0.787018 0.813904 0.472504
0.862183 0.806335 0.480194
0.339874 0.860992 0.397552
0.366913 0.868317 0.402466
0.440094 0.879150 0.429932
0.594269 0.889404 0.487518
0.709564 0.896149 0.493347
0.807068 0.905212 0.498352
0.890900 0.908661 0.505737
0.119476 0.091095 0.392731
0.162262 0.093933 0.393311
0.230469 0.107971 0.370087
0.302521 0.125031 0.341095
0.425201 0.156311 0.368927
0.562531 0.194824 0.418152
0.658386 0.221313 0.451233
0.128632 0.175629 0.401611
0.179016 0.187500 0.413513
0.264893 0.199860 0.416382
0.343445 0.218384 0.381012
0.465057 0.246307 0.407898
0.611389 0.280273 0.459991
0.707336 0.304016 0.490295
0.151886 0.300110 0.424561
0.195465 0.304565 0.430511
0.287079 0.316650 0.442200
0.400238 0.339142 0.438660
0.527191 0.366150 0.465363
0.671753 0.397461 0.509613
0.768494 0.417603 0.535461
0.189362 0.447571 0.441620
0.226746 0.455292 0.450745
0.309326 0.470276 0.468475
0.442444 0.489899 0.492004
0.597778 0.517853 0.523682
0.730469 0.546753 0.555847
0.818085 0.566162 0.577362
0.249573 0.614746 0.466919
0.282074 0.623138 0.473419
0.355896 0.638611 0.485535
0.479187 0.662506 0.501770
0.636536 0.676147 0.538544
0.761658 0.679626 0.556793
0.844849 0.689270 0.575867
0.303192 0.758942 0.484863
0.332520 0.767090 0.490753
0.399567 0.783142 0.501312
0.515167 0.804260 0.520477
0.688446 0.816528 0.573639
0.793488 0.824432 0.577576
0.873169 0.820801 0.585419
0.337982 0.852234 0.498871
0.365509 0.860229 0.504272
0.428986 0.876190 0.513947
0.544403 0.895020 0.540161
0.723358 0.905792 0.598206
0.819275 0.914185 0.601074
0.897400 0.919037 0.605591
0.138092 0.107971 0.515106
0.180847 0.110779 0.515594
0.256256 0.122009 0.502350
0.337219 0.143372 0.462799
0.424866 0.159943 0.446350
0.535980 0.191772 0.476410
0.612274 0.216583 0.499756
0.145050 0.190369 0.523376
0.195343 0.202118 0.535065
0.283478 0.215424 0.540100
0.378845 0.234619 0.507996
0.465210 0.249756 0.485718
0.574921 0.278870 0.514465
0.661377 0.301666 0.544708
0.165771 0.307404 0.539886
0.210236 0.312836 0.545776
0.302673 0.330475 0.561920
0.426025 0.351257 0.567566
0.517273 0.369476 0.536530
0.627014 0.396301 0.565186
0.721527 0.418060 0.599640
0.205994 0.472290 0.574371
0.242706 0.475494 0.579773
0.324097 0.481842 0.589539
0.456299 0.496399 0.605011
0.583282 0.521851 0.600891
0.703705 0.546844 0.635834
0.798218 0.566284 0.664032
0.249268 0.612274 0.578125
0.281830 0.619781 0.587006
0.355835 0.634216 0.604095
0.479919 0.655762 0.629303
0.637573 0.682220 0.657532
0.766449 0.699585 0.684570
0.852814 0.715881 0.703156
0.301361 0.751007 0.606354
0.330933 0.759735 0.613220
0.399078 0.774811 0.625549
0.515625 0.797577 0.643646
0.666901 0.824432 0.667206
0.800873 0.834930 0.697174
0.884155 0.835724 0.705658
0.336060 0.843353 0.616638
0.364014 0.851990 0.623352
0.428223 0.867859 0.634979
0.540100 0.889771 0.651520
0.697906 0.914948 0.687927
0.832977 0.923981 0.718750
0.903900 0.929504 0.720856
0.154022 0.122498 0.620087
0.196747 0.125244 0.620514
0.275635 0.133972 0.615906
0.365997 0.157135 0.575195
0.443604 0.178741 0.533295
0.529816 0.190826 0.536743
0.608734 0.215240 0.562622
0.159180 0.203156 0.628021
0.209473 0.214813 0.639557
0.299133 0.229736 0.644379
0.403137 0.246460 0.620636
0.487183 0.268280 0.576782
0.569794 0.277893 0.575745
0.647430 0.300690 0.600342
0.177765 0.315247 0.640167
0.223877 0.321716 0.644836
0.316437 0.342743 0.665314
0.442902 0.362640 0.677155
0.543701 0.385681 0.634857
0.621155 0.395233 0.625885
0.697052 0.416718 0.648926
0.215302 0.474579 0.672089
0.254181 0.478058 0.676270
0.336151 0.486481 0.687103
0.468933 0.506531 0.705139
0.609589 0.533264 0.708435
0.686218 0.545685 0.689423
0.759888 0.566193 0.710785
0.264038 0.641815 0.699463
0.296204 0.647522 0.706696
0.369141 0.658508 0.720551
0.491058 0.672882 0.739716
0.647308 0.687653 0.757965
0.756470 0.707275 0.758057
0.841980 0.726318 0.786041
0.301300 0.750977 0.698029
0.330902 0.758331 0.706757
0.398956 0.772400 0.723419
0.515656 0.793335 0.747955
0.667603 0.818665 0.777802
0.809052 0.842651 0.804504
0.888794 0.847870 0.815796
0.335114 0.839722 0.716003
0.363159 0.846954 0.724487
0.427917 0.860809 0.740662
0.540405 0.882446 0.761139
0.687866 0.910156 0.783630
0.838562 0.933075 0.823456
0.910431 0.938385 0.826385
0.165192 0.132629 0.693115
0.207825 0.135315 0.693512
0.287720 0.142029 0.694519
0.383301 0.164429 0.655518
0.467133 0.190308 0.607819
0.542786 0.203552 0.597046
0.608612 0.215088 0.608734
0.169067 0.212128 0.700928
0.219391 0.223663 0.712311
0.310150 0.239777 0.717041
0.417847 0.254303 0.699677
0.510712 0.278137 0.654144
0.582642 0.291351 0.635834
0.647461 0.300293 0.646545
0.187439 0.321625 0.708740
0.233185 0.329132 0.715698
0.326111 0.351379 0.737488
0.453552 0.372406 0.749054
0.563721 0.394226 0.711975
0.633728 0.408783 0.685577
0.697083 0.415894 0.694977
0.222870 0.477631 0.739899
0.261841 0.482025 0.745453
0.345459 0.491486 0.755035
0.478210 0.514709 0.776154
0.622681 0.539612 0.785614
0.698822 0.559143 0.748871
0.759918 0.564941 0.756378
0.272919 0.654297 0.776123
0.305145 0.658203 0.782196
0.377167 0.663910 0.792053
0.499023 0.673737 0.806335
0.655853 0.692719 0.824585
0.774384 0.716827 0.827789
0.827881 0.725769 0.822845
0.311554 0.776184 0.787384
0.340363 0.781952 0.794525
0.406952 0.792847 0.808197
0.521942 0.809174 0.828491
0.672546 0.829315 0.853180
0.808594 0.844910 0.872772
0.884674 0.858002 0.878510
0.335114 0.839722 0.779907
0.363159 0.846954 0.788635
0.427917 0.860809 0.805023
0.540222 0.881317 0.829193
0.688263 0.906250 0.858612
0.823029 0.929718 0.882263
0.918671 0.943787 0.902527
