backup-gold-v1/lut/日系1996-f.cube
#Created by: Adobe Photoshop Export Color Lookup Plugin
TITLE "多场景样片-v1.0.psd"
#LUT size
LUT_3D_SIZE 4
#data domain
DOMAIN_MIN 0.0 0.0 0.0
DOMAIN_MAX 1.0 1.0 1.0
#LUT data points
0.071136 0.049286 0.056305
0.241058 0.089355 0.099945
0.570862 0.180664 0.195923
0.758820 0.235596 0.253174
0.168060 0.317810 0.130737
0.292725 0.325928 0.139435
0.604309 0.352844 0.206909
0.779968 0.389618 0.259399
0.321564 0.690125 0.268280
0.437164 0.695160 0.275909
0.685638 0.711334 0.300995
0.860016 0.710693 0.327087
0.404022 0.884766 0.343384
0.520020 0.887024 0.350769
0.737183 0.905090 0.370575
0.905518 0.913391 0.390717
0.104797 0.077728 0.296234
0.215179 0.099304 0.259613
0.517914 0.175781 0.347931
0.721161 0.231781 0.410461
0.147827 0.323059 0.336365
0.303741 0.343231 0.361969
0.626160 0.407623 0.431854
0.812225 0.450897 0.478882
0.274506 0.684723 0.382050
0.394745 0.711243 0.403198
0.699432 0.733398 0.465363
0.877075 0.737183 0.493408
0.348450 0.882446 0.420746
0.465179 0.905090 0.455414
0.762848 0.924286 0.521698
0.919098 0.934784 0.532410
0.144958 0.114227 0.560455
0.281952 0.131439 0.544189
0.471069 0.173340 0.485474
0.627625 0.221497 0.530304
0.177521 0.340057 0.588470
0.335693 0.366119 0.613525
0.575165 0.408691 0.587036
0.744568 0.449951 0.640167
0.272095 0.673553 0.630280
0.394592 0.698944 0.660187
0.711151 0.753357 0.718384
0.888611 0.777771 0.757721
0.344208 0.864166 0.664795
0.454254 0.891144 0.686523
0.768188 0.945862 0.752411
0.933197 0.957428 0.771942
0.169830 0.136871 0.723602
0.311615 0.149170 0.721375
0.503479 0.202057 0.624481
0.621704 0.220337 0.627350
0.195862 0.352112 0.744324
0.357117 0.385162 0.774200
0.616302 0.432220 0.742371
0.724182 0.448456 0.727325
0.293304 0.713318 0.812744
0.414490 0.731140 0.836212
0.727020 0.761749 0.873138
0.871246 0.788940 0.871063
0.343750 0.862274 0.811310
0.453674 0.886871 0.840546
0.752502 0.938232 0.901215
0.946259 0.970673 0.939209
