backup-gold-v1/lut/日系1996-f.cube
#Created by: Adobe Photoshop Export Color Lookup Plugin
TITLE "多场景样片-v1.0.psd"
#LUT size
LUT_3D_SIZE 34
#data domain
DOMAIN_MIN 0.0 0.0 0.0
DOMAIN_MAX 1.0 1.0 1.0
#LUT data points
0.071136 0.049286 0.056305
0.071136 0.049286 0.056305
0.081055 0.051178 0.058868
0.093781 0.054077 0.062012
0.107544 0.057190 0.065369
0.122223 0.060608 0.069122
0.138092 0.064209 0.073090
0.155273 0.068329 0.077332
0.174164 0.072845 0.082336
0.194733 0.077667 0.087616
0.217041 0.083221 0.093536
0.241058 0.089355 0.099945
0.267029 0.096008 0.107117
0.294312 0.103271 0.114716
0.323029 0.110962 0.122833
0.352814 0.119110 0.131378
0.383820 0.127625 0.140381
0.415222 0.136322 0.149567
0.447144 0.145355 0.158966
0.479401 0.154449 0.168488
0.510925 0.163513 0.177948
0.541656 0.172272 0.187134
0.570862 0.180664 0.195923
0.598145 0.188599 0.204224
0.623383 0.195923 0.211853
0.646576 0.202667 0.218872
0.667816 0.208862 0.225342
0.687134 0.214539 0.231293
0.704803 0.219696 0.236633
0.720947 0.224426 0.241608
0.735657 0.228760 0.246124
0.749481 0.232819 0.250366
0.758820 0.235596 0.253174
0.758820 0.235596 0.253174
0.075989 0.066071 0.058594
0.075989 0.066071 0.058594
0.084503 0.067596 0.060913
0.096527 0.070038 0.063934
0.110199 0.072723 0.066925
0.124786 0.075531 0.070251
0.140533 0.078674 0.073730
0.157654 0.082214 0.077606
0.176453 0.085999 0.082001
0.196930 0.090302 0.086823
0.219177 0.095032 0.092072
0.243164 0.100220 0.097900
0.269104 0.106140 0.104370
0.296356 0.112488 0.111420
0.324982 0.119324 0.118896
0.354797 0.126770 0.126953
0.385712 0.135162 0.135956
0.417145 0.143768 0.145294
0.449036 0.152618 0.154694
0.481262 0.161652 0.164337
0.512817 0.170532 0.173767
0.543549 0.179230 0.183044
0.572723 0.187592 0.191864
0.600006 0.195374 0.200165
0.625244 0.202637 0.207855
0.648438 0.209320 0.214935
0.669678 0.215485 0.221405
0.688995 0.221069 0.227356
0.706635 0.226227 0.232788
0.722778 0.230927 0.237732
0.737488 0.235229 0.242279
0.751343 0.239258 0.246521
0.760651 0.241974 0.249420
0.760651 0.241974 0.249420
0.080841 0.086792 0.061371
0.080841 0.086792 0.061371
0.088867 0.086334 0.061920
0.101776 0.087433 0.064209
0.114838 0.088867 0.067261
0.128479 0.091064 0.070801
0.143005 0.093872 0.074829
0.159210 0.097198 0.079041
0.177307 0.101105 0.083740
0.197693 0.105225 0.088531
0.219879 0.109772 0.093719
0.243805 0.114746 0.099518
0.269714 0.120422 0.105988
0.296906 0.126587 0.112976
0.325500 0.133148 0.120361
0.355255 0.140167 0.128235
0.386139 0.147583 0.136505
0.417511 0.155243 0.145020
0.449341 0.163147 0.153748
0.481567 0.171265 0.162689
0.513092 0.179260 0.171448
0.543793 0.187195 0.180054
0.572906 0.194794 0.188354
0.600189 0.201904 0.196075
0.625427 0.208649 0.203278
0.648590 0.214752 0.209900
0.669800 0.220398 0.216034
0.689117 0.225555 0.221527
0.706757 0.230286 0.226654
0.722870 0.234680 0.231323
0.737579 0.238617 0.235596
0.751434 0.242401 0.239594
0.760742 0.244965 0.242279
0.760742 0.244965 0.242279
0.088684 0.107849 0.066620
0.088684 0.107849 0.066620
0.095428 0.108429 0.066803
0.106567 0.109100 0.067383
0.119202 0.108704 0.068848
0.133789 0.109894 0.071838
0.148712 0.111359 0.075226
0.164642 0.113617 0.079315
0.182281 0.116638 0.083923
0.201080 0.120483 0.089478
0.221924 0.124908 0.095215
0.244568 0.129974 0.101410
0.270386 0.135406 0.107819
0.297546 0.141266 0.114716
0.326080 0.147614 0.122101
0.355804 0.154388 0.129944
0.386658 0.161560 0.138153
0.417969 0.168976 0.146606
0.449799 0.176636 0.155334
0.481995 0.184479 0.164185
0.513489 0.192291 0.172913
0.544189 0.200043 0.181488
0.573303 0.207458 0.189728
0.600555 0.214417 0.197449
0.625763 0.220978 0.204651
0.648926 0.226929 0.211243
0.670135 0.232483 0.217346
0.689423 0.237579 0.222839
0.707062 0.242157 0.227936
0.723206 0.246460 0.232605
0.737885 0.250366 0.236847
0.751740 0.254028 0.240845
0.761017 0.256561 0.243530
0.761017 0.256561 0.243530
0.097076 0.129547 0.072418
0.097076 0.129547 0.072418
0.103607 0.130280 0.072571
0.112885 0.131073 0.072876
0.124603 0.131714 0.073578
0.136841 0.130310 0.074463
0.153687 0.132111 0.077148
0.169983 0.133209 0.080994
0.187897 0.135101 0.084930
0.207367 0.137787 0.089661
0.227844 0.141357 0.095551
0.250000 0.145752 0.101868
0.274109 0.150787 0.108856
0.299866 0.156555 0.116180
0.326782 0.162872 0.124115
0.356445 0.169403 0.131866
0.387238 0.176361 0.140015
0.418549 0.183533 0.148407
0.450317 0.191010 0.157104
0.482483 0.198669 0.165894
0.513947 0.206299 0.174622
0.544617 0.213806 0.183136
0.573730 0.220978 0.191315
0.600952 0.227814 0.199005
0.626160 0.234161 0.206177
0.649323 0.239990 0.212738
0.670502 0.245422 0.218811
0.689789 0.250397 0.224304
0.707428 0.254944 0.229401
0.723572 0.259155 0.234039
0.738251 0.262939 0.238281
0.752075 0.266541 0.242249
0.761383 0.269012 0.244934
0.761383 0.269012 0.244934
0.105865 0.152191 0.078583
0.105865 0.152191 0.078583
0.112335 0.152618 0.078857
0.121307 0.153534 0.079102
0.131287 0.154266 0.079529
0.143646 0.155182 0.080231
0.155731 0.152771 0.080688
0.174072 0.154724 0.083649
0.193298 0.156494 0.087311
0.212585 0.158020 0.091858
0.233795 0.160400 0.096741
0.256592 0.163757 0.102509
0.280151 0.167969 0.109619
0.305603 0.172943 0.116852
0.332153 0.178772 0.124847
0.360168 0.185089 0.133087
0.388275 0.192230 0.142303
0.419189 0.199097 0.150513
0.450928 0.206329 0.159119
0.483063 0.213715 0.167877
0.514496 0.221161 0.176514
0.545135 0.228516 0.185028
0.574219 0.235504 0.193146
0.601440 0.242065 0.200775
0.626617 0.248383 0.207916
0.649750 0.254059 0.214447
0.670929 0.259399 0.220520
0.690216 0.264191 0.226013
0.707855 0.268707 0.231049
0.723969 0.272827 0.235687
0.738647 0.276489 0.239868
0.752472 0.280090 0.243866
0.761780 0.282440 0.246552
0.761780 0.282440 0.246552
0.114410 0.176178 0.085358
0.114410 0.176178 0.085358
0.121765 0.176392 0.085815
0.130585 0.177216 0.086121
0.140259 0.178284 0.086365
0.150848 0.178925 0.087036
0.164001 0.179932 0.087830
0.180450 0.180634 0.089233
0.196167 0.178619 0.091003
0.218109 0.181000 0.094910
0.239319 0.182404 0.099609
0.261719 0.184631 0.105164
0.286957 0.187897 0.110901
0.311707 0.191895 0.118347
0.338501 0.196777 0.125916
0.366119 0.202393 0.134155
0.394470 0.208771 0.143036
0.423767 0.215515 0.151886
0.454254 0.222443 0.160645
0.483795 0.229980 0.170166
0.515137 0.237213 0.178741
0.545746 0.244232 0.187164
0.574768 0.251099 0.195251
0.601990 0.257629 0.202850
0.627167 0.263702 0.209930
0.650269 0.269318 0.216461
0.671448 0.274445 0.222443
0.690704 0.279175 0.227905
0.708344 0.283539 0.232941
0.724457 0.287598 0.237549
0.739136 0.291168 0.241730
0.752930 0.294708 0.245697
0.762207 0.296997 0.248383
0.762207 0.296997 0.248383
0.123535 0.201416 0.092804
0.123535 0.201416 0.092804
0.131531 0.201660 0.093262
0.140442 0.202209 0.093689
0.149933 0.203156 0.094025
0.160309 0.204102 0.094482
0.171814 0.205109 0.095123
0.185944 0.205933 0.096130
0.203857 0.206696 0.097748
0.220215 0.203827 0.099304
0.243958 0.206451 0.103577
0.267456 0.208191 0.108734
0.292053 0.210358 0.114410
0.318054 0.213409 0.120728
0.345215 0.217377 0.127808
0.373077 0.221985 0.135590
0.401794 0.227448 0.144043
0.430603 0.233551 0.152954
0.460388 0.240082 0.161926
0.490265 0.247009 0.171173
0.519165 0.254211 0.180450
0.549255 0.260742 0.188629
0.575531 0.268005 0.197662
0.602631 0.274261 0.205200
0.627777 0.280182 0.212219
0.650879 0.285675 0.218689
0.672028 0.290771 0.224640
0.691284 0.295319 0.230072
0.708893 0.299561 0.235107
0.724976 0.303589 0.239655
0.739655 0.307068 0.243835
0.753448 0.310547 0.247803
0.762726 0.312805 0.250427
0.762726 0.312805 0.250427
0.133484 0.228271 0.100983
0.133484 0.228271 0.100983
0.141266 0.228485 0.101440
0.151215 0.228760 0.102081
0.160431 0.229706 0.102417
0.170532 0.230377 0.102997
0.181671 0.231476 0.103546
0.194214 0.232635 0.104248
0.209686 0.233551 0.105469
0.229187 0.234406 0.107330
0.246185 0.230652 0.108673
0.271759 0.233429 0.113342
0.298004 0.235779 0.118805
0.323761 0.237793 0.124786
0.350983 0.240692 0.131409
0.379486 0.244446 0.138489
0.408661 0.248993 0.146362
0.437683 0.254181 0.154846
0.466888 0.260101 0.163910
0.497925 0.266174 0.172363
0.527130 0.272583 0.181335
0.555298 0.279327 0.190369
0.581665 0.285950 0.199188
0.607239 0.292114 0.207031
0.632019 0.297607 0.213806
0.652130 0.303650 0.221436
0.672760 0.308350 0.227203
0.691925 0.312897 0.232574
0.709534 0.317047 0.237579
0.725616 0.320923 0.242096
0.740265 0.324341 0.246246
0.754059 0.327698 0.250153
0.763336 0.329956 0.252808
0.763336 0.329956 0.252808
0.144348 0.256927 0.110229
0.144348 0.256927 0.110229
0.151947 0.257111 0.110687
0.162689 0.257385 0.111359
0.171967 0.258057 0.111816
0.181793 0.258759 0.112366
0.192749 0.259918 0.112854
0.204773 0.260742 0.113647
0.218445 0.262054 0.114471
0.235504 0.263123 0.115875
0.256592 0.263977 0.117950
0.274200 0.259338 0.119110
0.301697 0.262299 0.124146
0.330872 0.265564 0.129639
0.357269 0.267090 0.136078
0.385406 0.269897 0.142853
0.414978 0.273590 0.150238
0.445282 0.277863 0.157806
0.475555 0.282684 0.165924
0.503998 0.288300 0.175354
0.534363 0.293945 0.183594
0.562744 0.299927 0.192261
0.589417 0.306122 0.200806
0.615143 0.311768 0.208496
0.638763 0.317200 0.215698
0.660278 0.322418 0.222473
0.679718 0.327240 0.228760
0.697296 0.331940 0.234680
0.714630 0.335846 0.239441
0.730377 0.339264 0.243805
0.743286 0.343140 0.248566
0.755341 0.346771 0.253113
0.764404 0.348846 0.255646
0.764404 0.348846 0.255646
0.155884 0.286743 0.120087
0.155884 0.286743 0.120087
0.163330 0.286896 0.120514
0.173798 0.287170 0.121155
0.184143 0.287445 0.121857
0.193817 0.288177 0.122375
0.204376 0.288971 0.123016
0.216278 0.290283 0.123627
0.229614 0.291687 0.124451
0.244324 0.292664 0.125610
0.263153 0.293854 0.127228
0.285889 0.294769 0.129547
0.304230 0.289215 0.130554
0.333191 0.292389 0.135803
0.363831 0.295929 0.141754
0.392303 0.297821 0.148102
0.421448 0.300446 0.155121
0.451294 0.303772 0.162476
0.482086 0.307892 0.170044
0.512360 0.312500 0.178314
0.540833 0.317627 0.187042
0.569336 0.322906 0.195435
0.597229 0.328156 0.203156
0.621979 0.333649 0.211151
0.647034 0.338470 0.217621
0.667358 0.343475 0.224762
0.688324 0.347687 0.230286
0.704559 0.352264 0.236633
0.722015 0.355957 0.241333
0.736389 0.359741 0.246307
0.750885 0.362885 0.250275
0.762817 0.366180 0.254669
0.772034 0.368225 0.257202
0.772034 0.368225 0.257202
0.168060 0.317810 0.130737
0.168060 0.317810 0.130737
0.175385 0.317993 0.131165
0.185608 0.318237 0.131775
0.196899 0.318512 0.132538
0.206512 0.318756 0.133179
0.217010 0.320160 0.133667
0.228516 0.321014 0.134369
0.241608 0.322510 0.135132
0.255737 0.322998 0.136322
0.272217 0.325165 0.137451
0.292725 0.325928 0.139435
0.317230 0.326935 0.142029
0.335815 0.320465 0.142731
0.366241 0.323792 0.148285
0.398102 0.327454 0.154449
0.428955 0.330078 0.160919
0.458313 0.332275 0.167908
0.488525 0.335480 0.175293
0.519501 0.339355 0.182861
0.549438 0.343567 0.190674
0.578552 0.348114 0.198547
0.604309 0.352844 0.206909
0.630310 0.357544 0.214050
0.654297 0.362152 0.220886
0.676056 0.366425 0.227203
0.695740 0.370575 0.233154
0.713501 0.374420 0.238708
0.729584 0.378113 0.243866
0.744141 0.381683 0.248749
0.758698 0.384583 0.252625
0.772369 0.387299 0.256256
0.779968 0.389618 0.259399
0.779968 0.389618 0.259399
0.180969 0.350128 0.141998
0.180969 0.350128 0.141998
0.188080 0.350281 0.142426
0.198059 0.350494 0.143036
0.209167 0.350769 0.143768
0.219910 0.351044 0.144501
0.230164 0.352509 0.144928
0.241425 0.352814 0.145782
0.254059 0.353790 0.146637
0.268372 0.355469 0.147522
0.283966 0.356567 0.148743
0.301544 0.358429 0.150146
0.324341 0.359283 0.152435
0.350098 0.360352 0.155212
0.368988 0.352936 0.155731
0.400604 0.356384 0.161530
0.433624 0.360199 0.167908
0.465576 0.363098 0.174469
0.495178 0.365112 0.181519
0.526428 0.368378 0.188690
0.556580 0.371826 0.196014
0.585571 0.375610 0.203522
0.613739 0.379669 0.210663
0.639069 0.383820 0.217896
0.663116 0.387787 0.224365
0.683716 0.391724 0.230988
0.703461 0.395447 0.236755
0.721375 0.399017 0.242126
0.737518 0.402374 0.247162
0.753571 0.405304 0.251282
0.766693 0.408234 0.255615
0.778839 0.411102 0.259796
0.788116 0.412964 0.262238
0.788116 0.412964 0.262238
0.194336 0.383392 0.153778
0.194336 0.383392 0.153778
0.201263 0.383514 0.154205
0.211121 0.383728 0.154816
0.221924 0.383972 0.155518
0.233795 0.384277 0.156311
0.243866 0.385193 0.156860
0.254974 0.386169 0.157532
0.267273 0.386505 0.158508
0.281311 0.388275 0.159363
0.296722 0.389435 0.160553
0.313934 0.391357 0.161896
0.332520 0.392700 0.163574
0.357483 0.393646 0.166138
0.384460 0.394775 0.169159
0.403412 0.386322 0.169373
0.436218 0.389923 0.175385
0.469757 0.393860 0.181885
0.503906 0.397766 0.188446
0.533539 0.399353 0.195404
0.562927 0.401855 0.202545
0.592072 0.405060 0.209686
0.620422 0.408600 0.216431
0.646637 0.412170 0.223083
0.670471 0.415619 0.229401
0.692963 0.418976 0.235138
0.711517 0.422302 0.241119
0.730988 0.425476 0.245850
0.745636 0.428467 0.251160
0.761871 0.431274 0.255188
0.774963 0.433838 0.259369
0.787201 0.436371 0.263397
0.796478 0.438141 0.265747
0.796478 0.438141 0.265747
0.208130 0.417389 0.166046
0.208130 0.417389 0.166046
0.214905 0.417542 0.166443
0.224487 0.417725 0.167053
0.235199 0.417969 0.167725
0.246796 0.418243 0.168488
0.258087 0.418518 0.169281
0.268982 0.419556 0.169952
0.281189 0.420624 0.170746
0.294800 0.421753 0.171692
0.309906 0.422913 0.172791
0.326508 0.424194 0.174164
0.345123 0.426300 0.175629
0.365295 0.427795 0.177551
0.391998 0.428802 0.180389
0.420135 0.429993 0.183594
0.439087 0.420563 0.183533
0.472412 0.424347 0.189728
0.506409 0.428192 0.196289
0.540924 0.432312 0.203125
0.570526 0.434113 0.209778
0.599884 0.436462 0.216400
0.628479 0.439484 0.222778
0.653656 0.442230 0.229340
0.677643 0.445160 0.235382
0.699280 0.448090 0.241119
0.721466 0.451202 0.245789
0.738861 0.453735 0.250946
0.755585 0.456421 0.255493
0.770294 0.458862 0.259796
0.783539 0.461273 0.263885
0.797394 0.463409 0.267212
0.806732 0.464905 0.269501
0.806732 0.464905 0.269501
0.222443 0.452332 0.178833
0.222443 0.452332 0.178833
0.229095 0.452454 0.179230
0.238495 0.452637 0.179779
0.248962 0.452850 0.180420
0.260345 0.453125 0.181152
0.272858 0.453400 0.182037
0.283569 0.454498 0.182648
0.295471 0.454803 0.183563
0.309052 0.456787 0.184387
0.323669 0.457214 0.185608
0.340027 0.458527 0.186890
0.358307 0.460724 0.188293
0.378113 0.463043 0.190002
0.400024 0.463837 0.192230
0.427887 0.464905 0.195251
0.457001 0.466125 0.198639
0.475403 0.455688 0.198242
0.509155 0.459473 0.204529
0.543488 0.463440 0.211121
0.577271 0.467468 0.217804
0.607941 0.470001 0.224152
0.635529 0.471954 0.230316
0.662109 0.474457 0.236237
0.684998 0.476593 0.242218
0.706787 0.478973 0.247620
0.727722 0.481567 0.252502
0.746643 0.484100 0.257050
0.762207 0.486176 0.261627
0.779114 0.488586 0.265259
0.792969 0.490601 0.268982
0.805847 0.492523 0.272491
0.815582 0.494019 0.274658
0.815582 0.494019 0.274658
0.236847 0.487427 0.191742
0.236847 0.487427 0.191742
0.243408 0.487549 0.192139
0.252594 0.487732 0.192688
0.262848 0.487946 0.193329
0.274078 0.488190 0.194061
0.286438 0.488464 0.194885
0.298401 0.488739 0.195740
0.310181 0.489929 0.196472
0.323303 0.491150 0.197357
0.337921 0.492432 0.198395
0.354034 0.493805 0.199646
0.371796 0.495239 0.201141
0.390778 0.496735 0.202820
0.411224 0.498322 0.204773
0.435852 0.500092 0.207214
0.464783 0.501221 0.210419
0.494354 0.502472 0.213928
0.512146 0.491058 0.213226
0.546265 0.494873 0.219543
0.579865 0.498688 0.225952
0.612701 0.502533 0.232391
0.643982 0.506226 0.238464
0.669525 0.507629 0.244171
0.693848 0.509674 0.249542
0.715820 0.511627 0.254669
0.735535 0.513397 0.259491
0.753113 0.515198 0.264130
0.770233 0.517273 0.268188
0.785736 0.519257 0.272034
0.799652 0.520935 0.275543
0.814178 0.522980 0.278595
0.820770 0.523926 0.281433
0.820770 0.523926 0.281433
0.251526 0.522797 0.204926
0.251526 0.522797 0.204926
0.257874 0.522919 0.205292
0.266998 0.523102 0.205841
0.277069 0.523285 0.206451
0.288086 0.523529 0.207153
0.300262 0.523804 0.207947
0.313354 0.524109 0.208862
0.324951 0.525360 0.209595
0.337860 0.525696 0.210571
0.352264 0.527008 0.211639
0.368347 0.529419 0.212738
0.385620 0.529907 0.214233
0.404327 0.531433 0.215851
0.424500 0.533051 0.217712
0.446167 0.535706 0.219727
0.472809 0.536713 0.222565
0.502197 0.537872 0.225922
0.532196 0.539124 0.229492
0.549286 0.526642 0.228424
0.582672 0.530396 0.234589
0.615356 0.534058 0.240784
0.646545 0.537781 0.246918
0.675812 0.541260 0.252747
0.700287 0.543121 0.258057
0.722290 0.544525 0.262878
0.743469 0.546631 0.267273
0.761169 0.547882 0.271576
0.776947 0.549316 0.275757
0.794037 0.551392 0.279114
0.806488 0.552490 0.282776
0.819458 0.554047 0.286011
0.829285 0.555237 0.288025
0.829285 0.555237 0.288025
0.266144 0.558075 0.218140
0.266144 0.558075 0.218140
0.272491 0.558197 0.218506
0.281372 0.558350 0.219025
0.291321 0.558563 0.219635
0.302185 0.558777 0.220337
0.314087 0.559052 0.221130
0.327484 0.559357 0.222015
0.339935 0.559631 0.222931
0.352661 0.561005 0.223755
0.366943 0.562439 0.224762
0.382507 0.563873 0.225983
0.399780 0.565399 0.227325
0.417877 0.565918 0.228943
0.438263 0.568634 0.230713
0.459320 0.570343 0.232666
0.481567 0.572144 0.234924
0.510162 0.573212 0.238037
0.539978 0.574402 0.241486
0.570343 0.575714 0.245178
0.585693 0.562103 0.243530
0.618195 0.565704 0.249512
0.649231 0.569305 0.255432
0.678345 0.572693 0.261108
0.705444 0.575989 0.266479
0.730286 0.578949 0.271454
0.750214 0.580048 0.275818
0.769409 0.581635 0.279755
0.785278 0.582520 0.283600
0.800903 0.583893 0.286987
0.814972 0.585144 0.290192
0.828033 0.586426 0.293304
0.836334 0.587280 0.295532
0.836334 0.587280 0.295532
0.280792 0.593170 0.231384
0.280792 0.593170 0.231384
0.287018 0.593292 0.231750
0.295837 0.593445 0.232269
0.305573 0.593628 0.232849
0.316254 0.593842 0.233490
0.327972 0.594086 0.234283
0.341217 0.594391 0.235199
0.354828 0.594696 0.236145
0.367493 0.596130 0.236969
0.381409 0.596466 0.238037
0.396729 0.597992 0.239166
0.413971 0.600677 0.240417
0.432068 0.601196 0.242004
0.451630 0.602875 0.243713
0.472504 0.604675 0.245667
0.494354 0.606476 0.247803
0.518402 0.608459 0.250275
0.547943 0.609558 0.253601
0.578064 0.610779 0.257141
0.607819 0.612061 0.260803
0.621216 0.597260 0.258545
0.652100 0.600677 0.264221
0.681061 0.604034 0.269714
0.708008 0.607269 0.274933
0.732758 0.610077 0.279755
0.755524 0.612885 0.284332
0.776306 0.615417 0.288544
0.792236 0.615967 0.292206
0.809448 0.617859 0.295319
0.822083 0.618317 0.298523
0.835175 0.619324 0.301453
0.845093 0.620422 0.303314
0.845093 0.620422 0.303314
0.294922 0.626953 0.244171
0.294922 0.626953 0.244171
0.301025 0.627075 0.244537
0.309784 0.627228 0.245026
0.319336 0.627411 0.245605
0.329895 0.627625 0.246277
0.341522 0.627869 0.247009
0.354523 0.628143 0.247894
0.368988 0.628479 0.248901
0.381714 0.628754 0.249817
0.395508 0.630249 0.250763
0.410767 0.631836 0.251892
0.427551 0.633453 0.253204
0.445679 0.635132 0.254700
0.464691 0.635681 0.256378
0.485718 0.638702 0.258240
0.507019 0.639404 0.260345
0.530029 0.642487 0.262604
0.555725 0.643402 0.265381
0.585693 0.644562 0.268799
0.615295 0.645782 0.272308
0.644196 0.647034 0.275940
0.654999 0.631165 0.273010
0.683838 0.634247 0.278259
0.710663 0.637360 0.283325
0.735291 0.640167 0.288025
0.757965 0.642792 0.292419
0.778687 0.645264 0.296539
0.797607 0.647614 0.300323
0.814941 0.649750 0.303802
0.830750 0.651581 0.306854
0.842316 0.651489 0.309692
0.852295 0.652679 0.311554
0.852295 0.652679 0.311554
0.308533 0.659393 0.256561
0.308533 0.659393 0.256561
0.314575 0.659485 0.256897
0.323151 0.659637 0.257385
0.332703 0.659821 0.257965
0.343079 0.660034 0.258606
0.354584 0.660248 0.259338
0.367371 0.660522 0.260193
0.381683 0.660828 0.261169
0.395508 0.661163 0.262146
0.409302 0.662720 0.263123
0.424316 0.664337 0.264221
0.441101 0.666016 0.265472
0.458954 0.667755 0.266937
0.477844 0.668274 0.268616
0.498138 0.670135 0.270416
0.519653 0.672028 0.272430
0.541870 0.674011 0.274628
0.564850 0.676056 0.277039
0.593201 0.677124 0.280151
0.622559 0.678253 0.283539
0.651398 0.679443 0.287018
0.678955 0.680634 0.290497
0.686646 0.663483 0.286743
0.713348 0.666443 0.291656
0.737885 0.669220 0.296204
0.760468 0.671722 0.300476
0.781097 0.674255 0.304504
0.799957 0.676453 0.308167
0.817230 0.678558 0.311584
0.833008 0.680420 0.314728
0.847839 0.682159 0.317688
0.857849 0.683350 0.319702
0.857849 0.683350 0.319702
0.321564 0.690125 0.268280
0.321564 0.690125 0.268280
0.327484 0.690216 0.268616
0.335999 0.690369 0.269135
0.345337 0.690552 0.269684
0.355652 0.690735 0.270294
0.367004 0.690979 0.271027
0.379578 0.691223 0.271820
0.393829 0.691528 0.272797
0.408722 0.691895 0.273865
0.422241 0.693481 0.274811
0.437164 0.695160 0.275909
0.453491 0.695587 0.277191
0.471191 0.697327 0.278625
0.490234 0.699188 0.280212
0.510315 0.701080 0.281982
0.531097 0.701721 0.283936
0.553772 0.705017 0.286102
0.575928 0.705780 0.288391
0.600464 0.707977 0.291016
0.629547 0.709045 0.294281
0.658264 0.710175 0.297668
0.685638 0.711334 0.300995
0.711456 0.712463 0.304291
0.716064 0.694092 0.299744
0.740448 0.696716 0.304169
0.762970 0.699249 0.308350
0.783508 0.701660 0.312225
0.802307 0.703918 0.315857
0.819489 0.705841 0.319153
0.835266 0.707764 0.322235
0.850037 0.709534 0.325134
0.860016 0.710693 0.327087
0.860016 0.710693 0.327087
0.333740 0.719055 0.279388
0.333740 0.719055 0.279388
0.339691 0.719177 0.279724
0.348022 0.719330 0.280182
0.357300 0.719482 0.280731
0.367432 0.719666 0.281342
0.378662 0.719910 0.282043
0.391174 0.720154 0.282867
0.405273 0.720459 0.283813
0.420959 0.720795 0.284912
0.434479 0.721100 0.285889
0.449219 0.722809 0.286957
0.465637 0.724609 0.288208
0.483124 0.726440 0.289612
0.501648 0.726929 0.291199
0.521606 0.728851 0.292938
0.542786 0.730835 0.294861
0.563843 0.731506 0.296936
0.587128 0.735016 0.299225
0.610291 0.737152 0.301636
0.636383 0.738098 0.304504
0.664764 0.739166 0.307739
0.692139 0.740265 0.311005
0.717743 0.741333 0.314178
0.741608 0.742371 0.317230
0.743042 0.722839 0.311859
0.765442 0.725372 0.315948
0.785889 0.727570 0.319702
0.804626 0.729675 0.323212
0.821777 0.731720 0.326447
0.837463 0.733521 0.329468
0.852173 0.735229 0.332306
0.862152 0.736359 0.334229
0.862152 0.736359 0.334229
0.345001 0.745636 0.289581
0.345001 0.745636 0.289581
0.350861 0.745728 0.289917
0.359161 0.745880 0.290375
0.368347 0.746033 0.290924
0.378357 0.746246 0.291534
0.389526 0.746460 0.292236
0.401855 0.746704 0.292999
0.415863 0.746979 0.293945
0.431305 0.747314 0.295013
0.445953 0.747650 0.296082
0.460449 0.749420 0.297150
0.476562 0.749817 0.298370
0.493927 0.751678 0.299774
0.512482 0.753601 0.301270
0.532318 0.755554 0.303009
0.552704 0.756165 0.304871
0.574493 0.758240 0.306946
0.597443 0.761810 0.309235
0.619843 0.762543 0.311523
0.642731 0.764801 0.313995
0.670959 0.765839 0.317139
0.698151 0.766876 0.320312
0.723663 0.767914 0.323395
0.747375 0.768921 0.326355
0.769196 0.769867 0.329163
0.767792 0.749207 0.323029
0.788177 0.751526 0.326721
0.806854 0.753601 0.330170
0.823944 0.755524 0.333344
0.839569 0.757324 0.336273
0.854248 0.759003 0.339050
0.864197 0.760040 0.340912
0.864197 0.760040 0.340912
0.355316 0.769989 0.298981
0.355316 0.769989 0.298981
0.361115 0.770081 0.299286
0.369354 0.770233 0.299774
0.378448 0.770386 0.300293
0.388428 0.770569 0.300873
0.399475 0.770782 0.301575
0.411804 0.771027 0.302368
0.425568 0.771332 0.303284
0.440979 0.771637 0.304352
0.456390 0.773468 0.305420
0.470825 0.773804 0.306488
0.486969 0.775635 0.307678
0.503998 0.776062 0.309082
0.522552 0.778046 0.310577
0.542297 0.780060 0.312286
0.563141 0.782135 0.314178
0.584717 0.784271 0.316223
0.606415 0.784943 0.318329
0.629211 0.787140 0.320679
0.652008 0.789368 0.323090
0.676666 0.790253 0.325775
0.703644 0.791260 0.328857
0.729095 0.792267 0.331879
0.752777 0.793243 0.334778
0.774536 0.794159 0.337524
0.794617 0.795044 0.340118
0.793121 0.776001 0.334412
0.808960 0.775513 0.336609
0.825989 0.777405 0.339752
0.841583 0.779175 0.342621
0.856232 0.780701 0.345306
