backup-gold-v1/lut/柯达金.cube
#Created by: Adobe Photoshop Export Color Lookup Plugin
#Copyright: (C) Copyright 2026 汉图
TITLE "mint本征源文件-适配lut筛选-恢复的.psd"
#LUT size
LUT_3D_SIZE 7
#data domain
#LUT data points
DOMAIN_MIN 0.000000 0.000000 0.000000
DOMAIN_MAX 0.909091 0.909091 0.909091
0.174866 0.174866 0.174866
0.331940 0.174866 0.174866
0.542450 0.174866 0.174866
0.692322 0.174866 0.174866
0.800262 0.174866 0.174866
0.878448 0.174866 0.184570
0.916443 0.174866 0.195404
0.174866 0.196259 0.174866
0.351105 0.196259 0.174866
0.565918 0.196259 0.174866
0.714264 0.196259 0.174866
0.819885 0.196381 0.174866
0.895386 0.212189 0.193451
0.932312 0.223022 0.210541
0.174866 0.259735 0.174866
0.361969 0.283081 0.174866
0.575195 0.307465 0.174866
0.720337 0.327728 0.174866
0.823578 0.345917 0.183044
0.897339 0.361786 0.209503
0.933777 0.367737 0.219635
0.174866 0.433044 0.174866
0.396851 0.467224 0.174866
0.585938 0.474152 0.174866
0.728180 0.497589 0.188751
0.829193 0.518005 0.216095
0.901215 0.535339 0.241241
0.937073 0.541260 0.250824
0.174866 0.620819 0.174866
0.439972 0.657898 0.195129
0.617432 0.662933 0.204529
0.736298 0.662292 0.229309
0.835052 0.678436 0.256439
0.905426 0.691956 0.281281
0.940735 0.696716 0.290405
0.174866 0.773804 0.188995
0.483337 0.806488 0.263123
0.651794 0.809845 0.271881
0.763580 0.812744 0.280579
0.840851 0.806915 0.302032
0.909637 0.816895 0.326874
0.944397 0.820374 0.336212
0.174866 0.889435 0.244141
0.524078 0.915100 0.338593
0.683411 0.917053 0.346924
0.788055 0.918823 0.355255
0.864288 0.920380 0.363617
0.913696 0.912384 0.377563
0.947998 0.914795 0.386932
0.174866 0.174866 0.196259
0.331146 0.174866 0.196259
0.542206 0.174866 0.196259
0.692719 0.174866 0.196259
0.800995 0.174866 0.200867
0.879242 0.174866 0.228394
0.917206 0.174866 0.238708
0.174866 0.196259 0.196259
0.357483 0.196259 0.196259
0.572205 0.196259 0.196259
0.719025 0.196259 0.196259
0.823242 0.209167 0.215576
0.897919 0.237152 0.259277
0.934448 0.247406 0.275330
0.174866 0.260437 0.196259
0.368134 0.290527 0.196259
0.581055 0.314819 0.196259
0.724762 0.334991 0.200134
0.826843 0.353241 0.227966
0.899780 0.369049 0.253601
0.935852 0.374786 0.263489
0.174866 0.435333 0.196259
0.401886 0.474243 0.196259
0.591431 0.482025 0.202454
0.732330 0.505371 0.230713
0.832184 0.525513 0.257812
0.903473 0.542511 0.282928
0.939056 0.548584 0.292389
0.174866 0.623779 0.196259
0.445343 0.663391 0.234436
0.621735 0.668182 0.243591
0.740234 0.668091 0.268677
0.837952 0.684052 0.295654
0.907501 0.697327 0.320526
0.942596 0.701965 0.329773
0.174866 0.776367 0.223450
0.488586 0.810303 0.300873
0.655914 0.813568 0.309540
0.766815 0.816315 0.318207
0.843597 0.810913 0.339569
0.911652 0.820709 0.364594
0.946136 0.824188 0.373932
0.174866 0.891357 0.277740
0.529053 0.917511 0.375336
0.687317 0.919403 0.383728
0.790955 0.921112 0.391937
0.866486 0.922668 0.400208
0.915619 0.914948 0.414062
0.949646 0.917267 0.423401
0.174866 0.174866 0.217651
0.330750 0.174866 0.217651
0.542633 0.174866 0.217651
0.693390 0.174866 0.217651
0.801758 0.174866 0.245972
0.879944 0.174866 0.273041
0.917908 0.174866 0.283020
0.174866 0.196259 0.217651
0.363770 0.196259 0.217651
0.577972 0.196259 0.217651
0.723480 0.207916 0.243256
0.826508 0.233673 0.283752
0.899261 0.249146 0.314178
0.935425 0.254547 0.325623
0.174866 0.261383 0.217651
0.374207 0.297791 0.217651
0.586700 0.322205 0.218475
0.729095 0.342316 0.246918
0.830078 0.360443 0.274231
0.902008 0.376526 0.299652
0.937897 0.382324 0.309387
0.174866 0.437561 0.217651
0.406891 0.481476 0.220459
0.596802 0.490143 0.246368
0.736481 0.513306 0.274719
0.835297 0.533112 0.302032
0.905640 0.549744 0.326996
0.940948 0.555634 0.336212
0.174866 0.626434 0.217651
0.450500 0.668945 0.276398
0.626099 0.673584 0.285248
0.744202 0.674133 0.310211
0.840851 0.689728 0.337585
0.909637 0.702820 0.362701
0.944458 0.707367 0.371887
0.174866 0.778717 0.259583
0.493774 0.814148 0.341217
0.659821 0.817261 0.349701
0.769989 0.820038 0.358124
0.846405 0.814972 0.379700
0.913605 0.824615 0.404877
0.947937 0.827972 0.414398
0.174866 0.893158 0.312927
0.533783 0.919891 0.414612
0.690918 0.921753 0.422760
0.793762 0.923401 0.431000
0.868652 0.924927 0.439148
0.917511 0.917511 0.453003
0.951294 0.919769 0.462433
0.174866 0.174866 0.239044
0.329681 0.174866 0.239044
0.542114 0.174866 0.245911
0.693542 0.174866 0.276917
0.802063 0.174866 0.306305
0.880371 0.174866 0.332947
0.918365 0.174866 0.342926
0.174866 0.196259 0.239044
0.367706 0.196259 0.239044
0.580933 0.196625 0.277527
0.724762 0.217010 0.311920
0.826691 0.235016 0.344574
0.899597 0.250671 0.375153
0.935699 0.256348 0.386505
0.174866 0.262146 0.239044
0.382202 0.308624 0.250214
0.594269 0.333008 0.282623
0.734985 0.353241 0.311676
0.834442 0.371338 0.339142
0.905212 0.387268 0.364380
0.940674 0.393005 0.373932
0.174866 0.439423 0.239044
0.413239 0.491852 0.281250
0.604065 0.502136 0.307343
0.742035 0.524750 0.336395
0.839355 0.544067 0.363678
0.908722 0.560425 0.388947
0.943604 0.566223 0.398193
0.174866 0.628876 0.261871
0.457184 0.676819 0.334717
0.631592 0.681152 0.343262
0.749481 0.682770 0.368561
0.844788 0.697968 0.396240
0.912506 0.710815 0.421448
0.946899 0.715271 0.430878
0.174866 0.781067 0.307709
0.499908 0.819611 0.397461
0.665009 0.822540 0.405701
0.773987 0.825165 0.413788
0.850098 0.820862 0.435455
0.916290 0.830261 0.460968
0.950226 0.833557 0.470520
0.174866 0.895020 0.359528
0.539917 0.923309 0.469177
0.695831 0.924988 0.476929
0.797516 0.926605 0.484863
0.871399 0.928040 0.492798
0.920074 0.921204 0.506561
0.953522 0.923401 0.515717
0.174866 0.174866 0.271820
0.322815 0.174866 0.353638
0.537811 0.174866 0.393616
0.691284 0.174866 0.428101
0.800995 0.174866 0.459656
0.879852 0.174866 0.488403
0.917999 0.174866 0.498840
0.174866 0.196259 0.322632
0.360138 0.196259 0.385071
0.576141 0.198181 0.428253
0.722290 0.218475 0.466248
0.825348 0.236847 0.501526
0.898895 0.252808 0.533722
0.935120 0.258606 0.544952
0.174866 0.280060 0.338104
0.394989 0.337280 0.417328
0.607056 0.368469 0.460999
0.744720 0.394287 0.498871
0.841553 0.417236 0.533539
0.910126 0.437653 0.562897
0.944855 0.445038 0.573364
0.174866 0.441071 0.354523
0.427948 0.522949 0.450073
0.622559 0.537109 0.476776
0.756531 0.558258 0.508698
0.850220 0.576263 0.537567
0.916565 0.591461 0.562408
0.950500 0.596924 0.571228
0.174866 0.631775 0.392181
0.472290 0.700195 0.502167
0.644897 0.703247 0.508911
0.763367 0.708344 0.534760
0.855103 0.722473 0.562500
0.920013 0.734283 0.586090
0.953461 0.738434 0.594452
0.174866 0.784332 0.435242
0.514252 0.835754 0.559662
0.677368 0.837860 0.565552
0.783936 0.839905 0.571930
0.860016 0.838287 0.590820
0.923401 0.846893 0.613007
0.956421 0.849915 0.621002
0.174866 0.897980 0.483612
0.530609 0.932007 0.593170
0.707306 0.934418 0.621735
0.806580 0.935699 0.627228
0.878326 0.936920 0.632935
0.926788 0.932007 0.642731
0.959320 0.933990 0.650085
0.174866 0.174866 0.471344
0.304382 0.174866 0.621521
0.499939 0.174866 0.626221
0.682465 0.174866 0.675720
0.795563 0.174866 0.701172
0.876465 0.174866 0.722198
0.915161 0.174866 0.729614
0.174866 0.196259 0.605255
0.350983 0.208740 0.662506
0.547119 0.207642 0.664520
0.711639 0.222137 0.703796
0.818756 0.240143 0.729492
0.894501 0.256226 0.750824
0.931488 0.261902 0.758545
0.174866 0.326721 0.621765
0.394806 0.380737 0.697296
0.587677 0.379852 0.698242
0.736481 0.397644 0.728699
0.836426 0.420471 0.752014
0.907043 0.440613 0.771332
0.942291 0.447937 0.778046
0.174866 0.493256 0.637878
0.429321 0.571167 0.718231
0.625000 0.575256 0.731140
0.759247 0.591614 0.753571
0.852875 0.612488 0.775085
0.918732 0.630035 0.792938
0.952454 0.636169 0.799042
0.174866 0.633820 0.631866
0.440491 0.711578 0.726196
0.652374 0.734497 0.756836
0.780090 0.750275 0.778259
0.867767 0.765656 0.798096
0.929199 0.778442 0.814514
0.961456 0.782898 0.820129
0.174866 0.785675 0.664978
0.475189 0.840881 0.752655
0.677979 0.856506 0.780762
0.795776 0.863220 0.796661
0.872803 0.865326 0.806000
0.932678 0.872589 0.819214
0.964478 0.875153 0.823883
0.174866 0.899445 0.698944
0.507812 0.935516 0.780762
0.701904 0.945068 0.806274
0.817383 0.949799 0.825989
0.886810 0.950500 0.828400
0.935608 0.948547 0.832642
0.966980 0.950134 0.836975
0.174866 0.174866 0.695709
0.269043 0.174866 0.898865
0.488770 0.174866 0.891418
0.647736 0.174866 0.892609
0.761383 0.174866 0.895081
0.844849 0.174866 0.897949
0.890350 0.174866 0.904297
0.174866 0.236725 0.866974
0.324341 0.292572 0.921906
0.548584 0.273224 0.914825
0.692291 0.269226 0.914429
0.794769 0.268188 0.915405
0.869995 0.268097 0.916931
0.911682 0.269714 0.921753
0.174866 0.392059 0.886871
0.386749 0.499664 0.933594
0.592224 0.456848 0.930695
0.725922 0.452454 0.929962
0.820374 0.451782 0.930542
0.889343 0.452332 0.931488
0.927948 0.454254 0.935059
0.174866 0.563080 0.894714
0.399628 0.656464 0.939178
0.630402 0.642639 0.944031
0.755005 0.639313 0.943298
0.842377 0.638977 0.943665
0.906006 0.639526 0.944366
0.941498 0.640808 0.946533
0.174866 0.711243 0.902130
0.410950 0.783234 0.944550
0.661530 0.788452 0.950653
0.780945 0.785522 0.955109
0.861847 0.785248 0.955353
0.920441 0.785736 0.955933
0.952759 0.786163 0.956512
0.174866 0.829346 0.909576
0.420685 0.881378 0.949921
0.669983 0.884827 0.955505
0.799774 0.891266 0.961609
0.878967 0.892761 0.965729
0.932922 0.893097 0.966187
0.963379 0.893280 0.966370
0.174866 0.917206 0.914795
0.428925 0.954285 0.955444
0.677979 0.956177 0.960419
0.805481 0.960175 0.966003
0.887848 0.963959 0.970856
0.943665 0.967163 0.974823
0.972504 0.967041 0.975250
