backup-gold-v1/lut/柯达金.cube
#Created by: Adobe Photoshop Export Color Lookup Plugin
#Copyright: (C) Copyright 2026 汉图
TITLE "mint本征源文件-适配lut筛选-恢复的.psd"
#LUT size
LUT_3D_SIZE 34
#data domain
DOMAIN_MIN 0.0 0.0 0.0
DOMAIN_MAX 1.0 1.0 1.0
#LUT data points
0.174866 0.174866 0.174866
0.179138 0.174866 0.174866
0.183411 0.174866 0.174866
0.235352 0.174866 0.174866
0.285034 0.174866 0.174866
0.331940 0.174866 0.174866
0.377228 0.174866 0.174866
0.421082 0.174866 0.174866
0.464294 0.174866 0.174866
0.504883 0.174866 0.174866
0.542450 0.174866 0.174866
0.576813 0.174866 0.174866
0.608856 0.174866 0.174866
0.638641 0.174866 0.174866
0.666382 0.174866 0.174866
0.692322 0.174866 0.174866
0.716553 0.174866 0.174866
0.739441 0.174866 0.174866
0.760925 0.174866 0.174866
0.781189 0.174866 0.174866
0.800262 0.174866 0.174866
0.818237 0.174866 0.174866
0.835327 0.174866 0.174866
0.851410 0.174866 0.174866
0.866638 0.174866 0.180328
0.878448 0.174866 0.184570
0.886230 0.174866 0.186676
0.893921 0.174866 0.188843
0.901489 0.174866 0.190796
0.909027 0.174866 0.192963
0.916443 0.174866 0.195404
0.923859 0.174866 0.197449
0.931183 0.174866 0.199493
0.938416 0.174866 0.201721
0.174866 0.179138 0.174866
0.179138 0.179138 0.174866
0.183411 0.179138 0.174866
0.242462 0.179138 0.174866
0.294189 0.179138 0.174866
0.342773 0.179138 0.174866
0.389740 0.179138 0.174866
0.435272 0.179138 0.174866
0.479736 0.179138 0.174866
0.520386 0.179138 0.174866
0.557770 0.179138 0.174866
0.592407 0.179138 0.174866
0.624023 0.179138 0.174866
0.654144 0.179138 0.174866
0.681824 0.179138 0.174866
0.707794 0.179138 0.174866
0.731812 0.179138 0.174866
0.754150 0.179138 0.174866
0.774811 0.179138 0.174866
0.794342 0.179138 0.174866
0.812683 0.179138 0.174866
0.829987 0.179138 0.180450
0.846344 0.179138 0.186798
0.861755 0.179138 0.192963
0.876373 0.179138 0.199280
0.887817 0.179138 0.203705
0.895325 0.179138 0.205902
0.902802 0.179138 0.208069
0.910217 0.179138 0.210114
0.917511 0.179138 0.212494
0.924774 0.179138 0.214630
0.932007 0.179138 0.216675
0.939087 0.179138 0.219055
0.946167 0.179138 0.221069
0.174866 0.183411 0.174866
0.179138 0.183411 0.174866
0.183411 0.183411 0.174866
0.246277 0.183411 0.174866
0.297791 0.183411 0.174866
0.346558 0.183411 0.174866
0.394043 0.183411 0.174866
0.440002 0.183411 0.174866
0.484985 0.183411 0.174866
0.526276 0.183411 0.174866
0.564270 0.183411 0.174866
0.598450 0.183411 0.174866
0.631226 0.183411 0.174866
0.660828 0.183411 0.174866
0.687744 0.183411 0.174866
0.713104 0.183411 0.174866
0.737213 0.183411 0.174866
0.759552 0.183411 0.174866
0.780640 0.183411 0.174866
0.800171 0.183411 0.176208
0.818878 0.183411 0.183228
0.836456 0.183411 0.190979
0.852814 0.183411 0.197998
0.868347 0.183411 0.205109
0.883118 0.183411 0.212891
0.894562 0.183411 0.218384
0.902039 0.183411 0.220642
0.909607 0.183411 0.223450
0.916901 0.183411 0.226135
0.924377 0.183411 0.229156
0.931519 0.183411 0.231445
0.938599 0.183411 0.233887
0.945831 0.183411 0.236938
0.952820 0.183411 0.239471
0.174866 0.187714 0.174866
0.179138 0.187714 0.174866
0.183411 0.187714 0.174866
0.247437 0.187714 0.174866
0.298431 0.187714 0.174866
0.346924 0.187714 0.174866
0.395050 0.187714 0.174866
0.440765 0.187714 0.174866
0.485077 0.187714 0.174866
0.526276 0.187714 0.174866
0.563538 0.187714 0.174866
0.598541 0.187714 0.174866
0.630859 0.187714 0.174866
0.660278 0.187714 0.174866
0.688049 0.187714 0.174866
0.714142 0.187714 0.174866
0.738556 0.187714 0.174866
0.761200 0.187714 0.174866
0.782440 0.187714 0.174866
0.801941 0.187714 0.178162
0.820435 0.187714 0.185699
0.837860 0.187714 0.193024
0.854095 0.187714 0.200195
0.869476 0.187714 0.207367
0.883942 0.187714 0.214111
0.895477 0.187714 0.219940
0.902924 0.187714 0.222321
0.910492 0.187714 0.225006
0.917786 0.187714 0.227509
0.924957 0.187714 0.229736
0.932220 0.187714 0.232666
0.939362 0.187714 0.235077
0.946350 0.187714 0.237610
0.953461 0.187714 0.240631
0.174866 0.191986 0.174866
0.179138 0.191986 0.174866
0.183411 0.191986 0.174866
0.249176 0.191986 0.174866
0.300171 0.191986 0.174866
0.348785 0.191986 0.174866
0.396210 0.191986 0.174866
0.441864 0.191986 0.174866
0.486298 0.191986 0.174866
0.526855 0.191986 0.174866
0.564392 0.191986 0.174866
0.598999 0.191986 0.174866
0.630859 0.191986 0.174866
0.660461 0.191986 0.174866
0.688171 0.191986 0.174866
0.714081 0.191986 0.174866
0.737823 0.191986 0.174866
0.760406 0.191986 0.174866
0.781616 0.191986 0.174866
0.801453 0.191986 0.174866
0.820038 0.191986 0.174866
0.837677 0.191986 0.179047
0.854279 0.191986 0.188782
0.869843 0.196289 0.198944
0.884491 0.202637 0.209412
0.896027 0.207458 0.217438
0.903534 0.209534 0.220917
0.910980 0.211731 0.224548
0.918335 0.213837 0.227753
0.925568 0.215790 0.230988
0.932770 0.216522 0.233612
0.939850 0.217499 0.236420
0.946869 0.218475 0.238800
0.953827 0.219391 0.241455
0.174866 0.196259 0.174866
0.179138 0.196259 0.174866
0.183411 0.196259 0.174866
0.250610 0.196259 0.174866
0.302307 0.196259 0.174866
0.351105 0.196259 0.174866
0.398041 0.196259 0.174866
0.443939 0.196259 0.174866
0.488098 0.196259 0.174866
0.528259 0.196259 0.174866
0.565918 0.196259 0.174866
0.599823 0.196259 0.174866
0.631775 0.196259 0.174866
0.661560 0.196259 0.174866
0.688721 0.196259 0.174866
0.714264 0.196259 0.174866
0.738098 0.196259 0.174866
0.760529 0.196259 0.174866
0.781677 0.196259 0.174866
0.801605 0.196259 0.174866
0.819885 0.196381 0.174866
0.837463 0.199310 0.174866
0.853882 0.202057 0.174866
0.869415 0.204803 0.180359
0.884033 0.207855 0.186768
0.895386 0.212189 0.193451
0.902863 0.214264 0.196594
0.910431 0.216644 0.200562
0.917816 0.218781 0.203766
0.925140 0.221039 0.207520
0.932312 0.223022 0.210541
0.939453 0.225098 0.213654
0.946594 0.227844 0.218262
0.953491 0.229584 0.220825
0.174866 0.200531 0.174866
0.179138 0.200531 0.174866
0.184174 0.200531 0.174866
0.252747 0.200531 0.174866
0.304291 0.200531 0.174866
0.352844 0.200531 0.174866
0.400055 0.200531 0.174866
0.445587 0.200531 0.174866
0.489807 0.200531 0.174866
0.530029 0.200531 0.174866
0.567474 0.200531 0.174866
0.601471 0.200531 0.174866
0.633118 0.200531 0.174866
0.662292 0.202087 0.174866
0.689606 0.205627 0.174866
0.715302 0.208832 0.174866
0.738861 0.212128 0.174866
0.761444 0.215179 0.174866
0.782166 0.218414 0.174866
0.801880 0.221436 0.174866
0.820465 0.224457 0.174866
0.837769 0.227386 0.174866
0.854126 0.230499 0.176788
0.869537 0.233398 0.182617
0.884155 0.236115 0.188782
0.895386 0.238373 0.192810
0.902954 0.239380 0.195129
0.910461 0.240204 0.197296
0.917755 0.241241 0.199249
0.924988 0.242340 0.201477
0.932190 0.243225 0.203583
0.939331 0.244232 0.205597
0.946350 0.245270 0.207764
0.953400 0.246277 0.209900
0.174866 0.204803 0.174866
0.179138 0.204803 0.174866
0.186188 0.204803 0.174866
0.254547 0.204803 0.174866
0.306549 0.204803 0.174866
0.354980 0.204803 0.174866
0.402466 0.204803 0.174866
0.447876 0.206482 0.174866
0.492188 0.210876 0.174866
0.532257 0.214966 0.174866
0.569214 0.218933 0.174866
0.603149 0.222839 0.174866
0.634644 0.226532 0.174866
0.663605 0.230225 0.174866
0.690979 0.233765 0.174866
0.716278 0.237152 0.174866
0.739960 0.240540 0.174866
0.762177 0.243896 0.174866
0.782990 0.247070 0.174866
0.802551 0.250458 0.174866
0.820984 0.253479 0.174866
0.838226 0.256653 0.174866
0.854584 0.259735 0.180237
0.869995 0.262604 0.186066
0.884399 0.265717 0.191895
0.895660 0.267822 0.196106
0.903168 0.268890 0.198151
0.910583 0.269928 0.200195
0.917969 0.271027 0.202545
0.925201 0.272125 0.204498
0.932404 0.273102 0.206635
0.939575 0.274078 0.208679
0.946564 0.274994 0.210724
0.953491 0.276093 0.212646
0.174866 0.209106 0.174866
0.179138 0.209106 0.174866
0.187927 0.209106 0.174866
0.256714 0.213257 0.174866
0.308380 0.219330 0.174866
0.357391 0.224762 0.174866
0.404480 0.229889 0.174866
0.450439 0.234619 0.174866
0.494537 0.239075 0.174866
0.534424 0.243347 0.174866
0.571045 0.247528 0.174866
0.604797 0.251465 0.174866
0.636108 0.255402 0.174866
0.665222 0.259155 0.174866
0.692444 0.262817 0.174866
0.717590 0.266357 0.174866
0.741211 0.269928 0.174866
0.763336 0.273346 0.174866
0.784027 0.276703 0.174866
0.803497 0.280060 0.174866
0.821716 0.283356 0.174866
0.838928 0.286652 0.178528
0.855164 0.289703 0.184326
0.870514 0.292877 0.190216
0.884949 0.296051 0.196014
0.896149 0.298309 0.200104
0.903625 0.299408 0.202087
0.910980 0.300446 0.204071
0.918365 0.301483 0.206268
0.925598 0.302582 0.208405
0.932739 0.303772 0.210236
0.939850 0.304718 0.212250
0.946838 0.305878 0.214355
0.953796 0.306915 0.216370
0.174866 0.228455 0.174866
0.179138 0.240082 0.174866
0.201233 0.242950 0.174866
0.258759 0.241486 0.174866
0.310791 0.247772 0.174866
0.359436 0.253448 0.174866
0.406830 0.258728 0.174866
0.452789 0.263641 0.174866
0.496643 0.268250 0.174866
0.536346 0.272675 0.174866
0.573090 0.277100 0.174866
0.606720 0.281189 0.174866
0.637848 0.285126 0.174866
0.666962 0.289032 0.174866
0.693695 0.292908 0.174866
0.718964 0.296539 0.174866
0.742401 0.300140 0.174866
0.764496 0.303772 0.174866
0.785034 0.307159 0.174866
0.804413 0.310822 0.174866
0.822601 0.314178 0.177734
0.839722 0.317505 0.183594
0.855896 0.320831 0.189117
0.871185 0.324005 0.194885
0.885559 0.327209 0.200592
0.896729 0.329498 0.204590
0.904144 0.330750 0.206543
0.911591 0.331879 0.208740
0.918793 0.333008 0.210480
0.926086 0.334137 0.212585
0.933258 0.335144 0.214569
0.940277 0.336426 0.216553
0.947327 0.337433 0.218597
0.954224 0.338531 0.220825
0.174866 0.259735 0.174866
0.179138 0.273254 0.174866
0.207916 0.276215 0.174866
0.260834 0.270782 0.174866
0.312836 0.277313 0.174866
0.361969 0.283081 0.174866
0.409241 0.288605 0.174866
0.455383 0.293610 0.174866
0.498993 0.298492 0.174866
0.538635 0.303009 0.174866
0.575195 0.307465 0.174866
0.608643 0.311707 0.174866
0.639618 0.315857 0.174866
0.668640 0.319946 0.174866
0.695404 0.323914 0.174866
0.720337 0.327728 0.174866
0.743744 0.331451 0.174866
0.765717 0.335236 0.174866
0.786194 0.338776 0.174866
0.805481 0.342377 0.177734
0.823578 0.345917 0.183044
0.840637 0.349365 0.188782
0.856720 0.352692 0.194275
0.871948 0.356110 0.199921
0.886261 0.359436 0.205627
0.897339 0.361786 0.209503
0.904755 0.363098 0.211487
0.912170 0.364166 0.213593
0.919464 0.365295 0.215454
0.926666 0.366547 0.217651
0.933777 0.367737 0.219635
0.940796 0.368896 0.221619
0.947815 0.369995 0.223602
0.954712 0.371155 0.225616
0.174866 0.292114 0.174866
0.179138 0.307922 0.174866
0.214722 0.310822 0.174866
0.275665 0.313080 0.174866
0.315186 0.307648 0.174866
0.364136 0.313782 0.174866
0.411865 0.319336 0.174866
0.457764 0.324615 0.174866
0.501343 0.329681 0.174866
0.540955 0.334381 0.174866
0.577240 0.339020 0.174866
0.610718 0.343292 0.174866
0.641571 0.347595 0.174866
0.670349 0.351746 0.174866
0.696960 0.355804 0.174866
0.721802 0.359802 0.174866
0.745209 0.363708 0.174866
0.766937 0.367462 0.174866
0.787445 0.371277 0.177917
0.806610 0.374969 0.183624
0.824677 0.378448 0.189087
0.841644 0.382172 0.194855
0.857574 0.385651 0.199890
0.872772 0.389099 0.205597
0.887024 0.392548 0.211182
0.898041 0.395172 0.215118
0.905487 0.396301 0.217194
0.912811 0.397430 0.219177
0.920044 0.398682 0.221069
0.927277 0.399963 0.223053
0.934357 0.401062 0.224915
0.941376 0.402374 0.227051
0.948395 0.403442 0.229004
0.955231 0.404724 0.230927
0.174866 0.325684 0.174866
0.179138 0.343475 0.174866
0.221466 0.346710 0.174866
0.283051 0.348846 0.174866
0.317322 0.339050 0.174866
0.366791 0.345306 0.174866
0.414185 0.351074 0.174866
0.460419 0.356506 0.174866
0.503845 0.361725 0.174866
0.543304 0.366577 0.174866
0.579468 0.371399 0.174866
0.612701 0.375793 0.174866
0.643433 0.380341 0.174866
0.672150 0.384613 0.174866
0.698730 0.388672 0.174866
0.723480 0.392792 0.174866
0.746704 0.396881 0.174866
0.768311 0.400726 0.178741
0.788635 0.404572 0.184113
0.807770 0.408478 0.189819
0.825684 0.412201 0.195190
0.842682 0.415894 0.200958
0.858673 0.419403 0.206238
0.873566 0.423157 0.211517
0.887726 0.426605 0.217010
0.898834 0.429230 0.221283
0.906219 0.430389 0.223175
0.913513 0.431702 0.225098
0.920776 0.432983 0.227020
0.927917 0.434021 0.228912
0.934998 0.435303 0.230804
0.942047 0.436707 0.232849
0.949005 0.437805 0.234802
0.955841 0.439117 0.237000
0.174866 0.360291 0.174866
0.179138 0.380768 0.174866
0.228516 0.383698 0.174866
0.290710 0.385986 0.174866
0.336853 0.387543 0.174866
0.368958 0.377808 0.174866
0.416687 0.383850 0.174866
0.462830 0.389374 0.174866
0.506256 0.394714 0.174866
0.545441 0.399811 0.174866
0.581482 0.404694 0.174866
0.614746 0.409302 0.174866
0.645447 0.413849 0.174866
0.673889 0.418304 0.174866
0.700378 0.422638 0.174866
0.725067 0.426788 0.174866
0.748047 0.430847 0.179779
0.769745 0.434998 0.185547
0.789917 0.438965 0.190887
0.808990 0.442871 0.196350
0.826843 0.446716 0.201904
0.843689 0.450623 0.207458
0.859589 0.454376 0.212921
0.874481 0.457947 0.218109
0.888611 0.461609 0.223419
0.899567 0.464264 0.227692
0.906982 0.465607 0.229645
0.914246 0.466827 0.231384
0.921509 0.468170 0.233459
0.928589 0.469513 0.235291
0.935669 0.470764 0.237213
0.942657 0.471954 0.239105
0.949585 0.473267 0.241058
0.956451 0.474518 0.242920
0.174866 0.396057 0.174866
0.179138 0.419128 0.174866
0.235352 0.422211 0.174866
0.298248 0.424347 0.174866
0.344788 0.426056 0.174866
0.388306 0.427521 0.174866
0.419312 0.417419 0.174866
0.465393 0.423157 0.174866
0.508606 0.428741 0.174866
0.547729 0.433929 0.174866
0.583710 0.438995 0.174866
0.616730 0.443695 0.174866
0.647339 0.448395 0.174866
0.675629 0.452972 0.174866
0.702026 0.457397 0.175812
0.726715 0.461823 0.181732
0.749512 0.465973 0.187042
0.771149 0.470184 0.192566
0.791229 0.474274 0.197876
0.810181 0.478271 0.203247
0.828064 0.482269 0.208923
0.844757 0.486084 0.214325
0.860535 0.489960 0.219543
0.875458 0.493713 0.225006
0.889465 0.497345 0.230377
0.900391 0.500275 0.234344
0.907745 0.501404 0.236328
0.915039 0.502686 0.238251
0.922211 0.503906 0.240051
0.929321 0.505219 0.241882
0.936371 0.506470 0.243805
0.943359 0.507721 0.245697
0.950287 0.509094 0.247650
0.957062 0.510284 0.249512
0.174866 0.433044 0.174866
0.179138 0.458862 0.174866
0.242615 0.461609 0.174866
0.306000 0.464050 0.174866
0.353088 0.465637 0.174866
0.396851 0.467224 0.174866
0.430267 0.460236 0.174866
0.467926 0.458099 0.174866
0.510986 0.463654 0.174866
0.549988 0.469025 0.174866
0.585938 0.474152 0.174866
0.618713 0.479156 0.174866
0.649261 0.483948 0.174866
0.677490 0.488678 0.177582
0.703827 0.493256 0.183319
0.728180 0.497589 0.188751
0.751038 0.502014 0.194366
0.772552 0.506195 0.199860
0.792633 0.510193 0.205200
0.811462 0.514252 0.210754
0.829193 0.518005 0.216095
0.845825 0.521912 0.221558
0.861511 0.525574 0.226593
0.876343 0.529297 0.231995
0.890320 0.532806 0.237427
0.901215 0.535339 0.241241
0.908478 0.536499 0.243256
0.915802 0.537811 0.245209
0.922974 0.539093 0.247101
0.930084 0.540253 0.248932
0.937073 0.541260 0.250824
0.944031 0.542664 0.252808
0.950897 0.543854 0.254608
0.957733 0.544952 0.256653
0.174866 0.471069 0.174866
0.179138 0.499969 0.174866
0.249695 0.502502 0.174866
0.313629 0.505035 0.174866
0.361206 0.506561 0.174866
0.405396 0.508118 0.174866
0.447693 0.509644 0.174866
0.472473 0.495636 0.174866
0.513519 0.499512 0.174866
0.552338 0.504913 0.174866
0.588104 0.510193 0.174866
0.620819 0.515137 0.174866
0.651306 0.519867 0.179871
0.679321 0.524384 0.185303
0.705505 0.528839 0.191132
0.729828 0.533051 0.196472
0.752655 0.537262 0.202026
0.773987 0.541260 0.207642
0.793945 0.545166 0.212952
0.812714 0.549011 0.218231
0.830292 0.552612 0.223663
0.846924 0.556244 0.228821
0.862579 0.559753 0.234253
0.877319 0.563385 0.239594
0.891174 0.566681 0.244781
0.902039 0.569153 0.248627
0.909332 0.570404 0.250519
0.916534 0.571594 0.252472
0.923767 0.572784 0.254425
0.930817 0.573730 0.256287
0.937775 0.574982 0.258301
0.944733 0.576111 0.260132
0.951599 0.577271 0.261963
0.958344 0.578430 0.263885
0.174866 0.510101 0.174866
0.179138 0.540466 0.174866
0.256714 0.542969 0.174866
0.321503 0.545044 0.174866
0.369263 0.546631 0.174866
0.413818 0.548126 0.174866
0.456604 0.549500 0.174866
0.496124 0.550812 0.174866
0.515808 0.535217 0.174866
0.554596 0.540405 0.174866
0.590271 0.545380 0.176117
0.622864 0.550018 0.182007
0.653168 0.554596 0.187683
0.681091 0.558960 0.193268
0.707153 0.563263 0.198883
0.731445 0.567291 0.204407
0.754120 0.571167 0.209869
0.775391 0.575012 0.215149
0.795258 0.578796 0.220642
0.813995 0.582458 0.226227
0.831512 0.585999 0.231445
0.847961 0.589478 0.236664
0.863556 0.592865 0.241943
0.878235 0.596222 0.247223
0.892090 0.599304 0.252625
0.902863 0.601807 0.256378
0.910156 0.602875 0.258331
0.917358 0.604065 0.260223
0.924500 0.605011 0.262146
0.931549 0.606140 0.263977
0.938507 0.607330 0.265747
0.945435 0.608398 0.267792
0.952240 0.609528 0.269623
0.959015 0.610687 0.271576
0.174866 0.548523 0.174866
0.179138 0.578918 0.174866
0.263885 0.581573 0.174866
0.329224 0.583679 0.174866
0.377686 0.585052 0.174866
0.422485 0.586426 0.174866
0.465515 0.587646 0.174866
0.504486 0.588928 0.174866
0.540222 0.590027 0.175873
0.556946 0.574524 0.178406
0.592346 0.579315 0.184235
0.624908 0.583771 0.190002
0.655060 0.588104 0.195831
0.682953 0.592377 0.201355
0.708923 0.596283 0.207062
0.733124 0.600250 0.212494
0.755646 0.603943 0.217987
0.776825 0.607635 0.223267
0.796631 0.611115 0.228760
0.815186 0.614655 0.234192
0.832672 0.618042 0.239594
0.849091 0.621338 0.244720
0.864624 0.624573 0.250122
0.879211 0.627808 0.255371
0.892944 0.630829 0.260498
0.903717 0.632996 0.264282
0.910980 0.634155 0.266144
0.918152 0.635132 0.268036
0.925262 0.636322 0.270081
0.932281 0.637238 0.271881
0.939270 0.638397 0.273834
0.946167 0.639343 0.275726
0.952972 0.640411 0.277466
0.959747 0.641632 0.279510
0.174866 0.585449 0.174866
0.179138 0.614594 0.174866
0.270844 0.618683 0.175659
0.337219 0.620331 0.178131
0.385773 0.621857 0.180267
0.431122 0.623016 0.182343
0.474213 0.624237 0.184296
0.513062 0.625336 0.186188
0.548187 0.626404 0.188049
0.580414 0.627411 0.190033
0.594574 0.611908 0.192535
0.627045 0.616272 0.198547
0.657013 0.620392 0.204193
0.684784 0.624298 0.209686
0.710663 0.628235 0.215454
0.734772 0.631897 0.220825
0.757202 0.635468 0.226288
0.778259 0.638947 0.231689
0.797913 0.642303 0.237122
0.816467 0.645691 0.242462
0.833893 0.648956 0.247833
0.850220 0.652069 0.252960
0.865662 0.654999 0.258362
0.880157 0.658081 0.263611
0.893860 0.661041 0.268738
0.904541 0.663116 0.272675
0.911835 0.664154 0.274475
0.918945 0.665192 0.276184
0.926056 0.666199 0.278198
0.933044 0.667145 0.279999
0.940002 0.668121 0.282013
0.946869 0.669189 0.283844
0.953644 0.670105 0.285614
0.960358 0.671204 0.287598
0.174866 0.620819 0.174866
0.179138 0.648651 0.174866
0.278229 0.653839 0.188507
0.345215 0.655457 0.191254
0.394226 0.656769 0.193054
0.439972 0.657898 0.195129
0.482971 0.659027 0.197052
0.521240 0.660004 0.198822
0.556061 0.660980 0.200714
0.587952 0.662018 0.202606
0.617432 0.662933 0.204529
0.628937 0.647430 0.207001
0.658844 0.651245 0.212646
0.686584 0.655090 0.218384
0.712341 0.658783 0.223907
0.736298 0.662292 0.229309
0.758698 0.665649 0.234802
0.779694 0.669067 0.240326
0.799316 0.672119 0.245636
0.817749 0.675354 0.250977
0.835052 0.678436 0.256439
0.851288 0.681335 0.261505
0.866699 0.684265 0.266724
0.881104 0.687042 0.272034
0.894745 0.689911 0.277222
0.905426 0.691956 0.281281
0.912659 0.692841 0.283020
0.919739 0.693817 0.284729
0.926819 0.694763 0.286652
0.933838 0.695740 0.288666
0.940735 0.696716 0.290405
0.947601 0.697632 0.292236
0.954346 0.698608 0.294250
0.961060 0.699463 0.295990
0.174866 0.654480 0.174866
0.179138 0.681152 0.176819
0.285553 0.687378 0.201874
0.353058 0.688873 0.204285
0.402557 0.689972 0.206268
0.448822 0.691010 0.208008
0.491364 0.692047 0.209900
0.529449 0.693024 0.211884
0.563904 0.693909 0.213654
0.595306 0.694855 0.215546
0.624451 0.695709 0.217377
0.651306 0.696503 0.219238
0.660767 0.681000 0.221283
0.688416 0.684601 0.227051
0.714050 0.688080 0.232574
0.737946 0.691406 0.238190
0.760193 0.694550 0.243591
0.781097 0.697723 0.248993
0.800598 0.700714 0.254242
0.819031 0.703674 0.259644
0.836151 0.706635 0.264923
0.852356 0.709503 0.270203
0.867737 0.712189 0.275604
0.882111 0.714874 0.280823
0.895691 0.717590 0.286194
0.906250 0.719391 0.289886
0.913452 0.720276 0.291687
0.920563 0.721222 0.293579
0.927612 0.722137 0.295471
0.934601 0.722992 0.297333
0.941467 0.723877 0.299072
0.948303 0.724823 0.301025
0.955048 0.725647 0.302979
0.961731 0.726501 0.304749
0.174866 0.686615 0.174866
0.179138 0.712128 0.187592
0.292969 0.719055 0.215179
0.361176 0.720337 0.217468
0.411102 0.721344 0.219421
0.457581 0.722443 0.221527
0.499756 0.723328 0.223358
0.537476 0.724243 0.225128
0.571594 0.725159 0.226959
0.602661 0.725922 0.228790
0.631531 0.726715 0.230499
0.657898 0.727478 0.232239
0.682709 0.728210 0.234222
0.690460 0.713013 0.235901
0.715790 0.716034 0.241669
0.739532 0.719116 0.247009
0.761749 0.722260 0.252594
0.782471 0.725220 0.257935
0.801971 0.728088 0.263397
0.820221 0.730743 0.268646
0.837402 0.733521 0.273926
0.853485 0.736267 0.279297
0.868744 0.738770 0.284515
0.883057 0.741364 0.289734
0.896515 0.743805 0.294922
0.907104 0.745605 0.298767
0.914276 0.746460 0.300537
0.921356 0.747314 0.302399
0.928406 0.748138 0.304199
0.935333 0.749023 0.306122
0.942230 0.749817 0.308167
0.949036 0.750671 0.309967
0.955750 0.751587 0.311829
0.962433 0.752411 0.313721
0.174866 0.717285 0.174866
0.179779 0.741486 0.198425
0.300415 0.749023 0.228912
0.369293 0.750214 0.231232
0.419617 0.751160 0.232910
0.466248 0.752106 0.234955
0.508118 0.752960 0.236786
0.545288 0.753784 0.238586
0.579193 0.754608 0.240326
0.609924 0.755341 0.242188
0.638367 0.756073 0.244019
0.664490 0.756836 0.245850
0.688873 0.757507 0.247528
0.711761 0.758179 0.249512
0.720367 0.745697 0.251190
0.741119 0.745697 0.256195
0.763245 0.748535 0.261536
0.783966 0.751343 0.267090
0.803345 0.754059 0.272430
0.821533 0.756653 0.277802
0.838593 0.759216 0.283142
0.854645 0.761719 0.288422
0.869720 0.764252 0.293671
0.884003 0.766510 0.298798
0.897400 0.768890 0.304016
0.907928 0.770569 0.307983
0.915070 0.771454 0.309845
0.922180 0.772156 0.311707
0.929138 0.772980 0.313538
0.936096 0.773743 0.315399
0.942963 0.774567 0.317200
0.949707 0.775391 0.319000
0.956451 0.776154 0.320953
0.963104 0.776917 0.322876
0.174866 0.746307 0.178589
0.183624 0.769226 0.209320
0.307617 0.777496 0.243011
0.377472 0.778412 0.245209
0.428192 0.779358 0.247009
0.474915 0.780121 0.248993
0.516357 0.780914 0.250793
0.553162 0.781677 0.252472
0.586548 0.782440 0.254150
0.617035 0.783112 0.256012
0.645142 0.783783 0.257751
0.670929 0.784485 0.259644
0.695129 0.785095 0.261353
0.717621 0.785706 0.263153
0.738647 0.786316 0.264923
0.748444 0.776672 0.266571
0.764740 0.773621 0.270905
0.785339 0.776337 0.276367
0.804626 0.778839 0.281738
0.822754 0.781311 0.287109
0.839722 0.783691 0.292542
0.855713 0.786041 0.297699
0.870789 0.788269 0.303040
0.884918 0.790588 0.308258
0.898315 0.792755 0.313385
0.908783 0.794373 0.317261
0.915924 0.795074 0.319214
0.922974 0.795868 0.321106
0.929932 0.796600 0.322937
0.936859 0.797333 0.324829
0.943665 0.798126 0.326599
0.950439 0.798828 0.328461
0.957153 0.799561 0.330353
0.963745 0.800323 0.332184
0.174866 0.773804 0.188995
0.187225 0.795532 0.220642
0.315216 0.804108 0.257416
0.385498 0.805054 0.259552
0.436829 0.805756 0.261200
0.483337 0.806488 0.263123
0.524200 0.807281 0.264954
0.560913 0.807953 0.266632
0.593903 0.808563 0.268372
0.624054 0.809235 0.270203
0.651794 0.809845 0.271881
0.677246 0.810516 0.273743
0.701050 0.811096 0.275421
0.723358 0.811615 0.277191
0.744080 0.812195 0.278961
0.763580 0.812744 0.280579
0.774750 0.805939 0.282349
0.786713 0.799927 0.285797
0.805939 0.802399 0.291321
0.823975 0.804657 0.296661
0.840851 0.806915 0.302032
0.856750 0.809082 0.307251
0.871796 0.811310 0.312592
0.885895 0.813446 0.317841
0.899200 0.815399 0.322968
0.909637 0.816895 0.326874
0.916748 0.817596 0.328552
0.923767 0.818359 0.330505
0.930725 0.819000 0.332397
0.937561 0.819702 0.334320
