backup-gold-v1/lut/柯达金.cube
#Created by: Adobe Photoshop Export Color Lookup Plugin
#Copyright: (C) Copyright 2026 汉图
TITLE "mint本征源文件-适配lut筛选-恢复的.psd"
#LUT size
LUT_3D_SIZE 4
#data domain
DOMAIN_MIN 0.0 0.0 0.0
DOMAIN_MAX 1.0 1.0 1.0
#LUT data points
0.174866 0.174866 0.174866
0.576813 0.174866 0.174866
0.835327 0.174866 0.174866
0.938416 0.174866 0.201721
0.174866 0.292114 0.174866
0.610718 0.343292 0.174866
0.857574 0.385651 0.199890
0.955231 0.404724 0.230927
0.174866 0.686615 0.174866
0.657898 0.727478 0.232239
0.868744 0.738770 0.284515
0.962433 0.752411 0.313721
0.174866 0.942657 0.279358
0.724213 0.964905 0.397095
0.898376 0.967407 0.415192
0.969635 0.959900 0.425201
0.174866 0.174866 0.221924
0.577148 0.174866 0.221924
0.836945 0.174866 0.266968
0.939911 0.174866 0.298431
0.174866 0.294586 0.221924
0.622498 0.359894 0.239166
0.863861 0.402191 0.299957
0.959412 0.421234 0.329712
0.174866 0.692535 0.238190
0.666840 0.737762 0.320618
0.874176 0.749603 0.373169
0.966095 0.762604 0.402618
0.174866 0.945770 0.354889
0.731659 0.968506 0.480408
0.902283 0.970825 0.497620
0.972809 0.963928 0.506897
0.174866 0.174866 0.343933
0.569427 0.174866 0.491760
0.835205 0.174866 0.565369
0.939301 0.174866 0.596222
0.174866 0.327118 0.439362
0.641327 0.412933 0.568878
0.874146 0.466919 0.637756
0.966125 0.490997 0.666077
0.174866 0.698334 0.492584
0.689423 0.773529 0.629822
0.890503 0.788940 0.671753
0.976776 0.800110 0.693756
0.174866 0.950317 0.592499
0.750793 0.980499 0.728790
0.912659 0.982025 0.737183
0.982819 0.978607 0.741699
0.174866 0.174866 0.807007
0.498657 0.181732 0.969482
0.788513 0.174866 0.968811
0.899567 0.174866 0.968811
0.174866 0.469208 0.965790
0.617798 0.559723 0.982361
0.844696 0.561249 0.982391
0.937347 0.568237 0.982635
0.174866 0.782013 0.968445
0.709564 0.851807 0.987946
0.891205 0.861053 0.992859
0.968140 0.867676 0.993225
0.253357 0.962738 0.972931
0.811432 0.986938 0.992706
0.940918 0.995758 0.998505
1.000000 1.000000 1.000000
