backup-gold-v1/lut/花束暖调-f.cube
#Created by: Adobe Photoshop Export Color Lookup Plugin
TITLE "多场景样片-v1.0.psd"
#LUT size
LUT_3D_SIZE 7
#data domain
#LUT data points
DOMAIN_MIN 0.000000 0.000000 0.000000
DOMAIN_MAX 0.909091 0.909091 0.909091
0.000000 0.000000 0.000000
0.116180 0.000000 0.000000
0.326294 0.000000 0.000000
0.526062 0.000488 0.007812
0.676086 0.058716 0.033722
0.795929 0.105835 0.062378
0.928436 0.151886 0.096069
0.000000 0.111145 0.000000
0.106934 0.082764 0.000000
0.317535 0.085510 0.000000
0.522217 0.111420 0.000000
0.675812 0.141968 0.022156
0.795807 0.166962 0.050232
0.928314 0.197174 0.082733
0.000000 0.289398 0.000000
0.158295 0.294342 0.000000
0.307343 0.229248 0.000000
0.507416 0.220337 0.000000
0.665771 0.243195 0.017426
0.788727 0.268524 0.045990
0.922485 0.296600 0.078827
0.000000 0.456696 0.000000
0.163818 0.458954 0.000000
0.412903 0.467804 0.000000
0.501801 0.372589 0.000000
0.655121 0.350098 0.010590
0.779144 0.371277 0.039886
0.910858 0.393524 0.072662
0.030212 0.608887 0.000000
0.174225 0.608917 0.000000
0.413666 0.617004 0.000000
0.625580 0.624512 0.000000
0.653290 0.506500 0.000000
0.771271 0.484192 0.031921
0.899384 0.491943 0.064880
0.066589 0.744049 0.016602
0.199310 0.743896 0.015503
0.418335 0.749725 0.013123
0.625061 0.756866 0.007202
0.767365 0.760864 0.000000
0.769928 0.629608 0.019012
0.892731 0.608917 0.054962
0.101746 0.877014 0.036743
0.227600 0.876862 0.035828
0.425751 0.881134 0.033875
0.626190 0.889221 0.029816
0.775635 0.897095 0.022217
0.888611 0.871979 0.018890
0.891113 0.740875 0.040192
0.000000 0.000000 0.045074
0.076019 0.000000 0.058136
0.315399 0.000000 0.099792
0.520905 0.000000 0.111816
0.675293 0.058411 0.128021
0.795929 0.105835 0.154724
0.928436 0.151886 0.188660
0.000000 0.103302 0.044830
0.106323 0.115936 0.057861
0.311890 0.130981 0.074097
0.521698 0.149078 0.093475
0.678040 0.169861 0.115570
0.801880 0.195404 0.142395
0.940125 0.225189 0.174377
0.000000 0.284332 0.043671
0.127808 0.289795 0.064880
0.312042 0.266449 0.059814
0.522339 0.267731 0.073273
0.678406 0.286102 0.092041
0.801483 0.307587 0.116394
0.939789 0.319031 0.144135
0.000000 0.454437 0.043640
0.149780 0.464417 0.072815
0.365173 0.477448 0.065308
0.522461 0.418213 0.061829
0.679626 0.398926 0.077484
0.802826 0.412201 0.102478
0.940887 0.429260 0.132782
0.000000 0.608887 0.047272
0.171143 0.621796 0.080963
0.365662 0.627228 0.076660
0.606262 0.649200 0.062225
0.678833 0.557129 0.065552
0.804504 0.523651 0.086792
0.942657 0.533356 0.118347
0.036285 0.744080 0.055298
0.194275 0.760651 0.091736
0.371460 0.760498 0.090027
0.597107 0.781525 0.076355
0.775330 0.800629 0.060516
0.802826 0.682281 0.073608
0.943573 0.650116 0.103210
0.072876 0.877014 0.067505
0.219635 0.900269 0.105774
0.389893 0.899994 0.104095
0.593842 0.917267 0.094360
0.763672 0.941071 0.079590
0.937714 0.956696 0.063934
0.941345 0.797150 0.086670
0.000000 0.000000 0.181458
0.075562 0.000000 0.201508
0.234619 0.000000 0.223877
0.503479 0.000000 0.336182
0.663025 0.053741 0.353607
0.786407 0.102112 0.370911
0.920105 0.149231 0.390839
0.000000 0.121155 0.192413
0.084778 0.097961 0.254364
0.266754 0.130249 0.219513
0.514984 0.145996 0.290161
0.674896 0.168610 0.303619
0.801788 0.194580 0.317505
0.940125 0.225189 0.342957
0.000000 0.274567 0.179413
0.122314 0.277222 0.191437
0.305878 0.298676 0.223267
0.499817 0.311432 0.247040
0.663788 0.330261 0.278748
0.790771 0.347290 0.308807
0.929138 0.365204 0.339539
0.000000 0.442535 0.179352
0.134247 0.452881 0.201111
0.326935 0.456451 0.232971
0.499512 0.435699 0.225464
0.664001 0.441895 0.247772
0.790894 0.460846 0.272308
0.928497 0.479858 0.299286
0.000000 0.600250 0.178101
0.142761 0.617035 0.197571
0.354187 0.615326 0.248993
0.548248 0.626923 0.238159
0.663910 0.575531 0.232056
0.791931 0.562653 0.249786
0.929779 0.575897 0.277161
0.034698 0.738342 0.178162
0.154938 0.760712 0.192322
0.377441 0.756927 0.261688
0.552826 0.761932 0.255280
0.729584 0.782501 0.233612
0.791077 0.701019 0.235046
0.931641 0.674438 0.252441
0.071716 0.873016 0.181427
0.173431 0.900330 0.192108
0.399109 0.898621 0.273743
0.559296 0.898346 0.271515
0.724762 0.922394 0.249573
0.896912 0.944977 0.226105
0.929535 0.817505 0.238708
0.000000 0.000000 0.368896
0.098328 0.000000 0.379364
0.224030 0.003357 0.428436
0.401184 0.000000 0.441498
0.651123 0.049225 0.592926
0.775085 0.097687 0.610321
0.906372 0.144928 0.624237
0.000000 0.132385 0.375793
0.077942 0.093048 0.516479
0.266602 0.112366 0.488403
0.438995 0.148071 0.447144
0.664917 0.163818 0.564728
0.792999 0.189270 0.576294
0.931396 0.220734 0.585693
0.000000 0.305084 0.400452
0.104889 0.309387 0.461731
0.280518 0.279999 0.466309
0.460663 0.310455 0.430237
0.658905 0.327271 0.508148
0.787720 0.346191 0.525970
0.928986 0.364349 0.540039
0.000000 0.436096 0.365570
0.139923 0.441040 0.383179
0.320770 0.445190 0.399139
0.500000 0.469543 0.440826
0.650299 0.481110 0.466187
0.778595 0.500916 0.501984
0.916992 0.517944 0.533203
0.000000 0.585541 0.364166
0.153534 0.596558 0.391022
0.337402 0.604980 0.416107
0.518066 0.611389 0.451385
0.649811 0.592926 0.443481
0.778564 0.601746 0.470612
0.916962 0.621460 0.497284
0.032104 0.730316 0.365448
0.164764 0.742462 0.391296
0.346893 0.752655 0.417389
0.543793 0.752655 0.472107
0.687164 0.763184 0.461487
0.778351 0.717987 0.455017
0.917908 0.710358 0.474670
0.069550 0.864471 0.363892
0.178986 0.886261 0.385803
0.355530 0.898712 0.412231
0.565155 0.896088 0.488464
0.693329 0.901550 0.482208
0.846161 0.925262 0.460846
0.916718 0.837646 0.461060
0.037323 0.053162 0.559662
0.125977 0.046051 0.559570
0.241364 0.055267 0.599762
0.381500 0.063477 0.639343
0.550507 0.056976 0.640289
0.767456 0.094727 0.780212
0.892944 0.140503 0.799896
0.034637 0.151154 0.560394
0.099213 0.113708 0.725739
0.254456 0.112671 0.718018
0.430695 0.153290 0.670135
0.585419 0.168671 0.652069
0.779541 0.188965 0.768738
0.920288 0.215973 0.782379
0.031189 0.308685 0.582336
0.100311 0.292053 0.706604
0.262238 0.266876 0.694733
0.466064 0.290833 0.672485
0.604279 0.328888 0.640045
0.778351 0.341705 0.733429
0.918396 0.359100 0.745575
0.021454 0.473907 0.593353
0.146301 0.482300 0.623199
0.301758 0.478973 0.651245
0.477661 0.452423 0.657257
0.622192 0.480164 0.630005
0.774048 0.498108 0.692841
0.913330 0.516937 0.709839
0.000000 0.584137 0.556152
0.156586 0.590637 0.574036
0.342957 0.594269 0.587830
0.512787 0.601440 0.605103
0.651428 0.624268 0.639832
0.768494 0.636719 0.662079
0.904419 0.656921 0.692383
0.035736 0.716431 0.553925
0.174011 0.724945 0.577026
0.358582 0.733978 0.600281
0.529510 0.743317 0.622101
0.666290 0.751556 0.650513
0.767944 0.735138 0.644623
0.904175 0.745880 0.668701
0.069061 0.852173 0.556000
0.188568 0.865601 0.580078
0.367493 0.878326 0.604401
0.540192 0.891205 0.627228
0.687042 0.893890 0.669647
0.804413 0.905670 0.661957
0.903809 0.856995 0.657135
0.081818 0.097137 0.713898
0.152954 0.091095 0.713806
0.265564 0.097168 0.736633
0.393768 0.105774 0.768372
0.532074 0.110840 0.793030
0.666748 0.103851 0.792328
0.874908 0.139801 0.928589
0.079651 0.177856 0.713654
0.137756 0.151428 0.872589
0.256104 0.145386 0.872467
0.429413 0.158478 0.855072
0.567841 0.196167 0.809845
0.696655 0.193939 0.806915
0.906342 0.216522 0.936401
0.078003 0.318665 0.727570
0.134308 0.278381 0.872986
0.252899 0.260223 0.864960
0.452820 0.261810 0.857635
0.602448 0.326385 0.815033
0.713623 0.345764 0.799805
0.901917 0.360199 0.906403
0.071167 0.479004 0.743866
0.140015 0.489990 0.823212
0.265656 0.463898 0.846924
0.462067 0.441345 0.836639
0.628937 0.464050 0.817688
0.728973 0.499237 0.791473
0.901794 0.512756 0.874390
0.057739 0.624542 0.746063
0.186737 0.627472 0.753937
0.346191 0.635315 0.776245
0.498688 0.634033 0.800049
0.637390 0.611206 0.807587
0.744781 0.635773 0.786041
0.898895 0.654297 0.840271
0.035736 0.716431 0.710632
0.174927 0.723663 0.725983
0.361877 0.728607 0.738617
0.533966 0.733795 0.751007
0.662354 0.742615 0.766602
0.768005 0.761566 0.791992
0.893402 0.777405 0.814514
0.070496 0.841949 0.708771
0.195679 0.850555 0.726593
0.378296 0.859253 0.744843
0.549500 0.870697 0.764038
0.676727 0.883484 0.782318
0.784790 0.893951 0.804840
0.892731 0.876251 0.800354
0.125702 0.139832 0.839569
0.184753 0.134430 0.839539
0.294250 0.137726 0.852356
0.412506 0.146667 0.882477
0.534576 0.154755 0.912994
0.652313 0.156555 0.930328
0.761841 0.149475 0.929535
0.123840 0.208405 0.839417
0.183044 0.193634 0.990601
0.273254 0.188263 0.990570
0.426697 0.193726 0.992798
0.574249 0.204163 0.987732
0.680206 0.229248 0.950226
0.792419 0.223541 0.949432
0.122375 0.333130 0.848206
0.180115 0.292877 0.990479
0.261169 0.267731 0.992798
0.436493 0.257904 0.992798
0.600800 0.299530 0.989746
0.702881 0.363495 0.947662
0.811218 0.363464 0.944519
0.118591 0.483673 0.863556
0.176392 0.479370 0.991791
0.257385 0.438690 0.992798
0.445190 0.428986 0.992798
0.620758 0.431274 0.990875
0.730347 0.497223 0.954132
0.829407 0.516052 0.938477
0.108673 0.634705 0.878418
0.180878 0.650330 0.934601
0.308929 0.644257 0.961456
0.460999 0.623138 0.986694
0.627960 0.603699 0.978821
0.752686 0.624054 0.959106
0.847168 0.655121 0.932281
0.091187 0.758545 0.874725
0.208954 0.761841 0.883270
0.387482 0.764984 0.890564
0.538116 0.773956 0.914001
0.654633 0.774750 0.940582
0.759613 0.754395 0.950409
0.865631 0.776337 0.927887
0.070496 0.841949 0.836212
0.195679 0.850555 0.851013
0.379364 0.857941 0.864685
0.552063 0.864960 0.877960
0.679626 0.873047 0.892029
0.780975 0.883850 0.908173
0.888123 0.900299 0.929199
