backup-gold-v1/lut/花束暖调-f.cube
#Created by: Adobe Photoshop Export Color Lookup Plugin
TITLE "多场景样片-v1.0.psd"
#LUT size
LUT_3D_SIZE 4
#data domain
DOMAIN_MIN 0.0 0.0 0.0
DOMAIN_MAX 1.0 1.0 1.0
#LUT data points
0.000000 0.000000 0.000000
0.368713 0.000000 0.000000
0.725128 0.077789 0.044708
0.992798 0.179260 0.118652
0.000000 0.323914 0.000000
0.348114 0.258545 0.000000
0.714447 0.273956 0.027405
0.992798 0.332642 0.099915
0.045013 0.664795 0.004028
0.462036 0.673309 0.000000
0.701874 0.557159 0.006317
0.983856 0.541565 0.083282
0.123444 0.966614 0.049835
0.475159 0.971619 0.046509
0.834320 0.990814 0.033051
0.974060 0.805573 0.054016
0.000000 0.000000 0.216125
0.268188 0.000000 0.265259
0.711639 0.072510 0.411682
0.992798 0.176392 0.452545
0.000000 0.307800 0.213654
0.346436 0.333984 0.264679
0.713531 0.368896 0.329163
0.992798 0.408661 0.399658
0.007660 0.655823 0.212219
0.399597 0.672699 0.295105
0.713654 0.631073 0.275482
0.992798 0.632263 0.332489
0.093201 0.961792 0.216919
0.447510 0.992798 0.323425
0.777435 0.992798 0.296448
0.992798 0.890686 0.292664
0.055420 0.071075 0.626343
0.275818 0.074097 0.665985
0.600830 0.076080 0.705475
0.976349 0.166779 0.868622
0.049408 0.344940 0.648834
0.299408 0.300049 0.760132
0.654388 0.367401 0.706543
0.992798 0.400391 0.812103
0.011749 0.639069 0.622925
0.387573 0.650787 0.655640
0.700012 0.680817 0.705109
0.992798 0.718384 0.760620
0.090118 0.935089 0.622375
0.413788 0.970581 0.671661
0.739197 0.992615 0.737915
0.992798 0.947540 0.725677
0.152344 0.165283 0.912750
0.334717 0.163635 0.927277
0.585052 0.182312 0.992798
0.818085 0.176605 0.992798
0.148987 0.371796 0.922485
0.337860 0.336151 0.992798
0.653076 0.352753 0.992798
0.878601 0.404968 0.992798
0.133820 0.691589 0.957184
0.350861 0.702271 0.992798
0.686432 0.670441 0.992798
0.926392 0.716400 0.992798
0.090698 0.923737 0.909027
0.426849 0.945496 0.943298
0.731445 0.967163 0.977356
0.970886 0.992798 0.992798
