backup-gold-v1/lut/花束暖调-f.cube
#Created by: Adobe Photoshop Export Color Lookup Plugin
TITLE "多场景样片-v1.0.psd"
#LUT size
LUT_3D_SIZE 34
#data domain
DOMAIN_MIN 0.0 0.0 0.0
DOMAIN_MAX 1.0 1.0 1.0
#LUT data points
0.000000 0.000000 0.000000
0.000000 0.000000 0.000000
0.000000 0.000000 0.000000
0.035156 0.000000 0.000000
0.076019 0.000000 0.000000
0.116180 0.000000 0.000000
0.156708 0.000000 0.000000
0.198425 0.000000 0.000000
0.240753 0.000000 0.000000
0.283600 0.000000 0.000000
0.326294 0.000000 0.000000
0.368713 0.000000 0.000000
0.410217 0.000000 0.000000
0.450500 0.000000 0.000000
0.489075 0.000000 0.001953
0.526062 0.000488 0.007812
0.560364 0.015106 0.013092
0.592316 0.027527 0.018219
0.622223 0.038605 0.023285
0.649963 0.048859 0.028442
0.676086 0.058716 0.033722
0.700928 0.068359 0.039154
0.725128 0.077789 0.044708
0.748596 0.087189 0.050415
0.772156 0.096588 0.056305
0.795929 0.105835 0.062378
0.820251 0.115112 0.068756
0.845490 0.124298 0.075287
0.872070 0.133484 0.082001
0.899750 0.142761 0.088898
0.928436 0.151886 0.096069
0.957672 0.161011 0.103363
0.985596 0.170135 0.110962
0.992798 0.179260 0.118652
0.000000 0.000000 0.000000
0.000000 0.000000 0.000000
0.000000 0.000000 0.000000
0.033936 0.000000 0.000000
0.075623 0.000000 0.000000
0.115967 0.000000 0.000000
0.156586 0.000000 0.000000
0.198303 0.000000 0.000000
0.240692 0.000000 0.000000
0.283508 0.000000 0.000000
0.326233 0.000000 0.000000
0.368652 0.000000 0.000000
0.410156 0.000000 0.000000
0.450470 0.000000 0.000000
0.489075 0.002472 0.000000
0.526031 0.013153 0.000000
0.560333 0.023010 0.002472
0.592316 0.033142 0.008331
0.622223 0.042603 0.013824
0.649963 0.051605 0.019135
0.676086 0.060425 0.024353
0.700928 0.069275 0.029724
0.725128 0.078033 0.035187
0.748596 0.087189 0.041046
0.772156 0.096588 0.047180
0.795929 0.105835 0.053528
0.820251 0.115112 0.060028
0.845490 0.124298 0.066589
0.872070 0.133484 0.073425
0.899750 0.142761 0.080475
0.928436 0.151886 0.087677
0.957672 0.161011 0.095093
0.985596 0.170135 0.102692
0.992798 0.179260 0.110504
0.000000 0.000000 0.000000
0.000000 0.000000 0.000000
0.000000 0.000000 0.000000
0.030304 0.000000 0.000000
0.072754 0.000000 0.000000
0.113342 0.000732 0.000000
0.154907 0.005310 0.000000
0.197388 0.005981 0.000000
0.240143 0.005585 0.000000
0.283356 0.006714 0.000000
0.326080 0.009644 0.000000
0.368530 0.013153 0.000000
0.410065 0.018463 0.000000
0.450378 0.026062 0.000000
0.489014 0.033173 0.000000
0.525909 0.040131 0.000000
0.560303 0.047180 0.001495
0.592285 0.054352 0.007202
0.622192 0.061707 0.012756
0.649933 0.069153 0.018005
0.676056 0.076630 0.023224
0.700928 0.084198 0.028503
0.725098 0.092041 0.033905
0.748566 0.099915 0.039429
0.772125 0.107880 0.045227
0.795898 0.115875 0.051086
0.820251 0.124023 0.057159
0.845459 0.132202 0.063416
0.872070 0.140533 0.069824
0.899750 0.148804 0.076538
0.928375 0.157074 0.083405
0.957672 0.165527 0.090485
0.985596 0.174011 0.097748
0.992798 0.182465 0.105286
0.000000 0.034882 0.000000
0.000000 0.035431 0.000000
0.013123 0.037567 0.000000
0.028870 0.013062 0.000000
0.069580 0.015228 0.000000
0.110138 0.023773 0.000000
0.151520 0.029144 0.000000
0.193909 0.031525 0.000000
0.237000 0.031799 0.000000
0.280762 0.033264 0.000000
0.324463 0.039124 0.000000
0.367584 0.045441 0.000000
0.409637 0.050781 0.000000
0.450256 0.055847 0.000000
0.488953 0.060608 0.000000
0.525726 0.065491 0.000000
0.560211 0.070648 0.001251
0.592255 0.076172 0.006836
0.622131 0.082092 0.012421
0.649872 0.088196 0.017731
0.675995 0.094513 0.023010
0.700897 0.101105 0.028259
0.725067 0.107819 0.033691
0.748566 0.114838 0.039215
0.772125 0.122040 0.044983
0.795868 0.129272 0.050873
0.820221 0.136749 0.056946
0.845428 0.144348 0.063232
0.872040 0.152039 0.069672
0.899719 0.159821 0.076324
0.928375 0.167603 0.083252
0.957642 0.175568 0.090332
0.985565 0.183594 0.097595
0.992798 0.191772 0.105072
0.000000 0.074280 0.000000
0.000000 0.074371 0.000000
0.015900 0.076355 0.000000
0.059174 0.076569 0.000000
0.068817 0.051422 0.000000
0.107422 0.049652 0.000000
0.148193 0.052399 0.000000
0.190582 0.055298 0.000000
0.233704 0.056366 0.000000
0.277344 0.057922 0.000000
0.320892 0.062592 0.000000
0.364319 0.067993 0.000000
0.406799 0.073456 0.000000
0.447968 0.079102 0.000000
0.487488 0.085052 0.000000
0.524933 0.091248 0.000000
0.559967 0.096954 0.000916
0.592102 0.101654 0.006348
0.622070 0.106323 0.012024
0.649811 0.111267 0.017365
0.675964 0.116486 0.022614
0.700836 0.121918 0.027954
0.725037 0.127594 0.033356
0.748505 0.133545 0.038910
0.772095 0.139832 0.044708
0.795837 0.146179 0.050568
0.820190 0.152710 0.056702
0.845398 0.159424 0.062988
0.871979 0.166321 0.069427
0.899689 0.173370 0.076141
0.928345 0.180511 0.083008
0.957611 0.187714 0.090118
0.985535 0.195221 0.097351
0.992798 0.202667 0.104889
0.000000 0.111145 0.000000
0.000000 0.111084 0.000000
0.019623 0.112671 0.000000
0.064819 0.114594 0.000000
0.103241 0.113037 0.000000
0.106934 0.082764 0.000000
0.146088 0.079498 0.000000
0.187073 0.077667 0.000000
0.230133 0.079590 0.000000
0.273743 0.081421 0.000000
0.317535 0.085510 0.000000
0.360931 0.090363 0.000000
0.403473 0.095428 0.000000
0.444733 0.100525 0.000000
0.484528 0.105957 0.000000
0.522217 0.111420 0.000000
0.557465 0.117279 0.000244
0.590332 0.123199 0.005493
0.620972 0.129272 0.011353
0.649261 0.135529 0.016754
0.675812 0.141968 0.022156
0.700775 0.146545 0.027496
0.724976 0.151276 0.032959
0.748474 0.156281 0.038513
0.772034 0.161407 0.044312
0.795807 0.166962 0.050232
0.820129 0.172546 0.056335
0.845398 0.178497 0.062622
0.871948 0.184479 0.069122
0.899628 0.190765 0.075806
0.928314 0.197174 0.082733
0.957611 0.203644 0.089783
0.985504 0.210419 0.097107
0.992798 0.217255 0.104553
0.000000 0.147461 0.000000
0.000000 0.147369 0.000000
0.022278 0.148346 0.000000
0.066681 0.150421 0.000000
0.111115 0.152374 0.000000
0.145020 0.146454 0.000000
0.145599 0.112701 0.000000
0.185822 0.108063 0.000000
0.227020 0.103516 0.000000
0.270325 0.104553 0.000000
0.314087 0.108551 0.000000
0.357483 0.113068 0.000000
0.400085 0.117615 0.000000
0.441498 0.122437 0.000000
0.481384 0.127411 0.000000
0.519226 0.132599 0.000000
0.554810 0.137909 0.000000
0.587860 0.143372 0.004486
0.618591 0.149078 0.010437
0.647217 0.154938 0.016022
0.673981 0.160889 0.021332
0.699402 0.167114 0.026764
0.723907 0.173279 0.032288
0.747864 0.179565 0.037872
0.771790 0.185669 0.043732
0.795746 0.191040 0.049713
0.820099 0.195862 0.055847
0.845337 0.200958 0.062134
0.871918 0.206177 0.068695
0.899597 0.211578 0.075348
0.928253 0.217163 0.082275
0.957550 0.223022 0.089386
0.985474 0.228912 0.096680
0.992798 0.235107 0.104187
0.000000 0.183441 0.000000
0.000000 0.183380 0.000000
0.022644 0.183868 0.000000
0.067200 0.185913 0.000000
0.111694 0.187897 0.000000
0.158997 0.189789 0.000000
0.184570 0.176331 0.000000
0.185242 0.142029 0.000000
0.226105 0.136322 0.000000
0.267395 0.130280 0.000000
0.310516 0.131378 0.000000
0.354126 0.135681 0.000000
0.396820 0.140137 0.000000
0.438354 0.144653 0.000000
0.478363 0.149384 0.000000
0.516357 0.154236 0.000000
0.552246 0.159119 0.000000
0.585388 0.164398 0.003357
0.616302 0.169647 0.009460
0.645020 0.175171 0.015045
0.671967 0.180664 0.020508
0.697449 0.186371 0.025940
0.721985 0.192291 0.031433
0.746185 0.198425 0.037109
0.770172 0.204559 0.042908
0.794250 0.210876 0.048950
0.819122 0.217316 0.055145
0.844818 0.223785 0.061523
0.871552 0.229340 0.068085
0.899506 0.235168 0.074829
0.928192 0.240051 0.081757
0.957489 0.245148 0.088867
0.985443 0.250305 0.096191
0.992798 0.255798 0.103699
0.000000 0.219055 0.000000
0.000000 0.218994 0.000000
0.021973 0.219208 0.000000
0.066406 0.221069 0.000000
0.111328 0.223053 0.000000
0.158936 0.224976 0.000000
0.207520 0.226532 0.000000
0.224701 0.205688 0.000000
0.225586 0.171021 0.000000
0.266876 0.164917 0.000000
0.308350 0.159546 0.000000
0.350464 0.158325 0.000000
0.393311 0.162628 0.000000
0.434998 0.166962 0.000000
0.475220 0.171539 0.000000
0.513550 0.176056 0.000000
0.549316 0.180817 0.000000
0.582825 0.185730 0.002045
0.613983 0.190674 0.008392
0.642822 0.195709 0.014069
0.669769 0.201050 0.019531
0.695435 0.206604 0.024994
0.720215 0.212128 0.030548
0.744385 0.217712 0.036194
0.768188 0.223511 0.042023
0.792389 0.229492 0.048035
0.817108 0.235474 0.054169
0.842834 0.241852 0.060608
0.869659 0.247986 0.067200
0.897675 0.254333 0.073944
0.926941 0.260803 0.080963
0.956848 0.267303 0.088135
0.985291 0.273163 0.095551
0.992798 0.278473 0.103119
0.000000 0.254486 0.000000
0.000000 0.254395 0.000000
0.020721 0.254333 0.000000
0.065094 0.255951 0.000000
0.110504 0.257935 0.000000
0.158264 0.259857 0.000000
0.208496 0.261749 0.000000
0.255188 0.261261 0.000000
0.265625 0.235016 0.000000
0.266327 0.199921 0.000000
0.307861 0.194397 0.000000
0.349152 0.189270 0.000000
0.390198 0.185944 0.000000
0.431793 0.189331 0.000000
0.472168 0.193756 0.000000
0.510559 0.198212 0.000000
0.546570 0.202820 0.000000
0.580292 0.207367 0.001129
0.611542 0.212128 0.007172
0.640717 0.217010 0.012970
0.667847 0.221924 0.018555
0.693542 0.227173 0.023956
0.718201 0.232361 0.029541
0.742401 0.237549 0.035187
0.766388 0.243286 0.041016
0.790527 0.248871 0.047058
0.815216 0.254486 0.053223
0.840881 0.260223 0.059601
0.867523 0.266174 0.066162
0.895630 0.272308 0.072968
0.924622 0.278503 0.079926
0.954559 0.284821 0.087128
0.983643 0.290924 0.094543
0.992798 0.297363 0.102142
0.000000 0.289398 0.000000
0.000000 0.289368 0.000000
0.023651 0.289276 0.000000
0.065460 0.290375 0.000000
0.110718 0.292389 0.000000
0.158295 0.294342 0.000000
0.208191 0.296265 0.000000
0.260162 0.298065 0.000000
0.300781 0.294250 0.000000
0.306610 0.264038 0.000000
0.307343 0.229248 0.000000
0.348694 0.223877 0.000000
0.389435 0.218842 0.000000
0.429016 0.214447 0.000000
0.468964 0.215881 0.000000
0.507416 0.220337 0.000000
0.543701 0.224701 0.000000
0.577789 0.229126 0.000549
0.609253 0.233765 0.005829
0.638367 0.238403 0.011780
0.665771 0.243195 0.017426
0.691559 0.248108 0.022949
0.716400 0.252960 0.028534
0.740570 0.258118 0.034180
0.764526 0.263428 0.039978
0.788727 0.268524 0.045990
0.813324 0.274078 0.052185
0.838776 0.279694 0.058563
0.865448 0.285309 0.065125
0.893219 0.290894 0.071869
0.922485 0.296600 0.078827
0.952240 0.302582 0.086090
0.981689 0.308624 0.093414
0.992798 0.314819 0.101044
0.000000 0.323914 0.000000
0.000000 0.323883 0.000000
0.029114 0.323822 0.000000
0.067108 0.324371 0.000000
0.111816 0.326355 0.000000
0.158936 0.328308 0.000000
0.208344 0.330200 0.000000
0.259735 0.332062 0.000000
0.311859 0.333771 0.000000
0.346588 0.327179 0.000000
0.347473 0.293030 0.000000
0.348114 0.258545 0.000000
0.388855 0.253174 0.000000
0.428497 0.248169 0.000000
0.467041 0.243378 0.000000
0.504517 0.242371 0.000000
0.541046 0.246674 0.000000
0.575043 0.251099 0.000000
0.606689 0.255463 0.004364
0.636200 0.260040 0.010590
0.663574 0.264587 0.016235
0.689514 0.269165 0.021820
0.714447 0.273956 0.027405
0.738770 0.278900 0.033081
0.762543 0.283783 0.038879
0.786743 0.288788 0.044952
0.811340 0.294006 0.051056
0.836731 0.299225 0.057465
0.863220 0.304565 0.063995
0.891174 0.309998 0.070740
0.920135 0.315674 0.077759
0.949768 0.321167 0.084900
0.979950 0.326843 0.092285
0.992798 0.332642 0.099915
0.000000 0.358002 0.000000
0.001709 0.357971 0.000000
0.034729 0.357941 0.000000
0.069794 0.358093 0.000000
0.113251 0.359863 0.000000
0.159943 0.361847 0.000000
0.208771 0.363739 0.000000
0.259613 0.365570 0.000000
0.311493 0.367340 0.000000
0.362061 0.368805 0.000000
0.386810 0.355408 0.000000
0.387512 0.321686 0.000000
0.388336 0.287567 0.000000
0.428009 0.282257 0.000000
0.466644 0.277252 0.000000
0.503357 0.272461 0.000000
0.538147 0.269012 0.000000
0.572510 0.272858 0.000000
0.604340 0.277222 0.002716
0.634003 0.281586 0.009186
0.661469 0.285950 0.014984
0.687561 0.290558 0.020599
0.712555 0.295135 0.026215
0.736755 0.299713 0.031982
0.760773 0.304443 0.037750
0.784851 0.309296 0.043762
0.809296 0.314117 0.049927
0.834747 0.319183 0.056274
0.861237 0.324432 0.062836
0.888916 0.329437 0.069550
0.917877 0.334747 0.076538
0.947571 0.340057 0.083710
0.977631 0.345520 0.091095
0.992798 0.351105 0.098663
0.000000 0.391449 0.000000
0.007385 0.391418 0.000000
0.040192 0.391388 0.000000
0.073547 0.391357 0.000000
0.115021 0.392853 0.000000
0.161011 0.394745 0.000000
0.209442 0.396637 0.000000
0.259796 0.398438 0.000000
0.311340 0.400269 0.000000
0.363068 0.401978 0.000000
0.410278 0.403046 0.000000
0.426208 0.383148 0.000000
0.426880 0.349854 0.000000
0.427490 0.316223 0.000000
0.466095 0.311035 0.000000
0.502960 0.306030 0.000000
0.537537 0.301239 0.000000
0.570160 0.296936 0.000000
0.601929 0.298676 0.000946
0.631622 0.303040 0.007660
0.659393 0.307434 0.013641
0.685455 0.311707 0.019318
0.710510 0.316162 0.024994
0.734894 0.320679 0.030731
0.758911 0.325256 0.036530
0.782959 0.329803 0.042542
0.807404 0.334564 0.048706
0.832703 0.339417 0.055084
0.859070 0.344238 0.061615
0.886688 0.349243 0.068329
0.915527 0.354218 0.075317
0.945251 0.359497 0.082458
0.975281 0.364410 0.089783
0.992798 0.369751 0.097412
0.000000 0.424377 0.000000
0.013336 0.424377 0.000000
0.045715 0.424316 0.000000
0.078003 0.424286 0.000000
0.116730 0.425262 0.000000
0.162292 0.427155 0.000000
0.210236 0.429016 0.000000
0.260284 0.430847 0.000000
0.311340 0.432617 0.000000
0.362457 0.434357 0.000000
0.413513 0.436066 0.000000
0.456299 0.436615 0.000000
0.464172 0.410614 0.000000
0.464783 0.377869 0.000000
0.465424 0.344635 0.000000
0.502319 0.339417 0.000000
0.537201 0.334473 0.000000
0.569824 0.329681 0.000000
0.600189 0.325134 0.000366
0.629364 0.324615 0.005951
0.657166 0.328552 0.012146
0.683441 0.333038 0.017944
0.708588 0.337250 0.023682
0.733063 0.341736 0.029449
0.756836 0.345917 0.035248
0.781006 0.350555 0.041229
0.805481 0.355011 0.047455
0.830719 0.359467 0.053741
0.856873 0.364227 0.060303
0.884491 0.369263 0.067047
0.913330 0.373932 0.073975
0.942841 0.378693 0.081177
0.972900 0.383759 0.088501
0.992798 0.389069 0.096069
0.000000 0.456696 0.000000
0.019592 0.456665 0.000000
0.051270 0.456604 0.000000
0.082825 0.456573 0.000000
0.118591 0.457123 0.000000
0.163818 0.458954 0.000000
0.211517 0.460815 0.000000
0.260956 0.462646 0.000000
0.311707 0.464386 0.000000
0.362366 0.466064 0.000000
0.412903 0.467804 0.000000
0.461945 0.469452 0.000000
0.495758 0.465698 0.000000
0.500641 0.437714 0.000000
0.501221 0.405334 0.000000
0.501801 0.372589 0.000000
0.536743 0.367554 0.000000
0.569427 0.362671 0.000000
0.599915 0.357849 0.000000
0.628448 0.353302 0.003906
0.655121 0.350098 0.010590
0.681396 0.354004 0.016479
0.706604 0.358276 0.022247
0.730957 0.362610 0.028015
0.755066 0.366669 0.033905
0.779144 0.371277 0.039886
0.803467 0.375488 0.046082
0.828644 0.379944 0.052460
0.854858 0.384430 0.058960
0.882263 0.388855 0.065704
0.910858 0.393524 0.072662
0.940521 0.398468 0.079773
0.970551 0.403046 0.087128
0.992798 0.407806 0.094696
0.000000 0.488342 0.000000
0.026825 0.488342 0.000000
0.056946 0.488312 0.000000
0.087830 0.488220 0.000000
0.121185 0.488373 0.000000
0.165527 0.490173 0.000000
0.212708 0.491913 0.000000
0.261841 0.493774 0.000000
0.312073 0.495453 0.000000
0.362640 0.497223 0.000000
0.412628 0.498932 0.000000
0.461395 0.500519 0.000000
0.506897 0.501892 0.000000
0.533173 0.494293 0.000000
0.535187 0.464233 0.000000
0.535767 0.432373 0.000000
0.536285 0.400146 0.000000
0.569000 0.395203 0.000000
0.599579 0.390320 0.000000
0.628174 0.385620 0.001526
0.654663 0.381042 0.008606
0.679626 0.376801 0.014923
0.704529 0.379028 0.020782
0.729095 0.383270 0.026581
0.753204 0.387329 0.032440
0.777069 0.391571 0.038483
0.801483 0.395813 0.044678
0.826569 0.400146 0.051025
0.852661 0.404541 0.057556
0.880066 0.408875 0.064270
0.908661 0.413574 0.071198
0.938049 0.417755 0.078369
0.968170 0.422485 0.085693
0.992798 0.427185 0.093231
0.003784 0.519470 0.000000
0.033813 0.519440 0.000000
0.062592 0.519409 0.000000
0.092865 0.519379 0.000000
0.125336 0.519379 0.000000
0.167358 0.520782 0.000000
0.214050 0.522552 0.000000
0.263031 0.524261 0.000000
0.312744 0.526001 0.000000
0.362854 0.527710 0.000000
0.412598 0.529388 0.000000
0.461182 0.530975 0.000000
0.507538 0.532593 0.000000
0.547821 0.533600 0.000000
0.567047 0.521240 0.000000
0.567596 0.490356 0.000000
0.568085 0.459076 0.000000
0.568573 0.427368 0.000000
0.599274 0.422424 0.000000
0.627838 0.417572 0.000000
0.654327 0.412933 0.006317
0.679382 0.408508 0.013000
0.703278 0.404175 0.019135
0.727142 0.403839 0.025085
0.751160 0.407928 0.031036
0.775238 0.412079 0.036987
0.799591 0.416107 0.043213
0.824585 0.420197 0.049561
0.850555 0.424622 0.056091
0.877838 0.428864 0.062775
0.906372 0.433044 0.069733
0.935883 0.437653 0.076843
0.965729 0.441895 0.084167
0.992798 0.446320 0.091766
0.013702 0.549957 0.000000
0.040497 0.549927 0.000000
0.068298 0.549896 0.000000
0.098053 0.549835 0.000000
0.129913 0.549774 0.000000
0.169647 0.550720 0.000000
0.215820 0.552521 0.000000
0.264160 0.554230 0.000000
0.313629 0.555939 0.000000
0.363556 0.557587 0.000000
0.412842 0.559265 0.000000
0.461029 0.560883 0.000000
0.507172 0.562469 0.000000
0.550476 0.564026 0.000000
0.585388 0.564545 0.000000
0.597321 0.546448 0.000000
0.597900 0.516235 0.000000
0.598358 0.485413 0.000000
0.598816 0.454132 0.000000
0.627258 0.449249 0.000000
0.654022 0.444580 0.003540
0.679077 0.439941 0.010773
0.703094 0.435516 0.017212
0.726257 0.431213 0.023346
0.749481 0.428986 0.029388
0.773315 0.432251 0.035461
0.797607 0.436188 0.041656
0.822510 0.440491 0.048004
0.848511 0.444336 0.054565
0.875580 0.448639 0.061279
0.904053 0.452759 0.068176
0.933380 0.456879 0.075348
0.963531 0.461243 0.082672
0.992767 0.465729 0.090149
0.022064 0.579742 0.000000
0.047150 0.579712 0.000000
0.074097 0.579681 0.000000
0.103333 0.579651 0.000000
0.134888 0.579620 0.000000
0.171783 0.580200 0.000000
0.217438 0.581848 0.000000
0.265472 0.583588 0.000000
0.314392 0.585205 0.000000
0.364258 0.586884 0.000000
0.413086 0.588501 0.000000
0.461029 0.590149 0.000000
0.506958 0.591675 0.000000
0.550110 0.593201 0.000000
0.590088 0.594696 0.000000
0.619843 0.594757 0.000000
0.625519 0.571320 0.000000
0.625977 0.541626 0.000000
0.626465 0.511322 0.000000
0.626862 0.480499 0.000000
0.653717 0.475708 0.001099
0.678711 0.471100 0.008179
0.702850 0.466553 0.015015
0.726013 0.462189 0.021362
0.748962 0.457947 0.027649
0.771515 0.453857 0.033844
0.795593 0.456207 0.040070
0.820526 0.460052 0.046478
0.846283 0.464325 0.052887
0.873413 0.468201 0.059662
0.901825 0.472321 0.066589
0.931122 0.476532 0.073700
0.960968 0.480530 0.081055
0.991272 0.484772 0.088593
0.030212 0.608887 0.000000
0.053650 0.608856 0.000000
0.079987 0.608826 0.000000
0.108795 0.608795 0.000000
0.140106 0.608765 0.000000
0.174225 0.608917 0.000000
0.219574 0.610504 0.000000
0.267059 0.612152 0.000000
0.315796 0.613800 0.000000
0.364960 0.615479 0.000000
0.413666 0.617004 0.000000
0.461243 0.618622 0.000000
0.506927 0.620148 0.000000
0.549896 0.621643 0.000000
0.589752 0.623230 0.000000
0.625580 0.624512 0.000000
0.649780 0.622406 0.000000
0.651917 0.595734 0.000000
0.652374 0.566467 0.000000
0.652802 0.536774 0.000000
0.653290 0.506500 0.000000
0.678406 0.501740 0.005157
0.702515 0.497131 0.012512
0.725769 0.492676 0.019165
0.748657 0.488312 0.025513
0.771271 0.484192 0.031921
0.794373 0.480133 0.038269
0.818420 0.479950 0.044708
0.844269 0.483704 0.051270
0.871124 0.487762 0.057953
0.899384 0.491943 0.064880
0.928650 0.495667 0.072052
0.958649 0.499817 0.079346
0.988770 0.503784 0.086853
0.037689 0.637207 0.000244
0.060211 0.637177 0.000122
0.085815 0.637146 0.000031
0.114349 0.637115 0.000000
0.145355 0.637054 0.000000
0.178284 0.637024 0.000000
0.221619 0.638336 0.000000
0.268738 0.639984 0.000000
0.317139 0.641602 0.000000
0.366028 0.643188 0.000000
0.414337 0.644775 0.000000
0.461578 0.646332 0.000000
0.507080 0.647858 0.000000
0.549652 0.649292 0.000000
0.589478 0.650818 0.000000
0.625885 0.652283 0.000000
0.656952 0.653107 0.000000
0.675659 0.646484 0.000000
0.676849 0.619476 0.000000
0.677277 0.590942 0.000000
0.677673 0.561737 0.000000
0.678070 0.531952 0.001587
0.702240 0.527374 0.009674
0.725464 0.522797 0.016693
0.748413 0.518402 0.023285
0.771088 0.514130 0.029816
0.794189 0.509949 0.036285
0.817535 0.505890 0.042877
0.842102 0.503998 0.049500
0.869019 0.507080 0.056305
0.897247 0.510895 0.063202
0.926331 0.514801 0.070312
0.956146 0.518829 0.077606
0.986450 0.522736 0.085144
0.045013 0.664795 0.004028
0.066772 0.664795 0.003845
0.091858 0.664764 0.003662
0.119934 0.664734 0.003357
0.150635 0.664703 0.003021
0.183441 0.664642 0.002563
0.223816 0.665497 0.002106
0.270569 0.667175 0.001587
0.318604 0.668762 0.000885
0.366943 0.670258 0.000610
0.415100 0.671783 0.000275
0.462036 0.673309 0.000000
0.507263 0.674835 0.000000
0.549622 0.676208 0.000000
0.589203 0.677643 0.000000
0.625580 0.679138 0.000000
0.659027 0.680542 0.000000
0.686188 0.680939 0.000000
0.700165 0.670105 0.000000
0.700623 0.642853 0.000000
0.701111 0.614929 0.000000
0.701569 0.586334 0.002319
0.701874 0.557159 0.006317
0.725159 0.552551 0.013947
0.748108 0.548157 0.020813
0.770813 0.543793 0.027496
0.793915 0.539520 0.034119
0.817261 0.535400 0.040771
0.841583 0.531433 0.047577
0.867249 0.528137 0.054443
0.894775 0.529968 0.061401
0.923950 0.533783 0.068512
0.953796 0.537781 0.075775
0.983856 0.541565 0.083282
0.052185 0.691681 0.008453
0.073303 0.691650 0.008301
0.097931 0.691620 0.008118
0.125763 0.691589 0.007874
0.156128 0.691559 0.007568
0.188660 0.691528 0.007172
0.226471 0.692078 0.006744
0.272705 0.693604 0.006317
0.320068 0.695160 0.005737
0.368164 0.696686 0.005066
0.416107 0.698181 0.004120
0.462799 0.699615 0.002991
0.507477 0.701080 0.001648
0.549713 0.702576 0.000244
0.589172 0.704010 0.000092
0.625275 0.705353 0.000000
0.658630 0.706757 0.000000
0.689575 0.708069 0.000000
0.713867 0.707977 0.000000
0.723297 0.692322 0.000000
0.723694 0.665680 0.000000
0.724091 0.638458 0.002563
0.724457 0.610443 0.007050
0.724823 0.581848 0.010742
0.747864 0.577423 0.018036
0.770538 0.572968 0.024902
0.793610 0.568634 0.031708
0.817017 0.564514 0.038483
0.841339 0.560425 0.045380
0.866669 0.556488 0.052368
0.893250 0.552643 0.059448
0.921600 0.552643 0.066650
0.951385 0.556274 0.073944
0.981567 0.560120 0.081482
0.059296 0.717987 0.012604
0.079865 0.717987 0.012451
0.104156 0.717987 0.012268
0.131592 0.717957 0.012054
0.161682 0.717926 0.011749
0.193909 0.717865 0.011414
0.229675 0.718109 0.011078
0.274628 0.719543 0.010681
0.321869 0.721039 0.010162
0.369873 0.722565 0.009521
0.417389 0.723999 0.008789
0.463470 0.725525 0.007874
0.508026 0.726990 0.006683
0.550018 0.728455 0.005341
0.589142 0.729889 0.003784
0.625183 0.731293 0.001862
0.658325 0.732635 0.000214
0.689697 0.733978 0.000000
0.718750 0.735107 0.000000
0.740723 0.734589 0.000000
0.745789 0.714233 0.000000
0.746216 0.687958 0.002319
0.746796 0.661285 0.007324
0.747192 0.633881 0.011475
0.747498 0.605957 0.014984
0.770233 0.601593 0.022156
0.793335 0.597321 0.029114
0.816772 0.593018 0.036041
0.841064 0.589020 0.042999
0.866425 0.584839 0.050110
0.893036 0.581116 0.057281
0.920563 0.577209 0.064606
0.949005 0.574890 0.072021
0.979034 0.578461 0.079529
0.066589 0.744049 0.016602
0.086517 0.744019 0.016449
0.110321 0.743988 0.016266
0.137451 0.743958 0.016052
0.167267 0.743927 0.015839
0.199310 0.743896 0.015503
0.232971 0.743835 0.015137
0.277039 0.745178 0.014771
0.323761 0.746704 0.014343
0.371094 0.748199 0.013794
0.418335 0.749725 0.013123
0.464294 0.751190 0.012299
0.508728 0.752625 0.011261
0.550232 0.754089 0.010162
0.589417 0.755524 0.008789
0.625061 0.756866 0.007202
0.658356 0.758301 0.005280
0.689423 0.759613 0.003082
0.719238 0.761017 0.000977
0.745911 0.761810 0.000000
0.767365 0.760864 0.000000
0.768433 0.735840 0.001648
0.768829 0.709869 0.007172
0.769226 0.683655 0.011749
0.769592 0.656982 0.015625
0.769928 0.629608 0.019012
0.792938 0.625305 0.026276
0.816467 0.621124 0.033356
0.840759 0.617035 0.040466
0.866150 0.612946 0.047607
0.892731 0.608917 0.054962
0.920288 0.605072 0.062317
