backup-gold-v1/lut/蓝调空间.cube
#Created by: Adobe Photoshop Export Color Lookup Plugin
#Copyright: (C) Copyright 2026 汉图
TITLE "mint本征源文件-适配lut筛选.psd"
#LUT size
LUT_3D_SIZE 4
#data domain
DOMAIN_MIN 0.0 0.0 0.0
DOMAIN_MAX 1.0 1.0 1.0
#LUT data points
0.000000 0.049347 0.135376
0.167297 0.049927 0.210144
0.559875 0.045959 0.402496
0.917633 0.212128 0.632202
0.000000 0.321075 0.538391
0.000000 0.323975 0.550354
0.564972 0.387207 0.594727
0.824921 0.569489 0.781616
0.176544 0.686005 0.943329
0.402313 0.692871 0.954346
0.545929 0.729706 0.947754
0.771393 0.829895 0.969116
0.797089 0.890717 1.000000
0.815430 0.896637 1.000000
0.863953 0.916199 1.000000
0.914703 0.947998 1.000000
0.000000 0.071014 0.513641
0.047119 0.114227 0.563751
0.577942 0.105957 0.597595
0.893280 0.328125 0.666962
0.000000 0.329346 0.748688
0.000000 0.369598 0.782074
0.519470 0.435730 0.803040
0.801361 0.591400 0.816223
0.295990 0.685181 0.966888
0.443939 0.701202 0.969940
0.588440 0.736053 0.970551
0.785767 0.835052 0.981750
0.793610 0.889252 1.000000
0.812805 0.896484 1.000000
0.865601 0.917114 1.000000
0.915802 0.948303 1.000000
0.000000 0.164276 0.912872
0.000000 0.210510 0.940979
0.437744 0.332458 0.963745
0.689270 0.504089 0.977264
0.000000 0.350891 0.946472
0.137939 0.405396 0.967468
0.497925 0.538422 0.982178
0.702728 0.617401 0.983795
0.444611 0.674072 0.997894
0.517029 0.697418 0.997711
0.690765 0.776459 0.999268
0.797150 0.825623 0.997192
0.773163 0.882782 1.000000
0.786499 0.888580 1.000000
0.859375 0.918335 1.000000
0.926239 0.953979 1.000000
0.270569 0.397491 1.000000
0.374695 0.442871 1.000000
0.587372 0.593109 1.000000
0.714783 0.705872 1.000000
0.353790 0.487640 1.000000
0.440796 0.528687 1.000000
0.625763 0.652252 1.000000
0.752808 0.757935 1.000000
0.626251 0.732941 1.000000
0.619476 0.722992 1.000000
0.728088 0.776917 1.000000
0.843201 0.859528 1.000000
0.845490 0.916534 1.000000
0.852966 0.920776 1.000000
0.881683 0.935883 1.000000
0.968262 0.980255 1.000000
