backup-gold-v1/lut/蓝调空间.cube
#Created by: Adobe Photoshop Export Color Lookup Plugin
#Copyright: (C) Copyright 2026 汉图
TITLE "mint本征源文件-适配lut筛选.psd"
#LUT size
LUT_3D_SIZE 34
#data domain
DOMAIN_MIN 0.0 0.0 0.0
DOMAIN_MAX 1.0 1.0 1.0
#LUT data points
0.000000 0.049347 0.135376
0.000000 0.049713 0.138763
0.000580 0.050659 0.143677
0.010071 0.051544 0.148651
0.020538 0.052673 0.154755
0.031555 0.053436 0.161682
0.046539 0.054016 0.169434
0.065369 0.054596 0.177063
0.093414 0.054382 0.184662
0.116058 0.053131 0.192505
0.141846 0.051910 0.200653
0.167297 0.049927 0.210144
0.193451 0.046204 0.221863
0.220764 0.041809 0.233765
0.251129 0.034882 0.247253
0.283905 0.025269 0.261108
0.318390 0.013702 0.276154
0.353729 0.013031 0.294312
0.391266 0.017914 0.314362
0.432251 0.021606 0.335266
0.474640 0.027893 0.358032
0.517487 0.036560 0.379974
0.559875 0.045959 0.402496
0.601685 0.055450 0.424713
0.642670 0.064514 0.446320
0.681580 0.074554 0.467346
0.720673 0.087189 0.489136
0.759308 0.102173 0.510834
0.793182 0.117096 0.530212
0.823181 0.131927 0.549225
0.850250 0.147308 0.568512
0.875000 0.162933 0.587311
0.897766 0.179718 0.608154
0.917633 0.212128 0.632202
0.000000 0.063263 0.157410
0.000000 0.063202 0.158905
0.000000 0.063538 0.160370
0.000000 0.064697 0.165771
0.010529 0.065613 0.170319
0.022247 0.065826 0.175720
0.032043 0.065277 0.181763
0.052521 0.065460 0.187775
0.086731 0.064667 0.194153
0.108398 0.063965 0.201630
0.136444 0.062775 0.209564
0.163055 0.060455 0.218140
0.189514 0.057281 0.229156
0.218323 0.053192 0.240387
0.249329 0.047791 0.253967
0.281769 0.039062 0.267090
0.316193 0.028778 0.281647
0.352448 0.014740 0.297150
0.389832 0.018555 0.316498
0.430695 0.022400 0.337616
0.472687 0.028778 0.360046
0.515076 0.037628 0.381866
0.557129 0.046661 0.403717
0.598663 0.055878 0.425446
0.639587 0.064819 0.446777
0.679047 0.074677 0.467834
0.718018 0.087006 0.489410
0.755554 0.101318 0.510437
0.788788 0.115692 0.529602
0.818512 0.130219 0.548248
0.845581 0.145081 0.566681
0.870483 0.160675 0.585815
0.893463 0.177734 0.606232
0.912994 0.216888 0.631012
0.000000 0.076874 0.182129
0.000000 0.075531 0.185120
0.000000 0.076416 0.183563
0.000000 0.076996 0.183502
0.000977 0.077820 0.185181
0.013123 0.078003 0.188904
0.020142 0.077362 0.193390
0.040131 0.076447 0.198975
0.076569 0.075775 0.204987
0.102692 0.074585 0.211731
0.133148 0.073486 0.218964
0.159576 0.071655 0.227448
0.186523 0.069092 0.237885
0.216003 0.065674 0.248932
0.247559 0.060822 0.261383
0.280701 0.054199 0.275360
0.315338 0.045715 0.289764
0.351501 0.032837 0.304413
0.389526 0.019501 0.319672
0.430206 0.023468 0.340973
0.472198 0.030029 0.362885
0.514465 0.038818 0.384155
0.556519 0.047852 0.406006
0.597931 0.056854 0.427460
0.638519 0.065918 0.449036
0.678345 0.075806 0.470215
0.717255 0.087769 0.491211
0.753784 0.101349 0.511261
0.786438 0.115417 0.530212
0.815979 0.129730 0.548920
0.843048 0.144409 0.567322
0.867950 0.159851 0.586273
0.890869 0.177338 0.606567
0.909515 0.229126 0.632874
0.000000 0.093719 0.208649
0.000000 0.091644 0.212738
0.000000 0.091248 0.214020
0.000000 0.091797 0.209839
0.000000 0.093018 0.208313
0.001617 0.093262 0.207275
0.005005 0.092834 0.209656
0.024811 0.090881 0.213867
0.064453 0.090485 0.219177
0.096497 0.088501 0.226013
0.127655 0.087830 0.232788
0.156860 0.086395 0.240479
0.185608 0.084259 0.250427
0.215149 0.081726 0.261597
0.246124 0.078125 0.272522
0.279266 0.073395 0.285767
0.314026 0.067383 0.300262
0.350433 0.058502 0.313385
0.387970 0.045227 0.327881
0.429779 0.026154 0.345459
0.471100 0.031708 0.366547
0.512634 0.040497 0.387360
0.554291 0.049255 0.408600
0.595673 0.058167 0.430023
0.636566 0.067078 0.451385
0.677216 0.076996 0.472870
0.716431 0.088928 0.493835
0.752533 0.102234 0.513672
0.785065 0.115936 0.532440
0.814606 0.130096 0.551056
0.841675 0.144684 0.569611
0.866211 0.163361 0.588989
0.887604 0.198517 0.610962
0.905609 0.248688 0.637360
0.000000 0.113190 0.237183
0.000000 0.111267 0.242310
0.000000 0.108887 0.247162
0.000000 0.109406 0.244843
0.000000 0.110687 0.239746
0.000000 0.112701 0.236176
0.000000 0.112427 0.234406
0.018829 0.110931 0.235382
0.030853 0.109375 0.238068
0.067566 0.107971 0.243744
0.111755 0.106659 0.250061
0.147278 0.105408 0.257690
0.178345 0.103973 0.266968
0.210297 0.102112 0.277527
0.243103 0.099731 0.288666
0.277313 0.096649 0.300568
0.313110 0.092163 0.314178
0.349609 0.086273 0.326416
0.388062 0.077942 0.340607
0.429504 0.066101 0.357483
0.472137 0.046356 0.374847
0.513794 0.043701 0.393219
0.555054 0.051880 0.413818
0.596100 0.060577 0.434967
0.637482 0.069427 0.456390
0.678223 0.079224 0.477539
0.717072 0.090973 0.498230
0.752441 0.103943 0.517578
0.784393 0.117249 0.536469
0.813507 0.131073 0.554871
0.839874 0.150848 0.573639
0.862976 0.185669 0.594635
0.883301 0.227509 0.617676
0.900665 0.274200 0.644012
0.000000 0.136536 0.270935
0.000000 0.134644 0.275208
0.000000 0.131836 0.281311
0.000000 0.130188 0.284943
0.000000 0.132172 0.281158
0.000000 0.133850 0.275482
0.000000 0.135834 0.270691
0.007019 0.135284 0.269867
0.007660 0.133057 0.269714
0.034729 0.131409 0.271515
0.093658 0.129730 0.274841
0.132172 0.128906 0.280701
0.169464 0.127899 0.288788
0.205078 0.126465 0.297729
0.240143 0.124969 0.308899
0.275726 0.122925 0.320190
0.312592 0.120178 0.332275
0.350739 0.115845 0.344452
0.390167 0.109924 0.358032
0.431702 0.102997 0.373688
0.473969 0.093475 0.389801
0.515839 0.084656 0.406158
0.558014 0.070862 0.423889
0.615112 0.073547 0.452301
0.660858 0.081024 0.475891
0.701294 0.096130 0.498016
0.738403 0.117188 0.519135
0.771057 0.139832 0.539307
0.800110 0.163116 0.558838
0.825989 0.187592 0.578674
0.849548 0.212280 0.598267
0.869110 0.253479 0.621368
0.886383 0.295013 0.645508
0.901367 0.336334 0.671570
0.000000 0.165497 0.310944
0.000000 0.163147 0.314850
0.000000 0.160278 0.319794
0.000000 0.156982 0.325897
0.000000 0.156586 0.327637
0.000000 0.159576 0.322449
0.000000 0.161835 0.317017
0.000000 0.163757 0.313782
0.000000 0.163025 0.313049
0.002533 0.161407 0.313782
0.056519 0.160431 0.315674
0.113342 0.158875 0.318787
0.161499 0.158234 0.322968
0.202240 0.157440 0.327881
0.240631 0.156311 0.336243
0.279205 0.154388 0.346649
0.318268 0.152283 0.357666
0.357666 0.149689 0.369476
0.398376 0.146118 0.382477
0.440430 0.142151 0.396759
0.482758 0.136932 0.411285
0.524963 0.131348 0.427917
0.567932 0.126648 0.445496
0.613281 0.123352 0.465729
0.666046 0.127869 0.491821
0.707397 0.139618 0.513184
0.743500 0.158417 0.534729
0.774689 0.183472 0.555359
0.801666 0.211700 0.575043
0.825348 0.242615 0.595612
0.846375 0.273895 0.616516
0.864807 0.307587 0.639343
0.880829 0.343414 0.663239
0.894684 0.380615 0.688934
0.000000 0.192963 0.355225
0.000000 0.191040 0.358521
0.000000 0.189087 0.362274
0.000000 0.186340 0.367828
0.000000 0.182892 0.374359
0.000000 0.184509 0.372040
0.000000 0.187286 0.367157
0.000000 0.189697 0.361603
0.000000 0.192657 0.358551
0.000000 0.192810 0.357117
0.011902 0.192322 0.358704
0.076324 0.190765 0.361328
0.135864 0.190491 0.364075
0.187622 0.190094 0.366333
0.232941 0.189667 0.370758
0.275604 0.188538 0.376862
0.317627 0.187134 0.385162
0.359192 0.185760 0.395996
0.401520 0.183624 0.407684
0.443390 0.181641 0.420227
0.485748 0.178986 0.434418
0.527771 0.176880 0.449890
0.572235 0.176361 0.467438
0.617584 0.178925 0.487549
0.661072 0.185181 0.508820
0.700989 0.197693 0.529694
0.735901 0.214661 0.549622
0.766113 0.236145 0.569519
0.792511 0.260254 0.588867
0.815765 0.286285 0.608398
0.836243 0.314331 0.629242
0.854370 0.344727 0.651245
0.870117 0.377655 0.674988
0.883789 0.412323 0.700409
0.000000 0.221222 0.399933
0.000000 0.219910 0.402496
0.000000 0.217834 0.406097
0.000000 0.215271 0.411041
0.000000 0.212097 0.416779
0.000000 0.209930 0.420898
0.000000 0.212494 0.417603
0.000000 0.215607 0.412598
0.000000 0.218384 0.406799
0.000000 0.222687 0.403595
0.000427 0.223907 0.403259
0.024139 0.224304 0.404816
0.097443 0.223785 0.407471
0.163086 0.223846 0.410553
0.216919 0.224213 0.413635
0.265137 0.224426 0.416718
0.311279 0.223969 0.420624
0.355316 0.223114 0.425934
0.398590 0.222473 0.434570
0.441559 0.221710 0.445740
0.483795 0.221375 0.459076
0.527313 0.222504 0.473480
0.571259 0.225372 0.490601
0.616241 0.230194 0.510498
0.657776 0.239288 0.530334
0.695221 0.252197 0.549927
0.728394 0.268677 0.568848
0.757446 0.287994 0.587341
0.782867 0.309753 0.606140
0.805389 0.333191 0.625366
0.825317 0.358765 0.645935
0.842896 0.387024 0.667419
0.858337 0.417206 0.690674
0.871674 0.449219 0.716125
0.000000 0.252380 0.444733
0.000000 0.250732 0.447052
0.000000 0.249146 0.450592
0.000000 0.246887 0.455658
0.000000 0.243652 0.461334
0.000000 0.240570 0.467560
0.000000 0.240051 0.469482
0.000000 0.243286 0.464325
0.000000 0.246765 0.458740
0.000000 0.250397 0.452057
0.000000 0.255219 0.448273
0.000000 0.257202 0.448730
0.036499 0.258514 0.450897
0.118652 0.259277 0.453796
0.188690 0.259674 0.456940
0.247772 0.261108 0.460876
0.299713 0.262085 0.464111
0.348328 0.262970 0.467010
0.394135 0.263519 0.470673
0.439636 0.265015 0.477814
0.484070 0.266754 0.488434
0.527618 0.270050 0.503143
0.571045 0.275177 0.519135
0.613220 0.282166 0.536682
0.651917 0.291931 0.554535
0.687347 0.304810 0.572601
0.718719 0.320557 0.590424
0.746613 0.338348 0.607941
0.771240 0.358337 0.625732
0.792999 0.380188 0.644653
0.812500 0.404114 0.664612
0.829529 0.430573 0.686096
0.844727 0.458527 0.709503
0.858093 0.487335 0.734528
0.000000 0.285645 0.490814
0.000000 0.284241 0.492981
0.000000 0.282806 0.496216
0.000000 0.280701 0.500916
0.000000 0.278046 0.506622
0.000000 0.274597 0.512970
0.000000 0.271942 0.519073
0.000000 0.273529 0.517792
0.000000 0.277252 0.512329
0.000000 0.281250 0.506500
0.000000 0.285187 0.500885
0.000000 0.290131 0.496552
0.000000 0.293701 0.496429
0.059448 0.295868 0.498474
0.145386 0.297455 0.501343
0.217865 0.299133 0.505127
0.279572 0.301788 0.510132
0.335876 0.305176 0.515259
0.387024 0.307953 0.518860
0.436249 0.311554 0.522949
0.482330 0.315460 0.528259
0.526001 0.320038 0.536774
0.567596 0.326263 0.550415
0.606934 0.334259 0.565796
0.643524 0.344360 0.581635
0.676666 0.356812 0.597565
0.706360 0.371490 0.613831
0.733124 0.388184 0.630920
0.756927 0.406860 0.648438
0.778259 0.427368 0.666534
0.797272 0.450195 0.686432
0.814301 0.474365 0.707336
0.829681 0.499725 0.730499
0.843475 0.525391 0.755219
0.000000 0.321075 0.538391
0.000000 0.320221 0.540192
0.000000 0.318909 0.543304
0.000000 0.317139 0.547394
0.000000 0.314941 0.552490
0.000000 0.312134 0.558807
0.000000 0.308716 0.566772
0.000000 0.307129 0.572083
0.000000 0.310638 0.568146
0.000000 0.314819 0.562866
0.000000 0.319275 0.556671
0.000000 0.323975 0.550354
0.000000 0.334503 0.550781
0.000000 0.341125 0.553253
0.095520 0.345215 0.556396
0.189026 0.348297 0.560211
0.259796 0.351929 0.564972
0.324249 0.357239 0.569946
0.381470 0.363007 0.575928
0.433655 0.368652 0.581787
0.481659 0.374481 0.586334
0.525238 0.380249 0.589111
0.564972 0.387207 0.594727
0.601593 0.396149 0.604248
0.635162 0.406982 0.618408
0.666290 0.419495 0.633026
0.694183 0.433716 0.648163
0.719543 0.449249 0.664062
0.742493 0.466309 0.680542
0.762421 0.485046 0.698029
0.781250 0.504608 0.717102
0.797577 0.525391 0.737091
0.811737 0.547150 0.758301
0.824921 0.569489 0.781616
0.000000 0.363586 0.589752
0.000000 0.362549 0.591278
0.000000 0.361084 0.593994
0.000000 0.359253 0.597931
0.000000 0.356842 0.602203
0.000000 0.354340 0.607361
0.000000 0.351227 0.614349
0.000000 0.348145 0.621796
0.000000 0.348602 0.624298
0.000000 0.353760 0.620422
0.000000 0.359283 0.616028
0.000000 0.365234 0.610992
0.000000 0.371796 0.606140
0.000000 0.391327 0.615753
0.028595 0.399750 0.617493
0.161957 0.406219 0.621368
0.246887 0.412231 0.625702
0.315552 0.418518 0.630157
0.375854 0.424988 0.635040
0.430359 0.432220 0.640289
0.479034 0.440155 0.646210
0.522034 0.448334 0.650482
0.560364 0.457428 0.653656
0.595337 0.467224 0.656189
0.627502 0.478455 0.662109
0.655792 0.490784 0.674530
0.681458 0.503967 0.688293
0.704651 0.517883 0.702942
0.725952 0.531769 0.717957
0.745270 0.546539 0.734039
0.762482 0.562469 0.751678
0.778320 0.579285 0.770020
0.792450 0.596649 0.789612
0.804901 0.615326 0.810760
0.000000 0.411530 0.644135
0.000000 0.410431 0.645477
0.000000 0.408997 0.647614
0.000000 0.407166 0.650421
0.000000 0.404480 0.654358
0.000000 0.401672 0.658875
0.000000 0.398712 0.664642
0.000000 0.395538 0.672241
0.000000 0.393738 0.679138
0.000000 0.397156 0.679718
0.000000 0.403931 0.676514
0.000000 0.411407 0.673645
0.000000 0.419678 0.670868
0.000000 0.428314 0.667603
0.000000 0.437317 0.664093
0.088989 0.446686 0.665161
0.210052 0.454102 0.668396
0.286407 0.461243 0.671814
0.350128 0.468597 0.675995
0.406006 0.476013 0.679626
0.455627 0.484070 0.684052
0.498962 0.492920 0.688965
0.537476 0.503662 0.694763
0.572754 0.514313 0.698425
0.604828 0.524780 0.700348
0.633911 0.535950 0.704590
0.659607 0.547852 0.714752
0.682831 0.560059 0.728577
0.704254 0.572479 0.742584
0.724091 0.585632 0.757965
0.741577 0.599945 0.774902
0.757874 0.614807 0.792389
0.772705 0.630341 0.811493
0.785950 0.646912 0.830414
0.000000 0.455963 0.692139
0.000000 0.455048 0.693207
0.000000 0.453491 0.695099
0.000000 0.451630 0.697906
0.000000 0.449249 0.700836
0.000000 0.446259 0.705017
0.000000 0.443115 0.710236
0.000000 0.439758 0.716492
0.000000 0.436249 0.723541
0.000000 0.435730 0.728577
0.000000 0.441254 0.727142
0.000000 0.448639 0.724426
0.000000 0.456573 0.721497
0.000000 0.464996 0.717865
0.000000 0.473450 0.713745
0.039368 0.481720 0.708588
0.167755 0.491028 0.708771
0.255890 0.499542 0.711334
0.324249 0.507477 0.714325
0.383392 0.515411 0.717163
0.434845 0.524261 0.720764
0.478943 0.534119 0.725342
0.517212 0.544891 0.730865
0.552734 0.555908 0.736511
0.585052 0.567322 0.741760
0.613831 0.578705 0.745850
0.639832 0.589691 0.749359
0.664001 0.600494 0.756805
0.685394 0.611572 0.770660
0.705261 0.623169 0.785126
0.723328 0.635651 0.800507
0.740234 0.648651 0.817078
0.755676 0.662415 0.833923
0.769592 0.677216 0.851746
0.000000 0.497498 0.737915
0.000000 0.496735 0.738831
0.000000 0.495361 0.739929
0.000000 0.493378 0.741821
0.000000 0.490723 0.744293
0.000000 0.487610 0.747253
0.000000 0.484314 0.751373
0.000000 0.481232 0.756714
0.000000 0.478088 0.763580
0.000000 0.475708 0.770630
0.000000 0.477356 0.773926
0.000000 0.484253 0.771729
0.000000 0.491913 0.768768
0.000000 0.500092 0.765625
0.000000 0.508270 0.761719
0.018982 0.516052 0.756378
0.117188 0.524170 0.750763
0.229980 0.533295 0.749664
0.303040 0.541962 0.751556
0.363770 0.550385 0.754150
0.415314 0.559540 0.757263
0.460510 0.569580 0.761169
0.500580 0.580658 0.765717
0.536316 0.591522 0.771027
0.568542 0.602936 0.777100
0.597534 0.614746 0.783600
0.623749 0.626251 0.789032
0.648193 0.636444 0.792603
0.670807 0.646545 0.799011
0.690430 0.657257 0.812958
0.708862 0.668671 0.827148
0.726349 0.680603 0.842621
0.742676 0.693329 0.857819
0.757751 0.706909 0.874023
0.000000 0.533630 0.778748
0.000000 0.533325 0.779663
0.000000 0.532379 0.780975
0.000000 0.531036 0.782593
0.000000 0.529144 0.785004
0.000000 0.526794 0.787964
0.000000 0.524292 0.791901
0.000000 0.521912 0.796783
0.000000 0.519440 0.802734
0.000000 0.517090 0.809845
0.000000 0.516510 0.815582
0.000000 0.520081 0.816437
0.000000 0.526703 0.813507
0.000000 0.533325 0.809631
0.000000 0.540192 0.805084
0.027344 0.546906 0.799744
0.121643 0.553894 0.793884
0.212341 0.561127 0.787964
0.286346 0.570282 0.786011
0.347351 0.579407 0.787781
0.399109 0.588867 0.790833
0.444519 0.598938 0.794800
0.485229 0.609863 0.799225
0.522003 0.621216 0.804138
0.555328 0.632843 0.809723
0.586029 0.644958 0.815857
0.612183 0.656342 0.822784
0.637848 0.668030 0.829620
0.660736 0.678741 0.835327
0.681000 0.688599 0.840942
0.699585 0.698730 0.853027
0.717346 0.709290 0.866394
0.734253 0.720184 0.879242
0.750214 0.731842 0.893158
0.000000 0.564941 0.814789
0.000000 0.564545 0.815186
0.000000 0.563690 0.816345
0.000000 0.562561 0.817993
0.000000 0.561066 0.820068
0.000000 0.559235 0.822632
0.000000 0.557434 0.825867
0.000000 0.555573 0.829926
0.000000 0.553802 0.834930
0.000000 0.552002 0.840637
0.000000 0.550171 0.847107
0.000000 0.550934 0.851105
0.000000 0.556061 0.849609
0.000000 0.562134 0.846405
0.034729 0.568604 0.842499
0.061188 0.574860 0.837921
0.161591 0.581482 0.833160
0.227356 0.588470 0.827728
0.284393 0.595520 0.821503
0.339111 0.604828 0.819244
0.390198 0.614258 0.821808
0.434784 0.624146 0.825348
0.474976 0.634674 0.829834
0.511169 0.645691 0.834778
0.544952 0.656921 0.839874
0.575928 0.668457 0.845276
0.604248 0.680481 0.851257
0.630615 0.692352 0.858002
0.653687 0.703369 0.864929
0.676666 0.715240 0.871216
0.696320 0.725281 0.877594
0.714050 0.734955 0.888550
0.731293 0.744843 0.899628
0.748047 0.755219 0.911346
0.000000 0.593506 0.848419
0.000000 0.593475 0.848663
0.000000 0.603943 0.862885
0.000000 0.603546 0.864532
0.000000 0.602478 0.866119
0.000000 0.601135 0.867950
0.000000 0.599670 0.870300
0.000000 0.598236 0.873199
0.000000 0.596893 0.876862
0.000000 0.595978 0.881226
0.009338 0.595367 0.885895
0.045197 0.595398 0.890259
0.117920 0.597565 0.891815
0.158478 0.602570 0.889191
0.194336 0.607666 0.886169
0.227844 0.612946 0.882111
0.260132 0.618561 0.877472
0.292542 0.624207 0.872498
0.328217 0.629578 0.866882
0.364838 0.635376 0.861450
0.403900 0.643036 0.858582
0.443054 0.651947 0.860291
0.479736 0.661652 0.863586
0.513885 0.671844 0.867157
0.545807 0.682007 0.870911
0.575256 0.692413 0.875183
0.602631 0.702942 0.879791
0.628235 0.713684 0.884888
0.652161 0.724670 0.890350
0.675140 0.735718 0.895569
0.696106 0.746368 0.901489
0.715759 0.757538 0.908966
0.733704 0.767090 0.917908
0.750641 0.776337 0.927429
0.000000 0.621490 0.881775
0.000000 0.622284 0.882721
0.000000 0.623108 0.884888
0.000000 0.624817 0.888153
0.000000 0.624786 0.889923
0.000000 0.624207 0.891632
0.000000 0.623535 0.893494
0.000000 0.622772 0.895721
0.000000 0.622101 0.898346
0.038788 0.621735 0.901581
0.097626 0.621613 0.905457
0.184052 0.621857 0.909546
0.234558 0.622864 0.912384
0.262360 0.625854 0.912201
0.277649 0.630310 0.909760
0.295746 0.634857 0.906677
0.316071 0.639740 0.903046
0.339447 0.644806 0.899261
0.362488 0.650299 0.895203
0.388885 0.655853 0.890961
0.416931 0.661865 0.886353
0.448730 0.669525 0.884125
0.482330 0.678680 0.885895
0.515137 0.688538 0.889343
0.545685 0.698792 0.892853
0.574371 0.708862 0.896545
0.601532 0.718750 0.900513
0.626526 0.729034 0.904816
0.650269 0.739532 0.909637
0.672974 0.750275 0.914093
0.695099 0.761169 0.919220
0.716370 0.772491 0.924927
0.736023 0.783112 0.931030
0.755035 0.793610 0.940216
0.000000 0.642700 0.904449
0.000000 0.643585 0.905212
0.000000 0.644318 0.906891
0.000000 0.644867 0.908630
0.000000 0.645294 0.910339
0.002930 0.645386 0.911865
0.015778 0.645325 0.913391
0.034821 0.645142 0.915100
0.078674 0.645050 0.917175
0.148132 0.645050 0.919617
0.219452 0.645416 0.922607
0.266968 0.646057 0.925934
0.307678 0.646851 0.929260
0.335144 0.648529 0.930969
0.347473 0.652130 0.929688
0.359436 0.656036 0.927551
0.372986 0.660339 0.924805
0.386749 0.664825 0.921722
0.404175 0.669678 0.918610
0.422455 0.674866 0.915344
0.442932 0.680328 0.911987
0.465332 0.686157 0.908295
0.490936 0.693695 0.906403
0.520477 0.702667 0.908081
0.549744 0.712494 0.911163
0.577118 0.722534 0.914337
0.603424 0.732330 0.917877
0.627655 0.742218 0.921478
0.651306 0.752106 0.925537
0.673889 0.762390 0.929474
0.695282 0.773132 0.933777
0.716827 0.783813 0.938568
0.737732 0.794922 0.943085
0.757507 0.805847 0.949158
0.000000 0.662933 0.923767
0.000000 0.663788 0.924469
0.000854 0.664612 0.925720
0.004120 0.665375 0.927155
0.018402 0.665985 0.928589
0.067017 0.666412 0.929840
0.137482 0.666595 0.931030
0.187317 0.666809 0.932373
0.229156 0.666992 0.933929
0.268646 0.667389 0.935791
0.302917 0.668182 0.937958
0.336243 0.669098 0.940460
0.366211 0.670166 0.943207
0.392822 0.671326 0.945679
0.409637 0.673615 0.946350
0.417175 0.677185 0.944763
0.426392 0.681000 0.942963
0.437317 0.685120 0.940796
0.449402 0.689636 0.938507
0.464294 0.694672 0.936249
0.479950 0.700134 0.933990
0.497131 0.705994 0.931732
0.516266 0.711853 0.929352
0.538147 0.719238 0.928223
0.563507 0.728149 0.929626
0.589661 0.738007 0.932404
0.614868 0.747925 0.935577
0.638275 0.757843 0.938965
0.660950 0.767487 0.942108
0.683014 0.777374 0.945374
0.704132 0.787720 0.948975
0.724823 0.798370 0.952698
0.745300 0.809082 0.956482
0.765625 0.819885 0.960510
0.176544 0.686005 0.943329
0.186890 0.686615 0.943604
0.205475 0.687103 0.944305
0.224701 0.687622 0.945007
0.242523 0.688080 0.945679
0.262909 0.688416 0.946381
0.284790 0.688751 0.947235
0.306122 0.689178 0.948181
0.330292 0.689667 0.949341
0.354340 0.690582 0.950775
0.377960 0.691681 0.952454
0.402313 0.692871 0.954346
0.425018 0.694214 0.956390
0.446472 0.695587 0.958313
0.464905 0.697449 0.959961
0.474640 0.699982 0.959656
0.480591 0.703156 0.958282
0.488251 0.706696 0.956818
0.497253 0.710571 0.955231
0.507355 0.714783 0.953400
0.519287 0.719330 0.951538
0.531830 0.724365 0.949646
0.545929 0.729706 0.947754
0.561188 0.735199 0.945709
0.578918 0.741913 0.944611
0.600708 0.750031 0.945557
0.624146 0.759521 0.947937
0.646973 0.769226 0.950745
0.668823 0.779053 0.953613
0.690216 0.788910 0.956451
0.711182 0.798828 0.959564
0.731720 0.809113 0.962708
0.751526 0.819519 0.965851
0.771393 0.829895 0.969116
0.315460 0.706879 0.957550
0.319122 0.707306 0.957611
0.325806 0.707733 0.957947
0.334686 0.708099 0.958344
0.344971 0.708496 0.958801
0.356964 0.708893 0.959290
0.370880 0.709259 0.959900
0.385284 0.709930 0.960602
0.402008 0.710785 0.961487
0.419586 0.711792 0.962555
0.437225 0.713196 0.963837
0.456573 0.714447 0.965271
0.474762 0.716034 0.966858
0.492798 0.717651 0.968384
0.509430 0.719696 0.969940
0.522736 0.721802 0.970886
0.528625 0.724365 0.970123
0.533844 0.727264 0.968964
0.540680 0.730499 0.967804
0.548340 0.734161 0.966583
0.557037 0.738159 0.965149
0.567047 0.742432 0.963684
0.577667 0.746918 0.962097
0.589630 0.751617 0.960480
0.601593 0.756805 0.958679
0.614716 0.761719 0.957001
0.632690 0.769104 0.957428
0.653931 0.778229 0.959534
0.675446 0.787720 0.962097
0.696289 0.797424 0.964569
0.716766 0.807343 0.967224
0.736908 0.817383 0.970062
0.756683 0.827454 0.972687
0.776306 0.837830 0.975494
0.402679 0.726929 0.968964
0.405396 0.727448 0.969055
0.409943 0.727905 0.969330
0.415680 0.728302 0.969574
0.422424 0.728668 0.969818
0.430389 0.729034 0.970154
0.439301 0.729492 0.970490
0.449341 0.730103 0.970917
0.461548 0.730743 0.971497
0.474731 0.731628 0.972168
0.488068 0.732758 0.972992
0.502869 0.733948 0.973999
0.517700 0.735382 0.975098
0.532379 0.737122 0.976379
0.546539 0.738983 0.977509
0.560181 0.740906 0.978699
0.568970 0.742950 0.978912
0.572784 0.745392 0.977997
0.577362 0.748230 0.977051
0.583466 0.751282 0.976105
0.590515 0.754730 0.975128
0.598419 0.758667 0.974030
0.606995 0.762817 0.972809
0.616608 0.766998 0.971558
0.626190 0.771423 0.970093
0.636810 0.775757 0.968536
0.647339 0.779968 0.967010
0.663239 0.786926 0.967255
0.682800 0.795746 0.969086
0.702911 0.805237 0.971344
0.722839 0.814789 0.973511
0.742340 0.824646 0.975861
0.761810 0.834778 0.978271
0.781128 0.845001 0.980591
0.469116 0.745819 0.977905
0.471375 0.746399 0.977997
0.474976 0.746857 0.978210
0.479401 0.747253 0.978394
0.484558 0.747559 0.978577
0.490479 0.747955 0.978790
0.497192 0.748505 0.979065
0.505096 0.749115 0.979370
0.514618 0.749817 0.979797
0.524933 0.750732 0.980316
0.535614 0.751831 0.980896
0.546967 0.753113 0.981567
0.559174 0.754669 0.982391
0.571289 0.756378 0.983246
0.583221 0.758087 0.984192
0.594849 0.759857 0.985046
0.605347 0.761658 0.985779
0.610291 0.763611 0.985474
0.613861 0.765900 0.984711
0.618195 0.768585 0.983948
0.623749 0.771606 0.983215
0.630127 0.774933 0.982391
0.637177 0.778534 0.981506
0.644653 0.782410 0.980499
0.652740 0.786469 0.979431
0.661133 0.790497 0.978210
0.670074 0.794556 0.976868
0.680298 0.798920 0.975891
0.694214 0.805176 0.975922
0.712372 0.813812 0.977478
