backup-gold-v1/lut/蓝调空间.cube
#Created by: Adobe Photoshop Export Color Lookup Plugin
#Copyright: (C) Copyright 2026 汉图
TITLE "mint本征源文件-适配lut筛选.psd"
#LUT size
LUT_3D_SIZE 7
#data domain
#LUT data points
DOMAIN_MIN 0.000000 0.000000 0.000000
DOMAIN_MAX 0.909091 0.909091 0.909091
0.000000 0.049347 0.135376
0.031555 0.053436 0.161682
0.141846 0.051910 0.200653
0.283905 0.025269 0.261108
0.474640 0.027893 0.358032
0.681580 0.074554 0.467346
0.850250 0.147308 0.568512
0.000000 0.136536 0.270935
0.000000 0.133850 0.275482
0.093658 0.129730 0.274841
0.275726 0.122925 0.320190
0.473969 0.093475 0.389801
0.701294 0.096130 0.498016
0.849548 0.212280 0.598267
0.000000 0.285645 0.490814
0.000000 0.274597 0.512970
0.000000 0.285187 0.500885
0.217865 0.299133 0.505127
0.482330 0.315460 0.528259
0.676666 0.356812 0.597565
0.797272 0.450195 0.686432
0.000000 0.497498 0.737915
0.000000 0.487610 0.747253
0.000000 0.477356 0.773926
0.018982 0.516052 0.756378
0.415314 0.559540 0.757263
0.597534 0.614746 0.783600
0.708862 0.668671 0.827148
0.000000 0.642700 0.904449
0.002930 0.645386 0.911865
0.219452 0.645416 0.922607
0.359436 0.656036 0.927551
0.442932 0.680328 0.911987
0.577118 0.722534 0.914337
0.695282 0.773132 0.933777
0.469116 0.745819 0.977905
0.490479 0.747955 0.978790
0.535614 0.751831 0.980896
0.594849 0.759857 0.985046
0.623749 0.771606 0.983215
0.661133 0.790497 0.978210
0.731476 0.823273 0.979401
0.702057 0.836731 0.999878
0.708038 0.838104 0.999939
0.726501 0.843170 1.000000
0.746124 0.846893 1.000000
0.776367 0.857483 1.000000
0.792847 0.868927 1.000000
0.815796 0.882355 0.999786
0.000000 0.062256 0.274017
0.004730 0.065887 0.277618
0.138123 0.069977 0.292938
0.286255 0.086700 0.344055
0.476440 0.049622 0.387604
0.679474 0.079987 0.479034
0.838623 0.145844 0.570190
0.000000 0.144653 0.383026
0.000000 0.148102 0.392365
0.041626 0.153381 0.401398
0.270905 0.158783 0.417908
0.477356 0.153839 0.444763
0.693329 0.162720 0.514679
0.834686 0.259857 0.607971
0.000000 0.301758 0.566956
0.000000 0.297180 0.577179
0.000000 0.297791 0.583282
0.203278 0.317017 0.595154
0.473022 0.334686 0.607452
0.660522 0.375763 0.624115
0.785736 0.460205 0.688660
0.000000 0.496765 0.772247
0.000000 0.493256 0.775757
0.000000 0.481659 0.804321
0.042786 0.514801 0.792328
0.415405 0.560852 0.796021
0.589905 0.616425 0.819092
0.704010 0.669586 0.833405
0.000000 0.639038 0.917023
0.000000 0.644165 0.920105
0.241943 0.645020 0.929169
0.378448 0.654053 0.935394
0.452148 0.677216 0.921448
0.582062 0.720520 0.924744
0.698761 0.773499 0.942017
0.487488 0.746521 0.981262
0.494751 0.747742 0.980621
0.540222 0.752472 0.982635
0.600739 0.761719 0.986572
0.631348 0.773163 0.985474
0.667694 0.791626 0.981079
0.737671 0.825470 0.982208
0.702606 0.835297 0.999939
0.704102 0.835876 0.999878
0.722015 0.840759 1.000000
0.751160 0.849792 1.000000
0.781403 0.860138 1.000000
0.796143 0.870361 1.000000
0.818604 0.883606 0.999908
0.000000 0.069244 0.467072
0.000000 0.079285 0.487640
0.012543 0.103088 0.506287
0.255768 0.121063 0.529266
0.494354 0.081818 0.539703
0.685120 0.122772 0.597900
0.830017 0.228973 0.621002
0.000000 0.147339 0.546783
0.000000 0.156555 0.567444
0.000000 0.176270 0.581512
0.255524 0.179749 0.591522
0.496643 0.177917 0.612732
0.679993 0.231140 0.658569
0.818970 0.323547 0.668884
0.000000 0.293457 0.691864
0.000000 0.301453 0.699768
0.000000 0.322388 0.721466
0.213501 0.340942 0.730499
0.460785 0.365936 0.741699
0.628845 0.411499 0.754120
0.760468 0.492340 0.763092
0.000000 0.504242 0.849609
0.000000 0.504639 0.849335
0.000000 0.509918 0.860565
0.178467 0.528076 0.866119
0.443359 0.579681 0.872650
0.585480 0.625854 0.882080
0.692749 0.675842 0.889252
0.000000 0.637787 0.938934
0.095947 0.644196 0.942719
0.299530 0.653656 0.946625
0.444366 0.664185 0.956604
0.496674 0.684845 0.947327
0.609161 0.729034 0.950073
0.714813 0.780945 0.960785
0.490387 0.744385 0.985657
0.510223 0.747498 0.986084
0.550049 0.754761 0.986786
0.611603 0.765564 0.989929
0.651337 0.778107 0.990784
0.682678 0.795258 0.986725
0.749756 0.829559 0.987610
0.702209 0.834961 1.000000
0.710419 0.837463 1.000000
0.724670 0.842438 1.000000
0.753387 0.851501 1.000000
0.785889 0.862457 1.000000
0.801605 0.872101 1.000000
0.823212 0.885345 1.000000
0.000000 0.090118 0.684113
0.000000 0.105377 0.701233
0.000000 0.130493 0.739166
0.200897 0.163971 0.750549
0.409576 0.204895 0.769470
0.641479 0.172638 0.775269
0.803833 0.226562 0.786163
0.000000 0.168091 0.735657
0.000000 0.177246 0.747498
0.000000 0.200317 0.776917
0.186584 0.228180 0.788208
0.407104 0.263733 0.804413
0.633270 0.248810 0.806213
0.775818 0.331177 0.820740
0.000000 0.286865 0.805542
0.000000 0.298615 0.813446
0.000000 0.334686 0.850403
0.196808 0.376923 0.868713
0.419922 0.398407 0.872955
0.599365 0.419556 0.869049
0.719025 0.503021 0.875214
0.000000 0.473938 0.912384
0.000000 0.482635 0.914917
0.000000 0.509583 0.922546
0.341522 0.563416 0.934204
0.484985 0.597015 0.934662
0.591858 0.632202 0.936279
0.688354 0.676300 0.937286
0.137512 0.639282 0.972290
0.222900 0.645264 0.972046
0.352997 0.659607 0.970978
0.489838 0.684082 0.973206
0.557343 0.702850 0.972900
0.651978 0.746918 0.974976
0.733887 0.788910 0.977509
0.500122 0.742737 0.994110
0.519684 0.747162 0.994263
0.562103 0.756805 0.994019
0.625519 0.773254 0.994965
0.682861 0.789093 0.997131
0.707123 0.803406 0.994110
0.769989 0.837860 0.994141
0.692719 0.832153 1.000000
0.701935 0.835114 1.000000
0.723816 0.842285 1.000000
0.753967 0.852936 1.000000
0.788391 0.864807 1.000000
0.811157 0.876068 1.000000
0.831543 0.888885 1.000000
0.000000 0.138275 0.858398
0.000000 0.149414 0.869598
0.000000 0.176147 0.891602
0.229950 0.224548 0.926025
0.382050 0.268158 0.923126
0.514130 0.357330 0.931641
0.658173 0.400421 0.944153
0.000000 0.200806 0.881104
0.000000 0.210327 0.888977
0.000000 0.234436 0.907623
0.235931 0.281799 0.934601
0.382904 0.326050 0.933594
0.510864 0.410736 0.941589
0.653229 0.445862 0.950684
0.000000 0.311951 0.910217
0.000000 0.325684 0.919891
0.000000 0.355896 0.936676
0.285248 0.412506 0.955719
0.419037 0.462555 0.957672
0.531769 0.524353 0.961273
0.654877 0.542419 0.962250
0.000000 0.466156 0.951355
0.015839 0.476105 0.952576
0.175598 0.503601 0.956482
0.403137 0.568787 0.971588
0.519623 0.621674 0.977600
0.596130 0.644470 0.978485
0.681732 0.657196 0.973877
0.320862 0.626709 0.986359
0.352753 0.633636 0.986633
0.424377 0.652405 0.987549
0.518951 0.684723 0.989410
0.621643 0.729980 0.992157
0.683868 0.756439 0.990601
0.737244 0.779510 0.989258
0.547729 0.747284 1.000000
0.558716 0.750885 1.000000
0.586517 0.759888 1.000000
0.636566 0.777130 0.999878
0.702728 0.800964 1.000000
0.738983 0.817322 0.999756
0.798309 0.851715 0.999817
0.697357 0.832031 1.000000
0.702423 0.833984 1.000000
0.716492 0.839355 1.000000
0.746796 0.850769 1.000000
0.789642 0.867889 1.000000
0.826080 0.882812 1.000000
0.843536 0.894592 1.000000
0.000000 0.211334 0.970581
0.000000 0.220856 0.974487
0.001434 0.248444 0.982880
0.261688 0.300659 0.993988
0.437836 0.391510 1.000000
0.511932 0.443146 0.998688
0.602112 0.540405 0.996368
0.000000 0.254333 0.973083
0.000000 0.264008 0.976746
0.023254 0.289886 0.984009
0.276398 0.341370 0.993958
0.451141 0.434692 0.999756
0.525421 0.487579 0.998138
0.611450 0.572845 0.996460
0.000000 0.353180 0.981903
0.000000 0.359772 0.984375
0.160370 0.390228 0.990356
0.341461 0.445435 0.997925
0.497864 0.533691 1.000000
0.561981 0.575653 0.999451
0.635498 0.634705 0.999207
0.102509 0.471039 0.982300
0.155273 0.479156 0.984009
0.291779 0.511932 0.990784
0.439178 0.569611 0.997925
0.566803 0.639984 0.999878
0.627991 0.678162 1.000000
0.680511 0.709930 1.000000
0.389832 0.621338 0.999481
0.408936 0.627258 0.999420
0.452942 0.641571 0.998657
0.519043 0.665802 0.997955
0.628845 0.719818 0.999969
0.701752 0.764130 1.000000
0.739380 0.778687 1.000000
0.572571 0.735870 1.000000
0.582336 0.739655 1.000000
0.607269 0.749481 1.000000
0.648590 0.767365 1.000000
0.704987 0.795258 1.000000
0.774414 0.834808 1.000000
0.814941 0.856018 1.000000
0.719543 0.833740 1.000000
0.723907 0.835754 1.000000
0.736389 0.842010 1.000000
0.756744 0.852386 1.000000
0.785004 0.865997 1.000000
0.831635 0.887909 1.000000
0.860687 0.903412 1.000000
0.038544 0.312073 1.000000
0.112213 0.323059 1.000000
0.229065 0.348724 1.000000
0.358978 0.400787 1.000000
0.488342 0.486023 1.000000
0.598022 0.585114 1.000000
0.636322 0.615112 1.000000
0.094543 0.341461 1.000000
0.151855 0.351227 1.000000
0.250183 0.376526 1.000000
0.373444 0.427673 1.000000
0.501709 0.511932 1.000000
0.611206 0.608429 1.000000
0.647003 0.634857 1.000000
0.189880 0.407013 1.000000
0.229767 0.418365 1.000000
0.312469 0.446991 1.000000
0.427002 0.501465 1.000000
0.541321 0.575562 1.000000
0.643463 0.659485 1.000000
0.671936 0.677612 1.000000
0.295624 0.499084 1.000000
0.310242 0.504883 1.000000
0.383118 0.532806 1.000000
0.476990 0.576019 1.000000
0.580963 0.638641 1.000000
0.678284 0.711578 1.000000
0.711304 0.734131 1.000000
0.458008 0.629089 1.000000
0.457581 0.628540 1.000000
0.464539 0.627167 1.000000
0.519836 0.645721 1.000000
0.624695 0.700958 1.000000
0.724365 0.769501 1.000000
0.766602 0.799713 1.000000
0.609894 0.742157 1.000000
0.614655 0.743774 1.000000
0.627625 0.748444 1.000000
0.652679 0.758362 1.000000
0.687073 0.772766 1.000000
0.768463 0.820740 1.000000
0.828796 0.862610 1.000000
0.736786 0.830566 1.000000
0.739868 0.832031 1.000000
0.748993 0.836639 1.000000
0.766388 0.845764 1.000000
0.790955 0.859192 1.000000
0.826355 0.880066 1.000000
0.884583 0.917175 1.000000
