fuji/NC.cube
#Created by: Adobe Photoshop Export Color Lookup Plugin
#Copyright: (C) Copyright 2026 汉图
TITLE "mint本征源文件-适配lut筛选.psd"
#LUT size
LUT_3D_SIZE 7
#data domain
#LUT data points
DOMAIN_MIN 0.000000 0.000000 0.000000
DOMAIN_MAX 0.909091 0.909091 0.909091
0.017334 0.018494 0.017334
0.096375 0.018494 0.017334
0.302734 0.022491 0.019073
0.538239 0.027283 0.021210
0.715424 0.030304 0.022552
0.838379 0.031616 0.023132
0.917419 0.064636 0.023132
0.017334 0.097534 0.017334
0.096375 0.097534 0.017334
0.306396 0.101654 0.019104
0.537445 0.106293 0.021210
0.712830 0.109253 0.022522
0.838379 0.126862 0.023132
0.917419 0.163757 0.023132
0.017334 0.176544 0.017334
0.096375 0.176544 0.017334
0.190918 0.180847 0.017578
0.533234 0.238068 0.021149
0.709320 0.251282 0.022461
0.838379 0.265137 0.023132
0.917419 0.285278 0.023132
0.018524 0.342377 0.073547
0.097504 0.339752 0.079773
0.202789 0.325439 0.086670
0.368652 0.373657 0.085419
0.661072 0.417664 0.021790
0.837891 0.425293 0.023132
0.917419 0.434296 0.023132
0.036499 0.514832 0.125519
0.147186 0.516785 0.130188
0.280670 0.508331 0.140045
0.379913 0.499451 0.146881
0.528839 0.538666 0.146393
0.768799 0.574066 0.096802
0.918335 0.586426 0.091187
0.122681 0.669067 0.179810
0.219177 0.668793 0.181763
0.345642 0.668976 0.193268
0.450867 0.657166 0.197937
0.540924 0.655182 0.204498
0.673309 0.685303 0.208191
0.877441 0.720337 0.177979
0.205780 0.814392 0.242645
0.294250 0.814087 0.243622
0.407318 0.816193 0.253326
0.519470 0.812653 0.261780
0.615692 0.806824 0.268799
0.706604 0.811127 0.280457
0.829987 0.835297 0.287689
0.017334 0.018494 0.096375
0.096375 0.018494 0.096375
0.280212 0.021759 0.097809
0.524109 0.026855 0.100037
0.704498 0.029968 0.101440
0.838379 0.035400 0.102173
0.917419 0.071838 0.102173
0.017334 0.097534 0.096375
0.096375 0.097534 0.096375
0.290894 0.101135 0.097961
0.524902 0.105927 0.100067
0.703461 0.108948 0.101410
0.838379 0.139618 0.102173
0.917419 0.169769 0.102173
0.017487 0.176636 0.101562
0.096893 0.176788 0.112488
0.217438 0.206970 0.100708
0.526459 0.248474 0.100067
0.698975 0.258179 0.101349
0.838379 0.271118 0.102173
0.917419 0.289398 0.102173
0.018738 0.359680 0.168182
0.099762 0.360474 0.172058
0.222961 0.347015 0.179810
0.383453 0.388153 0.175354
0.660156 0.424500 0.113342
0.834534 0.433868 0.108551
0.917542 0.439697 0.113617
0.055573 0.528503 0.218201
0.154266 0.527893 0.218445
0.291412 0.522552 0.228333
0.391663 0.511017 0.234131
0.534454 0.545563 0.233154
0.768951 0.578339 0.187714
0.918549 0.590668 0.183167
0.129181 0.674988 0.266754
0.220825 0.673859 0.266479
0.345673 0.674530 0.276062
0.456696 0.663879 0.282349
0.546478 0.660461 0.288055
0.676025 0.688599 0.291840
0.878571 0.723053 0.263367
0.204956 0.816223 0.325134
0.291809 0.815643 0.325043
0.401550 0.816681 0.331696
0.521118 0.816864 0.344666
0.619080 0.810364 0.351593
0.709259 0.813477 0.362091
0.830750 0.836609 0.369446
0.017334 0.018494 0.175385
0.096588 0.018616 0.182739
0.291138 0.022125 0.176971
0.475800 0.025360 0.178436
0.687988 0.029449 0.180237
0.835693 0.049316 0.181152
0.917419 0.085266 0.181213
0.017334 0.097534 0.175385
0.097046 0.097839 0.197418
0.288300 0.099152 0.192047
0.487000 0.100830 0.183044
0.688019 0.117615 0.180237
0.836151 0.157379 0.181183
0.917419 0.182739 0.181213
0.018463 0.177124 0.213623
0.097076 0.203430 0.225800
0.261566 0.252777 0.242615
0.501770 0.269745 0.225800
0.677185 0.279694 0.209961
0.829559 0.290649 0.194427
0.917480 0.305267 0.186615
0.019012 0.381775 0.274963
0.098206 0.393463 0.279205
0.270721 0.406067 0.293060
0.416779 0.424255 0.286285
0.660675 0.445129 0.253143
0.819824 0.449249 0.247284
0.918213 0.452118 0.239746
0.029572 0.545471 0.316223
0.154449 0.550110 0.320343
0.306305 0.554718 0.328979
0.422791 0.542328 0.335510
0.550537 0.565399 0.334656
0.772034 0.592529 0.298798
0.919067 0.604889 0.298889
0.116486 0.684570 0.358643
0.221008 0.685974 0.361572
0.340607 0.685974 0.364471
0.468292 0.681427 0.374176
0.560822 0.674164 0.379150
0.683105 0.697235 0.382935
0.881348 0.729370 0.358032
0.198639 0.822388 0.414673
0.292725 0.823120 0.416901
0.392426 0.822083 0.416260
0.518890 0.824341 0.429138
0.624695 0.817383 0.437622
0.714783 0.818573 0.446747
0.832123 0.839264 0.454590
0.019409 0.019501 0.323853
0.099030 0.019745 0.342651
0.315002 0.020538 0.375458
0.519806 0.022278 0.345062
0.635345 0.063019 0.337952
0.803864 0.091278 0.328278
0.918060 0.104370 0.307739
0.019623 0.098633 0.331635
0.099182 0.098877 0.347839
0.302948 0.099396 0.382812
0.512085 0.101227 0.355988
0.629456 0.174072 0.350006
0.804321 0.195221 0.340363
0.918091 0.195007 0.309814
0.018463 0.200867 0.336975
0.097626 0.221008 0.346283
0.256287 0.258820 0.384857
0.491272 0.287903 0.383820
0.628601 0.319672 0.377502
0.808319 0.313385 0.350677
0.918427 0.323120 0.333374
0.019012 0.372833 0.377228
0.109131 0.388763 0.385193
0.271881 0.424957 0.400665
0.456177 0.469940 0.422089
0.638367 0.472229 0.405212
0.797699 0.470215 0.387573
0.918976 0.469543 0.371674
0.024017 0.553406 0.431519
0.136749 0.560089 0.433411
0.286804 0.576660 0.438904
0.458771 0.589600 0.449280
0.576996 0.595001 0.448669
0.778687 0.615051 0.427704
0.918854 0.622955 0.428497
0.079559 0.691742 0.460388
0.183228 0.694855 0.461578
0.320343 0.701843 0.465363
0.472961 0.706909 0.474182
0.584839 0.697418 0.479980
0.696167 0.712555 0.483826
0.887390 0.740723 0.464630
0.151611 0.826263 0.503845
0.248871 0.827972 0.505341
0.372803 0.830963 0.509827
0.502594 0.832184 0.514832
0.630798 0.830261 0.527618
0.723969 0.827026 0.535278
0.835236 0.844177 0.543976
0.021393 0.020477 0.468842
0.099762 0.031311 0.482391
0.273651 0.021057 0.513184
0.566895 0.022949 0.532410
0.681824 0.062164 0.490051
0.775146 0.149414 0.484924
0.906433 0.202942 0.499603
0.019226 0.122467 0.471802
0.115326 0.137695 0.484497
0.275299 0.122955 0.513580
0.557831 0.101868 0.536377
0.673462 0.177673 0.497650
0.768250 0.250092 0.493073
0.906555 0.290405 0.502716
0.019226 0.240448 0.471619
0.124695 0.257996 0.481201
0.276703 0.288483 0.509918
0.508850 0.282745 0.543549
0.654022 0.334259 0.518585
0.754730 0.375580 0.514496
0.908081 0.388885 0.509186
0.024200 0.376068 0.482391
0.129089 0.387238 0.486755
0.270752 0.417847 0.498688
0.448883 0.468964 0.539581
0.632324 0.490295 0.546906
0.753387 0.501648 0.536774
0.913818 0.493591 0.513977
0.080963 0.541077 0.523651
0.181549 0.548462 0.526978
0.310059 0.567108 0.535919
0.457214 0.596588 0.552734
0.611725 0.631683 0.577179
0.766632 0.629242 0.559692
0.912811 0.625793 0.541718
0.108582 0.695129 0.575378
0.203339 0.698303 0.576294
0.319580 0.705963 0.578064
0.455078 0.721069 0.583893
0.607391 0.733521 0.592224
0.717194 0.735596 0.596497
0.897339 0.756073 0.584167
0.121796 0.824921 0.607849
0.213989 0.826599 0.607910
0.325714 0.832123 0.609222
0.466278 0.840851 0.612823
0.619019 0.845642 0.619507
0.737213 0.840179 0.629913
0.840942 0.852112 0.639191
0.064789 0.096100 0.615997
0.172699 0.109009 0.625122
0.304565 0.102600 0.645172
0.504517 0.063934 0.678619
0.740723 0.117035 0.672119
0.819183 0.162659 0.634857
0.903107 0.221710 0.626099
0.068939 0.185211 0.613434
0.176178 0.199615 0.622314
0.304108 0.194305 0.642120
0.494873 0.149963 0.675354
0.735840 0.200104 0.674500
0.813110 0.261810 0.640289
0.899475 0.311981 0.631073
0.076904 0.290375 0.608429
0.177948 0.302948 0.615753
0.314270 0.329895 0.636597
0.474976 0.314575 0.668854
0.708008 0.338776 0.682617
0.798859 0.379211 0.650726
0.889709 0.416779 0.643280
0.047363 0.388855 0.596680
0.151306 0.400177 0.603180
0.295197 0.433380 0.620422
0.458069 0.476837 0.654541
0.656097 0.480988 0.690521
0.781891 0.509155 0.669617
0.876709 0.529572 0.659973
0.076172 0.527527 0.617401
0.171265 0.533173 0.619476
0.288269 0.547394 0.624817
0.424805 0.572266 0.636200
0.600281 0.622284 0.680542
0.762146 0.639313 0.692871
0.873688 0.643921 0.680511
0.126587 0.675812 0.655548
0.219025 0.679840 0.657471
0.330627 0.690033 0.662781
0.461151 0.708344 0.673767
0.603424 0.734528 0.692780
0.748962 0.767822 0.724396
0.891937 0.763306 0.705078
0.157349 0.825470 0.717987
0.246490 0.827667 0.719482
0.351685 0.833313 0.722412
0.470123 0.841736 0.725555
0.598541 0.852875 0.728699
0.743317 0.863739 0.734406
0.853729 0.865509 0.743103
0.159882 0.186096 0.758728
0.253052 0.190155 0.764587
0.359192 0.182495 0.777100
0.501312 0.157043 0.800446
0.707703 0.145386 0.815460
0.840546 0.180756 0.803955
0.920258 0.229126 0.770203
0.156372 0.266296 0.754639
0.252808 0.274689 0.760498
0.356110 0.264648 0.773590
0.494507 0.236725 0.796844
0.698212 0.220795 0.813843
0.840729 0.274261 0.804108
0.920380 0.318115 0.772430
0.147278 0.351166 0.745483
0.243896 0.361389 0.751770
0.359802 0.375366 0.766968
0.488464 0.361969 0.791260
0.671295 0.340881 0.813965
0.841217 0.386414 0.808624
0.919250 0.418640 0.778748
0.105194 0.425873 0.733337
0.207153 0.436920 0.736847
0.337250 0.464508 0.748077
0.474518 0.489502 0.775208
0.628754 0.475250 0.808411
0.832611 0.501617 0.817505
0.914246 0.529633 0.790466
0.061279 0.519531 0.719879
0.151123 0.522827 0.721130
0.268097 0.535339 0.727783
0.420593 0.566193 0.749023
0.596252 0.614227 0.789703
0.786469 0.625397 0.828339
0.901703 0.649445 0.810608
0.095154 0.658997 0.750671
0.183716 0.661072 0.751160
0.287537 0.666931 0.752777
0.408813 0.678772 0.757111
0.545746 0.698853 0.766663
0.735199 0.753601 0.818634
0.888855 0.771851 0.837769
0.154602 0.807007 0.796570
0.242096 0.808777 0.797363
0.343933 0.814087 0.800049
0.461487 0.824219 0.805908
0.592438 0.839050 0.815399
0.734009 0.860413 0.832825
0.880096 0.890625 0.867188
