fuji/NC.cube
#Created by: Adobe Photoshop Export Color Lookup Plugin
#Copyright: (C) Copyright 2026 汉图
TITLE "mint本征源文件-适配lut筛选.psd"
#LUT size
LUT_3D_SIZE 34
#data domain
DOMAIN_MIN 0.0 0.0 0.0
DOMAIN_MAX 1.0 1.0 1.0
#LUT data points
0.017334 0.018494 0.017334
0.033142 0.018494 0.017334
0.048950 0.018494 0.017334
0.064758 0.018494 0.017334
0.080566 0.018494 0.017334
0.096375 0.018494 0.017334
0.112152 0.018494 0.017334
0.157379 0.019409 0.017792
0.205688 0.020477 0.018219
0.254700 0.021484 0.018646
0.302734 0.022491 0.019073
0.350128 0.023438 0.019501
0.397949 0.024445 0.019958
0.446564 0.025452 0.020416
0.493927 0.026428 0.020844
0.538239 0.027283 0.021210
0.579163 0.028076 0.021545
0.616821 0.028748 0.021851
0.651672 0.029327 0.022125
0.684204 0.029816 0.022339
0.715424 0.030304 0.022552
0.746704 0.030762 0.022766
0.777191 0.031219 0.022949
0.803711 0.031525 0.023102
0.822571 0.031616 0.023132
0.838379 0.031616 0.023132
0.854187 0.031616 0.023132
0.869995 0.036530 0.023132
0.885803 0.045868 0.023132
0.901611 0.055298 0.023132
0.917419 0.064636 0.023132
0.933228 0.074005 0.023132
0.949036 0.083923 0.023132
0.964813 0.094635 0.023132
0.017334 0.034302 0.017334
0.033142 0.034302 0.017334
0.048950 0.034302 0.017334
0.064758 0.034302 0.017334
0.080566 0.034302 0.017334
0.096375 0.034302 0.017334
0.112152 0.034302 0.017334
0.157867 0.035217 0.017792
0.206329 0.036316 0.018219
0.255066 0.037292 0.018646
0.302765 0.038300 0.019073
0.350037 0.039246 0.019501
0.397827 0.040253 0.019958
0.446320 0.041260 0.020416
0.493347 0.042206 0.020844
0.537476 0.043091 0.021210
0.578308 0.043854 0.021545
0.615967 0.044525 0.021820
0.650726 0.045105 0.022095
0.683319 0.045624 0.022339
0.714783 0.046082 0.022552
0.745972 0.046539 0.022766
0.776123 0.046997 0.022949
0.803101 0.047333 0.023071
0.822571 0.047424 0.023132
0.838379 0.047424 0.023132
0.854187 0.047424 0.023132
0.869995 0.054321 0.023132
0.885803 0.063446 0.023132
0.901611 0.072571 0.023132
0.917419 0.081665 0.023132
0.933228 0.090881 0.023132
0.949036 0.100677 0.023132
0.964813 0.111267 0.023132
0.017334 0.050110 0.017334
0.033142 0.050110 0.017334
0.048950 0.050110 0.017334
0.064758 0.050110 0.017334
0.080566 0.050110 0.017334
0.096375 0.050110 0.017334
0.112152 0.050110 0.017334
0.158844 0.051056 0.017792
0.207184 0.052155 0.018250
0.255951 0.053131 0.018646
0.303497 0.054108 0.019073
0.350464 0.055084 0.019531
0.398071 0.056061 0.019958
0.446503 0.057068 0.020416
0.493500 0.058014 0.020844
0.537323 0.058868 0.021179
0.578033 0.059631 0.021515
0.615631 0.060303 0.021820
0.650208 0.060883 0.022095
0.682739 0.061401 0.022308
0.714478 0.061890 0.022552
0.745422 0.062347 0.022736
0.775513 0.062775 0.022949
0.802643 0.063110 0.023071
0.822571 0.063232 0.023132
0.838379 0.063232 0.023132
0.854187 0.063751 0.023132
0.869995 0.073029 0.023132
0.885803 0.081848 0.023132
0.901611 0.090668 0.023132
0.917419 0.099548 0.023132
0.933228 0.108521 0.023132
0.949036 0.118225 0.023132
0.964813 0.128632 0.023132
0.017334 0.065918 0.017334
0.033142 0.065918 0.017334
0.048950 0.065918 0.017334
0.064758 0.065918 0.017334
0.080566 0.065918 0.017334
0.096375 0.065918 0.017334
0.112152 0.065918 0.017334
0.160065 0.066925 0.017822
0.208862 0.067993 0.018250
0.257416 0.068970 0.018677
0.304626 0.069977 0.019073
0.351654 0.070923 0.019531
0.399139 0.071899 0.019958
0.447052 0.072876 0.020416
0.493652 0.073822 0.020844
0.537292 0.074677 0.021179
0.577759 0.075439 0.021515
0.614960 0.076080 0.021820
0.649536 0.076660 0.022064
0.681976 0.077179 0.022308
0.713593 0.077667 0.022522
0.744415 0.078125 0.022736
0.774261 0.078552 0.022919
0.802094 0.078888 0.023071
0.822571 0.079041 0.023132
0.838379 0.079041 0.023132
0.854187 0.084381 0.023132
0.869995 0.093079 0.023132
0.885803 0.101379 0.023132
0.901611 0.109955 0.023132
0.917419 0.118561 0.023132
0.933228 0.127319 0.023132
0.949036 0.136688 0.023132
0.964813 0.146912 0.023132
0.017334 0.081726 0.017334
0.033142 0.081726 0.017334
0.048950 0.081726 0.017334
0.064758 0.081726 0.017334
0.080566 0.081726 0.017334
0.096375 0.081726 0.017334
0.112152 0.081726 0.017334
0.161377 0.082764 0.017822
0.209839 0.083832 0.018280
0.258179 0.084778 0.018677
0.305359 0.085785 0.019104
0.352142 0.086731 0.019562
0.399628 0.087708 0.019989
0.447388 0.088715 0.020447
0.493622 0.089630 0.020844
0.537018 0.090454 0.021179
0.577393 0.091248 0.021515
0.614502 0.091888 0.021820
0.648987 0.092468 0.022064
0.681458 0.092987 0.022308
0.713074 0.093445 0.022522
0.743683 0.093903 0.022705
0.773376 0.094330 0.022919
0.801361 0.094696 0.023041
0.822571 0.094849 0.023132
0.838379 0.098419 0.023132
0.854187 0.106506 0.023132
0.869995 0.114380 0.023132
0.885803 0.122375 0.023132
0.901611 0.130524 0.023132
0.917419 0.138794 0.023132
0.933228 0.147339 0.023132
0.949036 0.156219 0.023132
0.964813 0.166107 0.023132
0.017334 0.097534 0.017334
0.033142 0.097534 0.017334
0.048950 0.097534 0.017334
0.064758 0.097534 0.017334
0.080566 0.097534 0.017334
0.096375 0.097534 0.017334
0.112152 0.097534 0.017334
0.156494 0.098419 0.017761
0.210846 0.099640 0.018280
0.259003 0.100616 0.018707
0.306396 0.101654 0.019104
0.353363 0.102570 0.019562
0.400879 0.103577 0.019989
0.448517 0.104553 0.020447
0.494598 0.105499 0.020844
0.537445 0.106293 0.021210
0.577576 0.107056 0.021515
0.614441 0.107697 0.021820
0.648651 0.108246 0.022064
0.681244 0.108765 0.022278
0.712830 0.109253 0.022522
0.743378 0.109680 0.022705
0.773071 0.110138 0.022919
0.806152 0.112091 0.023132
0.822571 0.119934 0.023132
0.838379 0.126862 0.023132
0.854187 0.133911 0.023132
0.869995 0.141296 0.023132
0.885803 0.148712 0.023132
0.901611 0.155914 0.023132
0.917419 0.163757 0.023132
0.933228 0.171722 0.023132
0.949036 0.180573 0.023132
0.964813 0.189819 0.023132
0.017334 0.113342 0.017334
0.033142 0.113342 0.017334
0.048950 0.113342 0.017334
0.064758 0.113342 0.017334
0.080566 0.113342 0.017334
0.096375 0.113342 0.017334
0.112152 0.113342 0.017334
0.127960 0.113342 0.017334
0.201233 0.115173 0.018158
0.260406 0.116486 0.018707
0.309204 0.117523 0.019165
0.357178 0.118500 0.019592
0.405365 0.119537 0.020050
0.453003 0.120483 0.020508
0.498199 0.121399 0.020874
0.540100 0.122192 0.021240
0.579285 0.122925 0.021545
0.615540 0.123535 0.021820
0.649841 0.124115 0.022095
0.682648 0.124634 0.022308
0.714294 0.125092 0.022552
0.745026 0.125641 0.022736
0.774872 0.132294 0.022949
0.804352 0.138824 0.023102
0.822540 0.147034 0.023132
0.838379 0.153564 0.023132
0.854187 0.160065 0.023132
0.869995 0.166595 0.023132
0.885803 0.173096 0.023132
0.901611 0.180115 0.023132
0.917419 0.187134 0.023132
0.933228 0.194641 0.023132
0.949036 0.202850 0.023132
0.964813 0.211914 0.023132
0.017334 0.129150 0.017334
0.033142 0.129150 0.017334
0.048950 0.129150 0.017334
0.064758 0.129150 0.017334
0.080566 0.129150 0.017334
0.096375 0.129150 0.017334
0.112152 0.129150 0.017334
0.127960 0.129150 0.017334
0.167297 0.129883 0.017670
0.243408 0.131744 0.018494
0.304260 0.133179 0.019073
0.357330 0.134308 0.019592
0.406830 0.135376 0.020081
0.454895 0.136353 0.020538
0.499817 0.137268 0.020905
0.541168 0.138031 0.021240
0.579773 0.138733 0.021545
0.615723 0.139343 0.021820
0.649841 0.143646 0.022095
0.682526 0.148102 0.022308
0.714050 0.152618 0.022522
0.744781 0.157562 0.022736
0.774811 0.162598 0.022949
0.803528 0.168243 0.023102
0.822327 0.173676 0.023132
0.838379 0.179504 0.023132
0.854187 0.185272 0.023132
0.869995 0.191162 0.023132
0.885803 0.197235 0.023132
0.901611 0.203522 0.023132
0.917419 0.210114 0.023132
0.933228 0.217010 0.023132
0.949036 0.224640 0.023132
0.964813 0.233459 0.023132
0.017334 0.144958 0.017334
0.033142 0.144958 0.017334
0.048950 0.144958 0.017334
0.064758 0.144958 0.017334
0.080566 0.144958 0.017334
0.096375 0.144958 0.017334
0.112152 0.144958 0.017334
0.127960 0.144958 0.017334
0.143768 0.144958 0.017334
0.204620 0.146362 0.018005
0.281158 0.148254 0.018799
0.347534 0.149811 0.019470
0.403442 0.151062 0.020020
0.453064 0.155151 0.020508
0.498810 0.161804 0.020905
0.540710 0.166901 0.021240
0.579437 0.170807 0.021545
0.615112 0.174286 0.021820
0.648834 0.177643 0.022064
0.681213 0.181030 0.022278
0.712708 0.184692 0.022522
0.743286 0.188629 0.022705
0.773315 0.193054 0.022919
0.801849 0.197479 0.023071
0.822266 0.202301 0.023132
0.838379 0.206970 0.023132
0.854187 0.212128 0.023132
0.869995 0.217377 0.023132
0.885803 0.222748 0.023132
0.901611 0.228271 0.023132
0.917419 0.234161 0.023132
0.933228 0.240417 0.023132
0.949036 0.247620 0.023132
0.964813 0.256256 0.023132
0.017334 0.160736 0.017334
0.033142 0.160736 0.017334
0.048950 0.160736 0.017334
0.064758 0.160736 0.017334
0.080566 0.160736 0.017334
0.096375 0.160736 0.017334
0.112152 0.160736 0.017334
0.127960 0.160736 0.017334
0.143768 0.160736 0.017334
0.159576 0.160736 0.017334
0.240784 0.164307 0.018280
0.317719 0.177063 0.019073
0.386200 0.185913 0.019775
0.447205 0.192688 0.020447
0.495483 0.198059 0.020874
0.538544 0.202942 0.021210
0.577942 0.206757 0.021515
0.613922 0.210052 0.021820
0.647461 0.212250 0.022034
0.679932 0.214783 0.022278
0.711304 0.217529 0.022491
0.741791 0.220551 0.022705
0.771729 0.223969 0.022888
0.800079 0.227600 0.023041
0.822418 0.231842 0.023132
0.838379 0.235748 0.023132
0.854187 0.240082 0.023132
0.869995 0.244507 0.023132
0.885803 0.249054 0.023132
0.901611 0.253876 0.023132
0.917419 0.259308 0.023132
0.933228 0.264862 0.023132
0.949036 0.271637 0.023132
0.964813 0.280060 0.023132
0.017334 0.176544 0.017334
0.033142 0.176544 0.017334
0.048950 0.176544 0.017334
0.064758 0.176544 0.017334
0.080566 0.176544 0.017334
0.096375 0.176544 0.017334
0.112152 0.176544 0.017334
0.127960 0.176544 0.017334
0.143768 0.176544 0.017334
0.159576 0.176544 0.017334
0.190918 0.180847 0.017578
0.276245 0.206482 0.018524
0.353912 0.219177 0.019318
0.422913 0.228516 0.020081
0.484528 0.234344 0.020721
0.533234 0.238068 0.021149
0.574097 0.241486 0.021484
0.610870 0.244965 0.021759
0.645233 0.247284 0.022003
0.678009 0.249512 0.022247
0.709320 0.251282 0.022461
0.739899 0.253387 0.022675
0.769836 0.255951 0.022858
0.798431 0.258911 0.023010
0.822571 0.262085 0.023132
0.838379 0.265137 0.023132
0.854187 0.268646 0.023132
0.869995 0.272247 0.023132
0.885803 0.276245 0.023132
0.901611 0.280670 0.023132
0.917419 0.285278 0.023132
0.933228 0.290314 0.023132
0.949036 0.296692 0.023132
0.964813 0.305084 0.023132
0.017334 0.192352 0.017334
0.033142 0.192352 0.017334
0.048950 0.192352 0.017334
0.064758 0.192352 0.017334
0.080566 0.192352 0.017334
0.096436 0.192383 0.019928
0.112335 0.192444 0.021973
0.128204 0.192474 0.024139
0.144104 0.192505 0.027069
0.160034 0.192566 0.031403
0.175873 0.192596 0.032349
0.227509 0.222107 0.017883
0.312531 0.248260 0.018768
0.391846 0.262268 0.019623
0.459320 0.271179 0.020386
0.517700 0.275848 0.020935
0.567963 0.277649 0.021393
0.606903 0.279877 0.021698
0.642731 0.282593 0.022003
0.676422 0.285278 0.022217
0.708527 0.287506 0.022461
0.739136 0.288849 0.022675
0.769196 0.290436 0.022858
0.798126 0.292175 0.023010
0.822571 0.294739 0.023132
0.838379 0.296997 0.023132
0.854187 0.299561 0.023132
0.869995 0.302338 0.023132
0.885803 0.305603 0.023132
0.901611 0.309326 0.023132
0.917419 0.313324 0.023132
0.933228 0.317810 0.023132
0.949036 0.323883 0.023132
0.964813 0.332275 0.023132
0.017609 0.227417 0.029968
0.033386 0.226868 0.030029
0.049194 0.225403 0.030975
0.064972 0.223602 0.032471
0.080811 0.220856 0.034302
0.096649 0.217407 0.036743
0.112488 0.214111 0.039307
0.128326 0.211975 0.041046
0.144165 0.210693 0.043335
0.160034 0.211517 0.046387
0.175903 0.214539 0.051208
0.191711 0.233856 0.051819
0.264130 0.262756 0.039124
0.350128 0.291840 0.020447
0.429169 0.305115 0.019958
0.493408 0.312531 0.020630
0.548309 0.316101 0.021149
0.596405 0.317322 0.021576
0.637726 0.318451 0.021912
0.674530 0.320251 0.022217
0.707703 0.323151 0.022430
0.739349 0.325226 0.022675
0.769775 0.326996 0.022858
0.798981 0.328033 0.023010
0.821320 0.329163 0.023132
0.838379 0.330658 0.023132
0.854187 0.332397 0.023132
0.869995 0.334351 0.023132
0.885803 0.336823 0.023132
0.901611 0.339783 0.023132
0.917419 0.343262 0.023132
0.933228 0.347382 0.023132
0.949036 0.353119 0.023132
0.964813 0.361511 0.023132
0.017975 0.268982 0.046814
0.033783 0.268341 0.046753
0.049591 0.268219 0.048370
0.065369 0.266907 0.049774
0.081146 0.264862 0.051544
0.096924 0.261993 0.053467
0.112732 0.258087 0.055359
0.128571 0.255188 0.057404
0.144409 0.253326 0.059143
0.160248 0.252716 0.061401
0.176086 0.253632 0.064209
0.191956 0.256592 0.068970
0.229889 0.274933 0.069885
0.300934 0.303070 0.058716
0.382172 0.328552 0.039612
0.457275 0.340881 0.020142
0.518921 0.347443 0.020752
0.571655 0.350250 0.021240
0.618530 0.351440 0.021637
0.660858 0.351929 0.022003
0.700348 0.352661 0.022339
0.733337 0.355072 0.022583
0.764984 0.358307 0.022797
0.795074 0.360321 0.022980
0.819489 0.361267 0.023102
0.838379 0.362152 0.023132
0.854187 0.363159 0.023132
0.869995 0.364716 0.023132
0.885803 0.366760 0.023132
0.901611 0.369110 0.023132
0.917419 0.372375 0.023132
0.933228 0.376068 0.023132
0.949036 0.381409 0.023132
0.964813 0.389496 0.023132
0.018250 0.306458 0.061005
0.034058 0.305908 0.060974
0.049866 0.306213 0.062347
0.065674 0.306519 0.064636
0.081451 0.304443 0.066040
0.097229 0.301575 0.067474
0.112976 0.298370 0.069336
0.128754 0.294464 0.070984
0.145935 0.291443 0.072052
0.166107 0.289917 0.073669
0.185638 0.289948 0.075806
0.204437 0.290833 0.078583
0.224213 0.294128 0.083099
0.265991 0.312073 0.084198
0.334534 0.338593 0.072937
0.413116 0.363678 0.056152
0.483459 0.375488 0.032410
0.542877 0.381042 0.020874
0.594116 0.383698 0.021332
0.640045 0.384613 0.021729
0.682648 0.385193 0.022095
0.722748 0.385254 0.022430
0.757172 0.387573 0.022705
0.789795 0.390076 0.022919
0.816437 0.393066 0.023041
0.838379 0.395081 0.023132
0.854187 0.395569 0.023132
0.869995 0.396484 0.023132
0.885803 0.398041 0.023132
0.901611 0.400085 0.023132
0.917419 0.402710 0.023132
0.933228 0.406219 0.023132
0.949036 0.410797 0.023132
0.964813 0.418671 0.023132
0.018524 0.342377 0.073547
0.034302 0.342010 0.073517
0.050110 0.342010 0.074280
0.065918 0.342316 0.076141
0.081726 0.342010 0.078308
0.097504 0.339752 0.079773
0.113831 0.336609 0.081146
0.139526 0.333221 0.082886
0.162872 0.329834 0.084717
0.183350 0.327484 0.085876
0.202789 0.325439 0.086670
0.222137 0.325989 0.088867
0.240356 0.326660 0.091339
0.260284 0.330170 0.095886
0.301788 0.347961 0.096588
0.368652 0.373657 0.085419
0.443390 0.397430 0.070343
0.509369 0.408844 0.050873
0.566406 0.413818 0.031647
0.615845 0.416321 0.021423
0.661072 0.417664 0.021790
0.703247 0.418365 0.022186
0.743103 0.418884 0.022491
0.779602 0.420197 0.022797
0.811554 0.422180 0.023010
0.837891 0.425293 0.023132
0.854187 0.428162 0.023132
0.869995 0.429382 0.023132
0.885803 0.430420 0.023132
0.901611 0.431854 0.023132
0.917419 0.434296 0.023132
0.933228 0.437347 0.023132
0.949036 0.441437 0.023132
0.964935 0.448761 0.032166
0.018768 0.377258 0.084686
0.034546 0.376892 0.084564
0.050354 0.376709 0.084930
0.066193 0.377258 0.086578
0.081970 0.377777 0.088898
0.100891 0.376587 0.090698
0.127594 0.374146 0.092133
0.153290 0.370941 0.093719
0.177704 0.367645 0.095490
0.199768 0.364594 0.097107
0.219635 0.362396 0.098175
0.238647 0.361298 0.099670
0.257751 0.361969 0.101746
0.275665 0.362396 0.103943
0.295227 0.365753 0.108337
0.337585 0.383179 0.107727
0.401733 0.407501 0.096924
0.472351 0.429504 0.082977
0.534210 0.440216 0.066528
0.589600 0.445099 0.049683
0.637756 0.447968 0.037231
0.682037 0.449951 0.026764
0.723663 0.451416 0.022247
0.762970 0.452301 0.022583
0.800171 0.453186 0.022858
0.831299 0.454926 0.023041
0.853821 0.456482 0.023132
0.869995 0.460419 0.023132
0.885803 0.463593 0.023132
0.901611 0.464661 0.024475
0.917450 0.466370 0.027496
0.933319 0.468964 0.032043
0.949219 0.472260 0.037109
0.965149 0.478607 0.047943
0.018982 0.411255 0.094788
0.034790 0.410858 0.094635
0.050598 0.410553 0.094574
0.066406 0.411041 0.095947
0.082855 0.411865 0.098114
0.112396 0.412598 0.100647
0.139130 0.410309 0.102020
0.165131 0.407166 0.103241
0.190186 0.403870 0.104950
0.213715 0.400330 0.106812
0.234680 0.397644 0.108124
0.254181 0.395782 0.109283
0.272980 0.395050 0.110748
0.291687 0.395447 0.112671
0.309479 0.395905 0.114960
0.329803 0.400116 0.119781
0.371887 0.417542 0.118591
0.434113 0.440460 0.108093
0.500397 0.460571 0.095276
0.559448 0.470795 0.080505
0.612823 0.475403 0.064789
0.660095 0.478943 0.054596
0.703705 0.481537 0.046387
0.744629 0.483490 0.039093
0.783081 0.485077 0.034302
0.819122 0.486053 0.029144
0.849396 0.487488 0.027069
0.870026 0.489197 0.027588
0.885925 0.491669 0.032043
0.901855 0.495728 0.041290
0.917725 0.498444 0.046906
0.933594 0.500488 0.050110
0.949463 0.503418 0.054474
0.965393 0.508972 0.063202
0.019257 0.445892 0.104767
0.035065 0.445587 0.104706
0.050903 0.449280 0.106781
0.070282 0.449677 0.107819
0.096832 0.450500 0.109619
0.125031 0.451111 0.111847
0.153564 0.450867 0.114166
0.180298 0.448181 0.115570
0.206116 0.444794 0.117004
0.230713 0.441223 0.118774
0.253296 0.437744 0.120392
0.273590 0.434998 0.121490
0.292633 0.433197 0.122620
0.311432 0.432892 0.124207
0.330048 0.433228 0.126190
0.347565 0.433594 0.128571
0.368164 0.438110 0.133606
0.409424 0.454865 0.132172
0.468201 0.475739 0.121765
0.529846 0.493439 0.109619
0.585663 0.502808 0.095978
0.637665 0.507172 0.080597
0.683777 0.510864 0.071686
0.726318 0.513916 0.065063
0.766205 0.516205 0.060120
0.803650 0.517853 0.055664
0.837860 0.519257 0.052429
0.867218 0.520660 0.050568
0.886169 0.522034 0.050262
0.902039 0.524658 0.054230
0.917908 0.528259 0.060791
0.933838 0.532166 0.067017
0.949707 0.535004 0.071289
0.965607 0.540039 0.079071
0.021271 0.481689 0.115448
0.039917 0.481689 0.115509
0.058624 0.481842 0.115692
0.080994 0.482910 0.116821
0.107147 0.483765 0.118561
0.135254 0.484680 0.120850
0.164703 0.485138 0.123535
0.192230 0.483215 0.125366
0.218445 0.480316 0.126831
0.243469 0.476990 0.128387
0.267181 0.473297 0.130127
0.288544 0.470032 0.131500
0.308014 0.467468 0.132355
0.326660 0.465912 0.133484
0.345673 0.466248 0.135345
0.364349 0.466797 0.137512
0.381470 0.467010 0.139709
0.402374 0.471893 0.145172
0.443237 0.488373 0.143707
0.498718 0.507477 0.134125
0.556793 0.523682 0.122620
0.609833 0.532593 0.109924
0.660706 0.536621 0.094727
0.706024 0.540588 0.086487
0.747650 0.544159 0.081146
0.786743 0.546906 0.077148
0.823517 0.548859 0.073669
0.858398 0.550964 0.072083
0.882507 0.552338 0.070557
0.902283 0.554230 0.071106
0.918121 0.556671 0.073395
0.933990 0.560150 0.078003
0.949921 0.565674 0.087555
0.965851 0.572052 0.097473
0.036499 0.514832 0.125519
0.054657 0.515015 0.125580
0.073273 0.515015 0.125549
0.094330 0.515289 0.126251
0.119476 0.515991 0.127838
0.147186 0.516785 0.130188
0.176483 0.517487 0.133026
0.205505 0.517365 0.135773
0.231567 0.514801 0.137115
0.256622 0.511688 0.138489
0.280670 0.508331 0.140045
0.303314 0.504822 0.141724
0.323578 0.501953 0.142822
0.342285 0.499725 0.143555
0.360931 0.498840 0.144897
0.379913 0.499451 0.146881
0.398163 0.499908 0.148987
0.415497 0.500458 0.151367
0.436615 0.505585 0.156982
0.476044 0.520935 0.155334
0.528839 0.538666 0.146393
0.583527 0.553558 0.135864
0.634216 0.562286 0.124298
0.683197 0.566223 0.109894
0.727692 0.570190 0.101562
0.768799 0.574066 0.096802
0.806976 0.576843 0.093414
0.843170 0.579651 0.091217
0.875824 0.581879 0.090332
0.901794 0.584290 0.090515
0.918335 0.586426 0.091187
0.934204 0.589600 0.094421
0.950073 0.593567 0.098816
0.966034 0.599945 0.109070
0.052399 0.547119 0.135712
0.070709 0.547211 0.135864
0.089020 0.547211 0.135925
0.109161 0.547302 0.136383
0.133881 0.547821 0.137939
0.160370 0.548492 0.139984
0.188873 0.549133 0.142639
0.218445 0.549744 0.145905
0.244812 0.548096 0.147614
0.270111 0.545563 0.149078
0.294189 0.542480 0.150452
0.317139 0.539185 0.151917
0.338562 0.536102 0.153503
0.357910 0.533569 0.154205
0.375580 0.531677 0.154297
0.394257 0.531464 0.155853
0.412964 0.532013 0.157898
0.431030 0.532532 0.160065
0.448517 0.533295 0.162537
0.470001 0.538910 0.168488
0.508820 0.553223 0.167328
0.558350 0.569427 0.159393
0.610565 0.583557 0.149719
0.659546 0.592529 0.139435
0.706421 0.596649 0.126495
0.750122 0.600769 0.118347
0.790314 0.604645 0.114014
0.827759 0.608154 0.111725
0.863312 0.611694 0.110870
0.894104 0.614594 0.111084
0.916901 0.617706 0.112427
0.934326 0.621490 0.115448
0.950409 0.625641 0.120453
0.966309 0.631287 0.128632
0.070984 0.579773 0.147217
0.089020 0.579803 0.147339
0.107117 0.579742 0.147339
0.126251 0.579529 0.147491
0.149750 0.579834 0.148712
0.175537 0.580231 0.150635
0.202667 0.580719 0.153015
0.231201 0.581329 0.155914
0.259644 0.581390 0.158997
0.284454 0.579132 0.160309
0.308411 0.576416 0.161499
0.331421 0.573517 0.162872
0.353088 0.570374 0.164093
0.372589 0.567535 0.164642
0.391235 0.565247 0.165283
0.409485 0.563782 0.166168
0.428131 0.563965 0.167908
0.446564 0.564575 0.169983
0.464478 0.565125 0.172150
0.481812 0.565857 0.174622
0.503357 0.571442 0.180634
0.540619 0.584656 0.179443
0.587341 0.599335 0.171997
0.637024 0.612610 0.163147
0.684357 0.621582 0.153870
0.729370 0.626007 0.142151
0.772217 0.630066 0.134064
0.811615 0.634277 0.130371
0.848358 0.638794 0.129639
0.882996 0.642639 0.129608
0.914490 0.646881 0.131500
0.934265 0.650391 0.134064
0.950623 0.655029 0.138733
0.966553 0.660461 0.145782
0.088989 0.610687 0.158325
0.106720 0.610504 0.158234
0.124664 0.610474 0.158325
0.143341 0.610260 0.158447
0.165405 0.610382 0.159393
0.190186 0.610687 0.161102
0.216217 0.611023 0.163177
0.243591 0.611511 0.165802
0.271912 0.612030 0.168976
0.297516 0.610779 0.170959
0.321594 0.608673 0.172363
0.344666 0.606110 0.173584
0.365723 0.603241 0.173920
0.386810 0.600250 0.175385
0.406036 0.597809 0.176331
0.424164 0.595764 0.176880
0.442261 0.594879 0.177887
0.461029 0.595490 0.179810
0.479187 0.596039 0.181854
0.496918 0.596588 0.184082
0.514191 0.597351 0.186432
0.535553 0.602783 0.192566
0.571747 0.615082 0.191254
0.616150 0.628571 0.184357
0.663544 0.641205 0.176239
0.708862 0.649536 0.167328
0.752136 0.654144 0.156799
0.794220 0.658203 0.148712
0.832886 0.663055 0.146118
0.868958 0.668213 0.146545
0.902618 0.672607 0.147675
0.928833 0.677338 0.150421
0.950714 0.682617 0.155701
0.966797 0.688232 0.162567
0.106476 0.640472 0.169220
0.124207 0.640411 0.169312
0.142029 0.640259 0.169312
0.160522 0.640106 0.169373
0.181427 0.640015 0.170166
0.204742 0.640167 0.171478
0.229950 0.640442 0.173340
0.256073 0.640717 0.175751
0.283173 0.641083 0.178528
0.310425 0.641144 0.181580
0.334320 0.639313 0.183014
0.356812 0.637024 0.183868
0.377991 0.634369 0.184143
0.399261 0.631592 0.185486
0.419250 0.628845 0.186676
0.437805 0.626709 0.187439
0.455566 0.624939 0.187836
0.473724 0.624664 0.189240
0.492249 0.625214 0.191101
0.510193 0.625763 0.193085
0.527832 0.626495 0.195251
0.545044 0.627258 0.197723
0.566467 0.632721 0.203918
0.601898 0.644379 0.202606
0.644684 0.657013 0.196045
0.690369 0.669067 0.188507
0.733551 0.677063 0.180420
0.775452 0.681885 0.171204
0.816528 0.686005 0.163483
0.854645 0.691620 0.161743
0.890137 0.696991 0.162964
0.923584 0.702789 0.166229
0.949402 0.708038 0.170563
0.966980 0.713745 0.176880
0.122681 0.669067 0.179810
0.140381 0.669067 0.179932
0.158112 0.669006 0.180023
0.176361 0.668762 0.179932
0.196411 0.668671 0.180511
0.219177 0.668793 0.181763
0.243225 0.668945 0.183563
0.268280 0.669281 0.185669
0.294281 0.669495 0.188110
0.320892 0.669922 0.191284
0.345642 0.668976 0.193268
0.367889 0.667236 0.193512
0.390076 0.664825 0.194611
0.411407 0.662292 0.195801
0.431732 0.659607 0.197021
0.450867 0.657166 0.197937
0.468964 0.655334 0.198486
0.486572 0.653931 0.199066
0.504730 0.654022 0.200592
0.523041 0.654572 0.202484
0.540924 0.655182 0.204498
0.558350 0.655823 0.206696
0.575958 0.657074 0.209412
0.597168 0.662323 0.215546
0.631927 0.673370 0.214172
0.673309 0.685303 0.208191
0.717651 0.697021 0.201080
0.759583 0.704773 0.193970
0.799835 0.709717 0.185883
0.840179 0.714264 0.178589
