fuji/NC.cube
#Created by: Adobe Photoshop Export Color Lookup Plugin
#Copyright: (C) Copyright 2026 汉图
TITLE "mint本征源文件-适配lut筛选.psd"
#LUT size
LUT_3D_SIZE 4
#data domain
DOMAIN_MIN 0.0 0.0 0.0
DOMAIN_MAX 1.0 1.0 1.0
#LUT data points
0.017334 0.018494 0.017334
0.350128 0.023438 0.019501
0.777191 0.031219 0.022949
0.964813 0.094635 0.023132
0.017334 0.192352 0.017334
0.227509 0.222107 0.017883
0.769196 0.290436 0.022858
0.964813 0.332275 0.023132
0.070984 0.579773 0.147217
0.331421 0.573517 0.162872
0.587341 0.599335 0.171997
0.966553 0.660461 0.145782
0.271576 0.906891 0.299866
0.483917 0.908813 0.310272
0.713989 0.909271 0.338806
0.940521 0.938019 0.371033
0.017334 0.018494 0.191193
0.340454 0.020660 0.206116
0.746918 0.030304 0.196411
0.964813 0.111511 0.196991
0.018188 0.219208 0.249756
0.306702 0.301300 0.280273
0.733734 0.322266 0.246796
0.965302 0.350189 0.230408
0.059021 0.606781 0.354156
0.348236 0.613251 0.365021
0.606567 0.622467 0.374207
0.967133 0.674438 0.360565
0.256348 0.911682 0.483795
0.464630 0.911896 0.485962
0.716156 0.913300 0.516968
0.939697 0.938782 0.549164
0.019562 0.048279 0.527344
0.322510 0.043243 0.572479
0.739960 0.103638 0.548553
0.966827 0.241577 0.562714
0.031982 0.280365 0.525635
0.323578 0.337585 0.565033
0.710815 0.382416 0.576813
0.967621 0.438843 0.571136
0.103790 0.597443 0.577026
0.346436 0.621429 0.589020
0.668213 0.688354 0.636627
0.968018 0.682373 0.598846
0.150299 0.906952 0.684784
0.365173 0.913147 0.684937
0.689270 0.927887 0.697571
0.941528 0.943970 0.739594
0.210724 0.232147 0.844086
0.417938 0.221558 0.861572
0.773987 0.183960 0.894501
0.968048 0.256714 0.864594
0.196075 0.412811 0.833984
0.413422 0.425476 0.852570
0.736481 0.380066 0.892578
0.968536 0.465942 0.874451
0.112854 0.604065 0.820038
0.312988 0.608337 0.824097
0.672577 0.685730 0.889526
0.969574 0.714233 0.906769
0.215485 0.906952 0.912140
0.411804 0.911652 0.914825
0.658478 0.928864 0.926361
0.963531 0.965485 0.961334
