fuji/Vivid.cube
#Created by: Adobe Photoshop Export Color Lookup Plugin
#Copyright: (C) Copyright 2026 小米
TITLE "风景8-鲜艳"
#LUT size
LUT_3D_SIZE 6
#data domain
DOMAIN_MIN 0.0 0.0 0.0
DOMAIN_MAX 1.0 1.0 1.0
#LUT data points
0.000000 0.000000 0.000000
0.190613 0.025879 0.003937
0.398407 0.005493 0.003937
0.644714 0.007843 0.006287
0.869781 0.011780 0.010986
0.956848 0.011780 0.011780
0.003937 0.203156 0.007843
0.145111 0.198456 0.005493
0.391357 0.172546 0.000000
0.641571 0.121582 0.000000
0.871368 0.053345 0.002350
0.992157 0.026672 0.000000
0.007843 0.389008 0.009399
0.000000 0.391357 0.001556
0.337250 0.378021 0.004700
0.624329 0.350586 0.000000
0.854889 0.318420 0.000000
0.990601 0.296478 0.000000
0.014130 0.604706 0.015686
0.000000 0.596069 0.002350
0.004700 0.603912 0.000000
0.549805 0.580383 0.003937
0.817230 0.552948 0.000793
0.984314 0.528625 0.000000
0.019623 0.786652 0.019623
0.003143 0.786652 0.000000
0.003143 0.789001 0.000000
0.113739 0.796051 0.002350
0.756866 0.768616 0.000793
0.949799 0.751373 0.000000
0.023529 0.937256 0.023529
0.000000 0.949005 0.000000
0.000000 0.939606 0.000000
0.000000 0.944305 0.000000
0.505829 0.930969 0.000000
0.901947 0.905884 0.000000
0.013336 0.001556 0.165497
0.153748 0.021179 0.146667
0.363922 0.005493 0.102753
0.618042 0.007843 0.087067
0.862732 0.011780 0.054138
0.951385 0.014893 0.050995
0.007080 0.170197 0.161591
0.165497 0.214905 0.185883
0.416473 0.183533 0.121582
0.661957 0.134918 0.076080
0.887054 0.075317 0.037659
0.967072 0.045502 0.025116
0.007080 0.376465 0.068268
0.002350 0.417236 0.075317
0.356079 0.395294 0.176483
0.640015 0.362335 0.083923
0.872925 0.333344 0.028259
0.967072 0.311371 0.018036
0.006287 0.585114 0.002350
0.001556 0.630585 0.001556
0.007050 0.620392 0.011780
0.567841 0.592163 0.139618
0.834503 0.563141 0.024323
0.963928 0.538818 0.006287
0.006287 0.781158 0.001556
0.000000 0.805481 0.000000
0.000793 0.821960 0.000000
0.131775 0.806274 0.000000
0.769409 0.777252 0.090210
0.944305 0.756866 0.014130
0.005493 0.939606 0.000793
0.000000 0.954498 0.000000
0.000000 0.959991 0.000000
0.000000 0.952942 0.000000
0.519165 0.937256 0.000793
0.902740 0.914520 0.051788
0.014099 0.016479 0.367065
0.073730 0.004700 0.363922
0.309784 0.000000 0.319214
0.561584 0.000000 0.254120
0.818817 0.000000 0.212555
0.971771 0.004700 0.189789
0.014893 0.149017 0.371765
0.017273 0.184326 0.400787
0.354523 0.164734 0.358429
0.612549 0.135712 0.275299
0.855682 0.072968 0.218048
0.973328 0.045502 0.187439
0.012543 0.331757 0.339600
0.050201 0.368622 0.370209
0.374908 0.413330 0.401550
0.658051 0.384308 0.309784
0.891754 0.352936 0.231354
0.977264 0.333313 0.189789
0.012543 0.563934 0.233704
0.000000 0.596100 0.244690
0.006287 0.637665 0.266663
0.588226 0.609406 0.398407
0.848602 0.581177 0.300385
0.971771 0.557648 0.221954
0.012543 0.776459 0.084717
0.000793 0.813324 0.072144
0.000000 0.838409 0.101959
0.165497 0.817230 0.246277
0.772552 0.788239 0.395294
0.954498 0.771759 0.305084
0.021973 0.920776 0.060394
0.018829 0.944305 0.058044
0.023529 0.965485 0.050201
0.033722 0.949799 0.097260
0.552124 0.938049 0.245453
0.906677 0.919220 0.392944
0.021973 0.014893 0.583527
0.010193 0.011780 0.585876
0.214905 0.014130 0.545105
0.487061 0.016479 0.503540
0.752136 0.011780 0.425110
0.953735 0.009399 0.378052
0.016479 0.123932 0.590607
0.000793 0.146667 0.633728
0.227448 0.134125 0.602356
0.539612 0.099609 0.543549
0.796844 0.047089 0.461182
0.977264 0.032959 0.393738
0.018036 0.309784 0.595306
0.002350 0.341187 0.626678
0.177216 0.383514 0.651001
0.587463 0.356079 0.592957
0.840759 0.335663 0.498047
0.983521 0.321564 0.421967
0.021973 0.509796 0.561584
0.008636 0.539612 0.576477
0.301941 0.577271 0.613342
0.606293 0.628235 0.638428
0.858795 0.595306 0.552185
0.990601 0.581970 0.465881
0.023529 0.738800 0.446289
0.000000 0.765472 0.458832
0.000000 0.798431 0.481598
0.195313 0.829803 0.528656
0.790588 0.799194 0.645508
0.967834 0.781158 0.567047
0.026672 0.912933 0.346680
0.006287 0.935699 0.347473
0.007843 0.953735 0.352173
0.010986 0.963928 0.403137
0.570160 0.944305 0.536469
0.920013 0.926270 0.657257
0.018829 0.019623 0.794495
0.015686 0.019623 0.791351
0.109009 0.023529 0.764709
0.385895 0.025879 0.731750
0.690979 0.020386 0.698029
0.903534 0.015686 0.632935
0.007080 0.090210 0.799194
0.000000 0.106689 0.822754
0.085480 0.079254 0.819611
0.421204 0.069031 0.785858
0.730957 0.018066 0.735687
0.937256 0.017273 0.667419
0.007843 0.288635 0.809387
0.001556 0.311371 0.843903
0.021179 0.355286 0.859589
0.448639 0.328613 0.818024
0.779602 0.294098 0.775665
0.952942 0.287842 0.698792
0.006287 0.487854 0.803131
0.000000 0.512939 0.817230
0.029785 0.554504 0.836060
0.438446 0.596100 0.853333
0.799194 0.567841 0.813324
0.963135 0.556091 0.734894
0.006287 0.686249 0.779602
0.002350 0.707428 0.785095
0.221954 0.740387 0.796844
0.562378 0.774109 0.824310
0.796844 0.813324 0.837646
0.958435 0.795288 0.785858
0.005493 0.877655 0.680756
0.000000 0.893341 0.690186
0.001556 0.910583 0.706635
0.189026 0.930969 0.736450
0.587402 0.954498 0.778809
0.925476 0.935699 0.837646
0.000000 0.000000 0.929413
0.000000 0.000000 0.926270
0.036865 0.000000 0.928619
0.305878 0.000000 0.916077
0.588989 0.000000 0.892548
0.847046 0.007843 0.870575
0.003937 0.049438 0.937256
0.000000 0.067474 0.930206
0.011749 0.054901 0.956848
0.316101 0.029022 0.944305
0.631348 0.012573 0.909821
0.880798 0.015686 0.879211
0.000000 0.276855 0.930969
0.000000 0.301178 0.958435
0.000000 0.327057 0.978027
0.317657 0.309021 0.963135
0.665863 0.280792 0.933350
0.918427 0.258026 0.901947
0.000000 0.469025 0.954498
0.000000 0.495697 0.961578
0.000000 0.534912 0.973328
0.225891 0.576477 0.978027
0.694885 0.549805 0.956879
0.942749 0.525513 0.923126
0.000000 0.671356 0.944305
0.000000 0.693329 0.946655
0.014099 0.721558 0.952148
0.389008 0.760773 0.963928
0.687042 0.798431 0.961578
0.940399 0.778809 0.942749
0.023529 0.835297 0.917633
0.023529 0.847839 0.921570
0.181946 0.868225 0.920776
0.570984 0.894897 0.929413
0.774109 0.919220 0.947449
0.929413 0.941162 0.949005
