fuji/Vivid.cube
#Created by: Adobe Photoshop Export Color Lookup Plugin
#Copyright: (C) Copyright 2026 小米
TITLE "风景8-鲜艳"
#LUT size
LUT_3D_SIZE 36
#data domain
DOMAIN_MIN 0.0 0.0 0.0
DOMAIN_MAX 1.0 1.0 1.0
#LUT data points
0.000000 0.000000 0.000000
0.039429 0.003571 0.001801
0.078857 0.007172 0.003571
0.099396 0.012207 0.003937
0.115509 0.017578 0.003937
0.138367 0.021851 0.003937
0.165253 0.025421 0.003937
0.190613 0.025879 0.003937
0.213898 0.022308 0.003937
0.238983 0.018707 0.003937
0.269470 0.015137 0.003937
0.299835 0.011536 0.003937
0.328522 0.007965 0.003937
0.357208 0.004364 0.003937
0.398407 0.005493 0.003937
0.441437 0.007294 0.003937
0.475861 0.006622 0.005157
0.506348 0.004822 0.006958
0.539490 0.004822 0.006958
0.575348 0.006622 0.005157
0.610657 0.007843 0.004486
0.644714 0.007843 0.006287
0.679230 0.007843 0.007843
0.716858 0.007843 0.007843
0.754486 0.007843 0.007843
0.783752 0.009521 0.007843
0.812439 0.011322 0.007843
0.841125 0.011780 0.009186
0.869781 0.011780 0.010986
0.895477 0.011780 0.012787
0.918762 0.011780 0.014557
0.936707 0.011780 0.015015
0.945648 0.011780 0.013214
0.953278 0.011780 0.011780
0.955078 0.011780 0.011780
0.956848 0.011780 0.011780
0.000000 0.043030 0.000000
0.023285 0.041229 0.001801
0.062744 0.044800 0.003571
0.090546 0.045471 0.005371
0.108337 0.049866 0.005707
0.132324 0.048523 0.004608
0.159882 0.048737 0.003937
0.186798 0.049957 0.003937
0.212097 0.047394 0.003937
0.236755 0.044250 0.003479
0.265869 0.042023 0.002136
0.296600 0.038300 0.002136
0.330322 0.033051 0.002136
0.358978 0.029449 0.002136
0.398651 0.021179 0.002136
0.441437 0.021606 0.002136
0.477112 0.011078 0.002136
0.508118 0.004822 0.003357
0.539490 0.006622 0.004272
0.573547 0.010193 0.003357
0.609985 0.009186 0.002136
0.646515 0.004272 0.002686
0.681000 0.004272 0.004272
0.718658 0.004272 0.004272
0.756287 0.004272 0.004272
0.787231 0.004272 0.004272
0.816010 0.005951 0.004272
0.844696 0.006378 0.004272
0.873383 0.006378 0.005615
0.903107 0.006378 0.006378
0.929535 0.006378 0.007385
0.949463 0.006378 0.008514
0.961792 0.006378 0.007843
0.969421 0.006378 0.006378
0.971191 0.006378 0.006378
0.972992 0.006378 0.006378
0.000000 0.086029 0.000000
0.023285 0.084229 0.001801
0.046600 0.082458 0.003571
0.074402 0.083130 0.005371
0.099518 0.083130 0.007172
0.125153 0.080780 0.006378
0.153839 0.075378 0.004608
0.181427 0.073273 0.003937
0.208313 0.071472 0.003937
0.234955 0.069336 0.003479
0.263641 0.067566 0.001678
0.293030 0.065186 0.000336
0.327057 0.059814 0.000336
0.360779 0.054565 0.000336
0.400452 0.046265 0.000336
0.441650 0.037292 0.000336
0.477112 0.025421 0.000336
0.509369 0.009277 0.000336
0.541290 0.006622 0.000671
0.573547 0.011993 0.000671
0.608185 0.012756 0.000336
0.645844 0.005585 0.000336
0.682800 0.000671 0.000671
0.720428 0.000671 0.000671
0.758087 0.000671 0.000671
0.789032 0.000671 0.000671
0.819489 0.000671 0.000671
0.848297 0.001007 0.000671
0.876953 0.001007 0.000671
0.906677 0.001007 0.001007
0.937134 0.001007 0.001007
0.960205 0.001007 0.001343
0.974548 0.001007 0.001343
0.985535 0.001007 0.001007
0.987335 0.001007 0.001007
0.989136 0.001007 0.001007
0.000000 0.110138 0.001465
0.017456 0.108368 0.003235
0.040771 0.106567 0.005035
0.065552 0.106232 0.006836
0.090637 0.106232 0.008636
0.119110 0.107330 0.009308
0.148102 0.103302 0.007843
0.177612 0.098724 0.006042
0.205841 0.096252 0.005371
0.234497 0.093567 0.004486
0.266205 0.089752 0.001678
0.295380 0.087616 0.000122
0.330780 0.080902 0.001465
0.364807 0.075531 0.001465
0.399323 0.069916 0.000000
0.440552 0.060974 0.000000
0.474396 0.050751 0.000000
0.506439 0.035309 0.000000
0.541382 0.025452 0.000000
0.575348 0.028015 0.000000
0.608765 0.026672 0.000000
0.645508 0.015015 0.000000
0.682465 0.007385 0.000000
0.716400 0.000000 0.000000
0.754028 0.000000 0.000000
0.786438 0.004364 0.000000
0.816925 0.004364 0.000000
0.848724 0.004364 0.000000
0.877625 0.004364 0.000000
0.906342 0.001343 0.000000
0.936371 0.000000 0.000000
0.961456 0.000000 0.000000
0.976593 0.000000 0.000000
0.988586 0.000000 0.000000
0.990356 0.000000 0.000000
0.992157 0.000000 0.000000
0.000000 0.129852 0.003235
0.016144 0.128082 0.005035
0.033600 0.126282 0.006836
0.058380 0.125946 0.008636
0.083466 0.125946 0.010406
0.111938 0.127075 0.011078
0.142395 0.128845 0.011078
0.172211 0.125610 0.009644
0.202698 0.122009 0.007843
0.232727 0.118652 0.006287
0.266754 0.113281 0.002686
0.298950 0.109131 0.000122
0.334808 0.101959 0.001892
0.370209 0.095245 0.003235
0.404236 0.089874 0.001678
0.438751 0.084259 0.000000
0.472626 0.074066 0.000000
0.503082 0.063293 0.000000
0.537811 0.054108 0.000000
0.575439 0.050537 0.000000
0.610535 0.046387 0.000000
0.646393 0.030243 0.000000
0.682465 0.018158 0.000000
0.714722 0.007385 0.000000
0.748657 0.000000 0.000000
0.781311 0.005035 0.000000
0.813324 0.009735 0.000000
0.845154 0.009735 0.000000
0.877411 0.009735 0.000000
0.906342 0.006714 0.000000
0.935028 0.001343 0.000000
0.959656 0.000000 0.000000
0.975800 0.000000 0.000000
0.988586 0.000000 0.000000
0.990356 0.000000 0.000000
0.992157 0.000000 0.000000
0.001129 0.152924 0.005035
0.006042 0.152252 0.003479
0.022186 0.150482 0.005280
0.041138 0.150146 0.005951
0.066223 0.150146 0.007721
0.102509 0.149017 0.009521
0.132996 0.150818 0.009521
0.165070 0.151031 0.009521
0.196198 0.147797 0.008057
0.228455 0.143311 0.006287
0.263855 0.137268 0.003357
0.297943 0.132111 0.000000
0.332794 0.127960 0.000793
0.368622 0.120789 0.002563
0.401794 0.116302 0.002350
0.435852 0.110931 0.000549
0.471954 0.104095 0.000000
0.502411 0.093323 0.000000
0.535583 0.083466 0.000000
0.572998 0.079224 0.000000
0.610107 0.072815 0.000000
0.645935 0.057800 0.000000
0.681580 0.042358 0.000000
0.714722 0.031586 0.000000
0.746979 0.020844 0.000000
0.778168 0.020721 0.000000
0.810425 0.026093 0.000000
0.842682 0.016235 0.001129
0.874939 0.016235 0.001129
0.904205 0.015228 0.000122
0.932770 0.010071 0.000000
0.957428 0.008057 0.000000
0.973999 0.008972 0.000000
0.987793 0.007599 0.000000
0.990356 0.004486 0.000000
0.992157 0.004486 0.000000
0.002899 0.178040 0.006836
0.001129 0.178040 0.003235
0.006042 0.177368 0.001678
0.023651 0.177032 0.002014
0.042938 0.177032 0.002350
0.079224 0.175903 0.004150
0.122223 0.174103 0.005951
0.154297 0.174347 0.005951
0.188354 0.172546 0.005951
0.221283 0.168396 0.004486
0.258942 0.161224 0.002686
0.294373 0.155396 0.000000
0.328400 0.153595 0.000000
0.363251 0.149445 0.000793
0.395966 0.145416 0.001007
0.428680 0.141388 0.000549
0.465240 0.134766 0.000000
0.502411 0.127380 0.000000
0.535583 0.117523 0.000000
0.571411 0.108551 0.000000
0.608307 0.101501 0.000000
0.644165 0.088959 0.000000
0.679779 0.074615 0.000000
0.713837 0.063843 0.000000
0.746979 0.053101 0.000000
0.777588 0.050751 0.000000
0.808624 0.051208 0.000000
0.840881 0.039093 0.001343
0.873138 0.023407 0.002899
0.902435 0.022400 0.001892
0.929291 0.020599 0.000122
0.953827 0.018829 0.000000
0.971771 0.022400 0.000000
0.985992 0.021942 0.000000
0.989594 0.014771 0.000000
0.992157 0.011658 0.000000
0.003937 0.203156 0.007843
0.002899 0.202362 0.004272
0.001129 0.202362 0.000671
0.007507 0.202362 0.000000
0.025421 0.202362 0.000000
0.052765 0.202026 0.001129
0.095764 0.200226 0.002899
0.145111 0.198456 0.005493
0.179169 0.196655 0.005493
0.214111 0.194397 0.004150
0.251740 0.187927 0.001678
0.289215 0.181061 0.000000
0.323242 0.179291 0.000000
0.357300 0.177490 0.000000
0.391357 0.172546 0.000000
0.423615 0.168976 0.000000
0.459625 0.164490 0.000793
0.497253 0.157318 0.000793
0.534790 0.150818 0.000000
0.570618 0.141876 0.000000
0.605957 0.133453 0.000000
0.641571 0.121582 0.000000
0.677429 0.109924 0.000000
0.712036 0.100861 0.000000
0.746094 0.090118 0.000000
0.777588 0.085388 0.000000
0.808075 0.083588 0.000000
0.839111 0.071289 0.000549
0.871368 0.053345 0.002350
0.901398 0.043701 0.002899
0.928284 0.041931 0.001129
0.951813 0.037445 0.000000
0.969757 0.040222 0.000000
0.984985 0.041473 0.000000
0.988586 0.033844 0.000000
0.992157 0.026672 0.000000
0.003937 0.228241 0.007843
0.003937 0.226440 0.004272
0.002899 0.225677 0.000671
0.002563 0.225677 0.000000
0.009308 0.225677 0.000000
0.033936 0.225677 0.001129
0.065308 0.225342 0.002899
0.114655 0.223541 0.005493
0.171997 0.221741 0.009064
0.206940 0.219513 0.007721
0.244568 0.215912 0.002350
0.282043 0.209747 0.000000
0.316101 0.207947 0.000000
0.350128 0.206177 0.000000
0.385773 0.199677 0.000000
0.420044 0.194061 0.000000
0.456024 0.190491 0.001221
0.493683 0.186005 0.002563
0.531311 0.179718 0.001678
0.568848 0.174133 0.000000
0.604156 0.165710 0.000000
0.638214 0.158539 0.000000
0.673828 0.147583 0.000000
0.709686 0.142181 0.000000
0.744293 0.133118 0.000000
0.776703 0.125732 0.000000
0.808075 0.121246 0.000000
0.838531 0.110046 0.000000
0.869568 0.094574 0.000549
0.899841 0.084717 0.001343
0.928284 0.081360 0.001129
0.951813 0.076874 0.000000
0.969757 0.067902 0.000000
0.984985 0.068359 0.000000
0.988586 0.059387 0.000000
0.992157 0.051758 0.000000
0.003937 0.253784 0.007843
0.003479 0.252441 0.004272
0.003479 0.250641 0.000671
0.003479 0.250305 0.000000
0.003479 0.250305 0.000000
0.014221 0.250305 0.000671
0.042908 0.250305 0.002472
0.079681 0.249512 0.004608
0.137054 0.247742 0.008179
0.199341 0.245483 0.010864
0.236969 0.241913 0.005493
0.274628 0.238312 0.000336
0.309357 0.236176 0.000000
0.343414 0.234406 0.000000
0.379944 0.229248 0.000000
0.415771 0.222076 0.000000
0.452911 0.216461 0.000793
0.490540 0.212891 0.002563
0.527740 0.208862 0.003479
0.565369 0.203461 0.001678
0.602356 0.197968 0.000000
0.636414 0.190796 0.000000
0.670471 0.184326 0.000214
0.706085 0.179382 0.000458
0.741943 0.174011 0.000458
0.774017 0.167389 0.000458
0.806274 0.160217 0.000458
0.838531 0.149475 0.000458
0.869019 0.135132 0.000458
0.898041 0.125946 0.000458
0.926727 0.122345 0.000458
0.951813 0.117188 0.000458
0.969757 0.108246 0.000458
0.984985 0.100281 0.000122
0.988586 0.091644 0.000000
0.992157 0.082672 0.000000
0.003937 0.280670 0.007843
0.002136 0.280670 0.004272
0.001678 0.279327 0.000671
0.001678 0.278992 0.000000
0.001678 0.278992 0.000000
0.001678 0.278992 0.000000
0.012421 0.278992 0.000671
0.045837 0.278198 0.002472
0.088654 0.276398 0.004608
0.150940 0.274170 0.007294
0.227997 0.270569 0.007294
0.265686 0.266998 0.002136
0.303314 0.263397 0.000336
0.338043 0.261292 0.000000
0.376801 0.259491 0.000000
0.414001 0.254333 0.000000
0.451111 0.247162 0.000000
0.488739 0.241547 0.000793
0.525482 0.237976 0.002563
0.561768 0.233948 0.003479
0.598907 0.228546 0.001678
0.634644 0.223083 0.000000
0.668671 0.216583 0.000214
0.702728 0.214783 0.002014
0.738373 0.209839 0.002228
0.769196 0.204468 0.002228
0.800903 0.197845 0.002228
0.835846 0.190704 0.002228
0.869019 0.179932 0.002228
0.897491 0.169617 0.002228
0.924927 0.163574 0.002228
0.950256 0.158630 0.002228
0.969757 0.151245 0.002228
0.984985 0.143280 0.001892
0.988586 0.139709 0.000122
0.992157 0.131073 0.000000
0.004028 0.307465 0.007843
0.002136 0.307587 0.004272
0.000336 0.307587 0.000671
0.000000 0.307587 0.000000
0.000000 0.307587 0.000000
0.000000 0.307587 0.000000
0.000000 0.307587 0.000000
0.014893 0.306915 0.000671
0.054321 0.305115 0.002472
0.101013 0.302979 0.004028
0.178101 0.299408 0.004028
0.256378 0.295807 0.004028
0.294006 0.292236 0.002228
0.331635 0.288635 0.000458
0.371307 0.286499 0.000000
0.410736 0.284729 0.000000
0.448975 0.279327 0.000000
0.486603 0.272186 0.000000
0.523682 0.266907 0.000793
0.559540 0.263336 0.002563
0.595428 0.259186 0.003357
0.631256 0.253784 0.001556
0.666779 0.248657 0.000122
0.700836 0.246857 0.001892
0.734894 0.245056 0.003693
0.765717 0.240021 0.003815
0.796204 0.234650 0.003815
0.830475 0.228149 0.003815
0.866302 0.220978 0.003815
0.897156 0.213898 0.003815
0.924042 0.206726 0.003815
0.948669 0.199677 0.003937
0.968384 0.192505 0.003937
0.984985 0.186249 0.003571
0.988586 0.182648 0.001801
0.992157 0.179077 0.000000
0.005829 0.332550 0.007843
0.002228 0.334351 0.004272
0.000336 0.334473 0.000671
0.000000 0.334473 0.000000
0.000000 0.334473 0.000000
0.000000 0.334473 0.000000
0.000000 0.334473 0.000000
0.000793 0.334473 0.000000
0.016693 0.333801 0.000671
0.057007 0.332001 0.002899
0.106384 0.329865 0.005829
0.184692 0.326294 0.005829
0.279663 0.322693 0.005829
0.317322 0.319122 0.004028
0.362793 0.315521 0.000671
0.403564 0.313385 0.000000
0.441803 0.309143 0.000000
0.479431 0.302643 0.000000
0.518860 0.298157 0.000000
0.557739 0.295593 0.000793
0.593628 0.291443 0.002014
0.629486 0.286072 0.001556
0.664886 0.280670 0.000000
0.697235 0.275513 0.000122
0.731293 0.273743 0.001892
0.763702 0.270264 0.002014
0.794403 0.265106 0.002014
0.826202 0.261078 0.002014
0.860931 0.255035 0.002014
0.891785 0.248871 0.002014
0.918671 0.242584 0.002014
0.945557 0.236084 0.002686
0.970184 0.230164 0.003937
0.986542 0.224335 0.003571
0.988586 0.223877 0.001801
0.992157 0.220306 0.000000
0.007629 0.357635 0.007843
0.004028 0.359436 0.004272
0.000458 0.361237 0.000671
0.000000 0.361359 0.000000
0.000000 0.361359 0.000000
0.000000 0.361359 0.000000
0.000000 0.361359 0.000000
0.000793 0.361359 0.000000
0.002563 0.361359 0.000000
0.019379 0.360687 0.001129
0.062408 0.358887 0.004700
0.112976 0.356750 0.007629
0.207977 0.353180 0.007629
0.302979 0.349579 0.007629
0.348450 0.346008 0.004272
0.395050 0.342407 0.000671
0.434631 0.337799 0.000000
0.472260 0.332428 0.000000
0.511688 0.328644 0.000000
0.552917 0.326843 0.000000
0.591827 0.323700 0.000214
0.627686 0.318329 0.000214
0.663086 0.312927 0.000000
0.695343 0.307556 0.000000
0.727722 0.302399 0.000122
0.760132 0.298950 0.000214
0.792389 0.295349 0.000214
0.824432 0.291534 0.000214
0.856689 0.287964 0.000214
0.886383 0.282898 0.000214
0.913269 0.277527 0.000214
0.940155 0.271942 0.000885
0.967041 0.266571 0.002686
0.988342 0.261963 0.003571
0.990143 0.261963 0.001801
0.992157 0.261505 0.000000
0.007843 0.389008 0.009399
0.004272 0.389252 0.005829
0.000671 0.391022 0.002228
0.000000 0.391357 0.000122
0.000000 0.391357 0.000000
0.000000 0.391357 0.001129
0.000000 0.391357 0.001556
0.000000 0.391357 0.001556
0.001007 0.391357 0.001556
0.005951 0.390930 0.001129
0.031036 0.389130 0.001343
0.075897 0.387451 0.004822
0.151978 0.386780 0.006287
0.246948 0.383179 0.006287
0.337250 0.378021 0.004700
0.383850 0.374451 0.001129
0.426788 0.370850 0.000000
0.465118 0.365814 0.000000
0.505432 0.360443 0.000000
0.547333 0.357300 0.000000
0.587463 0.354950 0.000000
0.624329 0.350586 0.000000
0.659943 0.345215 0.000000
0.693542 0.339813 0.000000
0.725800 0.334442 0.000000
0.756531 0.330750 0.000000
0.788788 0.327179 0.000000
0.822418 0.322235 0.000000
0.854889 0.318420 0.000000
0.883148 0.314850 0.000000
0.909485 0.310028 0.000000
0.936371 0.306000 0.000000
0.963226 0.302399 0.000885
0.985779 0.297699 0.002350
0.988800 0.296478 0.001801
0.990601 0.296478 0.000000
0.007843 0.421265 0.011200
0.004272 0.421265 0.007629
0.000671 0.421509 0.004028
0.000000 0.421844 0.001892
0.000000 0.421844 0.000122
0.000000 0.421844 0.001129
0.000000 0.421844 0.002899
0.000000 0.421844 0.003357
0.000000 0.421844 0.003357
0.004150 0.421387 0.002899
0.018494 0.419586 0.001129
0.045441 0.417908 0.001221
0.117126 0.417908 0.003021
0.193207 0.417236 0.004486
0.283478 0.412079 0.002899
0.373108 0.406708 0.001129
0.416046 0.403107 0.000000
0.457275 0.399536 0.000000
0.498260 0.394501 0.000000
0.541290 0.389130 0.000000
0.582092 0.385406 0.000000
0.619720 0.381836 0.000000
0.656372 0.377472 0.000000
0.690399 0.372101 0.000000
0.724030 0.366699 0.000000
0.754639 0.363007 0.000000
0.785217 0.359436 0.000000
0.818817 0.354492 0.000000
0.852875 0.349121 0.000000
0.881348 0.345306 0.000000
0.906433 0.341736 0.000000
0.932770 0.338257 0.000000
0.959656 0.336456 0.000000
0.982178 0.333527 0.000549
0.985779 0.331757 0.000549
0.988800 0.330505 0.000000
0.009064 0.452332 0.013000
0.004272 0.451111 0.006958
0.000671 0.451111 0.003357
0.000000 0.451111 0.002472
0.000000 0.451111 0.000671
0.000000 0.451111 0.000000
0.000000 0.451111 0.001678
0.000000 0.451111 0.002686
0.000000 0.451111 0.002686
0.000458 0.451538 0.003143
0.009277 0.451324 0.002899
0.025452 0.449524 0.001129
0.079224 0.448425 0.000671
0.150909 0.448425 0.002472
0.234589 0.443695 0.002350
0.324188 0.438324 0.000549
0.405273 0.434174 0.001221
0.446503 0.430603 0.001221
0.489502 0.428802 0.000336
0.532867 0.424438 0.000000
0.573669 0.418488 0.000000
0.610657 0.413574 0.000000
0.648499 0.409760 0.000000
0.685577 0.404388 0.000000
0.719635 0.399017 0.000000
0.751617 0.395294 0.000000
0.782074 0.391724 0.000000
0.813995 0.388031 0.000000
0.848053 0.382660 0.000000
0.878113 0.379272 0.000000
0.903412 0.375916 0.000000
0.928497 0.373688 0.000000
0.954834 0.372437 0.000000
0.978027 0.370667 0.000000
0.983429 0.368866 0.000000
0.987000 0.367065 0.000000
0.010864 0.482819 0.014801
0.005493 0.481018 0.007629
0.000671 0.479767 0.001556
0.000000 0.479767 0.000885
0.000000 0.479767 0.000671
0.000000 0.479767 0.000000
0.000000 0.479767 0.000000
0.000000 0.479767 0.000885
0.000000 0.479767 0.000885
0.000458 0.480225 0.001343
0.002228 0.482025 0.003143
0.012909 0.481781 0.002899
0.055908 0.480011 0.001129
0.109680 0.478882 0.000671
0.192352 0.474182 0.000885
0.277588 0.468811 0.000549
0.358673 0.464661 0.001221
0.435760 0.461060 0.003021
0.478760 0.459290 0.002136
0.523560 0.459290 0.000336
0.564728 0.454346 0.000000
0.600555 0.447174 0.000000
0.637756 0.442017 0.000000
0.677185 0.436646 0.000000
0.714264 0.431274 0.000000
0.746674 0.427551 0.000000
0.778503 0.423981 0.000000
0.810303 0.420410 0.000000
0.842682 0.416687 0.000000
0.872742 0.413330 0.000000
0.899597 0.411530 0.000000
0.924927 0.409515 0.000000
0.950012 0.409515 0.000000
0.972656 0.408295 0.000000
0.979828 0.406494 0.000000
0.985199 0.404724 0.000000
0.011780 0.513275 0.015686
0.006378 0.510590 0.009399
0.001007 0.508789 0.002258
0.000000 0.507568 0.000000
0.000000 0.507568 0.000000
0.000000 0.509338 0.000885
0.000000 0.509338 0.000885
0.000000 0.507782 0.000122
0.000000 0.507568 0.000000
0.000000 0.507568 0.000000
0.001343 0.508911 0.001343
0.003143 0.510925 0.003021
0.028137 0.512268 0.002014
0.071167 0.510468 0.000214
0.142181 0.507324 0.000000
0.226410 0.501953 0.000000
0.310272 0.497803 0.000336
0.387360 0.494232 0.002136
0.464417 0.490631 0.003937
0.509216 0.490631 0.002136
0.554077 0.488403 0.000336
0.591614 0.481232 0.000000
0.628113 0.474731 0.000000
0.668213 0.470703 0.000000
0.707642 0.465332 0.000000
0.741302 0.460724 0.000000
0.773560 0.457153 0.000000
0.805817 0.454437 0.000885
0.838074 0.450867 0.000885
0.867340 0.448273 0.000000
0.894226 0.446503 0.000000
0.920441 0.444031 0.000671
0.945526 0.443573 0.000885
0.968292 0.442566 0.000549
0.977142 0.439667 0.000000
0.984314 0.437866 0.000000
0.011780 0.543732 0.015686
0.006378 0.540161 0.010315
0.001007 0.537476 0.004028
0.000000 0.535675 0.001221
0.000000 0.534454 0.000000
0.000000 0.536682 0.001129
0.000000 0.539825 0.002686
0.000000 0.538239 0.001892
0.000000 0.534668 0.000122
0.000000 0.534454 0.000000
0.000000 0.534454 0.000000
0.001343 0.536011 0.001221
0.003143 0.541382 0.001221
0.028137 0.542725 0.000214
0.093109 0.540955 0.000000
0.167267 0.537811 0.000000
0.252838 0.533661 0.000000
0.337158 0.530060 0.000336
0.414246 0.526489 0.002136
0.491302 0.522888 0.003937
0.536163 0.520660 0.002136
0.580963 0.513489 0.000336
0.619171 0.506989 0.000000
0.660370 0.505188 0.000000
0.700500 0.501160 0.000000
0.734924 0.495789 0.000000
0.768188 0.491180 0.000000
0.800446 0.488953 0.001343
0.832703 0.486725 0.002686
0.861969 0.484131 0.001678
0.888855 0.482330 0.000000
0.915070 0.479889 0.000671
0.940155 0.476288 0.002472
0.962921 0.474823 0.002350
0.975464 0.469452 0.000549
0.984314 0.466553 0.000000
0.012329 0.574249 0.015686
0.006958 0.571777 0.010315
0.001587 0.568207 0.004944
0.000000 0.566071 0.002472
0.000000 0.564270 0.000671
0.000000 0.563599 0.000549
0.000000 0.567169 0.002350
0.000000 0.568756 0.003693
0.000000 0.565155 0.001892
0.000000 0.562927 0.000122
0.000000 0.563049 0.000000
0.000000 0.563141 0.000000
0.001343 0.567627 0.000000
0.003143 0.572998 0.000000
0.042755 0.573242 0.000000
0.110870 0.571442 0.000000
0.190826 0.568970 0.000549
0.276855 0.565399 0.000549
0.365692 0.561249 0.000336
0.442749 0.557678 0.002136
0.519348 0.553528 0.003937
0.564148 0.546356 0.002136
0.609192 0.539856 0.000336
0.651428 0.538055 0.000000
0.692627 0.536255 0.000000
0.727173 0.531097 0.000000
0.761230 0.525726 0.000000
0.793945 0.522491 0.000793
0.826202 0.520691 0.002563
0.857147 0.518890 0.003479
0.884033 0.517090 0.001678
0.910797 0.514648 0.000122
0.935913 0.511047 0.001892
0.958984 0.507141 0.003357
0.971771 0.501740 0.001801
0.984314 0.496368 0.000000
0.014130 0.604706 0.015686
0.008728 0.604706 0.010315
0.003357 0.602264 0.004944
0.000885 0.600128 0.002472
0.000000 0.598328 0.000671
0.000000 0.595428 0.000000
0.000000 0.594055 0.000549
0.000000 0.596069 0.002350
0.000000 0.595642 0.003693
0.000000 0.593384 0.001892
0.000000 0.595184 0.000122
0.000000 0.595428 0.000000
0.000000 0.597198 0.000000
0.001343 0.601685 0.000000
0.004700 0.603912 0.000000
0.044556 0.603699 0.000000
0.123840 0.601898 0.001221
0.208740 0.599457 0.002350
0.301941 0.594971 0.001465
0.397949 0.589935 0.000336
0.474548 0.585785 0.002136
0.549805 0.580383 0.003937
0.594849 0.573914 0.002136
0.641449 0.572113 0.000336
0.683685 0.570313 0.000000
0.718201 0.565155 0.000000
0.752258 0.559784 0.000000
0.784973 0.555756 0.000000
0.817230 0.552948 0.000793
0.849548 0.551147 0.002563
0.880463 0.549377 0.003479
0.907349 0.546906 0.001678
0.934113 0.543304 0.000122
0.957214 0.539398 0.001556
0.971558 0.533997 0.001556
0.984314 0.528625 0.000000
0.015686 0.634949 0.015686
0.010071 0.634949 0.010071
0.004700 0.634949 0.004700
0.002472 0.633728 0.002472
0.000671 0.631927 0.000671
0.000000 0.629028 0.000000
0.000000 0.625427 0.000000
0.000000 0.623871 0.000549
0.000000 0.623871 0.002350
0.000000 0.623871 0.003479
0.000000 0.625671 0.001678
0.000122 0.627228 0.000000
0.000214 0.628784 0.000000
0.000214 0.630585 0.000000
0.002899 0.632141 0.000000
0.006500 0.633942 0.000000
0.054810 0.633942 0.001007
0.139069 0.632141 0.002808
0.232483 0.628571 0.003235
0.332855 0.623199 0.001465
0.429718 0.618256 0.000336
0.505005 0.612885 0.002136
0.579834 0.607727 0.003693
0.626434 0.605927 0.001892
0.673035 0.604156 0.000122
0.709259 0.598999 0.000214
0.743317 0.593597 0.000214
0.776459 0.589569 0.000000
0.808716 0.585999 0.000000
0.840790 0.583405 0.000793
0.873047 0.581635 0.002563
0.903534 0.578949 0.003235
0.930420 0.575348 0.001465
0.955627 0.571655 0.000000
0.969971 0.566284 0.000000
0.984314 0.560883 0.000000
0.015686 0.663635 0.015686
0.008514 0.663635 0.008514
0.002930 0.663635 0.002930
0.001892 0.663635 0.001892
0.000671 0.662415 0.000671
0.000000 0.659485 0.000000
0.000000 0.655914 0.000000
0.000000 0.655457 0.000000
0.000000 0.657928 0.000549
0.000000 0.657471 0.001892
0.000000 0.656128 0.001678
0.000122 0.657684 0.000000
0.001892 0.655914 0.000000
0.002014 0.657471 0.000000
0.002014 0.657684 0.000000
0.004700 0.659027 0.000000
0.004608 0.662079 0.000000
0.051239 0.662628 0.001007
0.148010 0.659027 0.002808
0.253998 0.653656 0.003235
0.357269 0.649414 0.001465
0.460205 0.646942 0.000336
0.535034 0.641785 0.001892
0.606720 0.638214 0.001892
0.653320 0.636414 0.000122
0.698273 0.631256 0.001678
0.734344 0.625885 0.002014
0.769745 0.621826 0.000671
0.803345 0.618256 0.000000
0.834625 0.615662 0.000000
0.865875 0.613892 0.000793
0.896820 0.610748 0.001892
0.925049 0.605804 0.001465
0.950592 0.602234 0.000000
0.969971 0.598541 0.000000
0.984314 0.593170 0.000000
0.015686 0.692322 0.015686
0.008514 0.692322 0.008514
0.001343 0.692322 0.001343
0.000122 0.692322 0.000122
0.000122 0.692322 0.000122
0.000000 0.689972 0.000000
0.000000 0.686371 0.000000
0.000000 0.685913 0.000000
0.000000 0.689514 0.000000
0.000000 0.691528 0.000122
0.000000 0.689728 0.000122
0.000122 0.688171 0.000000
0.001892 0.686371 0.000000
0.003693 0.684570 0.000000
0.003815 0.684570 0.000000
0.003815 0.684570 0.000000
0.002808 0.687164 0.000000
