fuji/Vivid.cube
#Created by: Adobe Photoshop Export Color Lookup Plugin
#Copyright: (C) Copyright 2026 小米
TITLE "风景8-鲜艳"
#LUT size
LUT_3D_SIZE 8
#data domain
DOMAIN_MIN 0.0 0.0 0.0
DOMAIN_MAX 1.0 1.0 1.0
#LUT data points
0.000000 0.000000 0.000000
0.138367 0.021851 0.003937
0.269470 0.015137 0.003937
0.441437 0.007294 0.003937
0.610657 0.007843 0.004486
0.783752 0.009521 0.007843
0.918762 0.011780 0.014557
0.956848 0.011780 0.011780
0.001129 0.152924 0.005035
0.102509 0.149017 0.009521
0.263855 0.137268 0.003357
0.435852 0.110931 0.000549
0.610107 0.072815 0.000000
0.778168 0.020721 0.000000
0.932770 0.010071 0.000000
0.992157 0.004486 0.000000
0.003937 0.280670 0.007843
0.001678 0.278992 0.000000
0.227997 0.270569 0.007294
0.414001 0.254333 0.000000
0.598907 0.228546 0.001678
0.769196 0.204468 0.002228
0.924927 0.163574 0.002228
0.992157 0.131073 0.000000
0.007843 0.421265 0.011200
0.000000 0.421844 0.001129
0.018494 0.419586 0.001129
0.373108 0.406708 0.001129
0.582092 0.385406 0.000000
0.754639 0.363007 0.000000
0.906433 0.341736 0.000000
0.988800 0.330505 0.000000
0.012329 0.574249 0.015686
0.000000 0.563599 0.000549
0.000000 0.563049 0.000000
0.110870 0.571442 0.000000
0.519348 0.553528 0.003937
0.727173 0.531097 0.000000
0.884033 0.517090 0.001678
0.984314 0.496368 0.000000
0.017365 0.717651 0.017365
0.000000 0.715973 0.000000
0.000000 0.715424 0.000000
0.002228 0.711487 0.000000
0.184906 0.708130 0.002808
0.667236 0.692444 0.001678
0.852661 0.673401 0.000000
0.977600 0.657715 0.000000
0.019623 0.829681 0.022400
0.001678 0.829681 0.000000
0.001129 0.829132 0.000000
0.001129 0.833618 0.000000
0.016266 0.845367 0.000000
0.444275 0.831940 0.002228
0.799438 0.816803 0.002808
0.942291 0.803925 0.000000
0.023529 0.937256 0.023529
0.000000 0.943420 0.000000
0.000000 0.949005 0.000000
0.000000 0.937805 0.000000
0.000000 0.947906 0.000000
0.154114 0.937256 0.000000
0.656586 0.926605 0.000000
0.901947 0.905884 0.000000
0.024658 0.008392 0.119324
0.114288 0.020721 0.114838
0.253204 0.011780 0.078979
0.407837 0.007294 0.070038
0.595551 0.005035 0.050964
0.777039 0.008972 0.030823
0.926605 0.011780 0.020172
0.957428 0.015686 0.020721
0.025208 0.124359 0.122131
0.122131 0.161896 0.136139
0.280670 0.145081 0.096924
0.448730 0.123260 0.066681
0.629700 0.078979 0.041443
0.795532 0.034180 0.025757
0.942291 0.015686 0.006714
0.980408 0.010071 0.005615
0.028015 0.264404 0.058838
0.000000 0.296906 0.067230
0.237518 0.285706 0.125488
0.429108 0.264984 0.080109
0.615692 0.240326 0.042023
0.782654 0.210632 0.009521
0.934448 0.172546 0.005035
0.983185 0.141174 0.004486
0.024658 0.408386 0.016235
0.000000 0.443695 0.016815
0.024078 0.438629 0.034729
0.376465 0.420166 0.102509
0.588806 0.395508 0.049286
0.773682 0.373657 0.004486
0.921570 0.351257 0.001129
0.980408 0.343414 0.005035
0.022400 0.557983 0.005615
0.000549 0.583771 0.003357
0.000000 0.594421 0.001129
0.108612 0.581512 0.002808
0.529999 0.559113 0.052094
0.738373 0.539520 0.013458
0.896912 0.520447 0.000549
0.979828 0.504761 0.005035
0.024658 0.705902 0.005615
0.000000 0.726044 0.000000
0.001678 0.737274 0.000000
0.000000 0.737274 0.000000
0.191071 0.719879 0.004486
0.679016 0.698059 0.031372
0.863312 0.679565 0.013428
0.977020 0.667236 0.003357
0.021851 0.829681 0.004486
0.000000 0.847626 0.001129
0.000000 0.846497 0.000000
0.000549 0.863861 0.000000
0.020172 0.858276 0.000549
0.459961 0.837524 0.001129
0.806732 0.820740 0.029114
0.942291 0.806152 0.003357
0.019623 0.943970 0.002808
0.000000 0.950134 0.000000
0.000000 0.952942 0.000000
0.000000 0.952942 0.000000
0.000000 0.950134 0.000000
0.160828 0.942841 0.000000
0.665558 0.926056 0.000000
0.901947 0.913727 0.007843
0.015137 0.010071 0.249298
0.067230 0.012329 0.243134
0.215118 0.005035 0.220154
0.375885 0.005035 0.179840
0.555756 0.003357 0.148468
0.744537 0.005035 0.131653
0.910919 0.005035 0.113708
0.978699 0.005035 0.106995
0.019043 0.116516 0.248718
0.050415 0.143982 0.270569
0.244263 0.132782 0.244812
0.417358 0.114838 0.193817
0.601685 0.082336 0.160767
0.777618 0.037537 0.130524
0.935577 0.021271 0.110352
0.992157 0.010071 0.094116
0.019623 0.236969 0.229675
0.051544 0.262726 0.254333
0.253784 0.294678 0.275055
0.447601 0.275635 0.217346
0.626892 0.251526 0.168610
0.801117 0.224091 0.128296
0.946228 0.186554 0.101379
0.992157 0.149017 0.076172
0.021851 0.392700 0.160767
0.000549 0.420715 0.171997
0.026886 0.452087 0.185974
0.400543 0.431915 0.264404
0.603394 0.409515 0.206146
0.782074 0.383179 0.141174
0.929962 0.363556 0.094116
0.992157 0.354034 0.075073
0.021851 0.550140 0.085144
0.000000 0.579834 0.076721
0.002228 0.611786 0.084015
0.122070 0.592743 0.151215
0.545654 0.570313 0.256012
0.748474 0.549591 0.187653
0.903656 0.531677 0.109802
0.988800 0.515411 0.051544
0.022400 0.690765 0.019043
0.001129 0.725494 0.001678
0.001678 0.755737 0.005035
0.000000 0.750153 0.037506
0.212372 0.730530 0.108673
0.694122 0.705902 0.243683
0.864990 0.684601 0.171417
0.983185 0.671143 0.078979
0.024658 0.822968 0.017365
0.000000 0.843140 0.000000
0.000000 0.875641 0.000000
0.000000 0.880676 0.000000
0.028015 0.864441 0.010651
0.479584 0.847046 0.100281
0.815125 0.825226 0.217346
0.949585 0.814575 0.137787
0.027466 0.924377 0.033051
0.010071 0.945648 0.026886
0.013428 0.960785 0.026886
0.015686 0.957977 0.024658
0.018494 0.951263 0.022400
0.178741 0.944550 0.029694
0.680115 0.929962 0.095795
0.905884 0.915405 0.211761
0.030243 0.012878 0.392151
0.014008 0.001129 0.398865
0.146210 0.000000 0.388214
0.336670 0.000000 0.338928
0.513184 0.000000 0.292969
0.700867 0.000000 0.256012
0.873962 0.000000 0.227448
0.984314 0.001129 0.209503
0.031372 0.101410 0.398865
0.002228 0.120453 0.429108
0.161346 0.114288 0.408386
0.368042 0.094116 0.374207
0.551849 0.078979 0.315369
0.729431 0.037537 0.263855
0.900848 0.019043 0.231934
0.987671 0.009521 0.206726
0.030792 0.221283 0.392151
0.001678 0.249847 0.415680
0.124359 0.276733 0.438080
0.398315 0.258270 0.401093
0.587708 0.241455 0.338898
0.765839 0.220154 0.283447
0.923828 0.185974 0.240326
0.987122 0.160767 0.210632
0.026886 0.356842 0.364685
0.012878 0.383179 0.386536
0.183746 0.406708 0.418488
0.408936 0.442017 0.439209
0.616821 0.422943 0.371948
0.798889 0.401672 0.305298
0.938934 0.377014 0.249847
0.991577 0.369171 0.218475
0.026886 0.519897 0.303619
0.000000 0.545105 0.305298
0.002808 0.572571 0.321533
0.139404 0.602814 0.341705
0.564148 0.584320 0.430237
0.755737 0.562469 0.363007
0.913727 0.543976 0.294098
0.984314 0.527191 0.247620
0.025208 0.688538 0.198303
0.000000 0.710938 0.199402
0.000000 0.734467 0.212280
0.000000 0.754639 0.244232
0.224121 0.738953 0.318756
0.704193 0.717102 0.431915
0.873962 0.699158 0.370850
0.978699 0.684601 0.305298
0.024078 0.824646 0.074463
0.000000 0.850983 0.069427
0.000000 0.872833 0.082306
0.000000 0.886841 0.124878
0.030823 0.876190 0.236389
0.496948 0.851532 0.325470
0.826324 0.833069 0.425751
0.950684 0.820740 0.377014
0.029114 0.915405 0.071136
0.017914 0.936707 0.067230
0.017365 0.957977 0.059937
0.023529 0.961914 0.053772
0.029144 0.952393 0.096924
0.197235 0.942841 0.223511
0.703094 0.931641 0.345642
0.912048 0.921021 0.434143
0.029114 0.009521 0.560242
0.002258 0.002808 0.554626
0.069458 0.005035 0.556305
0.271667 0.003357 0.509247
0.465546 0.003937 0.478455
0.657135 0.003937 0.429718
0.831360 0.002808 0.379852
0.959106 0.002258 0.352966
0.028015 0.080109 0.552948
0.000000 0.091309 0.581512
0.064972 0.084015 0.578156
0.290741 0.072266 0.547363
0.504761 0.041443 0.500305
0.686279 0.027435 0.447632
0.857697 0.013428 0.393860
0.970856 0.005615 0.353516
0.031372 0.203339 0.562469
0.001129 0.226868 0.593842
0.026886 0.252655 0.610107
0.292969 0.238098 0.581512
0.533356 0.217926 0.543427
0.723267 0.202240 0.470032
0.885712 0.171967 0.414032
0.984314 0.150116 0.367523
0.030792 0.340057 0.554077
0.000549 0.361328 0.574249
0.031921 0.391022 0.594971
0.280060 0.420166 0.615692
0.567505 0.401672 0.571442
0.756866 0.384857 0.495819
0.914276 0.370300 0.442596
0.989349 0.363556 0.392731
0.029114 0.482941 0.522156
0.001129 0.504761 0.537842
0.095215 0.529968 0.556885
0.353485 0.561340 0.588257
0.577606 0.597778 0.606171
0.770325 0.572571 0.543427
0.917084 0.559692 0.475647
0.988800 0.547913 0.415710
0.029694 0.645935 0.460510
0.002228 0.667236 0.479004
0.001678 0.692444 0.484619
0.060486 0.722687 0.488525
0.259979 0.748474 0.512054
0.721588 0.723267 0.612335
0.876190 0.709808 0.546234
0.984863 0.696930 0.482941
0.026886 0.807281 0.357452
0.000549 0.821838 0.369202
0.000000 0.839203 0.387146
0.000000 0.859955 0.409546
0.038666 0.880127 0.430847
0.507019 0.862183 0.516541
0.829681 0.839783 0.605621
0.954071 0.828583 0.562469
0.030243 0.916534 0.285736
0.016235 0.933899 0.286316
0.013428 0.946777 0.293030
0.016815 0.956299 0.301971
0.023529 0.958557 0.343994
0.202850 0.949036 0.443726
0.714294 0.936707 0.537262
0.918213 0.922699 0.628571
0.022400 0.019623 0.707581
0.015686 0.019623 0.712067
0.024628 0.021851 0.703644
0.193268 0.025208 0.668915
0.391052 0.026337 0.642578
0.595520 0.025757 0.619629
0.783752 0.019623 0.559662
0.925476 0.015686 0.518219
0.015137 0.042572 0.717102
0.000549 0.058258 0.731659
0.020721 0.049866 0.737823
0.199402 0.040344 0.719330
0.417389 0.022400 0.683472
0.636414 0.013428 0.653778
0.818481 0.008972 0.583771
0.947327 0.004486 0.535583
0.013458 0.192139 0.715973
0.000000 0.205597 0.754059
0.001678 0.226318 0.772552
0.175873 0.217926 0.745667
0.443726 0.193268 0.712616
0.675079 0.163574 0.678436
0.850433 0.142853 0.614014
0.954620 0.130524 0.559113
0.013458 0.323242 0.732788
0.000549 0.342834 0.746216
0.001129 0.373108 0.764709
0.103058 0.399414 0.775909
0.453247 0.380371 0.748474
0.701965 0.356293 0.709259
0.872833 0.346771 0.640350
0.968628 0.345062 0.588806
0.012878 0.466675 0.709808
0.002228 0.486847 0.726624
0.001678 0.513733 0.738953
0.187653 0.543427 0.757416
0.448212 0.577057 0.775360
0.721008 0.551849 0.736694
0.886841 0.545105 0.668915
0.972565 0.532227 0.619049
0.013458 0.612335 0.693573
0.000000 0.630829 0.700836
0.034729 0.650421 0.703644
0.326019 0.676758 0.723816
0.542877 0.707001 0.749603
0.719330 0.738953 0.764160
0.886841 0.719330 0.708130
0.969177 0.711487 0.662201
0.013458 0.771423 0.611786
0.001678 0.782623 0.626892
0.000000 0.798889 0.643707
0.019623 0.818481 0.659943
0.240936 0.845367 0.672272
0.523285 0.867218 0.695251
0.841461 0.847076 0.762482
0.945648 0.840332 0.726074
0.011780 0.899170 0.528870
0.000000 0.909790 0.532776
0.000000 0.921021 0.542297
0.000000 0.935577 0.564728
0.017395 0.950714 0.596649
0.219086 0.963013 0.631378
0.714294 0.947327 0.707001
0.918762 0.931641 0.766388
0.026886 0.019623 0.835846
0.015686 0.019623 0.835846
0.015686 0.019623 0.828583
0.123779 0.023529 0.812897
0.322144 0.026337 0.793274
0.523834 0.024658 0.774231
0.745087 0.019623 0.746216
0.895233 0.015686 0.712616
0.022400 0.029694 0.845947
0.001129 0.043121 0.843140
0.000000 0.022980 0.856018
0.108673 0.018494 0.857697
0.338959 0.018494 0.834747
0.560791 0.007843 0.801117
0.773682 0.000000 0.769745
0.918213 0.003357 0.727722
0.024658 0.171417 0.842010
0.001129 0.192719 0.863861
0.000000 0.196625 0.893555
0.065521 0.192139 0.882904
0.347351 0.171967 0.857697
0.584869 0.147308 0.828583
0.794403 0.100830 0.798309
0.938934 0.108124 0.750153
0.022980 0.308105 0.856598
0.000000 0.326050 0.882904
0.002228 0.354614 0.894684
0.031921 0.380371 0.898590
0.347931 0.365234 0.880127
0.614014 0.340027 0.848175
0.831360 0.318176 0.819061
0.962463 0.316498 0.773682
0.020172 0.450439 0.860504
0.000000 0.469482 0.867218
0.000549 0.496918 0.877319
0.010651 0.526611 0.887390
0.310394 0.557983 0.899170
0.625793 0.536163 0.872833
0.845947 0.515991 0.848755
0.969757 0.505890 0.793854
0.019623 0.597778 0.841461
0.000000 0.614563 0.848755
0.000000 0.635315 0.859375
0.077850 0.662201 0.870026
0.412903 0.691315 0.878448
0.621857 0.723816 0.891327
0.849854 0.704773 0.866119
0.963593 0.698059 0.815704
0.019623 0.734467 0.825775
0.001129 0.748474 0.834747
0.026886 0.763031 0.838654
0.261047 0.788788 0.838654
0.536163 0.808411 0.854919
0.701416 0.831390 0.868896
0.847076 0.854340 0.880676
0.955750 0.847076 0.848755
0.019623 0.866119 0.752380
0.000000 0.877319 0.763031
0.000000 0.886841 0.780396
0.008972 0.898041 0.796631
0.289673 0.915955 0.809540
0.551849 0.931641 0.822968
0.726624 0.947327 0.842010
0.928284 0.937256 0.875061
0.000000 0.000000 0.929413
0.000000 0.000000 0.933899
0.000000 0.000000 0.929413
0.074493 0.000000 0.932220
0.270050 0.000000 0.923248
0.459961 0.000000 0.908691
0.677887 0.000000 0.876190
0.847046 0.007843 0.870575
0.001129 0.008972 0.934448
0.000000 0.014557 0.925476
0.000000 0.012329 0.933319
0.024658 0.020721 0.959106
0.275085 0.003357 0.947327
0.484619 0.006714 0.918213
0.698608 0.000000 0.895233
0.870026 0.008972 0.881226
0.001678 0.159668 0.935028
0.000000 0.182617 0.945648
0.000000 0.180389 0.964691
0.023529 0.161346 0.967499
0.272858 0.150696 0.959106
0.507019 0.140045 0.932770
0.735565 0.085144 0.913727
0.901398 0.069458 0.889069
0.000000 0.301941 0.932770
0.000000 0.315948 0.962463
0.002228 0.340057 0.974792
0.000000 0.364685 0.979828
0.238708 0.351227 0.967499
0.524384 0.327698 0.952942
0.756317 0.309235 0.927155
0.923798 0.297455 0.910919
0.000000 0.440338 0.956299
0.000000 0.455475 0.964142
0.000000 0.486298 0.966949
0.000000 0.515411 0.975922
0.125549 0.540619 0.979828
0.537842 0.526062 0.961914
0.778717 0.501404 0.943420
0.944550 0.480682 0.924927
0.000000 0.589355 0.947906
0.000000 0.602814 0.952393
0.001678 0.623535 0.959106
0.011780 0.651001 0.961914
0.216858 0.682373 0.967499
0.519897 0.709259 0.969177
0.780945 0.687958 0.951813
0.941742 0.685150 0.931091
0.000000 0.721558 0.936707
0.000000 0.735565 0.937805
0.000000 0.751831 0.944550
0.061066 0.775360 0.941162
0.396118 0.800018 0.951813
0.620728 0.824646 0.948456
0.779846 0.848175 0.955170
0.932770 0.839783 0.947906
0.023529 0.835297 0.917633
0.023529 0.841461 0.921570
0.023529 0.855469 0.923798
0.264374 0.870026 0.924377
0.524384 0.891327 0.929413
0.701965 0.905334 0.941162
0.826324 0.924377 0.949005
0.929413 0.941162 0.949005
