colors/丹橘.cube
#Created by: Adobe Photoshop Export Color Lookup Plugin
#Copyright: (C) Copyright 2026 小米
TITLE "人像.psd"
#LUT size
LUT_3D_SIZE 36
#data domain
DOMAIN_MIN 0.0 0.0 0.0
DOMAIN_MAX 1.0 1.0 1.0
#LUT data points
0.024170 0.036285 0.037018
0.029755 0.036865 0.036835
0.038055 0.037872 0.036530
0.051910 0.039551 0.036285
0.070648 0.042053 0.035828
0.092743 0.044983 0.035065
0.117554 0.048035 0.034088
0.145752 0.051056 0.032898
0.177979 0.054108 0.030792
0.214844 0.056488 0.028412
0.257416 0.058319 0.024445
0.305145 0.058746 0.019897
0.356781 0.057739 0.013702
0.411194 0.055115 0.005981
0.466827 0.051178 0.000824
0.521759 0.046631 0.000000
0.574310 0.042236 0.000000
0.623138 0.039093 0.000000
0.666595 0.038391 0.000000
0.704407 0.040253 0.000000
0.737671 0.043884 0.000000
0.767151 0.050079 0.000000
0.793854 0.057007 0.000000
0.818390 0.064148 0.000000
0.841827 0.072571 0.000000
0.865753 0.082184 0.000000
0.888702 0.091400 0.000000
0.911194 0.101105 0.000000
0.933655 0.111481 0.000000
0.956421 0.122742 0.000000
0.979553 0.134918 0.000000
0.995026 0.148468 0.000000
1.000000 0.163452 0.000000
1.000000 0.179779 0.000000
1.000000 0.197662 0.000000
1.000000 0.216980 0.000000
0.022095 0.042328 0.037842
0.029022 0.043152 0.036774
0.038422 0.044250 0.036072
0.053314 0.046295 0.035675
0.071960 0.049164 0.034851
0.093384 0.052490 0.034027
0.117737 0.056000 0.033020
0.145813 0.059509 0.031433
0.177765 0.062897 0.029266
0.214661 0.065796 0.026733
0.257050 0.068085 0.022675
0.304199 0.069733 0.017975
0.355530 0.070435 0.011444
0.409607 0.069733 0.004272
0.464844 0.068146 0.000153
0.519562 0.066071 0.000000
0.572083 0.063599 0.000000
0.620758 0.062103 0.000000
0.664490 0.062347 0.000000
0.702454 0.063690 0.000000
0.735748 0.066711 0.000000
0.765381 0.070526 0.000000
0.792206 0.075470 0.000000
0.816956 0.081299 0.000000
0.840515 0.088135 0.000000
0.864044 0.095551 0.000000
0.886749 0.103119 0.000000
0.908936 0.111511 0.000000
0.931244 0.120514 0.000000
0.953888 0.130646 0.000000
0.976929 0.141907 0.000000
0.993744 0.154510 0.000000
1.000000 0.168579 0.000000
1.000000 0.184143 0.000000
1.000000 0.201355 0.000000
1.000000 0.219879 0.000000
0.018921 0.051605 0.039124
0.024658 0.052429 0.038086
0.035980 0.053864 0.036072
0.052612 0.056519 0.034546
0.072052 0.058655 0.033630
0.093903 0.061005 0.032654
0.118347 0.064117 0.031555
0.146240 0.067902 0.029816
0.178192 0.071625 0.027527
0.214783 0.075134 0.024811
0.257019 0.078552 0.020844
0.304108 0.081116 0.015533
0.355072 0.082764 0.008820
0.408905 0.083771 0.003174
0.463898 0.083893 0.000000
0.518341 0.083435 0.000000
0.570679 0.082581 0.000000
0.619263 0.082611 0.000000
0.662964 0.082855 0.000000
0.700897 0.084167 0.000000
0.734314 0.086365 0.000000
0.763977 0.089447 0.000000
0.790894 0.093048 0.000000
0.815857 0.097534 0.000000
0.839630 0.102997 0.000000
0.862946 0.109039 0.000000
0.885437 0.115570 0.000000
0.907501 0.122650 0.000000
0.929657 0.130493 0.000000
0.952209 0.139557 0.000000
0.975250 0.149963 0.000000
0.992828 0.161682 0.000000
1.000000 0.175018 0.000000
1.000000 0.190002 0.000000
1.000000 0.206573 0.000000
1.000000 0.224518 0.000000
0.011475 0.065948 0.040924
0.017700 0.066010 0.040009
0.028381 0.067657 0.037750
0.047882 0.069458 0.034698
0.070709 0.072632 0.032349
0.093750 0.074585 0.030823
0.119019 0.076416 0.029297
0.147278 0.079163 0.027374
0.179291 0.082550 0.025055
0.215851 0.086792 0.022095
0.257935 0.090851 0.017853
0.304779 0.094696 0.012146
0.355469 0.097900 0.004944
0.408813 0.100189 0.001740
0.463348 0.101868 0.000000
0.517365 0.102997 0.000000
0.569366 0.103516 0.000000
0.617737 0.104309 0.000000
0.661102 0.105225 0.000000
0.699036 0.106140 0.000000
0.732391 0.107849 0.000000
0.762054 0.109833 0.000000
0.788971 0.112488 0.000000
0.814117 0.115967 0.000000
0.838074 0.120178 0.000000
0.861206 0.124847 0.000000
0.883545 0.130463 0.000000
0.905731 0.136353 0.000000
0.928040 0.143158 0.000000
0.950775 0.151184 0.000000
0.973938 0.160553 0.000000
0.992188 0.171539 0.000000
1.000000 0.184021 0.000000
1.000000 0.198273 0.000000
1.000000 0.214081 0.000000
1.000000 0.231323 0.000000
0.003693 0.083130 0.042725
0.006500 0.083008 0.041840
0.016937 0.083832 0.040405
0.035461 0.085876 0.037048
0.062805 0.088226 0.033081
0.091461 0.091858 0.029633
0.118469 0.093903 0.027405
0.147675 0.095581 0.025085
0.180115 0.097839 0.022491
0.217010 0.100708 0.019135
0.258728 0.105438 0.013824
0.305328 0.110260 0.007660
0.355591 0.115021 0.003357
0.408569 0.118805 0.000061
0.462616 0.121979 0.000000
0.516235 0.124359 0.000000
0.567871 0.126160 0.000000
0.616089 0.127533 0.000000
0.659393 0.129059 0.000000
0.697296 0.130066 0.000000
0.730682 0.131195 0.000000
0.760345 0.132538 0.000000
0.787415 0.134216 0.000000
0.812622 0.136627 0.000000
0.836639 0.139832 0.000000
0.859650 0.143311 0.000000
0.881927 0.147705 0.000000
0.904175 0.152618 0.000000
0.926605 0.158447 0.000000
0.949463 0.165558 0.000000
0.972748 0.173798 0.000000
0.991638 0.183868 0.000000
1.000000 0.195526 0.000000
1.000000 0.208832 0.000000
1.000000 0.223755 0.000000
1.000000 0.240173 0.000000
0.000000 0.102966 0.045288
0.000275 0.102753 0.044098
0.004547 0.102814 0.043549
0.018005 0.104675 0.040314
0.046204 0.107117 0.036072
0.080261 0.109924 0.031006
0.115875 0.114532 0.025940
0.147583 0.116882 0.022888
0.180969 0.118866 0.019775
0.218567 0.120514 0.015961
0.260773 0.123962 0.010468
0.307190 0.127533 0.003815
0.357147 0.133270 0.001221
0.409424 0.138702 0.000000
0.462921 0.143280 0.000000
0.516022 0.147156 0.000000
0.567261 0.149963 0.000000
0.615204 0.152130 0.000000
0.658386 0.153870 0.000000
0.696167 0.154907 0.000000
0.729431 0.155884 0.000000
0.759094 0.156616 0.000000
0.786499 0.157715 0.000000
0.811829 0.159180 0.000000
0.838715 0.162506 0.000000
0.863586 0.165955 0.000000
0.886078 0.169373 0.000000
0.908478 0.173615 0.000000
0.931030 0.178864 0.000000
0.953949 0.185211 0.000000
0.977264 0.192871 0.000000
0.991089 0.202026 0.000000
1.000000 0.213043 0.000000
1.000000 0.225494 0.000000
1.000000 0.239563 0.000000
1.000000 0.255066 0.000000
0.000000 0.127014 0.049194
0.000000 0.126770 0.047607
0.000000 0.126373 0.047516
0.004211 0.127502 0.045227
0.022156 0.130066 0.040558
0.061676 0.133057 0.034668
0.102570 0.136230 0.027618
0.146484 0.142029 0.020203
0.183289 0.145020 0.015808
0.222137 0.147491 0.011322
0.265717 0.149902 0.006195
0.312927 0.152008 0.002045
0.363068 0.155212 0.000031
0.414978 0.159851 0.000000
0.467712 0.165466 0.000000
0.519836 0.170502 0.000000
0.570160 0.174561 0.000000
0.617401 0.177551 0.000000
0.659790 0.179535 0.000000
0.696808 0.180817 0.000000
0.729675 0.181519 0.000000
0.759583 0.182068 0.000000
0.787262 0.182709 0.000000
0.813110 0.183716 0.000000
0.837280 0.185089 0.000000
0.868011 0.190033 0.000000
0.890930 0.192993 0.000000
0.913757 0.196686 0.000000
0.936584 0.201385 0.000000
0.959625 0.207123 0.000000
0.982941 0.214081 0.000000
0.997498 0.222656 0.000000
1.000000 0.232819 0.000000
1.000000 0.244720 0.000000
1.000000 0.258026 0.000000
1.000000 0.272583 0.000000
0.000000 0.155670 0.053955
0.000000 0.155548 0.052002
0.000000 0.155212 0.052032
0.000000 0.155457 0.051086
0.005524 0.157501 0.047150
0.031311 0.160645 0.040680
0.083099 0.164215 0.032227
0.131470 0.167755 0.022400
0.183960 0.174896 0.011444
0.227112 0.178802 0.004944
0.272278 0.182007 0.000854
0.320740 0.184845 0.000000
0.371613 0.186707 0.000000
0.423737 0.188141 0.000000
0.476013 0.190125 0.000000
0.527405 0.194702 0.000000
0.576447 0.199036 0.000000
0.622253 0.202637 0.000000
0.663208 0.205139 0.000000
0.699097 0.206879 0.000000
0.731445 0.207642 0.000000
0.761261 0.208191 0.000000
0.789215 0.208832 0.000000
0.815399 0.209412 0.000000
0.839844 0.210297 0.000000
0.863617 0.211792 0.000000
0.886932 0.213989 0.000000
0.910126 0.216888 0.000000
0.933258 0.220734 0.000000
0.956512 0.225677 0.000000
0.979919 0.231842 0.000000
0.995605 0.239502 0.000000
1.000000 0.248749 0.000000
1.000000 0.259399 0.000000
1.000000 0.271759 0.000000
1.000000 0.285400 0.000000
0.000000 0.186523 0.058868
0.000000 0.186340 0.056213
0.000000 0.186035 0.056122
0.000000 0.185577 0.056122
0.000000 0.186890 0.053345
0.009918 0.190063 0.046997
0.047485 0.193756 0.038269
0.109802 0.197693 0.027527
0.164398 0.201782 0.015503
0.224915 0.210541 0.000702
0.274048 0.215179 0.000000
0.323456 0.218811 0.000000
0.374512 0.221558 0.000000
0.426544 0.222992 0.000000
0.478546 0.222809 0.000000
0.529266 0.222015 0.000000
0.577393 0.223541 0.000000
0.622223 0.226898 0.000000
0.662598 0.229095 0.000000
0.698151 0.230530 0.000000
0.730652 0.231445 0.000000
0.760345 0.232330 0.000000
0.787689 0.233215 0.000000
0.813141 0.233826 0.000000
0.837341 0.234039 0.000000
0.860870 0.234741 0.000000
0.884125 0.236115 0.000000
0.907257 0.238281 0.000000
0.930389 0.241272 0.000000
0.953705 0.245422 0.000000
0.977203 0.250885 0.000000
0.993927 0.257782 0.000000
1.000000 0.266144 0.000000
1.000000 0.276093 0.000000
1.000000 0.287537 0.000000
1.000000 0.300293 0.000000
0.000000 0.222229 0.063293
0.000000 0.222107 0.059998
0.000000 0.221893 0.059814
0.000000 0.221497 0.059814
0.000000 0.221771 0.058502
0.000000 0.224030 0.053375
0.018707 0.227875 0.044220
0.074036 0.232117 0.032593
0.142609 0.236542 0.018799
0.203583 0.241028 0.002869
0.272095 0.251129 0.000275
0.325958 0.255798 0.000000
0.377808 0.259155 0.000000
0.429932 0.261292 0.000000
0.481567 0.261780 0.000000
0.531647 0.260529 0.000000
0.579193 0.257660 0.000000
0.623291 0.253235 0.000000
0.662659 0.254578 0.000000
0.698761 0.255981 0.000000
0.730957 0.256470 0.000000
0.760010 0.256592 0.000000
0.786774 0.256714 0.000000
0.811798 0.256927 0.000000
0.835602 0.257446 0.000000
0.858917 0.258392 0.000000
0.882080 0.259216 0.000000
0.905243 0.260590 0.000000
0.928406 0.263123 0.000000
0.951782 0.266663 0.000000
0.975342 0.271393 0.000000
0.992859 0.277557 0.000000
1.000000 0.285278 0.000000
1.000000 0.294525 0.000000
1.000000 0.305054 0.000000
1.000000 0.317047 0.000000
0.000000 0.262726 0.067566
0.000000 0.262634 0.062653
0.000000 0.262360 0.062439
0.000000 0.262085 0.062378
0.000000 0.261566 0.062469
0.000000 0.262756 0.058807
0.000000 0.266113 0.049744
0.027344 0.270264 0.037018
0.108795 0.274719 0.021576
0.181610 0.279327 0.003632
0.248138 0.283875 0.000366
0.321442 0.294525 0.000000
0.379028 0.298645 0.000000
0.431976 0.300964 0.000000
0.483307 0.301849 0.000000
0.532928 0.300964 0.000000
0.580170 0.298279 0.000000
0.624573 0.293945 0.000000
0.664490 0.288666 0.000000
0.699707 0.282806 0.000000
0.731201 0.282440 0.000000
0.759705 0.281860 0.000000
0.785980 0.281281 0.000000
0.810577 0.280762 0.000000
0.834015 0.280457 0.000000
0.856873 0.280762 0.000000
0.879517 0.281525 0.000000
0.902191 0.283051 0.000000
0.925232 0.284821 0.000000
0.948578 0.287781 0.000000
0.972260 0.292023 0.000000
0.991425 0.297607 0.000000
1.000000 0.304718 0.000000
1.000000 0.313354 0.000000
1.000000 0.323334 0.000000
1.000000 0.334717 0.000000
0.000000 0.305725 0.070831
0.000000 0.305695 0.064850
0.000000 0.305542 0.064362
0.000000 0.305237 0.064331
0.000000 0.304840 0.064301
0.000000 0.304779 0.063324
0.000000 0.307220 0.055969
0.000000 0.311432 0.042267
0.036713 0.315796 0.024933
0.148682 0.320496 0.004608
0.225342 0.325165 0.000458
0.295929 0.329559 0.000000
0.372955 0.340027 0.000000
0.432831 0.343018 0.000000
0.485809 0.343994 0.000000
0.535553 0.343445 0.000000
0.582428 0.340851 0.000000
0.625824 0.336304 0.000000
0.664673 0.329865 0.000000
0.699097 0.321808 0.000000
0.730316 0.312927 0.000000
0.758575 0.308380 0.000000
0.784515 0.306305 0.000000
0.808868 0.305115 0.000000
0.832153 0.304230 0.000000
0.854919 0.303925 0.000000
0.877502 0.304169 0.000000
0.900116 0.305298 0.000000
0.922974 0.307281 0.000000
0.946381 0.309937 0.000000
0.970154 0.313690 0.000000
0.990326 0.318848 0.000000
1.000000 0.325409 0.000000
1.000000 0.333557 0.000000
1.000000 0.343048 0.000000
1.000000 0.353668 0.000000
0.000000 0.351349 0.074799
0.000000 0.351349 0.067780
0.000000 0.351227 0.066498
0.000000 0.351013 0.066559
0.000000 0.350616 0.066742
0.000000 0.350128 0.066956
0.000000 0.351135 0.062653
0.000000 0.354767 0.049591
0.005554 0.359009 0.030670
0.088989 0.363525 0.007782
0.193024 0.368164 0.000610
0.272583 0.373047 0.000000
0.346680 0.377594 0.000000
0.433228 0.393341 0.000000
0.495392 0.395416 0.000000
0.546387 0.393707 0.000000
0.592163 0.390076 0.000000
0.633972 0.384277 0.000000
0.671143 0.376465 0.000000
0.704285 0.367218 0.000000
0.734497 0.357269 0.000000
0.762482 0.346954 0.000000
0.788391 0.338226 0.000000
0.812500 0.334045 0.000000
0.835632 0.331879 0.000000
0.858246 0.330902 0.000000
0.880737 0.330597 0.000000
0.903290 0.331207 0.000000
0.926086 0.332825 0.000000
0.949158 0.335419 0.000000
0.972656 0.338989 0.000000
0.990601 0.343689 0.000000
1.000000 0.349792 0.000000
1.000000 0.357330 0.000000
1.000000 0.366180 0.000000
1.000000 0.376160 0.000000
0.000000 0.400421 0.081146
0.000000 0.400452 0.073669
0.000000 0.400208 0.070923
0.000000 0.399872 0.070862
0.000000 0.399384 0.071014
0.000000 0.399048 0.071198
0.000000 0.398865 0.070679
0.000000 0.401306 0.060822
0.000000 0.405518 0.041351
0.029572 0.410004 0.015839
0.144135 0.414764 0.001251
0.242798 0.419647 0.000000
0.324341 0.424347 0.000000
0.400879 0.428711 0.000000
0.488892 0.443939 0.000000
0.548492 0.441803 0.000000
0.595459 0.436554 0.000000
0.636078 0.429535 0.000000
0.672119 0.420654 0.000000
0.704529 0.410522 0.000000
0.734283 0.399902 0.000000
0.761841 0.388977 0.000000
0.787628 0.378052 0.000000
0.812103 0.367462 0.000000
0.835480 0.360596 0.000000
0.858276 0.356689 0.000000
0.880737 0.355927 0.000000
0.903351 0.356049 0.000000
0.926239 0.357208 0.000000
0.949432 0.359436 0.000000
0.972900 0.362823 0.000000
0.992218 0.367371 0.000000
1.000000 0.373138 0.000000
1.000000 0.380280 0.000000
1.000000 0.388580 0.000000
1.000000 0.398102 0.000000
0.000000 0.449219 0.091217
0.000000 0.449249 0.083954
0.000000 0.449005 0.079803
0.000000 0.448639 0.079224
0.000000 0.448090 0.079346
0.000000 0.447418 0.079559
0.000000 0.447021 0.079590
0.000000 0.447601 0.076080
0.000000 0.451141 0.059235
0.000000 0.455292 0.033936
0.061523 0.459717 0.007965
0.198822 0.464172 0.000000
0.292725 0.468506 0.000000
0.373962 0.472412 0.000000
0.450714 0.475861 0.000000
0.531616 0.484406 0.000000
0.588074 0.478943 0.000000
0.631073 0.470917 0.000000
0.666656 0.461273 0.000000
0.698792 0.450500 0.000000
0.728455 0.439331 0.000000
0.756012 0.427979 0.000000
0.781952 0.416748 0.000000
0.806580 0.405853 0.000000
0.830566 0.395538 0.000000
0.854095 0.385712 0.000000
0.876984 0.382111 0.000000
0.899994 0.379547 0.000000
0.923065 0.380371 0.000000
0.946503 0.382172 0.000000
0.970184 0.385223 0.000000
0.990570 0.389526 0.000000
1.000000 0.395050 0.000000
1.000000 0.401917 0.000000
1.000000 0.409912 0.000000
1.000000 0.419037 0.000000
0.000000 0.493866 0.106323
0.000000 0.493927 0.099762
0.000000 0.493774 0.094604
0.000000 0.493347 0.093475
0.000000 0.492798 0.093475
0.000000 0.492096 0.093445
0.000000 0.491333 0.093597
0.000000 0.490662 0.093597
0.000000 0.492218 0.083740
0.000000 0.495483 0.062653
0.000000 0.499054 0.031860
0.123169 0.502655 0.008331
0.248749 0.506226 0.000000
0.337372 0.509521 0.000000
0.416321 0.512238 0.000000
0.490936 0.514221 0.000000
0.567413 0.519592 0.000000
0.621216 0.511780 0.000000
0.660370 0.501434 0.000000
0.692413 0.490051 0.000000
0.722107 0.478333 0.000000
0.749786 0.466583 0.000000
0.775940 0.455048 0.000000
0.800964 0.444000 0.000000
0.825256 0.433533 0.000000
0.849213 0.423645 0.000000
0.872986 0.414490 0.000000
0.896606 0.407898 0.000000
0.920227 0.405487 0.000000
0.944031 0.405914 0.000000
0.967957 0.408661 0.000000
0.989258 0.412689 0.000000
1.000000 0.417938 0.000000
1.000000 0.424469 0.000000
1.000000 0.432190 0.000000
1.000000 0.441010 0.000000
0.000000 0.533966 0.127258
0.000000 0.534058 0.121704
0.000000 0.533936 0.115936
0.000000 0.533478 0.114380
0.000000 0.532806 0.114319
0.000000 0.532043 0.114227
0.000000 0.531219 0.114136
0.000000 0.530365 0.114136
0.000000 0.529846 0.113007
0.000000 0.532349 0.096863
0.000000 0.535156 0.073914
0.066986 0.537994 0.040741
0.192627 0.540802 0.014618
0.295319 0.543365 0.000000
0.378448 0.545441 0.000000
0.454071 0.546844 0.000000
0.525452 0.547455 0.000000
0.597076 0.549957 0.000000
0.649078 0.540710 0.000000
0.685455 0.529175 0.000000
0.715271 0.517029 0.000000
0.743134 0.504883 0.000000
0.769592 0.493073 0.000000
0.794952 0.481842 0.000000
0.819702 0.471252 0.000000
0.844055 0.461304 0.000000
0.868164 0.452179 0.000000
0.892365 0.444092 0.000000
0.916779 0.436920 0.000000
0.941254 0.433197 0.000000
0.965759 0.433167 0.000000
0.987976 0.436737 0.000000
1.000000 0.441772 0.000000
1.000000 0.447876 0.000000
1.000000 0.455383 0.000000
1.000000 0.464020 0.000000
0.000000 0.568359 0.153015
0.000000 0.568481 0.148163
0.000000 0.568481 0.142334
0.000000 0.568207 0.140656
0.000000 0.567657 0.140656
0.000000 0.566986 0.140656
0.000000 0.566376 0.140686
0.000000 0.565796 0.140900
0.000000 0.565186 0.141052
0.000000 0.565918 0.134033
0.000000 0.567993 0.117218
0.000000 0.570068 0.095367
0.119751 0.572052 0.064667
0.249725 0.573700 0.027008
0.338562 0.574951 0.001434
0.415405 0.575684 0.000000
0.486694 0.575806 0.000000
0.554565 0.575317 0.000000
0.621338 0.575714 0.000000
0.672668 0.566376 0.000000
0.707367 0.554504 0.000000
0.735626 0.542206 0.000000
0.762543 0.530304 0.000000
0.788483 0.519012 0.000000
0.813690 0.508423 0.000000
0.838593 0.498566 0.000000
0.863251 0.489563 0.000000
0.887939 0.481567 0.000000
0.912842 0.474640 0.000000
0.937988 0.468719 0.000000
0.963348 0.463867 0.000000
0.986908 0.462860 0.000000
1.000000 0.466400 0.000000
1.000000 0.472137 0.000000
1.000000 0.478699 0.000000
1.000000 0.486816 0.000000
0.000000 0.596924 0.181580
0.000000 0.596924 0.177551
0.000000 0.596954 0.172821
0.000000 0.596771 0.170593
0.000000 0.596344 0.170258
0.000000 0.595856 0.170349
0.000000 0.595306 0.170502
0.000000 0.594666 0.170776
0.000000 0.593994 0.170929
0.000000 0.593384 0.171265
0.000000 0.594818 0.158600
0.000000 0.596405 0.141785
0.082733 0.597961 0.121185
0.200623 0.599304 0.093933
0.298279 0.600342 0.054199
0.376984 0.600952 0.016357
0.448364 0.601074 0.000000
0.515533 0.600616 0.000000
0.579834 0.599670 0.000000
0.642609 0.598877 0.000000
0.693604 0.590698 0.000000
0.727631 0.578888 0.000000
0.755188 0.566803 0.000000
0.781586 0.555511 0.000000
0.807312 0.544952 0.000000
0.832703 0.535248 0.000000
0.857910 0.526398 0.000000
0.883118 0.518616 0.000000
0.908508 0.512024 0.000000
0.934082 0.506348 0.000000
0.959778 0.501740 0.000000
0.985016 0.498169 0.000000
1.000000 0.496155 0.000000
1.000000 0.497131 0.000000
1.000000 0.503326 0.000000
1.000000 0.510437 0.000000
0.000000 0.622223 0.213104
0.000000 0.622314 0.210114
0.000000 0.626923 0.213531
0.000000 0.627136 0.211304
0.000000 0.626770 0.210571
0.000000 0.626251 0.210571
0.000000 0.625671 0.210663
0.000000 0.625000 0.210785
0.000000 0.624298 0.210876
0.000000 0.623566 0.211243
0.000000 0.623596 0.206848
0.000000 0.624878 0.193298
0.054779 0.626099 0.177032
0.167084 0.627167 0.157379
0.270142 0.627930 0.132751
0.348572 0.628357 0.098969
0.418488 0.628418 0.060425
0.483948 0.627930 0.013184
0.546570 0.627014 0.000000
0.606934 0.625641 0.000000
0.666168 0.623932 0.000000
0.715912 0.616730 0.000000
0.749451 0.605133 0.000000
0.776642 0.593262 0.000000
0.802765 0.582703 0.000000
0.828522 0.573090 0.000000
0.854004 0.564423 0.000000
0.879517 0.556702 0.000000
0.905060 0.550018 0.000000
0.930756 0.544464 0.000000
0.956543 0.539856 0.000000
0.982239 0.536316 0.000000
0.998688 0.533661 0.000000
1.000000 0.531860 0.000000
1.000000 0.532288 0.000000
1.000000 0.535004 0.000000
0.000000 0.646759 0.248383
0.000000 0.647125 0.246307
0.000000 0.647827 0.244385
0.000000 0.649414 0.244110
0.000000 0.649323 0.243561
0.000000 0.648987 0.243774
0.000000 0.648468 0.243896
0.000000 0.647858 0.243927
0.000000 0.647186 0.244080
0.000000 0.646484 0.244385
0.000000 0.645813 0.243927
0.000000 0.646515 0.234985
0.023804 0.647614 0.221375
0.134521 0.648590 0.205322
0.243439 0.649353 0.186188
0.320770 0.649811 0.163055
0.388794 0.650024 0.133545
0.452271 0.649841 0.091339
0.512939 0.649261 0.053833
0.571686 0.648285 0.000000
0.629364 0.647034 0.000000
0.685913 0.645386 0.000000
0.734833 0.639557 0.000000
0.768555 0.628693 0.000000
0.795990 0.617706 0.000000
0.822205 0.608398 0.000000
0.848175 0.599976 0.000000
0.874084 0.592621 0.000000
0.900085 0.586273 0.000000
0.926117 0.580933 0.000000
0.952057 0.576569 0.000000
0.977875 0.573151 0.000000
0.996277 0.570557 0.000000
1.000000 0.568634 0.000000
1.000000 0.567291 0.000000
1.000000 0.567169 0.000000
0.000000 0.668121 0.281403
0.000000 0.668518 0.280029
0.000000 0.668945 0.278168
0.000000 0.669312 0.275970
0.000000 0.669403 0.275543
0.000000 0.669220 0.275970
0.000000 0.668854 0.276245
0.000000 0.668274 0.276276
0.000000 0.667664 0.276428
0.000000 0.667023 0.276672
0.000000 0.666321 0.276978
0.000000 0.666168 0.273682
0.031586 0.667145 0.262543
0.116821 0.668121 0.248779
0.226562 0.668945 0.232758
0.300659 0.669586 0.214172
0.365601 0.669983 0.191986
0.425995 0.670105 0.164856
0.483978 0.669891 0.130035
0.540375 0.669373 0.084869
0.595947 0.668610 0.031372
0.650848 0.667542 0.000000
0.705078 0.666199 0.000000
0.753418 0.661865 0.000000
0.787567 0.652008 0.000000
0.815399 0.642151 0.000000
0.841858 0.634186 0.000000
0.868164 0.627228 0.000000
0.894501 0.621277 0.000000
0.920868 0.616302 0.000000
0.947052 0.612244 0.000000
0.972961 0.609039 0.000000
0.993378 0.606567 0.000000
1.000000 0.604706 0.000000
1.000000 0.603363 0.000000
1.000000 0.602295 0.000000
0.000000 0.687744 0.313782
0.000000 0.688141 0.312714
0.000000 0.688568 0.311310
0.000000 0.688965 0.309296
0.000000 0.689087 0.308533
0.000000 0.688934 0.308990
0.000000 0.688599 0.309235
0.000000 0.688141 0.309357
0.000000 0.687592 0.309479
0.000000 0.687012 0.309662
0.000000 0.686371 0.309998
0.000000 0.685822 0.309479
0.058533 0.686249 0.302734
0.127258 0.687256 0.290863
0.223114 0.688171 0.277069
0.290680 0.688995 0.261230
0.350952 0.689636 0.243073
0.407318 0.690063 0.221588
0.461853 0.690277 0.196411
0.515198 0.690308 0.165771
0.568237 0.690155 0.124969
0.621063 0.689758 0.074982
0.673553 0.689148 0.007629
0.725677 0.688232 0.001801
0.773712 0.685638 0.000000
0.808411 0.677063 0.000000
0.836792 0.668549 0.000000
0.863678 0.662292 0.000000
0.890472 0.657013 0.000000
0.917145 0.652588 0.000000
0.943542 0.648956 0.000000
0.969543 0.646057 0.000000
0.990784 0.643768 0.000000
1.000000 0.641998 0.000000
1.000000 0.640656 0.000000
1.000000 0.639465 0.000000
0.000000 0.708160 0.348358
0.000000 0.708466 0.347351
0.000000 0.708771 0.346100
0.000000 0.709045 0.344177
0.000000 0.709137 0.343018
0.000000 0.708984 0.343109
0.000000 0.708679 0.343292
0.000000 0.708221 0.343323
0.000000 0.707764 0.343506
0.000000 0.707214 0.343628
0.000000 0.706665 0.343994
0.037598 0.706055 0.344299
0.090118 0.705902 0.341644
0.165833 0.706818 0.332336
0.234497 0.707855 0.320465
0.292725 0.708771 0.306763
0.346161 0.709686 0.291016
0.397552 0.710419 0.273041
0.447693 0.710999 0.252350
0.497253 0.711487 0.228546
0.546997 0.711792 0.200104
0.596954 0.711975 0.165192
0.647217 0.711914 0.117401
0.697357 0.711700 0.043762
0.747498 0.711273 0.010437
0.795227 0.710388 0.000000
0.830383 0.703125 0.000000
0.859253 0.696106 0.000000
0.886475 0.691528 0.000000
0.913483 0.687714 0.000000
0.940063 0.684631 0.000000
0.966125 0.682098 0.000000
0.989410 0.680084 0.000000
1.000000 0.678436 0.000000
1.000000 0.677032 0.000000
1.000000 0.675720 0.000000
0.000000 0.729492 0.383606
0.000000 0.729645 0.382599
0.000000 0.729797 0.381317
0.000000 0.729919 0.379486
0.000000 0.729919 0.377960
0.000000 0.729706 0.377502
0.000000 0.729340 0.377472
0.000000 0.728943 0.377472
0.005829 0.728485 0.377533
0.017426 0.727997 0.377655
0.034088 0.727539 0.378021
0.095642 0.727081 0.378326
0.157623 0.726654 0.377930
0.209747 0.727051 0.372803
0.259186 0.728210 0.362396
0.305603 0.729370 0.350708
0.351288 0.730408 0.337006
