colors/丹橘.cube
#Created by: Adobe Photoshop Export Color Lookup Plugin
#Copyright: (C) Copyright 2026 小米
TITLE "人像.psd"
#LUT size
LUT_3D_SIZE 6
#data domain
DOMAIN_MIN 0.0 0.0 0.0
DOMAIN_MAX 1.0 1.0 1.0
#LUT data points
0.024170 0.036285 0.037018
0.145752 0.051056 0.032898
0.466827 0.051178 0.000824
0.767151 0.050079 0.000000
0.933655 0.111481 0.000000
1.000000 0.216980 0.000000
0.000000 0.155670 0.053955
0.131470 0.167755 0.022400
0.476013 0.190125 0.000000
0.761261 0.208191 0.000000
0.933258 0.220734 0.000000
1.000000 0.285400 0.000000
0.000000 0.449219 0.091217
0.000000 0.447601 0.076080
0.450714 0.475861 0.000000
0.756012 0.427979 0.000000
0.923065 0.380371 0.000000
1.000000 0.419037 0.000000
0.000000 0.668121 0.281403
0.000000 0.668274 0.276276
0.226562 0.668945 0.232758
0.650848 0.667542 0.000000
0.894501 0.621277 0.000000
1.000000 0.602295 0.000000
0.175629 0.819275 0.498871
0.218109 0.819214 0.492615
0.353149 0.817139 0.493408
0.561737 0.824890 0.426514
0.828552 0.832031 0.241821
1.000000 0.824524 0.000000
0.436462 0.976562 0.675842
0.444275 0.976715 0.668213
0.518280 0.976166 0.671875
0.635773 0.976257 0.660400
0.808105 0.978607 0.600311
0.996155 0.980011 0.449799
0.000000 0.049255 0.164001
0.134277 0.045197 0.157013
0.476562 0.000000 0.125336
0.763947 0.096405 0.098358
0.926117 0.161896 0.014374
1.000000 0.234283 0.000000
0.000000 0.175995 0.183167
0.151031 0.183319 0.182220
0.488159 0.204071 0.156769
0.762268 0.223022 0.105804
0.923126 0.245117 0.018524
1.000000 0.294922 0.000000
0.000000 0.462097 0.281067
0.000000 0.464661 0.247009
0.461578 0.477203 0.173035
0.747742 0.424957 0.124603
0.910706 0.398071 0.047913
1.000000 0.426331 0.000000
0.035461 0.662415 0.408539
0.039001 0.662933 0.386383
0.324402 0.661835 0.365631
0.651825 0.662933 0.243011
0.883759 0.624908 0.142639
1.000000 0.607330 0.003418
0.312744 0.814697 0.550171
0.316986 0.814423 0.537201
0.403320 0.814117 0.533081
0.579559 0.821533 0.491089
0.825623 0.829193 0.365906
1.000000 0.825592 0.153900
0.467987 0.973907 0.698669
0.475647 0.975250 0.692352
0.529297 0.975159 0.687897
0.637482 0.974792 0.681396
0.805267 0.977142 0.623230
0.993195 0.978851 0.492096
0.000000 0.089447 0.462494
0.097168 0.085388 0.458618
0.446075 0.000000 0.447266
0.754089 0.000000 0.407257
0.916534 0.224762 0.354095
1.000000 0.424316 0.384583
0.000000 0.236786 0.478455
0.129456 0.236542 0.477203
0.468994 0.218445 0.464417
0.749298 0.231110 0.418274
0.888794 0.415253 0.430908
1.000000 0.456757 0.387024
0.000000 0.483124 0.500305
0.150879 0.487335 0.499023
0.496277 0.496765 0.496643
0.708069 0.512665 0.484253
0.872986 0.527771 0.463196
1.000000 0.546661 0.403687
0.304321 0.666870 0.548615
0.399017 0.664948 0.558777
0.496613 0.664429 0.555756
0.664368 0.669098 0.518707
0.859650 0.660126 0.486481
1.000000 0.671173 0.433350
0.465790 0.818329 0.656006
0.485352 0.818726 0.652618
0.494598 0.820953 0.623291
0.610443 0.823608 0.606476
0.828094 0.833313 0.544495
1.000000 0.837891 0.475555
0.563873 0.972534 0.769226
0.564850 0.972748 0.761292
0.577301 0.975311 0.742279
0.658325 0.974915 0.741608
0.805573 0.978210 0.695770
0.989288 0.979614 0.591125
0.000000 0.186005 0.677826
0.021149 0.192017 0.676147
0.403778 0.200073 0.670441
0.676392 0.191254 0.663055
0.873169 0.265869 0.628265
1.000000 0.402222 0.612305
0.018616 0.324036 0.679077
0.208038 0.327301 0.677216
0.445160 0.335663 0.672119
0.677094 0.339264 0.663879
0.860168 0.386200 0.639862
1.000000 0.466614 0.621735
0.240814 0.504303 0.680115
0.358063 0.517944 0.678406
0.522491 0.540314 0.674744
0.671906 0.539520 0.667084
0.846252 0.551910 0.659393
1.000000 0.601654 0.642639
0.353455 0.669525 0.685425
0.418365 0.670593 0.684753
0.539795 0.673767 0.683685
0.674744 0.678802 0.682312
0.848053 0.696167 0.674255
1.000000 0.720367 0.651001
0.415833 0.828674 0.728485
0.455658 0.828857 0.729736
0.552368 0.829193 0.733002
0.651459 0.830933 0.721954
0.828857 0.837769 0.687653
1.000000 0.839508 0.654785
0.524353 0.977112 0.817780
0.562805 0.975952 0.820312
0.681671 0.971985 0.837921
0.709778 0.975037 0.815460
0.809540 0.977264 0.798706
0.982300 0.979950 0.718231
0.211395 0.368225 0.839020
0.309265 0.375916 0.838196
0.478851 0.391754 0.834106
0.662628 0.412292 0.826294
0.838043 0.422729 0.818817
1.000000 0.458282 0.821716
0.341248 0.464996 0.838287
0.395264 0.466888 0.836609
0.519196 0.473328 0.832581
0.674408 0.482697 0.825531
0.836456 0.485718 0.820160
0.999725 0.503693 0.824768
0.419312 0.586456 0.838074
0.466461 0.591492 0.836487
0.564453 0.597443 0.834625
0.689209 0.595795 0.829132
0.832520 0.588593 0.823212
0.998138 0.589722 0.829926
0.431976 0.706787 0.841614
0.469330 0.707489 0.841248
0.557739 0.707733 0.840637
0.684875 0.706116 0.838654
0.831207 0.699341 0.831818
1.000000 0.707733 0.832062
0.415161 0.837494 0.850952
0.449432 0.837250 0.850372
0.538391 0.837769 0.849792
0.673676 0.839905 0.849457
0.835022 0.845886 0.849548
0.992737 0.860992 0.841858
0.458862 0.983582 0.888428
0.497162 0.982788 0.888672
0.597809 0.980865 0.890686
0.734344 0.977417 0.895935
0.847900 0.975922 0.898560
0.976074 0.980194 0.864166
0.538849 0.583435 0.972809
0.567596 0.584503 0.972534
0.642700 0.586761 0.971649
0.751587 0.587769 0.969513
0.875549 0.588715 0.966858
1.000000 0.580200 0.966705
0.551147 0.616333 0.972137
0.577515 0.616394 0.971863
0.647125 0.615784 0.970795
0.751434 0.613831 0.968689
0.873260 0.612305 0.966309
1.000000 0.603790 0.966766
0.554810 0.680817 0.972443
0.583496 0.682800 0.972046
0.648590 0.680328 0.971008
0.748627 0.675964 0.969208
0.868805 0.673462 0.967834
0.997437 0.667999 0.969452
0.519196 0.762451 0.975067
0.543335 0.760406 0.974792
0.613617 0.756866 0.974701
0.741974 0.768951 0.972809
0.863434 0.771851 0.972595
0.987335 0.763123 0.970917
0.532471 0.876770 0.980347
0.558136 0.876282 0.980164
0.629486 0.875580 0.979858
0.738037 0.876038 0.979126
0.864349 0.883087 0.977051
0.977997 0.877106 0.974243
0.574097 0.978241 0.985443
0.598511 0.978363 0.985352
0.661621 0.978638 0.984833
0.757507 0.979370 0.984009
0.871185 0.981354 0.983582
0.982666 0.984436 0.984894
