colors/丹橘.cube
#Created by: Adobe Photoshop Export Color Lookup Plugin
#Copyright: (C) Copyright 2026 小米
TITLE "人像.psd"
#LUT size
LUT_3D_SIZE 8
#data domain
DOMAIN_MIN 0.0 0.0 0.0
DOMAIN_MAX 1.0 1.0 1.0
#LUT data points
0.024170 0.036285 0.037018
0.092743 0.044983 0.035065
0.257416 0.058319 0.024445
0.521759 0.046631 0.000000
0.737671 0.043884 0.000000
0.865753 0.082184 0.000000
0.979553 0.134918 0.000000
1.000000 0.216980 0.000000
0.000000 0.102966 0.045288
0.080261 0.109924 0.031006
0.260773 0.123962 0.010468
0.516022 0.147156 0.000000
0.729431 0.155884 0.000000
0.863586 0.165955 0.000000
0.977264 0.192871 0.000000
1.000000 0.255066 0.000000
0.000000 0.262726 0.067566
0.000000 0.262756 0.058807
0.248138 0.283875 0.000366
0.532928 0.300964 0.000000
0.731201 0.282440 0.000000
0.856873 0.280762 0.000000
0.972260 0.292023 0.000000
1.000000 0.334717 0.000000
0.000000 0.493866 0.106323
0.000000 0.492096 0.093445
0.000000 0.499054 0.031860
0.490936 0.514221 0.000000
0.722107 0.478333 0.000000
0.849213 0.423645 0.000000
0.967957 0.408661 0.000000
1.000000 0.441010 0.000000
0.000000 0.646759 0.248383
0.000000 0.648987 0.243774
0.000000 0.645813 0.243927
0.320770 0.649811 0.163055
0.629364 0.647034 0.000000
0.822205 0.608398 0.000000
0.952057 0.576569 0.000000
1.000000 0.567169 0.000000
0.000000 0.750122 0.415100
0.007599 0.750366 0.409119
0.133698 0.748413 0.409424
0.322876 0.749634 0.389923
0.523926 0.755371 0.312439
0.747314 0.758667 0.146301
0.929504 0.747375 0.000000
1.000000 0.740234 0.000000
0.252808 0.869720 0.547974
0.258698 0.870087 0.541779
0.323639 0.870087 0.542450
0.412903 0.870056 0.544891
0.548157 0.874146 0.512848
0.711731 0.878998 0.448822
0.885437 0.881561 0.309509
1.000000 0.874481 0.000000
0.436462 0.976562 0.675842
0.438141 0.976715 0.670532
0.470734 0.976471 0.669312
0.531464 0.975983 0.672516
0.613434 0.975891 0.666321
0.731781 0.977753 0.631256
0.860229 0.979065 0.572754
0.996155 0.980011 0.449799
0.011841 0.044006 0.110504
0.085815 0.040771 0.106201
0.261597 0.015778 0.092194
0.520233 0.056763 0.073212
0.732483 0.079071 0.015686
0.859253 0.119019 0.000000
0.970154 0.162170 0.000000
1.000000 0.224884 0.000000
0.000000 0.114960 0.120117
0.087677 0.119659 0.119476
0.267822 0.133698 0.107788
0.521942 0.148041 0.074524
0.729889 0.161530 0.013763
0.858276 0.181091 0.000000
0.970367 0.209198 0.000000
1.000000 0.260895 0.000000
0.000000 0.277618 0.170929
0.000000 0.279938 0.150391
0.263306 0.293060 0.111115
0.539856 0.295380 0.058929
0.730774 0.287628 0.013794
0.853119 0.286591 0.000000
0.966553 0.298279 0.000000
1.000000 0.336426 0.000000
0.000000 0.497742 0.232910
0.000000 0.497559 0.201660
0.040710 0.499481 0.179443
0.493591 0.511780 0.054077
0.716187 0.473602 0.010590
0.842499 0.421631 0.000000
0.960632 0.414398 0.000000
1.000000 0.440948 0.000000
0.000000 0.643921 0.333771
0.000000 0.645416 0.319672
0.027863 0.642609 0.313232
0.351074 0.645294 0.263000
0.630005 0.644135 0.133148
0.816376 0.608032 0.031311
0.946838 0.578796 0.000000
1.000000 0.569366 0.000000
0.144531 0.746613 0.461578
0.151337 0.746613 0.452667
0.239166 0.745270 0.446838
0.365143 0.745422 0.436676
0.537872 0.751709 0.373871
0.746643 0.756439 0.255646
0.925720 0.749542 0.069366
1.000000 0.742828 0.000000
0.307404 0.868622 0.572205
0.311096 0.869080 0.565979
0.349701 0.869537 0.560394
0.431549 0.869476 0.562531
0.555634 0.872803 0.536896
0.712646 0.876709 0.479492
0.882599 0.879547 0.365326
1.000000 0.873810 0.130463
0.452942 0.974762 0.687866
0.457062 0.975464 0.684174
0.482758 0.976898 0.681183
0.541382 0.976349 0.684082
0.618713 0.976166 0.681213
0.733459 0.978027 0.646973
0.860107 0.979279 0.590729
0.995148 0.980103 0.478821
0.000000 0.061951 0.275940
0.057861 0.060638 0.272186
0.246979 0.040863 0.264435
0.516357 0.000000 0.273865
0.746185 0.000000 0.193481
0.854553 0.200409 0.218658
0.963593 0.247284 0.188965
1.000000 0.276611 0.086090
0.000000 0.148041 0.289032
0.055084 0.145935 0.288666
0.265015 0.136353 0.279846
0.533569 0.072998 0.268219
0.733643 0.184998 0.243774
0.848328 0.258362 0.234467
0.960602 0.282593 0.194397
1.000000 0.307495 0.091248
0.000000 0.299377 0.311096
0.002258 0.303192 0.310883
0.293152 0.311646 0.309845
0.547211 0.327911 0.295105
0.723358 0.340729 0.275879
0.840607 0.350342 0.252930
0.956146 0.361176 0.211517
1.000000 0.380829 0.109100
0.000000 0.510681 0.369141
0.039856 0.511200 0.376678
0.258850 0.512451 0.366089
0.511322 0.518250 0.321869
0.706665 0.486053 0.298492
0.828705 0.462708 0.281403
0.948944 0.468567 0.243958
1.000000 0.485657 0.147247
0.246490 0.641754 0.472168
0.292816 0.641266 0.472870
0.307953 0.641754 0.445679
0.429993 0.641602 0.427490
0.636780 0.643921 0.362976
0.802307 0.618500 0.320831
0.933502 0.600433 0.285767
1.000000 0.601227 0.203247
0.372772 0.744568 0.553375
0.374817 0.744385 0.546143
0.381653 0.745209 0.528534
0.446655 0.743988 0.524994
0.572876 0.750580 0.489532
0.749542 0.757141 0.421448
0.914703 0.756561 0.348999
1.000000 0.754578 0.275665
0.401489 0.867157 0.626007
0.404022 0.867676 0.620514
0.411224 0.869568 0.606201
0.469727 0.870361 0.602600
0.571350 0.871918 0.589417
0.719330 0.876678 0.546936
0.880920 0.879730 0.471191
1.000000 0.876953 0.361969
0.509796 0.974609 0.727570
0.511566 0.974945 0.723297
0.517731 0.976013 0.712555
0.559845 0.976166 0.708893
0.628510 0.975494 0.711884
0.734924 0.977631 0.681152
0.858246 0.979095 0.629211
0.992432 0.979889 0.535645
0.000000 0.099060 0.505707
0.000000 0.098419 0.504150
0.256439 0.084869 0.497925
0.492554 0.000000 0.490204
0.715454 0.000000 0.469299
0.850952 0.063141 0.402802
0.955719 0.294739 0.400116
1.000000 0.464935 0.446716
0.000000 0.189392 0.513641
0.000000 0.188721 0.511749
0.272064 0.182434 0.505219
0.502136 0.152435 0.496368
0.712799 0.123657 0.472748
0.842285 0.224121 0.416351
0.939423 0.392548 0.440002
1.000000 0.478912 0.446198
0.000000 0.338318 0.523224
0.029083 0.343842 0.522827
0.313721 0.355164 0.521637
0.521454 0.350067 0.513550
0.701965 0.362579 0.488403
0.814819 0.432434 0.474304
0.920227 0.503204 0.487701
1.000000 0.515289 0.445404
0.000000 0.518768 0.536346
0.055969 0.521027 0.535858
0.345459 0.525879 0.534363
0.532562 0.532104 0.532623
0.674316 0.542755 0.525360
0.790833 0.553131 0.515350
0.915741 0.566162 0.496307
1.000000 0.581451 0.455536
0.240570 0.649597 0.551544
0.319183 0.648651 0.556763
0.442444 0.646179 0.568481
0.527740 0.646179 0.568542
0.646088 0.649628 0.544067
0.781860 0.642303 0.526611
0.911194 0.644135 0.507599
1.000000 0.664459 0.471344
0.420532 0.747986 0.618683
0.447510 0.747589 0.621490
0.508301 0.746948 0.629272
0.524658 0.748718 0.607971
0.602753 0.751282 0.595184
0.752014 0.759552 0.557922
0.902496 0.766449 0.525513
1.000000 0.770416 0.490906
0.483246 0.867920 0.695312
0.499268 0.867920 0.695404
0.507050 0.869324 0.683441
0.516357 0.872345 0.659851
0.586151 0.871521 0.654785
0.722015 0.877014 0.623840
0.878937 0.880737 0.572662
1.000000 0.880188 0.516052
0.578094 0.971710 0.780487
0.578552 0.971802 0.776337
0.583282 0.972839 0.766968
0.593628 0.975067 0.750732
0.649506 0.975067 0.749359
0.736969 0.976624 0.733276
0.854309 0.978699 0.686584
0.988312 0.979462 0.605957
0.000000 0.168091 0.655609
0.000000 0.171234 0.654755
0.225067 0.174866 0.651489
0.450226 0.174469 0.645935
0.653717 0.154358 0.641327
0.813232 0.186646 0.613129
0.929138 0.297333 0.586670
1.000000 0.397400 0.574860
0.000000 0.253998 0.656769
0.031708 0.255920 0.655884
0.268982 0.258423 0.652527
0.466461 0.261383 0.647095
0.654449 0.254456 0.641327
0.804535 0.281982 0.615936
0.921875 0.361694 0.594757
1.000000 0.435547 0.580688
0.080322 0.389496 0.658020
0.214386 0.399933 0.657288
0.360657 0.411377 0.654968
0.505127 0.416138 0.649811
0.654694 0.416870 0.643738
0.786224 0.434784 0.628571
0.911011 0.473572 0.613129
1.000000 0.518433 0.596405
0.215607 0.522705 0.659393
0.295624 0.528717 0.658417
0.425262 0.543060 0.656158
0.547089 0.558960 0.654846
0.651947 0.557159 0.648865
0.772675 0.562378 0.642792
0.908966 0.583649 0.629059
1.000000 0.647491 0.636444
0.316467 0.647766 0.663757
0.364685 0.648651 0.663422
0.454346 0.650391 0.662354
0.555359 0.653473 0.661530
0.654266 0.657135 0.660248
0.771759 0.667877 0.655426
0.900543 0.682831 0.645203
1.000000 0.701202 0.624664
0.397980 0.756805 0.682220
0.425171 0.756805 0.683044
0.485626 0.756470 0.685852
0.568176 0.757050 0.690796
0.638641 0.758850 0.685364
0.756622 0.765259 0.664154
0.898499 0.770966 0.646881
1.000000 0.775848 0.626587
0.435883 0.874390 0.740295
0.456573 0.874298 0.740662
0.507141 0.874542 0.742340
0.594452 0.874786 0.749420
0.628540 0.877075 0.726715
0.724274 0.878967 0.711853
0.877533 0.883057 0.671326
1.000000 0.881622 0.636841
0.536224 0.975586 0.810211
0.561768 0.974548 0.812805
0.628265 0.972290 0.822784
0.678711 0.971924 0.824249
0.689056 0.974884 0.803436
0.749786 0.975098 0.801605
0.851929 0.978394 0.764526
0.983307 0.979675 0.696503
0.000000 0.277924 0.766357
0.071625 0.282623 0.765717
0.287109 0.292816 0.763519
0.456360 0.307495 0.759735
0.615387 0.324982 0.753418
0.764069 0.332489 0.747925
0.894867 0.362335 0.738770
1.000000 0.426056 0.748260
0.140137 0.350922 0.766052
0.216492 0.353790 0.765442
0.340973 0.359863 0.763031
0.481110 0.369659 0.758789
0.623505 0.382507 0.752197
0.761963 0.388367 0.747162
0.889496 0.410370 0.740875
1.000000 0.457794 0.750275
0.317444 0.472015 0.766785
0.360077 0.477966 0.765533
0.430542 0.480194 0.763000
0.530121 0.484772 0.759308
0.642273 0.490265 0.753632
0.759857 0.491241 0.749329
0.882690 0.498657 0.748657
1.000000 0.522400 0.755280
0.375305 0.569519 0.767731
0.410187 0.573761 0.766693
0.482239 0.583466 0.765442
0.567566 0.591370 0.764282
0.657837 0.591187 0.759674
0.758820 0.587311 0.754852
0.881439 0.585266 0.758209
1.000000 0.598511 0.755035
0.405609 0.665924 0.771271
0.432495 0.667328 0.770905
0.491180 0.670227 0.770050
0.571106 0.675171 0.771118
0.661377 0.676636 0.769501
0.760132 0.672668 0.763824
0.890869 0.672363 0.765167
1.000000 0.691559 0.747467
0.415802 0.764252 0.780334
0.437561 0.764923 0.780548
0.487274 0.765686 0.780212
0.561035 0.767151 0.779755
0.653625 0.769318 0.778839
0.764343 0.773682 0.778046
0.894135 0.788025 0.774078
1.000000 0.800781 0.761627
0.398682 0.881866 0.809082
0.420898 0.882050 0.809052
0.474213 0.882629 0.809052
0.558411 0.883179 0.809967
0.666595 0.882416 0.813477
0.756897 0.882690 0.809784
0.876678 0.886414 0.785370
0.999603 0.882599 0.764679
0.492828 0.980682 0.856476
0.512146 0.980225 0.856659
0.560883 0.979156 0.857727
0.637909 0.977417 0.860809
0.743011 0.974030 0.871674
0.789398 0.975281 0.862732
0.858307 0.977661 0.850189
0.978027 0.980255 0.804474
0.320099 0.426666 0.880646
0.358093 0.430756 0.880707
0.436768 0.437439 0.879120
0.542816 0.447693 0.876770
0.660553 0.460663 0.873993
0.776276 0.471710 0.868683
0.889069 0.469025 0.865021
0.996399 0.476807 0.861908
0.370758 0.473511 0.879852
0.399017 0.475037 0.879364
0.464081 0.478363 0.877625
0.556885 0.483673 0.874939
0.663391 0.489716 0.870789
0.774445 0.496826 0.866058
0.885223 0.492615 0.862976
0.992432 0.497070 0.860443
0.435364 0.552765 0.879700
0.455780 0.552704 0.878967
0.505859 0.553131 0.877594
0.582581 0.554047 0.875397
0.675873 0.554413 0.871857
0.778351 0.555786 0.868042
0.883911 0.548676 0.865173
0.989777 0.547791 0.863251
0.446716 0.621338 0.880585
0.468933 0.622589 0.879883
0.524719 0.628326 0.879181
0.596252 0.629303 0.878235
0.682526 0.626862 0.875366
0.779114 0.623505 0.871368
0.881500 0.614044 0.867950
0.989990 0.611023 0.867798
0.449890 0.704346 0.883698
0.470032 0.705200 0.884155
0.514984 0.704590 0.883667
0.583313 0.702454 0.883667
0.676819 0.702484 0.881744
0.776123 0.698700 0.877777
0.880219 0.691467 0.873932
0.992401 0.693604 0.874939
0.435669 0.792816 0.887604
0.454407 0.792755 0.887604
0.499512 0.792297 0.887451
0.570953 0.791565 0.887360
0.663696 0.790497 0.886810
0.773132 0.792877 0.886047
0.878265 0.790436 0.882446
0.990753 0.797333 0.880951
0.427307 0.883392 0.894470
0.446075 0.883362 0.894318
0.493500 0.883820 0.894562
0.569366 0.884796 0.895020
0.666443 0.885681 0.894897
0.774658 0.887390 0.894379
0.881195 0.890839 0.893738
0.986023 0.900208 0.890076
0.454803 0.983704 0.916962
0.474731 0.983490 0.916595
0.524292 0.983032 0.915833
0.603027 0.982056 0.915131
0.700500 0.980194 0.915619
0.805908 0.977509 0.920471
0.886292 0.976868 0.922516
0.976044 0.980438 0.901306
0.538849 0.583435 0.972809
0.555237 0.584351 0.972778
0.594208 0.585236 0.972168
0.656677 0.587036 0.971436
0.734680 0.587708 0.969879
0.821899 0.588257 0.968048
0.911194 0.589172 0.966003
1.000000 0.580200 0.966705
0.544830 0.601135 0.971680
0.559998 0.601379 0.971527
0.597717 0.601868 0.971130
0.657990 0.602448 0.970398
0.733948 0.601562 0.968781
0.820312 0.601166 0.967163
0.909180 0.600983 0.965271
1.000000 0.592499 0.966339
0.567139 0.650391 0.975586
0.579559 0.649139 0.974976
0.611755 0.646729 0.973755
0.665405 0.643219 0.971924
0.736298 0.638855 0.969666
0.819763 0.636292 0.967926
0.907715 0.635284 0.966522
0.999908 0.627960 0.968048
0.545013 0.686707 0.972168
0.563995 0.689240 0.971832
0.603027 0.691284 0.971069
0.658173 0.689240 0.970337
0.730194 0.686127 0.969116
0.816986 0.688416 0.969757
0.904510 0.687469 0.968872
0.996796 0.681122 0.970184
0.522186 0.748047 0.975342
0.535767 0.747040 0.975281
0.569824 0.744171 0.975037
0.644989 0.750854 0.974152
0.727570 0.755096 0.972809
0.811584 0.755005 0.972260
0.900055 0.758148 0.972107
0.989410 0.749146 0.971161
0.529968 0.831207 0.979156
0.543640 0.830597 0.979004
0.579620 0.829742 0.978821
0.641785 0.829895 0.978973
0.719635 0.829681 0.978638
0.817902 0.841064 0.977142
0.896942 0.838654 0.975189
0.982117 0.832123 0.973602
0.545746 0.907715 0.982178
0.568939 0.909485 0.983185
0.605011 0.909424 0.983124
0.664490 0.909943 0.983093
0.736816 0.910156 0.982422
0.818237 0.911743 0.981476
0.902985 0.917023 0.979950
0.979340 0.913879 0.978149
0.574097 0.978241 0.985443
0.587921 0.978333 0.985413
0.620636 0.978455 0.985138
0.673706 0.978699 0.984741
0.742462 0.979218 0.984131
0.820557 0.980164 0.983490
0.903442 0.982025 0.983490
0.982666 0.984436 0.984894
