colors/姜黄.cube
#Created by: Adobe Photoshop Export Color Lookup Plugin
#Copyright: (C) Copyright 2026 小米
TITLE "美食.psd"
#LUT size
LUT_3D_SIZE 36
#data domain
DOMAIN_MIN 0.0 0.0 0.0
DOMAIN_MAX 1.0 1.0 1.0
#LUT data points
0.046051 0.035614 0.022064
0.062073 0.037384 0.022644
0.077942 0.039337 0.023102
0.094879 0.042114 0.023651
0.113220 0.045288 0.024292
0.132660 0.048706 0.025024
0.153259 0.052338 0.025604
0.175629 0.056183 0.025543
0.200073 0.059906 0.025208
0.227203 0.062897 0.024780
0.257172 0.065582 0.023010
0.290741 0.067902 0.020721
0.327332 0.069641 0.017944
0.366730 0.070923 0.014252
0.408142 0.072021 0.009369
0.450836 0.073395 0.003937
0.494598 0.075684 0.000000
0.538361 0.079865 0.000000
0.581421 0.087189 0.000000
0.623383 0.096741 0.000000
0.663849 0.109161 0.000000
0.702423 0.123840 0.000000
0.739105 0.139984 0.000000
0.774597 0.157532 0.000000
0.809113 0.176544 0.000000
0.841797 0.196350 0.000000
0.871918 0.215576 0.000000
0.899719 0.234528 0.000000
0.925507 0.253204 0.000000
0.949829 0.271881 0.000000
0.972809 0.290375 0.000000
0.991150 0.308990 0.000000
1.000000 0.327850 0.000000
1.000000 0.346924 0.000000
1.000000 0.366119 0.000000
1.000000 0.386078 0.000000
0.048065 0.049438 0.026001
0.060944 0.049622 0.024475
0.078705 0.051971 0.023041
0.097748 0.053619 0.021576
0.116302 0.055756 0.021698
0.135345 0.058380 0.022308
0.155640 0.061340 0.022858
0.177795 0.064606 0.023193
0.202026 0.067993 0.023102
0.228760 0.071014 0.022278
0.258759 0.073761 0.020782
0.291901 0.076385 0.018433
0.328308 0.078644 0.015228
0.367218 0.080475 0.011505
0.408325 0.082367 0.006622
0.450897 0.084717 0.002014
0.494354 0.087982 0.000000
0.537750 0.093048 0.000000
0.580719 0.099945 0.000000
0.622437 0.109619 0.000000
0.662781 0.121216 0.000000
0.701263 0.135040 0.000000
0.737854 0.150330 0.000000
0.773315 0.167053 0.000000
0.807709 0.185150 0.000000
0.839905 0.203644 0.000000
0.869751 0.222046 0.000000
0.897247 0.240082 0.000000
0.923004 0.258026 0.000000
0.947357 0.275909 0.000000
0.970398 0.293884 0.000000
0.989960 0.311981 0.000000
1.000000 0.330261 0.000000
1.000000 0.348907 0.000000
1.000000 0.367859 0.000000
1.000000 0.387329 0.000000
0.052551 0.062256 0.030426
0.058929 0.062561 0.028687
0.074860 0.062439 0.027405
0.094666 0.065125 0.025146
0.116272 0.066956 0.022064
0.137329 0.068817 0.020569
0.158386 0.070923 0.020050
0.180389 0.073517 0.020172
0.204315 0.076752 0.020325
0.230865 0.079895 0.019409
0.260590 0.082855 0.018127
0.293762 0.085754 0.015686
0.329865 0.088531 0.012238
0.368683 0.091034 0.008026
0.409485 0.093536 0.003784
0.451721 0.096527 0.000519
0.494812 0.100494 0.000000
0.538025 0.106049 0.000000
0.580750 0.113434 0.000000
0.622314 0.122559 0.000000
0.662415 0.134064 0.000000
0.700745 0.147186 0.000000
0.737213 0.161713 0.000000
0.772736 0.177826 0.000000
0.807129 0.195099 0.000000
0.838959 0.212402 0.000000
0.868500 0.229858 0.000000
0.895844 0.247009 0.000000
0.921448 0.264130 0.000000
0.945770 0.281403 0.000000
0.968872 0.298737 0.000000
0.989197 0.316254 0.000000
1.000000 0.334076 0.000000
1.000000 0.352295 0.000000
1.000000 0.370941 0.000000
1.000000 0.389923 0.000000
0.057312 0.075378 0.034912
0.060364 0.074951 0.033600
0.070251 0.075592 0.031342
0.088989 0.075500 0.029938
0.111237 0.078735 0.027405
0.134857 0.081329 0.023712
0.159119 0.083588 0.020447
0.183289 0.085846 0.018311
0.207275 0.088593 0.017670
0.233978 0.091492 0.016144
0.263763 0.094666 0.013794
0.296783 0.097778 0.011475
0.332642 0.101013 0.007812
0.371063 0.104401 0.003998
0.411591 0.107788 0.001587
0.453461 0.111511 0.000000
0.496063 0.116150 0.000000
0.538788 0.122162 0.000000
0.581085 0.129730 0.000000
0.622192 0.138672 0.000000
0.661896 0.149658 0.000000
0.699860 0.161926 0.000000
0.736542 0.175903 0.000000
0.771729 0.190948 0.000000
0.805786 0.207184 0.000000
0.837341 0.223450 0.000000
0.866669 0.239838 0.000000
0.894196 0.256104 0.000000
0.919983 0.272461 0.000000
0.944489 0.289062 0.000000
0.967804 0.305939 0.000000
0.988617 0.322876 0.000000
1.000000 0.340088 0.000000
1.000000 0.357758 0.000000
1.000000 0.375854 0.000000
1.000000 0.394196 0.000000
0.060211 0.089111 0.039185
0.062714 0.088470 0.038055
0.066040 0.088715 0.035278
0.081879 0.089325 0.033722
0.103821 0.089417 0.032043
0.128784 0.093140 0.029175
0.154175 0.096863 0.024841
0.181610 0.100067 0.019897
0.208344 0.102997 0.016846
0.237335 0.105988 0.013641
0.267212 0.109039 0.010864
0.300171 0.112488 0.007324
0.335907 0.116119 0.003662
0.373962 0.120056 0.001953
0.414001 0.124390 0.000000
0.455505 0.129181 0.000000
0.497772 0.134674 0.000000
0.540131 0.141266 0.000000
0.581970 0.149200 0.000000
0.622894 0.158173 0.000000
0.662170 0.168640 0.000000
0.699829 0.180420 0.000000
0.736542 0.193451 0.000000
0.771637 0.207672 0.000000
0.805023 0.222534 0.000000
0.836212 0.237671 0.000000
0.865448 0.252991 0.000000
0.892944 0.268341 0.000000
0.918823 0.283722 0.000000
0.943451 0.299408 0.000000
0.966766 0.315338 0.000000
0.988190 0.331696 0.000000
1.000000 0.348175 0.000000
1.000000 0.365051 0.000000
1.000000 0.382385 0.000000
1.000000 0.399994 0.000000
0.061676 0.104004 0.043610
0.063934 0.103394 0.042572
0.066010 0.103058 0.040710
0.074188 0.103729 0.037292
0.094727 0.104431 0.035919
0.119629 0.104797 0.033936
0.147552 0.109100 0.030518
0.175079 0.114105 0.025177
0.204926 0.118439 0.019501
0.236755 0.122345 0.014069
0.270233 0.126190 0.008789
0.304443 0.129822 0.004211
0.340057 0.133759 0.001740
0.377930 0.138184 0.000000
0.417664 0.143066 0.000000
0.458679 0.148468 0.000000
0.500519 0.154907 0.000000
0.542603 0.162048 0.000000
0.584076 0.170380 0.000000
0.624603 0.179626 0.000000
0.663635 0.190125 0.000000
0.701172 0.201569 0.000000
0.737701 0.214264 0.000000
0.772675 0.227661 0.000000
0.809540 0.243988 0.000000
0.842926 0.259674 0.000000
0.871887 0.273987 0.000000
0.898895 0.288391 0.000000
0.924286 0.302673 0.000000
0.948334 0.317169 0.000000
0.971130 0.331940 0.000000
0.987732 0.346924 0.000000
1.000000 0.362457 0.000000
1.000000 0.378326 0.000000
1.000000 0.394623 0.000000
1.000000 0.411285 0.000000
0.062561 0.121246 0.048828
0.064697 0.120514 0.047913
0.067261 0.119812 0.046875
0.071503 0.119873 0.043701
0.085480 0.121033 0.039978
0.109650 0.122009 0.038300
0.137390 0.122711 0.035797
0.168915 0.127960 0.031860
0.199219 0.134155 0.025421
0.232330 0.139954 0.017914
0.269562 0.145538 0.009552
0.307953 0.150513 0.002167
0.347351 0.155304 0.000305
0.385040 0.159943 0.000000
0.424561 0.165253 0.000000
0.465179 0.171143 0.000000
0.506500 0.177734 0.000000
0.547974 0.185333 0.000000
0.588959 0.193817 0.000000
0.628754 0.203217 0.000000
0.667297 0.213593 0.000000
0.705383 0.225281 0.000000
0.741974 0.237854 0.000000
0.776947 0.250977 0.000000
0.809509 0.264313 0.000000
0.850830 0.284393 0.000000
0.879517 0.298096 0.000000
0.906250 0.311584 0.000000
0.931335 0.324890 0.000000
0.954895 0.338135 0.000000
0.977081 0.351654 0.000000
0.993774 0.365479 0.000000
1.000000 0.379578 0.000000
1.000000 0.394226 0.000000
1.000000 0.409332 0.000000
1.000000 0.424866 0.000000
0.062378 0.141235 0.054993
0.064972 0.140442 0.054199
0.067688 0.139679 0.053101
0.070374 0.138977 0.050873
0.077911 0.139740 0.046204
0.099121 0.141266 0.043060
0.126892 0.142639 0.040955
0.157776 0.143799 0.037781
0.193420 0.150085 0.033264
0.227417 0.157867 0.024567
0.264923 0.165588 0.014343
0.306152 0.172821 0.003815
0.350311 0.179626 0.000000
0.393494 0.185822 0.000000
0.433868 0.191559 0.000000
0.474182 0.197784 0.000000
0.514862 0.204529 0.000000
0.555664 0.212219 0.000000
0.595886 0.220581 0.000000
0.634888 0.229767 0.000000
0.673157 0.239838 0.000000
0.711151 0.251190 0.000000
0.748199 0.263611 0.000000
0.783020 0.276367 0.000000
0.815674 0.289124 0.000000
0.846619 0.302307 0.000000
0.875793 0.316010 0.000000
0.902985 0.328674 0.000000
0.928345 0.341248 0.000000
0.952148 0.353516 0.000000
0.974518 0.365967 0.000000
0.992157 0.378693 0.000000
1.000000 0.391724 0.000000
1.000000 0.405151 0.000000
1.000000 0.419128 0.000000
1.000000 0.433746 0.000000
0.060089 0.161926 0.061768
0.062561 0.161407 0.060944
0.065643 0.160675 0.059937
0.069153 0.159485 0.058502
0.072113 0.159485 0.053650
0.085022 0.161072 0.047943
0.113770 0.162842 0.045898
0.144775 0.164703 0.043304
0.178711 0.166718 0.039642
0.219025 0.173737 0.034058
0.257019 0.183380 0.022430
0.297668 0.193054 0.009277
0.341522 0.201996 0.001740
0.387665 0.210358 0.000000
0.434113 0.218140 0.000000
0.478394 0.225342 0.000000
0.518585 0.232147 0.000000
0.558716 0.239502 0.000000
0.598297 0.247528 0.000000
0.636963 0.256226 0.000000
0.675751 0.266235 0.000000
0.713226 0.277069 0.000000
0.748932 0.288269 0.000000
0.782715 0.299622 0.000000
0.814575 0.311188 0.000000
0.844910 0.323242 0.000000
0.873810 0.335327 0.000000
0.900757 0.347504 0.000000
0.926056 0.359375 0.000000
0.949860 0.370850 0.000000
0.972290 0.382294 0.000000
0.990784 0.393921 0.000000
1.000000 0.405792 0.000000
1.000000 0.418091 0.000000
1.000000 0.430969 0.000000
1.000000 0.444519 0.000000
0.053436 0.186035 0.069397
0.057007 0.185150 0.068268
0.059967 0.184296 0.067078
0.063995 0.183136 0.065796
0.068756 0.181793 0.063904
0.076691 0.182617 0.057892
0.096161 0.185394 0.051147
0.129395 0.187805 0.048737
0.164215 0.190308 0.045044
0.202301 0.192963 0.040436
0.248230 0.201019 0.033478
0.289429 0.212921 0.018585
0.332825 0.224396 0.005005
0.378815 0.234924 0.000000
0.426331 0.244629 0.000000
0.474426 0.253723 0.000000
0.521362 0.262177 0.000000
0.562927 0.269470 0.000000
0.602264 0.277252 0.000000
0.641357 0.286163 0.000000
0.679169 0.295502 0.000000
0.715607 0.305206 0.000000
0.750305 0.315125 0.000000
0.783264 0.325287 0.000000
0.814545 0.335663 0.000000
0.844482 0.346344 0.000000
0.872925 0.357300 0.000000
0.899719 0.368225 0.000000
0.924805 0.378998 0.000000
0.948486 0.389862 0.000000
0.970886 0.400574 0.000000
0.989960 0.411102 0.000000
1.000000 0.421814 0.000000
1.000000 0.433014 0.000000
1.000000 0.444733 0.000000
1.000000 0.457123 0.000000
0.037750 0.213165 0.077698
0.041931 0.212250 0.076752
0.046021 0.211334 0.075531
0.051483 0.210114 0.074036
0.057526 0.208557 0.072205
0.061920 0.208069 0.066895
0.075714 0.209991 0.058807
0.108093 0.213013 0.053741
0.145721 0.216125 0.050262
0.185272 0.219482 0.045837
0.228241 0.223053 0.039703
0.278809 0.231934 0.032074
0.323151 0.245544 0.012817
0.368530 0.258545 0.002045
0.415833 0.270355 0.000000
0.464264 0.281128 0.000000
0.513214 0.291199 0.000000
0.561218 0.301086 0.000000
0.607727 0.310425 0.000000
0.645844 0.318146 0.000000
0.682831 0.326477 0.000000
0.718323 0.335083 0.000000
0.752075 0.343842 0.000000
0.784088 0.352539 0.000000
0.814514 0.361328 0.000000
0.843597 0.370575 0.000000
0.871368 0.380005 0.000000
0.897552 0.389404 0.000000
0.922302 0.398987 0.000000
0.945892 0.408691 0.000000
0.968384 0.418488 0.000000
0.988800 0.428406 0.000000
1.000000 0.438385 0.000000
1.000000 0.448608 0.000000
1.000000 0.459351 0.000000
1.000000 0.470703 0.000000
0.009583 0.242645 0.086761
0.014465 0.241821 0.085693
0.019592 0.241028 0.084412
0.025665 0.239685 0.082764
0.034546 0.238068 0.080902
0.044464 0.236115 0.078674
0.050323 0.236908 0.069580
0.072083 0.240540 0.059174
0.119629 0.244141 0.055756
0.163452 0.248199 0.051453
0.208557 0.252472 0.045502
0.256287 0.256927 0.037384
0.311646 0.266998 0.028046
0.358917 0.281677 0.007324
0.406372 0.295959 0.000000
0.455170 0.309021 0.000000
0.504425 0.320801 0.000000
0.553497 0.331848 0.000000
0.601318 0.341888 0.000000
0.646057 0.350800 0.000000
0.685547 0.358490 0.000000
0.720337 0.365875 0.000000
0.753265 0.373169 0.000000
0.784515 0.380615 0.000000
0.814392 0.388245 0.000000
0.843018 0.396271 0.000000
0.870361 0.404419 0.000000
0.896240 0.412567 0.000000
0.920837 0.420868 0.000000
0.944305 0.429413 0.000000
0.966736 0.438263 0.000000
0.987915 0.447144 0.000000
1.000000 0.456299 0.000000
1.000000 0.465668 0.000000
1.000000 0.475403 0.000000
1.000000 0.485718 0.000000
0.000275 0.275391 0.097076
0.001740 0.274567 0.095825
0.003235 0.273682 0.094574
0.004822 0.272430 0.092896
0.007446 0.270752 0.090820
0.011810 0.268738 0.088409
0.019165 0.267242 0.083832
0.030304 0.269928 0.070770
0.075134 0.274323 0.061737
0.132904 0.278748 0.057190
0.183716 0.283661 0.051300
0.234589 0.289154 0.043823
0.287140 0.294830 0.033325
0.352325 0.311768 0.020203
0.404114 0.328186 0.003204
0.453735 0.343201 0.000000
0.503448 0.356873 0.000000
0.552704 0.368958 0.000000
0.600708 0.379578 0.000000
0.646332 0.388733 0.000000
0.689270 0.396881 0.000000
0.729248 0.403778 0.000000
0.762085 0.409729 0.000000
0.792511 0.415527 0.000000
0.821442 0.421600 0.000000
0.849213 0.427979 0.000000
0.875732 0.434631 0.000000
0.900787 0.441254 0.000000
0.924652 0.448029 0.000000
0.947418 0.455017 0.000000
0.969208 0.462311 0.000000
0.988251 0.470001 0.000000
1.000000 0.477905 0.000000
1.000000 0.486176 0.000000
1.000000 0.494720 0.000000
1.000000 0.503876 0.000000
0.000000 0.312500 0.109711
0.000000 0.311676 0.108398
0.000000 0.310608 0.107025
0.000000 0.309265 0.105164
0.000000 0.307312 0.102783
0.000000 0.305298 0.100098
0.000000 0.302887 0.097168
0.003723 0.303101 0.087280
0.026245 0.307739 0.070984
0.079254 0.312958 0.064240
0.149841 0.318726 0.058594
0.208221 0.325073 0.051117
0.264954 0.331818 0.041565
0.322632 0.338745 0.028748
0.392853 0.357483 0.011810
0.446472 0.372711 0.001129
0.496826 0.387482 0.000000
0.546204 0.400970 0.000000
0.594116 0.412415 0.000000
0.639587 0.421936 0.000000
0.683105 0.430206 0.000000
0.724030 0.437164 0.000000
0.762451 0.442932 0.000000
0.795227 0.447662 0.000000
0.824371 0.452393 0.000000
0.851532 0.457245 0.000000
0.877472 0.462524 0.000000
0.902191 0.467865 0.000000
0.925720 0.473511 0.000000
0.948242 0.479279 0.000000
0.969757 0.485474 0.000000
0.989746 0.491913 0.000000
1.000000 0.498810 0.000000
1.000000 0.506104 0.000000
1.000000 0.513611 0.000000
1.000000 0.521698 0.000000
0.000000 0.351471 0.124542
0.000000 0.350769 0.123291
0.000000 0.349609 0.121704
0.000000 0.348175 0.119690
0.000000 0.346344 0.117218
0.000000 0.343933 0.114136
0.000000 0.341461 0.110809
0.000000 0.338959 0.106750
0.000000 0.341797 0.088501
0.025513 0.348022 0.072906
0.092651 0.354187 0.067627
0.171570 0.360870 0.060883
0.235748 0.368134 0.052307
0.297241 0.375519 0.040741
0.359009 0.383087 0.026062
0.428772 0.398499 0.006195
0.483215 0.412415 0.000214
0.533112 0.426270 0.000000
0.580750 0.438812 0.000000
0.626251 0.449036 0.000000
0.669891 0.457642 0.000000
0.711212 0.464783 0.000000
0.750061 0.470581 0.000000
0.786438 0.475433 0.000000
0.820190 0.479492 0.000000
0.848633 0.483398 0.000000
0.875244 0.487610 0.000000
0.899872 0.491913 0.000000
0.923431 0.496582 0.000000
0.945923 0.501526 0.000000
0.967468 0.506744 0.000000
0.988159 0.512360 0.000000
0.999969 0.518433 0.000000
1.000000 0.524933 0.000000
1.000000 0.531738 0.000000
1.000000 0.539001 0.000000
0.000000 0.390045 0.141418
0.000000 0.389465 0.140320
0.000000 0.388336 0.138580
0.000000 0.386810 0.136261
0.000000 0.385010 0.133698
0.000000 0.382751 0.130585
0.000000 0.380096 0.126862
0.000000 0.377075 0.122925
0.000000 0.375336 0.114807
0.000000 0.381165 0.088928
0.033203 0.387482 0.078369
0.113098 0.394012 0.072845
0.196075 0.401123 0.065643
0.264435 0.408569 0.056274
0.329010 0.416046 0.044037
0.393158 0.423492 0.027954
0.464600 0.439056 0.005707
0.519196 0.451080 0.001709
0.567566 0.463409 0.000000
0.613007 0.474609 0.000000
0.656830 0.483795 0.000000
0.698517 0.491302 0.000000
0.737915 0.497375 0.000000
0.774994 0.502380 0.000000
0.809937 0.506592 0.000000
0.842957 0.510071 0.000000
0.872040 0.513367 0.000000
0.898010 0.516724 0.000000
0.921722 0.520447 0.000000
0.944214 0.524536 0.000000
0.965759 0.529022 0.000000
0.986542 0.533752 0.000000
0.999664 0.538971 0.000000
1.000000 0.544769 0.000000
1.000000 0.550842 0.000000
1.000000 0.557373 0.000000
0.000000 0.428772 0.160919
0.000000 0.428101 0.159882
0.000000 0.427002 0.158173
0.000000 0.425507 0.155731
0.000000 0.423615 0.152802
0.000000 0.421265 0.149445
0.000000 0.418488 0.145538
0.000000 0.415466 0.141113
0.000000 0.412048 0.136444
0.000000 0.413757 0.118378
0.000000 0.420502 0.095398
0.048462 0.427124 0.087250
0.139374 0.433960 0.081390
0.224182 0.441101 0.074005
0.295288 0.448395 0.064880
0.361725 0.455658 0.053253
0.427094 0.462555 0.036743
0.499908 0.477936 0.013885
0.553833 0.487732 0.005188
0.600189 0.498322 0.000977
0.644043 0.508392 0.000000
0.686005 0.516571 0.000000
0.725891 0.523163 0.000000
0.763580 0.528503 0.000000
0.799164 0.532959 0.000000
0.832764 0.536469 0.000000
0.864380 0.539459 0.000000
0.894012 0.542023 0.000000
0.919373 0.544861 0.000000
0.942688 0.548004 0.000000
0.964264 0.551697 0.000000
0.985077 0.555817 0.000000
0.998596 0.560272 0.000000
1.000000 0.565277 0.000000
1.000000 0.570831 0.000000
1.000000 0.576721 0.000000
0.000000 0.465668 0.182129
0.000000 0.465118 0.181061
0.000000 0.464203 0.179382
0.000000 0.462952 0.177216
0.000000 0.461243 0.174469
0.000000 0.459045 0.170868
0.000000 0.456512 0.166748
0.000000 0.453796 0.162415
0.000000 0.450623 0.157562
0.000000 0.447144 0.152222
0.000000 0.453674 0.120392
0.000000 0.460236 0.105896
0.069885 0.466675 0.099945
0.171600 0.473236 0.094574
0.255585 0.479858 0.087769
0.327515 0.486420 0.079163
0.394958 0.492828 0.068481
0.460449 0.498810 0.054596
0.533234 0.513702 0.032196
0.585815 0.521027 0.012878
0.630951 0.530426 0.004852
0.673248 0.539703 0.000000
0.713684 0.547241 0.000000
0.752136 0.553284 0.000000
0.788391 0.558105 0.000000
0.822601 0.562012 0.000000
0.854889 0.565186 0.000000
0.885101 0.567871 0.000000
0.913635 0.570099 0.000000
0.940033 0.572266 0.000000
0.963135 0.574951 0.000000
0.984009 0.578247 0.000000
0.997742 0.582062 0.000000
1.000000 0.586273 0.000000
1.000000 0.590881 0.000000
1.000000 0.596039 0.000000
0.000000 0.500641 0.204956
0.000000 0.499969 0.203705
0.000000 0.499023 0.201996
0.000000 0.497833 0.199677
0.000000 0.496399 0.197113
0.000000 0.494507 0.193848
0.000000 0.492157 0.189850
0.000000 0.489502 0.185455
0.000000 0.486542 0.180389
0.000000 0.483185 0.174957
0.000000 0.483612 0.159943
0.000000 0.490204 0.130249
0.000000 0.496582 0.120117
0.091156 0.502747 0.116180
0.206757 0.508972 0.111359
0.288971 0.515167 0.105347
0.360901 0.521240 0.098083
0.428009 0.527008 0.089386
0.493042 0.532410 0.078766
0.564667 0.546265 0.064270
0.617126 0.552429 0.055328
0.661194 0.561127 0.019318
0.701935 0.569733 0.000000
0.740723 0.576569 0.000000
0.777527 0.582001 0.000000
0.812256 0.586365 0.000000
0.845093 0.589935 0.000000
0.875916 0.592834 0.000000
0.905029 0.595215 0.000000
0.932526 0.597229 0.000000
0.958466 0.599030 0.000000
0.981934 0.601166 0.000000
0.997009 0.604004 0.000000
1.000000 0.607544 0.000000
1.000000 0.611572 0.000000
1.000000 0.616028 0.000000
0.000000 0.534332 0.229858
0.000000 0.533844 0.228729
0.000000 0.539459 0.232483
0.000000 0.538849 0.230927
0.000000 0.537384 0.228119
0.000000 0.535553 0.224701
0.000000 0.533356 0.220673
0.000000 0.530853 0.216187
0.000000 0.527954 0.210815
0.000000 0.524719 0.205292
0.000000 0.521362 0.199066
0.000000 0.525757 0.172943
0.000000 0.532074 0.150757
0.035034 0.537842 0.144287
0.143585 0.543427 0.141174
0.250763 0.548950 0.137177
0.330017 0.554382 0.132141
0.400604 0.559479 0.126312
0.467041 0.564392 0.119629
0.530548 0.569031 0.111847
0.599915 0.580994 0.103119
0.651764 0.586029 0.102173
0.694214 0.593506 0.070190
0.732819 0.600922 0.029846
0.769562 0.606873 0.000000
0.804382 0.611603 0.000000
0.837280 0.615387 0.000000
0.868164 0.618286 0.000000
0.897339 0.620544 0.000000
0.924957 0.622498 0.000000
0.951172 0.624146 0.000000
0.976166 0.625641 0.000000
0.994232 0.627167 0.000000
1.000000 0.629303 0.000000
1.000000 0.632538 0.000000
1.000000 0.636353 0.000000
0.000000 0.568542 0.258331
0.000000 0.568542 0.257660
0.000000 0.568756 0.256897
0.000000 0.570160 0.256989
0.000000 0.569183 0.254700
0.000000 0.567657 0.251617
0.000000 0.565704 0.247650
0.000000 0.563324 0.243134
0.000000 0.560669 0.237946
0.000000 0.557800 0.232574
0.000000 0.554504 0.226624
0.000000 0.553070 0.214966
0.000000 0.559601 0.181671
0.000000 0.565277 0.169556
0.077698 0.570465 0.166748
0.199036 0.575592 0.164062
0.291351 0.580688 0.160736
0.367340 0.585602 0.157196
0.435944 0.590393 0.152679
0.500763 0.595032 0.148102
0.563232 0.599548 0.142731
0.630280 0.610138 0.137543
0.681213 0.614258 0.142273
0.722198 0.620972 0.119080
0.759155 0.627838 0.079285
0.794220 0.633362 0.052246
0.827454 0.637726 0.015381
0.858643 0.641113 0.000000
0.888184 0.643829 0.000000
0.916168 0.645966 0.000000
0.942657 0.647827 0.000000
0.968018 0.649384 0.000000
0.989807 0.650787 0.000000
1.000000 0.652100 0.000000
1.000000 0.653992 0.000000
1.000000 0.656281 0.000000
0.000000 0.599274 0.286163
0.000000 0.599304 0.285522
0.000000 0.599304 0.284760
0.000000 0.598999 0.283356
0.000000 0.598419 0.281616
0.000000 0.597260 0.278748
0.000000 0.595581 0.275116
0.000000 0.593414 0.270630
0.000000 0.590973 0.265747
0.000000 0.588379 0.260529
0.000000 0.585388 0.254578
0.000000 0.582397 0.247559
0.000000 0.584351 0.227997
0.000000 0.590942 0.197388
0.002625 0.595978 0.192383
0.120361 0.600830 0.190796
0.248627 0.605713 0.188782
0.332397 0.610443 0.186798
0.404602 0.615021 0.184052
0.471191 0.619476 0.181213
0.534210 0.623749 0.178101
0.594757 0.627899 0.174896
0.659058 0.637115 0.172668
0.708771 0.640381 0.181427
0.748322 0.646545 0.165375
0.783630 0.653015 0.137329
0.817139 0.658203 0.098511
0.848663 0.662231 0.072937
0.878418 0.665497 0.044220
0.906769 0.668121 0.000000
0.933624 0.670288 0.000000
0.959290 0.672180 0.000000
0.983978 0.673798 0.000000
0.999268 0.675293 0.000000
1.000000 0.676636 0.000000
1.000000 0.678101 0.000000
0.000000 0.628021 0.314362
0.000000 0.628082 0.313782
0.000000 0.628113 0.313141
0.000000 0.627899 0.311920
0.000000 0.627350 0.310150
0.000000 0.626373 0.307678
0.000000 0.624969 0.304291
0.000000 0.623077 0.300110
0.000000 0.620850 0.295410
0.000000 0.618439 0.290283
0.000000 0.615662 0.284363
0.000000 0.612671 0.278412
0.000000 0.610718 0.268768
0.000000 0.615692 0.241852
0.000000 0.621429 0.220490
0.044128 0.626068 0.218567
0.199402 0.630646 0.217743
0.296631 0.635101 0.216827
0.373901 0.639496 0.215759
0.443054 0.643768 0.214478
0.507263 0.647949 0.213257
0.568359 0.651947 0.211731
0.626801 0.655945 0.210663
0.688141 0.663971 0.210968
0.736633 0.666595 0.223022
0.774750 0.672363 0.212006
0.808319 0.678467 0.190887
0.840149 0.683380 0.167633
0.870117 0.687347 0.139801
0.898590 0.690582 0.103577
0.925751 0.693237 0.065186
0.951691 0.695557 0.046814
0.976624 0.697540 0.022369
0.996674 0.699341 0.006653
1.000000 0.700897 0.000000
1.000000 0.702332 0.000000
0.000000 0.657166 0.345520
0.000000 0.657166 0.344879
0.000000 0.657074 0.344147
0.000000 0.656738 0.342865
0.000000 0.656128 0.341064
0.000000 0.655212 0.338623
0.000000 0.653870 0.335327
0.000000 0.652313 0.331604
0.000000 0.650330 0.327148
0.000000 0.648132 0.322205
0.000000 0.645660 0.316589
0.000000 0.642975 0.310699
0.000000 0.640198 0.304016
0.000000 0.640564 0.288818
0.000000 0.646759 0.258057
0.010986 0.651520 0.248322
0.136688 0.655640 0.248291
0.260376 0.659760 0.248291
0.344330 0.663818 0.248413
0.416321 0.667786 0.248505
0.481964 0.671692 0.248505
0.543579 0.675507 0.248566
0.602264 0.679230 0.248474
0.658386 0.682953 0.248749
0.716675 0.689941 0.250732
0.763733 0.692200 0.265594
0.799896 0.697632 0.257782
0.831665 0.703033 0.241882
0.861847 0.707825 0.224030
0.890472 0.711823 0.204742
0.917755 0.715149 0.183319
0.943939 0.718018 0.158356
0.969055 0.720520 0.128143
0.991638 0.722687 0.078003
1.000000 0.724609 0.053131
1.000000 0.726318 0.043213
0.000000 0.685760 0.378540
0.000000 0.685577 0.377777
0.000000 0.685303 0.376892
0.000000 0.684845 0.375549
0.000000 0.684143 0.373657
0.000000 0.683136 0.371155
0.000000 0.681885 0.368042
0.000000 0.680359 0.364227
0.000000 0.678741 0.360229
0.000000 0.676788 0.355591
0.000000 0.674683 0.350464
0.000000 0.672363 0.344879
0.000000 0.669769 0.338776
0.000000 0.668152 0.329559
0.000000 0.671112 0.308197
0.001099 0.676819 0.280365
0.060211 0.680542 0.280609
