colors/姜黄.cube
#Created by: Adobe Photoshop Export Color Lookup Plugin
#Copyright: (C) Copyright 2026 小米
TITLE "美食.psd"
#LUT size
LUT_3D_SIZE 8
#data domain
DOMAIN_MIN 0.0 0.0 0.0
DOMAIN_MAX 1.0 1.0 1.0
#LUT data points
0.046051 0.035614 0.022064
0.132660 0.048706 0.025024
0.257172 0.065582 0.023010
0.450836 0.073395 0.003937
0.663849 0.109161 0.000000
0.841797 0.196350 0.000000
0.972809 0.290375 0.000000
1.000000 0.386078 0.000000
0.061676 0.104004 0.043610
0.119629 0.104797 0.033936
0.270233 0.126190 0.008789
0.458679 0.148468 0.000000
0.663635 0.190125 0.000000
0.842926 0.259674 0.000000
0.971130 0.331940 0.000000
1.000000 0.411285 0.000000
0.037750 0.213165 0.077698
0.061920 0.208069 0.066895
0.228241 0.223053 0.039703
0.464264 0.281128 0.000000
0.682831 0.326477 0.000000
0.843597 0.370575 0.000000
0.968384 0.418488 0.000000
1.000000 0.470703 0.000000
0.000000 0.390045 0.141418
0.000000 0.382751 0.130585
0.033203 0.387482 0.078369
0.393158 0.423492 0.027954
0.656830 0.483795 0.000000
0.842957 0.510071 0.000000
0.965759 0.529022 0.000000
1.000000 0.557373 0.000000
0.000000 0.568542 0.258331
0.000000 0.567657 0.251617
0.000000 0.554504 0.226624
0.199036 0.575592 0.164062
0.563232 0.599548 0.142731
0.794220 0.633362 0.052246
0.942657 0.647827 0.000000
1.000000 0.656281 0.000000
0.000000 0.710907 0.409821
0.000000 0.708557 0.403076
0.000000 0.701080 0.383759
0.000000 0.698853 0.330261
0.435944 0.716705 0.318207
0.716949 0.732086 0.326996
0.898224 0.751556 0.320526
1.000000 0.768768 0.249817
0.225403 0.824310 0.573883
0.233398 0.823120 0.570007
0.257050 0.820496 0.561127
0.292206 0.815796 0.546265
0.405182 0.824219 0.505463
0.652435 0.834290 0.521851
0.844635 0.843933 0.536591
0.979492 0.859985 0.560089
0.563477 0.932800 0.751099
0.565460 0.932281 0.749420
0.574036 0.931946 0.746948
0.590881 0.931946 0.744202
0.614319 0.933258 0.736969
0.709534 0.943909 0.728058
0.840546 0.953278 0.744080
0.964569 0.965363 0.764404
0.078796 0.055969 0.072113
0.125793 0.060059 0.069702
0.251434 0.066711 0.068970
0.442535 0.099121 0.063538
0.653778 0.136902 0.020599
0.830841 0.216278 0.000000
0.962585 0.304077 0.000000
1.000000 0.389618 0.000000
0.080841 0.115417 0.080719
0.144165 0.121857 0.081696
0.266449 0.135712 0.076019
0.453308 0.157166 0.056824
0.658722 0.198181 0.006683
0.833221 0.267242 0.000000
0.962921 0.341492 0.000000
1.000000 0.415100 0.000000
0.089752 0.235992 0.116882
0.138184 0.233185 0.117432
0.249756 0.240997 0.096405
0.477234 0.288239 0.020172
0.677185 0.326416 0.000000
0.835663 0.371185 0.000000
0.960632 0.420593 0.000000
1.000000 0.473572 0.000000
0.000000 0.411133 0.197021
0.006836 0.403625 0.184326
0.089264 0.396912 0.146088
0.403412 0.429871 0.120270
0.654602 0.483490 0.015350
0.837097 0.506317 0.000000
0.957764 0.527893 0.000000
1.000000 0.558502 0.000000
0.000000 0.579163 0.305267
0.000000 0.576263 0.296783
0.000000 0.563293 0.271881
0.227142 0.576141 0.218658
0.566620 0.600372 0.209503
0.791321 0.634094 0.149200
0.940063 0.648224 0.000000
1.000000 0.657684 0.000000
0.000000 0.714050 0.440735
0.000000 0.710999 0.432861
0.010315 0.703522 0.413910
0.047028 0.696198 0.374298
0.444366 0.715515 0.352631
0.717255 0.731964 0.365021
0.896667 0.753784 0.362823
1.000000 0.770050 0.298248
0.287415 0.825470 0.591400
0.293121 0.824280 0.587646
0.308807 0.821411 0.578278
0.335449 0.816650 0.563324
0.415741 0.823212 0.522247
0.653442 0.832642 0.536560
0.843170 0.842743 0.551666
0.977203 0.859497 0.572723
0.570770 0.931763 0.755219
0.575104 0.932037 0.754913
0.587891 0.933228 0.755157
0.603485 0.933136 0.752075
0.625977 0.933807 0.747406
0.712250 0.944702 0.735565
0.841736 0.953979 0.750916
0.965027 0.965942 0.770508
0.110962 0.076111 0.158539
0.153687 0.081787 0.160583
0.243988 0.092865 0.162384
0.426788 0.093048 0.182037
0.653625 0.066376 0.160461
0.821533 0.251526 0.177734
0.951355 0.345001 0.169495
1.000000 0.423920 0.153534
0.113861 0.120544 0.173004
0.172302 0.140625 0.178528
0.262817 0.151825 0.179749
0.445618 0.158112 0.189453
0.653717 0.218018 0.188232
0.820160 0.300751 0.183411
0.949829 0.374481 0.167877
1.000000 0.444855 0.152588
0.064667 0.249817 0.205170
0.146851 0.257721 0.208374
0.291962 0.278412 0.216248
0.479675 0.306824 0.209717
0.668304 0.346161 0.197632
0.824097 0.393768 0.182404
0.949524 0.444946 0.167053
1.000000 0.497925 0.156921
0.000000 0.450378 0.269043
0.087067 0.449860 0.278809
0.263763 0.442780 0.287567
0.435028 0.456970 0.262482
0.668243 0.498260 0.213562
0.829376 0.517853 0.177521
0.949371 0.544250 0.171936
1.000000 0.577179 0.171448
0.000000 0.606140 0.390594
0.157959 0.604401 0.398651
0.229065 0.593567 0.381714
0.294037 0.587799 0.332764
0.583466 0.612274 0.337006
0.791687 0.642731 0.304840
0.938751 0.654419 0.225006
1.000000 0.667786 0.194580
0.244751 0.727753 0.518402
0.250275 0.724762 0.510895
0.266449 0.717865 0.493286
0.292603 0.705994 0.464752
0.474274 0.720367 0.436462
0.724670 0.737549 0.453583
0.893768 0.759766 0.449585
1.000000 0.774719 0.396759
0.399017 0.829559 0.634369
0.401855 0.828369 0.630554
0.410919 0.825745 0.621643
0.426605 0.821014 0.606689
0.453827 0.821869 0.569000
0.663605 0.833710 0.580139
0.844849 0.844727 0.595947
0.975830 0.863281 0.612488
0.606384 0.935455 0.776550
0.608490 0.935181 0.775146
0.615021 0.934875 0.772156
0.628052 0.934662 0.768188
0.647491 0.934692 0.764008
0.713715 0.944855 0.749634
0.842377 0.954407 0.764526
0.965515 0.966553 0.783386
0.130829 0.105438 0.318756
0.178741 0.111511 0.324554
0.280396 0.125916 0.336304
0.425018 0.137329 0.344025
0.619080 0.173401 0.371582
0.810516 0.219360 0.364197
0.943298 0.349792 0.367706
1.000000 0.504578 0.431061
0.141296 0.155182 0.334106
0.196472 0.168274 0.340668
0.295654 0.183289 0.350677
0.436432 0.201630 0.357849
0.623566 0.240479 0.381073
0.809570 0.281250 0.369598
0.932190 0.416779 0.394592
1.000000 0.516663 0.428528
0.091003 0.241516 0.357910
0.165558 0.248016 0.361694
0.315308 0.302704 0.381653
0.460358 0.336456 0.393921
0.641022 0.369293 0.405884
0.805695 0.422607 0.402374
0.923004 0.505554 0.426727
1.000000 0.551056 0.426086
0.000000 0.451477 0.415100
0.014618 0.457977 0.418365
0.277252 0.474304 0.426575
0.481262 0.501892 0.442047
0.656342 0.524292 0.437622
0.803314 0.550079 0.434204
0.925629 0.579132 0.432190
1.000000 0.611664 0.431915
0.000000 0.643768 0.474548
0.070007 0.642456 0.480530
0.320282 0.637512 0.495087
0.465637 0.626495 0.505249
0.613403 0.636810 0.491455
0.797119 0.659973 0.466705
0.928192 0.670380 0.441345
1.000000 0.689484 0.444122
0.236023 0.748230 0.570007
0.296844 0.746216 0.574005
0.413849 0.740906 0.586334
0.473602 0.730194 0.576904
0.517212 0.727203 0.539551
0.736389 0.746674 0.560455
0.892487 0.770111 0.553650
1.000000 0.782043 0.509644
0.440002 0.840576 0.675629
0.471100 0.838959 0.679779
0.525269 0.835266 0.685730
0.533142 0.829895 0.669891
0.540619 0.820862 0.645569
0.674774 0.834961 0.636292
0.848236 0.848389 0.654541
0.975861 0.869263 0.664795
0.641785 0.938751 0.802673
0.647736 0.937927 0.802246
0.652802 0.937408 0.798615
0.663055 0.937256 0.793579
0.678864 0.937225 0.787659
0.711853 0.944794 0.770264
0.841766 0.955078 0.785004
0.965973 0.967224 0.802246
0.146027 0.147308 0.501587
0.200012 0.153137 0.506317
0.306213 0.168854 0.516693
0.449341 0.203125 0.534302
0.609100 0.233826 0.542145
0.770203 0.306763 0.555817
0.906281 0.403168 0.565125
1.000000 0.495819 0.572083
0.172089 0.201691 0.510895
0.220245 0.207703 0.515045
0.320496 0.224030 0.524445
0.458893 0.260254 0.541626
0.612183 0.292450 0.548523
0.767029 0.357544 0.561066
0.903351 0.437347 0.569427
1.000000 0.518829 0.576569
0.109314 0.256683 0.518951
0.200439 0.283173 0.526367
0.340393 0.335999 0.541840
0.476135 0.375671 0.558594
0.620941 0.412964 0.568237
0.764313 0.463928 0.580383
0.900116 0.512024 0.583069
1.000000 0.577148 0.594177
0.000000 0.420105 0.550171
0.133942 0.425659 0.551758
0.298981 0.441071 0.556122
0.491669 0.511383 0.579681
0.630432 0.549164 0.595154
0.768158 0.576324 0.604645
0.899048 0.606171 0.604706
0.991791 0.667877 0.632294
0.000000 0.620941 0.598969
0.054474 0.623993 0.600616
0.298737 0.631287 0.604767
0.481689 0.644897 0.613556
0.648041 0.665161 0.628540
0.784485 0.678589 0.625854
0.901031 0.695099 0.623291
1.000000 0.715790 0.622192
0.184082 0.774384 0.644958
0.262573 0.774109 0.646637
0.391113 0.771179 0.652100
0.529999 0.763458 0.663177
0.636261 0.750000 0.668335
0.753998 0.760895 0.664490
0.896423 0.780975 0.651733
1.000000 0.790314 0.629974
0.391144 0.859161 0.712341
0.421997 0.857727 0.714294
0.491821 0.854340 0.719757
0.595215 0.848083 0.732422
0.650787 0.837952 0.727417
0.688171 0.837524 0.700500
0.854462 0.854553 0.721741
0.978851 0.877045 0.724182
0.550232 0.951508 0.803741
0.573822 0.950165 0.806763
0.633057 0.947601 0.816772
0.708557 0.944397 0.831970
0.725464 0.943329 0.825073
0.741791 0.943634 0.816071
0.840820 0.957031 0.814240
0.968628 0.970032 0.831512
0.218079 0.215881 0.667603
0.263214 0.222992 0.670227
0.357361 0.241852 0.676270
0.484100 0.279083 0.686554
0.623657 0.342438 0.699890
0.759094 0.380859 0.700073
0.874634 0.455750 0.698761
0.970581 0.564117 0.721497
0.239685 0.265747 0.670685
0.280609 0.272522 0.673187
0.368866 0.290131 0.678589
0.490234 0.325256 0.687897
0.625488 0.384460 0.700684
0.757660 0.421204 0.702026
0.871429 0.487335 0.702057
0.968933 0.582184 0.724518
0.219849 0.330566 0.674927
0.284760 0.354187 0.677765
0.386230 0.386475 0.683746
0.502991 0.420746 0.693237
0.632996 0.474243 0.706696
0.757965 0.508057 0.710876
0.866699 0.557892 0.713745
0.967987 0.623901 0.733307
0.111664 0.407318 0.676575
0.190765 0.411743 0.676422
0.335724 0.452515 0.684814
0.514832 0.531738 0.700012
0.643372 0.576172 0.715454
0.759369 0.607452 0.723633
0.863129 0.639130 0.730469
0.970673 0.677002 0.743469
0.048859 0.585999 0.702972
0.171906 0.588104 0.703125
0.316681 0.593597 0.703461
0.468018 0.605621 0.706421
0.647461 0.661835 0.723175
0.765411 0.696564 0.740601
0.870148 0.715698 0.749176
0.979248 0.737000 0.752014
0.166687 0.743317 0.737671
0.240631 0.744690 0.738586
0.364410 0.747681 0.740143
0.505035 0.753479 0.743683
0.646088 0.763702 0.750671
0.780396 0.782623 0.766022
0.887970 0.793823 0.764526
0.987793 0.808319 0.763458
0.356476 0.874298 0.777313
0.393402 0.874573 0.777832
0.473572 0.874725 0.779968
0.578827 0.873657 0.784851
0.684479 0.865845 0.792938
0.767456 0.852631 0.795105
0.865356 0.864563 0.795715
0.986694 0.885284 0.789185
0.509918 0.965973 0.836182
0.528656 0.965179 0.837341
0.574127 0.963531 0.840790
0.642548 0.960999 0.847137
0.733826 0.956573 0.859650
0.796844 0.952972 0.865112
0.837677 0.960297 0.851990
0.973694 0.975128 0.870941
0.357574 0.338928 0.803223
0.387024 0.347076 0.804718
0.452667 0.365204 0.806641
0.548096 0.398895 0.810455
0.659332 0.451660 0.816528
0.769928 0.517975 0.823181
0.872223 0.542328 0.820129
0.953827 0.596191 0.814423
0.368713 0.376251 0.803162
0.395599 0.382507 0.803925
0.458252 0.398499 0.805542
0.550446 0.428619 0.808868
0.657745 0.474396 0.813507
0.767639 0.536713 0.820892
0.868866 0.560089 0.818878
0.950439 0.609436 0.814117
0.370148 0.437622 0.803162
0.407867 0.453583 0.803528
0.469238 0.468903 0.805420
0.558807 0.495483 0.809143
0.663483 0.534760 0.814453
0.770721 0.589020 0.823029
0.866852 0.609436 0.822601
0.947052 0.648285 0.819550
0.257751 0.455414 0.802155
0.314819 0.472198 0.802277
0.436340 0.520569 0.804138
0.564148 0.573059 0.809296
0.669067 0.606537 0.816071
0.773438 0.649963 0.825836
0.864441 0.669006 0.827637
0.945496 0.699921 0.829132
0.198944 0.571228 0.809265
0.250610 0.572693 0.809357
0.345093 0.573181 0.807465
0.481018 0.595428 0.809113
0.664307 0.671631 0.817871
0.774933 0.710602 0.830627
0.865631 0.735077 0.837402
0.948883 0.762390 0.845551
0.223694 0.716370 0.827240
0.271881 0.716888 0.827026
0.366913 0.717957 0.826233
0.485229 0.720093 0.824982
0.609863 0.722900 0.822662
0.769775 0.770355 0.835083
0.872131 0.806854 0.853363
0.960693 0.826263 0.864105
0.328827 0.845306 0.851898
0.361969 0.845612 0.851929
0.437653 0.847015 0.852661
0.540375 0.849915 0.854248
0.653320 0.854370 0.856415
0.769012 0.862946 0.861481
0.885040 0.882294 0.876312
0.984436 0.894073 0.875824
0.452423 0.972717 0.894287
0.475037 0.972809 0.894257
0.528839 0.973267 0.894379
0.608795 0.974457 0.894867
0.701477 0.974915 0.898132
0.794739 0.972229 0.907318
0.879517 0.967651 0.916168
0.980591 0.981628 0.920471
0.560211 0.546783 0.920685
0.575745 0.551575 0.920990
0.612366 0.562195 0.920868
0.670776 0.581970 0.921173
0.741486 0.608276 0.921173
0.816986 0.642700 0.922028
0.889709 0.684235 0.924164
0.965668 0.696411 0.924225
0.562500 0.562378 0.919373
0.577301 0.566284 0.919464
0.613800 0.576660 0.919617
0.671234 0.594666 0.919983
0.740845 0.618774 0.919983
0.816193 0.651855 0.921204
0.888763 0.692200 0.923737
0.964783 0.704712 0.924500
0.587097 0.615173 0.926117
0.598907 0.616577 0.925415
0.629761 0.621796 0.924225
0.680420 0.632721 0.922821
0.745483 0.650665 0.921844
0.818604 0.679199 0.923065
0.890594 0.716614 0.926453
0.965424 0.729858 0.928406
0.504395 0.599609 0.923706
0.535797 0.613129 0.922974
0.605865 0.645599 0.921173
0.672668 0.666840 0.921082
0.741943 0.685181 0.921997
0.820984 0.716614 0.927155
0.893646 0.751038 0.931671
0.965881 0.763153 0.933350
0.404877 0.620331 0.933350
0.428406 0.623688 0.933228
0.489594 0.635590 0.932556
0.619995 0.683502 0.930511
0.738403 0.731964 0.929810
0.819977 0.758148 0.933624
0.897675 0.792419 0.939850
0.967041 0.803864 0.940125
0.435242 0.747406 0.949432
0.452850 0.746490 0.948944
0.498077 0.744843 0.948273
0.570465 0.743103 0.947998
0.664551 0.747070 0.946991
0.816223 0.809601 0.947266
0.900208 0.838043 0.950623
0.972351 0.855377 0.952454
0.475342 0.863037 0.967682
0.502838 0.866119 0.970001
0.542542 0.866028 0.970032
0.605713 0.866211 0.970367
0.680695 0.864044 0.969330
0.766754 0.859406 0.967529
0.894135 0.889313 0.966644
0.982727 0.918457 0.971466
0.520233 0.971436 0.988953
0.535156 0.971893 0.989197
0.569763 0.972595 0.989441
0.625336 0.974030 0.989899
0.696991 0.976440 0.990601
0.780182 0.981018 0.990967
0.879425 0.988617 0.993347
1.000000 1.000000 1.000000
