colors/姜黄.cube
#Created by: Adobe Photoshop Export Color Lookup Plugin
#Copyright: (C) Copyright 2026 小米
TITLE "美食.psd"
#LUT size
LUT_3D_SIZE 6
#data domain
DOMAIN_MIN 0.0 0.0 0.0
DOMAIN_MAX 1.0 1.0 1.0
#LUT data points
0.046051 0.035614 0.022064
0.175629 0.056183 0.025543
0.408142 0.072021 0.009369
0.702423 0.123840 0.000000
0.925507 0.253204 0.000000
1.000000 0.386078 0.000000
0.062378 0.141235 0.054993
0.157776 0.143799 0.037781
0.433868 0.191559 0.000000
0.711151 0.251190 0.000000
0.928345 0.341248 0.000000
1.000000 0.433746 0.000000
0.000000 0.351471 0.124542
0.000000 0.338959 0.106750
0.359009 0.383087 0.026062
0.711212 0.464783 0.000000
0.923431 0.496582 0.000000
1.000000 0.539001 0.000000
0.000000 0.599274 0.286163
0.000000 0.593414 0.270630
0.002625 0.595978 0.192383
0.594757 0.627899 0.174896
0.878418 0.665497 0.044220
1.000000 0.678101 0.000000
0.000000 0.780334 0.505768
0.012482 0.777069 0.496338
0.110413 0.767365 0.469269
0.453064 0.781433 0.425537
0.794250 0.798157 0.446442
0.993622 0.825317 0.452484
0.563477 0.932800 0.751099
0.567627 0.932007 0.748291
0.587128 0.932007 0.744904
0.620087 0.935944 0.729004
0.789337 0.949310 0.737457
0.964569 0.965363 0.764404
0.091949 0.063660 0.099670
0.165863 0.072052 0.098114
0.400970 0.060669 0.096527
0.691162 0.160980 0.080139
0.913208 0.282043 0.010437
1.000000 0.400238 0.000000
0.091095 0.159973 0.118958
0.195709 0.172272 0.121887
0.426575 0.201569 0.108795
0.703613 0.261932 0.061798
0.913300 0.351105 0.005096
1.000000 0.443878 0.000000
0.000000 0.388214 0.203461
0.145599 0.381866 0.201355
0.382751 0.400909 0.161285
0.711456 0.464386 0.015747
0.909454 0.496429 0.000000
1.000000 0.544678 0.000000
0.000000 0.615479 0.363831
0.010010 0.607758 0.346344
0.101532 0.597839 0.280975
0.599518 0.629364 0.275024
0.873627 0.667145 0.203827
1.000000 0.679565 0.008667
0.209290 0.782318 0.543671
0.219543 0.778259 0.532990
0.257843 0.769348 0.507629
0.468994 0.780243 0.467560
0.793701 0.797638 0.490051
0.989868 0.825745 0.491547
0.578949 0.931793 0.759979
0.586823 0.932343 0.759521
0.602478 0.931732 0.754456
0.631805 0.933197 0.743439
0.786591 0.947388 0.743317
0.963135 0.963898 0.769806
0.128418 0.098633 0.282104
0.208496 0.109436 0.291443
0.386292 0.125885 0.302948
0.667908 0.159241 0.332916
0.900818 0.286438 0.317261
1.000000 0.483826 0.378357
0.117615 0.165344 0.305725
0.233093 0.205231 0.320923
0.410675 0.235260 0.332306
0.681366 0.277679 0.347748
0.885498 0.420227 0.367859
1.000000 0.511993 0.377777
0.000000 0.411652 0.373016
0.156708 0.424194 0.378815
0.444214 0.460114 0.397247
0.692322 0.496735 0.390717
0.885559 0.540466 0.386444
1.000000 0.589539 0.385345
0.000000 0.659088 0.475616
0.234497 0.655609 0.486511
0.422791 0.642151 0.494324
0.633240 0.655762 0.474762
0.875061 0.684753 0.433136
1.000000 0.701660 0.404266
0.372345 0.800690 0.625183
0.439850 0.797363 0.633789
0.472015 0.787781 0.616119
0.517700 0.784332 0.569183
0.803131 0.806152 0.597076
0.988892 0.836334 0.592346
0.638885 0.937958 0.798370
0.640381 0.936859 0.794586
0.652832 0.936707 0.788849
0.675537 0.936493 0.780884
0.791168 0.950745 0.774384
0.965973 0.967163 0.798187
0.154022 0.157593 0.535797
0.244324 0.168793 0.543365
0.424011 0.206055 0.562775
0.641754 0.259216 0.576721
0.844086 0.382568 0.593964
1.000000 0.508789 0.606323
0.176514 0.237427 0.547485
0.270721 0.259796 0.555664
0.441193 0.300964 0.574860
0.647217 0.356781 0.588898
0.839355 0.454193 0.605560
0.999023 0.549500 0.615601
0.039612 0.377441 0.568298
0.214722 0.388000 0.570953
0.463074 0.479004 0.596313
0.655029 0.533722 0.616455
0.840393 0.580627 0.629761
0.993042 0.646240 0.644928
0.000000 0.647888 0.629211
0.194122 0.652100 0.631439
0.449738 0.665161 0.639618
0.676849 0.690704 0.658691
0.853271 0.709259 0.655304
0.998352 0.734802 0.653198
0.318207 0.831146 0.695740
0.391937 0.828522 0.699554
0.537079 0.820465 0.709808
0.665131 0.803833 0.714355
0.816254 0.817963 0.711060
0.992737 0.845123 0.694855
0.539429 0.954803 0.808777
0.574982 0.953064 0.812622
0.681091 0.948456 0.830780
0.739594 0.945221 0.832825
0.787811 0.953064 0.815369
0.969757 0.971222 0.839203
0.299377 0.285095 0.755432
0.361084 0.299011 0.758362
0.497406 0.339478 0.764648
0.666779 0.418488 0.774902
0.831635 0.480347 0.776642
0.958282 0.587402 0.780518
0.322998 0.358826 0.756927
0.377777 0.369629 0.758545
0.506134 0.405548 0.764557
0.669708 0.475555 0.775299
0.829712 0.532043 0.779938
0.954895 0.619263 0.785858
0.215393 0.415192 0.754547
0.328491 0.450806 0.756378
0.518036 0.529572 0.765167
0.677795 0.584808 0.778412
0.825317 0.629425 0.786896
0.950287 0.686157 0.798920
0.147766 0.605560 0.769897
0.257721 0.607330 0.769196
0.435150 0.612701 0.767212
0.675110 0.684601 0.781403
0.827026 0.732208 0.801666
0.959351 0.766113 0.817047
0.267029 0.804077 0.806183
0.342407 0.804718 0.806183
0.494629 0.808136 0.807617
0.670898 0.817383 0.813324
0.843964 0.842163 0.832733
0.983490 0.858643 0.831268
0.477539 0.974640 0.861816
0.515503 0.973969 0.863068
0.608948 0.971405 0.869965
0.728607 0.967072 0.881073
0.844147 0.960754 0.893646
0.977081 0.978333 0.898376
0.560211 0.546783 0.920685
0.587463 0.554657 0.920868
0.657867 0.577454 0.921143
0.756470 0.614502 0.921234
0.861267 0.667023 0.923157
0.965668 0.696411 0.924225
0.568176 0.577942 0.920319
0.594086 0.584534 0.920410
0.661224 0.602997 0.920410
0.757233 0.635254 0.920654
0.860992 0.683685 0.923157
0.964752 0.712830 0.925537
0.528290 0.604767 0.923523
0.579651 0.628693 0.922424
0.663788 0.657684 0.921661
0.758789 0.683655 0.922607
0.863159 0.726501 0.927155
0.965240 0.754791 0.931641
0.399170 0.639862 0.934143
0.436615 0.640167 0.933228
0.557922 0.665497 0.932434
0.750732 0.744293 0.931183
0.867737 0.786621 0.938873
0.966949 0.811920 0.941193
0.452118 0.816284 0.958740
0.483124 0.815552 0.958282
0.563690 0.813507 0.957428
0.678589 0.808044 0.955505
0.856354 0.850555 0.954071
0.974976 0.887115 0.959595
0.520233 0.971436 0.988953
0.546417 0.972107 0.989288
0.612793 0.973663 0.989807
0.712646 0.977203 0.990662
0.838654 0.985596 0.992493
1.000000 1.000000 1.000000
