colors/彩色负片100T.cube
#Created by: Adobe Photoshop Export Color Lookup Plugin
#Copyright: (C) Copyright 2026 汉图
TITLE "mint本征源文件-适配lut筛选-恢复的.psd"
#LUT size
LUT_3D_SIZE 4
#data domain
DOMAIN_MIN 0.0 0.0 0.0
DOMAIN_MAX 1.0 1.0 1.0
#LUT data points
0.000000 0.000000 0.000000
0.458099 0.071167 0.000031
0.730865 0.136871 0.000031
0.730865 0.136871 0.000031
0.019562 0.425812 0.019562
0.319336 0.340393 0.029510
0.655151 0.324646 0.026978
0.902557 0.348877 0.022827
0.039246 0.910522 0.039246
0.271698 0.828552 0.075531
0.667450 0.726807 0.058319
0.926788 0.726562 0.059052
0.087830 1.000000 0.087830
0.300385 1.000000 0.165619
0.672150 1.000000 0.131073
0.923492 1.000000 0.208771
0.010986 0.003906 0.276306
0.270111 0.026855 0.203033
0.767822 0.132538 0.000031
0.737274 0.138062 0.000031
0.019928 0.319336 0.279358
0.136658 0.192627 0.184235
0.770874 0.371979 0.243073
0.884064 0.228638 0.041656
0.043121 0.820618 0.317566
0.406799 0.762024 0.398956
0.737976 0.809418 0.428253
0.934387 0.717377 0.282501
0.078491 1.000000 0.418671
0.311066 1.000000 0.416809
0.670898 1.000000 0.334717
0.935303 1.000000 0.455048
0.036163 0.003479 0.561584
0.240173 0.102600 0.440857
0.542542 0.370270 0.418060
0.867310 0.183044 0.465271
0.027435 0.297333 0.614288
0.359070 0.393097 0.580688
0.705170 0.679871 0.619629
0.893494 0.260254 0.543396
0.041626 0.723236 0.659882
0.436249 0.822296 0.756805
0.811218 0.890137 0.799622
0.934692 0.647247 0.579285
0.060150 0.990906 0.714294
0.348724 1.000000 0.758087
0.687408 1.000000 0.706818
0.951050 1.000000 0.779266
0.054932 0.007294 0.810974
0.320557 0.133789 0.759399
0.558746 0.492645 0.607208
0.704315 0.640808 0.616486
0.077423 0.289764 0.864410
0.313416 0.330475 0.893982
0.661865 0.579285 0.797302
0.809845 0.783051 0.758911
0.042633 0.696747 0.905151
0.278931 0.703461 0.926880
0.640808 0.704376 0.927124
0.892670 0.922760 0.879303
0.055817 0.987701 0.913727
0.317902 1.000000 0.941772
0.675720 1.000000 0.937469
1.000000 1.000000 1.000000
