colors/彩色反转T64.cube
#Created by: Adobe Photoshop Export Color Lookup Plugin
#Copyright: (C) Copyright 2026 汉图
TITLE "mint本征源文件-适配lut筛选-恢复的.psd"
#LUT size
LUT_3D_SIZE 4
#data domain
DOMAIN_MIN 0.0 0.0 0.0
DOMAIN_MAX 1.0 1.0 1.0
#LUT data points
0.000000 0.000000 0.000000
0.200012 0.000000 0.000000
0.618439 0.000000 0.000000
1.000000 0.000000 0.000000
0.000000 0.328888 0.000000
0.200012 0.328888 0.000000
0.618439 0.328888 0.000000
1.000000 0.328888 0.000000
0.000000 0.663330 0.000000
0.200012 0.663330 0.000000
0.618439 0.663330 0.000000
1.000000 0.663330 0.000000
0.000000 1.000000 0.000000
0.200012 1.000000 0.000000
0.618439 1.000000 0.000000
1.000000 1.000000 0.000000
0.000000 0.000000 0.431335
0.200012 0.000000 0.431335
0.618439 0.000000 0.431335
1.000000 0.000000 0.431335
0.000000 0.328888 0.431335
0.200012 0.328888 0.431335
0.618439 0.328888 0.431335
1.000000 0.328888 0.431335
0.000000 0.663330 0.431335
0.200012 0.663330 0.431335
0.618439 0.663330 0.431335
1.000000 0.663330 0.431335
0.000000 1.000000 0.431335
0.200012 1.000000 0.431335
0.618439 1.000000 0.431335
1.000000 1.000000 0.431335
0.000000 0.000000 0.783661
0.200012 0.000000 0.783661
0.618439 0.000000 0.783661
1.000000 0.000000 0.783661
0.000000 0.328888 0.783661
0.200012 0.328888 0.783661
0.618439 0.328888 0.783661
1.000000 0.328888 0.783661
0.000000 0.663330 0.783661
0.200012 0.663330 0.783661
0.618439 0.663330 0.783661
1.000000 0.663330 0.783661
0.000000 1.000000 0.783661
0.200012 1.000000 0.783661
0.618439 1.000000 0.783661
1.000000 1.000000 0.783661
0.000000 0.000000 1.000000
0.200012 0.000000 1.000000
0.618439 0.000000 1.000000
1.000000 0.000000 1.000000
0.000000 0.328888 1.000000
0.200012 0.328888 1.000000
0.618439 0.328888 1.000000
1.000000 0.328888 1.000000
0.000000 0.663330 1.000000
0.200012 0.663330 1.000000
0.618439 0.663330 1.000000
1.000000 0.663330 1.000000
0.000000 1.000000 1.000000
0.200012 1.000000 1.000000
0.618439 1.000000 1.000000
1.000000 1.000000 1.000000
