colors/彩色反转T64.cube
#Created by: Adobe Photoshop Export Color Lookup Plugin
#Copyright: (C) Copyright 2026 汉图
TITLE "mint本征源文件-适配lut筛选-恢复的.psd"
#LUT size
LUT_3D_SIZE 7
#data domain
#LUT data points
DOMAIN_MIN 0.000000 0.000000 0.000000
DOMAIN_MAX 0.909091 0.909091 0.909091
0.000000 0.000000 0.000000
0.090912 0.000000 0.000000
0.181824 0.000000 0.000000
0.308655 0.000000 0.000000
0.524811 0.000000 0.000000
0.764160 0.000000 0.000000
0.945465 0.000000 0.000000
0.000000 0.148071 0.000000
0.090912 0.148071 0.000000
0.181824 0.148071 0.000000
0.308655 0.148071 0.000000
0.524811 0.148071 0.000000
0.764160 0.148071 0.000000
0.945465 0.148071 0.000000
0.000000 0.298645 0.000000
0.090912 0.298645 0.000000
0.181824 0.298645 0.000000
0.308655 0.298645 0.000000
0.524811 0.298645 0.000000
0.764160 0.298645 0.000000
0.945465 0.298645 0.000000
0.000000 0.450165 0.000000
0.090912 0.450165 0.000000
0.181824 0.450165 0.000000
0.308655 0.450165 0.000000
0.524811 0.450165 0.000000
0.764160 0.450165 0.000000
0.945465 0.450165 0.000000
0.000000 0.602325 0.000000
0.090912 0.602325 0.000000
0.181824 0.602325 0.000000
0.308655 0.602325 0.000000
0.524811 0.602325 0.000000
0.764160 0.602325 0.000000
0.945465 0.602325 0.000000
0.000000 0.754974 0.000000
0.090912 0.754974 0.000000
0.181824 0.754974 0.000000
0.308655 0.754974 0.000000
0.524811 0.754974 0.000000
0.764160 0.754974 0.000000
0.945465 0.754974 0.000000
0.000000 0.908020 0.000000
0.090912 0.908020 0.000000
0.181824 0.908020 0.000000
0.308655 0.908020 0.000000
0.524811 0.908020 0.000000
0.764160 0.908020 0.000000
0.945465 0.908020 0.000000
0.000000 0.000000 0.221008
0.090912 0.000000 0.221008
0.181824 0.000000 0.221008
0.308655 0.000000 0.221008
0.524811 0.000000 0.221008
0.764160 0.000000 0.221008
0.945465 0.000000 0.221008
0.000000 0.148071 0.221008
0.090912 0.148071 0.221008
0.181824 0.148071 0.221008
0.308655 0.148071 0.221008
0.524811 0.148071 0.221008
0.764160 0.148071 0.221008
0.945465 0.148071 0.221008
0.000000 0.298645 0.221008
0.090912 0.298645 0.221008
0.181824 0.298645 0.221008
0.308655 0.298645 0.221008
0.524811 0.298645 0.221008
0.764160 0.298645 0.221008
0.945465 0.298645 0.221008
0.000000 0.450165 0.221008
0.090912 0.450165 0.221008
0.181824 0.450165 0.221008
0.308655 0.450165 0.221008
0.524811 0.450165 0.221008
0.764160 0.450165 0.221008
0.945465 0.450165 0.221008
0.000000 0.602325 0.221008
0.090912 0.602325 0.221008
0.181824 0.602325 0.221008
0.308655 0.602325 0.221008
0.524811 0.602325 0.221008
0.764160 0.602325 0.221008
0.945465 0.602325 0.221008
0.000000 0.754974 0.221008
0.090912 0.754974 0.221008
0.181824 0.754974 0.221008
0.308655 0.754974 0.221008
0.524811 0.754974 0.221008
0.764160 0.754974 0.221008
0.945465 0.754974 0.221008
0.000000 0.908020 0.221008
0.090912 0.908020 0.221008
0.181824 0.908020 0.221008
0.308655 0.908020 0.221008
0.524811 0.908020 0.221008
0.764160 0.908020 0.221008
0.945465 0.908020 0.221008
0.000000 0.000000 0.397614
0.090912 0.000000 0.397614
0.181824 0.000000 0.397614
0.308655 0.000000 0.397614
0.524811 0.000000 0.397614
0.764160 0.000000 0.397614
0.945465 0.000000 0.397614
0.000000 0.148071 0.397614
0.090912 0.148071 0.397614
0.181824 0.148071 0.397614
0.308655 0.148071 0.397614
0.524811 0.148071 0.397614
0.764160 0.148071 0.397614
0.945465 0.148071 0.397614
0.000000 0.298645 0.397614
0.090912 0.298645 0.397614
0.181824 0.298645 0.397614
0.308655 0.298645 0.397614
0.524811 0.298645 0.397614
0.764160 0.298645 0.397614
0.945465 0.298645 0.397614
0.000000 0.450165 0.397614
0.090912 0.450165 0.397614
0.181824 0.450165 0.397614
0.308655 0.450165 0.397614
0.524811 0.450165 0.397614
0.764160 0.450165 0.397614
0.945465 0.450165 0.397614
0.000000 0.602325 0.397614
0.090912 0.602325 0.397614
0.181824 0.602325 0.397614
0.308655 0.602325 0.397614
0.524811 0.602325 0.397614
0.764160 0.602325 0.397614
0.945465 0.602325 0.397614
0.000000 0.754974 0.397614
0.090912 0.754974 0.397614
0.181824 0.754974 0.397614
0.308655 0.754974 0.397614
0.524811 0.754974 0.397614
0.764160 0.754974 0.397614
0.945465 0.754974 0.397614
0.000000 0.908020 0.397614
0.090912 0.908020 0.397614
0.181824 0.908020 0.397614
0.308655 0.908020 0.397614
0.524811 0.908020 0.397614
0.764160 0.908020 0.397614
0.945465 0.908020 0.397614
0.000000 0.000000 0.562836
0.090912 0.000000 0.562836
0.181824 0.000000 0.562836
0.308655 0.000000 0.562836
0.524811 0.000000 0.562836
0.764160 0.000000 0.562836
0.945465 0.000000 0.562836
0.000000 0.148071 0.562836
0.090912 0.148071 0.562836
0.181824 0.148071 0.562836
0.308655 0.148071 0.562836
0.524811 0.148071 0.562836
0.764160 0.148071 0.562836
0.945465 0.148071 0.562836
0.000000 0.298645 0.562836
0.090912 0.298645 0.562836
0.181824 0.298645 0.562836
0.308655 0.298645 0.562836
0.524811 0.298645 0.562836
0.764160 0.298645 0.562836
0.945465 0.298645 0.562836
0.000000 0.450165 0.562836
0.090912 0.450165 0.562836
0.181824 0.450165 0.562836
0.308655 0.450165 0.562836
0.524811 0.450165 0.562836
0.764160 0.450165 0.562836
0.945465 0.450165 0.562836
0.000000 0.602325 0.562836
0.090912 0.602325 0.562836
0.181824 0.602325 0.562836
0.308655 0.602325 0.562836
0.524811 0.602325 0.562836
0.764160 0.602325 0.562836
0.945465 0.602325 0.562836
0.000000 0.754974 0.562836
0.090912 0.754974 0.562836
0.181824 0.754974 0.562836
0.308655 0.754974 0.562836
0.524811 0.754974 0.562836
0.764160 0.754974 0.562836
0.945465 0.754974 0.562836
0.000000 0.908020 0.562836
0.090912 0.908020 0.562836
0.181824 0.908020 0.562836
0.308655 0.908020 0.562836
0.524811 0.908020 0.562836
0.764160 0.908020 0.562836
0.945465 0.908020 0.562836
0.000000 0.000000 0.721527
0.090912 0.000000 0.721527
0.181824 0.000000 0.721527
0.308655 0.000000 0.721527
0.524811 0.000000 0.721527
0.764160 0.000000 0.721527
0.945465 0.000000 0.721527
0.000000 0.148071 0.721527
0.090912 0.148071 0.721527
0.181824 0.148071 0.721527
0.308655 0.148071 0.721527
0.524811 0.148071 0.721527
0.764160 0.148071 0.721527
0.945465 0.148071 0.721527
0.000000 0.298645 0.721527
0.090912 0.298645 0.721527
0.181824 0.298645 0.721527
0.308655 0.298645 0.721527
0.524811 0.298645 0.721527
0.764160 0.298645 0.721527
0.945465 0.298645 0.721527
0.000000 0.450165 0.721527
0.090912 0.450165 0.721527
0.181824 0.450165 0.721527
0.308655 0.450165 0.721527
0.524811 0.450165 0.721527
0.764160 0.450165 0.721527
0.945465 0.450165 0.721527
0.000000 0.602325 0.721527
0.090912 0.602325 0.721527
0.181824 0.602325 0.721527
0.308655 0.602325 0.721527
0.524811 0.602325 0.721527
0.764160 0.602325 0.721527
0.945465 0.602325 0.721527
0.000000 0.754974 0.721527
0.090912 0.754974 0.721527
0.181824 0.754974 0.721527
0.308655 0.754974 0.721527
0.524811 0.754974 0.721527
0.764160 0.754974 0.721527
0.945465 0.754974 0.721527
0.000000 0.908020 0.721527
0.090912 0.908020 0.721527
0.181824 0.908020 0.721527
0.308655 0.908020 0.721527
0.524811 0.908020 0.721527
0.764160 0.908020 0.721527
0.945465 0.908020 0.721527
0.000000 0.000000 0.854553
0.090912 0.000000 0.854553
0.181824 0.000000 0.854553
0.308655 0.000000 0.854553
0.524811 0.000000 0.854553
0.764160 0.000000 0.854553
0.945465 0.000000 0.854553
0.000000 0.148071 0.854553
0.090912 0.148071 0.854553
0.181824 0.148071 0.854553
0.308655 0.148071 0.854553
0.524811 0.148071 0.854553
0.764160 0.148071 0.854553
0.945465 0.148071 0.854553
0.000000 0.298645 0.854553
0.090912 0.298645 0.854553
0.181824 0.298645 0.854553
0.308655 0.298645 0.854553
0.524811 0.298645 0.854553
0.764160 0.298645 0.854553
0.945465 0.298645 0.854553
0.000000 0.450165 0.854553
0.090912 0.450165 0.854553
0.181824 0.450165 0.854553
0.308655 0.450165 0.854553
0.524811 0.450165 0.854553
0.764160 0.450165 0.854553
0.945465 0.450165 0.854553
0.000000 0.602325 0.854553
0.090912 0.602325 0.854553
0.181824 0.602325 0.854553
0.308655 0.602325 0.854553
0.524811 0.602325 0.854553
0.764160 0.602325 0.854553
0.945465 0.602325 0.854553
0.000000 0.754974 0.854553
0.090912 0.754974 0.854553
0.181824 0.754974 0.854553
0.308655 0.754974 0.854553
0.524811 0.754974 0.854553
0.764160 0.754974 0.854553
0.945465 0.754974 0.854553
0.000000 0.908020 0.854553
0.090912 0.908020 0.854553
0.181824 0.908020 0.854553
0.308655 0.908020 0.854553
0.524811 0.908020 0.854553
0.764160 0.908020 0.854553
0.945465 0.908020 0.854553
0.000000 0.000000 0.945465
0.090912 0.000000 0.945465
0.181824 0.000000 0.945465
0.308655 0.000000 0.945465
0.524811 0.000000 0.945465
0.764160 0.000000 0.945465
0.945465 0.000000 0.945465
0.000000 0.148071 0.945465
0.090912 0.148071 0.945465
0.181824 0.148071 0.945465
0.308655 0.148071 0.945465
0.524811 0.148071 0.945465
0.764160 0.148071 0.945465
0.945465 0.148071 0.945465
0.000000 0.298645 0.945465
0.090912 0.298645 0.945465
0.181824 0.298645 0.945465
0.308655 0.298645 0.945465
0.524811 0.298645 0.945465
0.764160 0.298645 0.945465
0.945465 0.298645 0.945465
0.000000 0.450165 0.945465
0.090912 0.450165 0.945465
0.181824 0.450165 0.945465
0.308655 0.450165 0.945465
0.524811 0.450165 0.945465
0.764160 0.450165 0.945465
0.945465 0.450165 0.945465
0.000000 0.602325 0.945465
0.090912 0.602325 0.945465
0.181824 0.602325 0.945465
0.308655 0.602325 0.945465
0.524811 0.602325 0.945465
0.764160 0.602325 0.945465
0.945465 0.602325 0.945465
0.000000 0.754974 0.945465
0.090912 0.754974 0.945465
0.181824 0.754974 0.945465
0.308655 0.754974 0.945465
0.524811 0.754974 0.945465
0.764160 0.754974 0.945465
0.945465 0.754974 0.945465
0.000000 0.908020 0.945465
0.090912 0.908020 0.945465
0.181824 0.908020 0.945465
0.308655 0.908020 0.945465
0.524811 0.908020 0.945465
0.764160 0.908020 0.945465
0.945465 0.908020 0.945465
