colors/彩色负片100T.cube
#Created by: Adobe Photoshop Export Color Lookup Plugin
#Copyright: (C) Copyright 2026 汉图
TITLE "mint本征源文件-适配lut筛选-恢复的.psd"
#LUT size
LUT_3D_SIZE 34
#data domain
DOMAIN_MIN 0.0 0.0 0.0
DOMAIN_MAX 1.0 1.0 1.0
#LUT data points
0.000000 0.000000 0.000000
0.042145 0.003754 0.002747
0.087708 0.006165 0.003601
0.131897 0.009552 0.003296
0.177094 0.012817 0.002563
0.222443 0.016907 0.001068
0.263824 0.023804 0.000031
0.304138 0.032104 0.000031
0.342224 0.042114 0.000031
0.381866 0.051727 0.000031
0.420074 0.061737 0.000031
0.458099 0.071167 0.000031
0.495117 0.080170 0.000031
0.531311 0.088867 0.000031
0.566406 0.097504 0.000031
0.601532 0.105927 0.000031
0.636505 0.114380 0.000031
0.671844 0.122864 0.000031
0.707428 0.131439 0.000031
0.730865 0.136871 0.000031
0.730865 0.136871 0.000031
0.730865 0.136871 0.000031
0.730865 0.136871 0.000031
0.730865 0.136871 0.000031
0.730865 0.136871 0.000031
0.730865 0.136871 0.000031
0.730865 0.136871 0.000031
0.730865 0.136871 0.000031
0.730865 0.136871 0.000031
0.730865 0.136871 0.000031
0.730865 0.136871 0.000031
0.730865 0.136871 0.000031
0.730865 0.136871 0.000031
0.730865 0.136871 0.000031
0.003571 0.037445 0.003571
0.030212 0.030548 0.005249
0.070618 0.025085 0.005524
0.112030 0.019745 0.004944
0.151306 0.015228 0.003601
0.191437 0.014221 0.001953
0.232635 0.018250 0.000183
0.271149 0.024445 0.000031
0.307587 0.032593 0.000031
0.342438 0.042114 0.000031
0.379059 0.050842 0.000031
0.414337 0.059967 0.000031
0.449402 0.068634 0.000031
0.483673 0.077271 0.000031
0.518097 0.085480 0.000031
0.552124 0.093811 0.000031
0.586426 0.102173 0.000031
0.620941 0.110535 0.000031
0.656036 0.118896 0.000031
0.691589 0.127411 0.000031
0.727264 0.136139 0.000031
0.730865 0.136871 0.000031
0.730865 0.136871 0.000031
0.730865 0.136871 0.000031
0.730865 0.136871 0.000031
0.730865 0.136871 0.000031
0.730865 0.136871 0.000031
0.730865 0.136871 0.000031
0.730865 0.136871 0.000031
0.730865 0.136871 0.000031
0.730865 0.136871 0.000031
0.730865 0.136871 0.000031
0.730865 0.136871 0.000031
0.730865 0.136871 0.000031
0.005157 0.076202 0.005157
0.021881 0.070496 0.007874
0.058350 0.066071 0.009094
0.097443 0.060425 0.008698
0.133636 0.055542 0.007874
0.170013 0.051086 0.006958
0.206390 0.048218 0.004974
0.244476 0.046051 0.002686
0.282196 0.045349 0.000031
0.315491 0.046997 0.000031
0.347656 0.049316 0.000031
0.377319 0.052338 0.000031
0.407349 0.058685 0.000031
0.440704 0.066467 0.000031
0.472992 0.074799 0.000031
0.505829 0.082947 0.000031
0.539215 0.091003 0.000031
0.573212 0.099060 0.000031
0.607391 0.107330 0.000031
0.642120 0.115662 0.000031
0.677399 0.124176 0.000031
0.713196 0.132782 0.000031
0.730865 0.136871 0.000031
0.730865 0.136871 0.000031
0.730865 0.136871 0.000031
0.730865 0.136871 0.000031
0.730865 0.136871 0.000031
0.730865 0.136871 0.000031
0.730865 0.136871 0.000031
0.730865 0.136871 0.000031
0.730865 0.136871 0.000031
0.730865 0.136871 0.000031
0.730865 0.136871 0.000031
0.730865 0.136871 0.000031
0.006897 0.114777 0.006897
0.013885 0.111755 0.010406
0.049255 0.107605 0.012085
0.087799 0.100464 0.011719
0.122711 0.094269 0.011383
0.156525 0.089081 0.010895
0.190308 0.085236 0.010132
0.225677 0.082123 0.009277
0.261658 0.080078 0.007660
0.298737 0.078278 0.005829
0.335571 0.077057 0.002960
0.371552 0.076202 0.000031
0.401550 0.077362 0.000031
0.430115 0.078979 0.000031
0.456635 0.081421 0.000031
0.483398 0.083710 0.000031
0.508575 0.086945 0.000031
0.533936 0.090393 0.000031
0.564148 0.096985 0.000031
0.598114 0.105011 0.000031
0.632477 0.113312 0.000031
0.667297 0.121796 0.000031
0.702820 0.130341 0.000031
0.730865 0.136871 0.000031
0.730865 0.136871 0.000031
0.730865 0.136871 0.000031
0.730865 0.136871 0.000031
0.730865 0.136871 0.000031
0.730865 0.136871 0.000031
0.730865 0.136871 0.000031
0.730865 0.136871 0.000031
0.730865 0.136871 0.000031
0.730865 0.136871 0.000031
0.730865 0.136871 0.000031
0.008453 0.153473 0.008453
0.011139 0.150726 0.011139
0.041443 0.148926 0.015717
0.080688 0.140839 0.014526
0.115356 0.133301 0.014008
0.149109 0.126282 0.013702
0.180878 0.121460 0.013275
0.213959 0.117401 0.012970
0.247528 0.114502 0.012299
0.281860 0.111969 0.011414
0.316223 0.109985 0.010010
0.351318 0.107758 0.008423
0.385620 0.106079 0.005920
0.420349 0.104248 0.003113
0.455048 0.102600 0.000031
0.484467 0.103302 0.000031
0.512756 0.104950 0.000031
0.541138 0.106995 0.000031
0.568604 0.110016 0.000031
0.595642 0.113861 0.000031
0.623840 0.117828 0.000031
0.651337 0.122772 0.000031
0.679810 0.128143 0.000031
0.709167 0.133728 0.000031
0.737091 0.139404 0.000031
0.731995 0.137360 0.000031
0.730865 0.136871 0.000031
0.730865 0.136871 0.000031
0.730865 0.136871 0.000031
0.730865 0.136871 0.000031
0.730743 0.137024 0.000031
0.742432 0.141388 0.000031
0.757690 0.147095 0.000031
0.774292 0.153717 0.000031
0.010071 0.192230 0.010071
0.011353 0.188660 0.011353
0.033691 0.190674 0.019684
0.074463 0.181793 0.018250
0.112091 0.172150 0.016937
0.144775 0.164154 0.016266
0.176544 0.157532 0.015930
0.207855 0.152557 0.015686
0.239777 0.148560 0.015320
0.272003 0.145325 0.014862
0.304230 0.142639 0.014252
0.336731 0.140137 0.013245
0.369385 0.137695 0.012085
0.402344 0.135406 0.010559
0.435760 0.133331 0.008636
0.469452 0.131622 0.006195
0.503815 0.130280 0.003357
0.538879 0.129242 0.000122
0.569855 0.130371 0.000031
0.600739 0.132294 0.000031
0.630798 0.135315 0.000031
0.661713 0.138824 0.000031
0.692627 0.142975 0.000031
0.724274 0.147797 0.000031
0.755951 0.153351 0.000031
0.787842 0.159241 0.000031
0.783936 0.157776 0.000031
0.780884 0.156464 0.000031
0.779022 0.155518 0.000031
0.778809 0.155457 0.000031
0.782104 0.156830 0.000031
0.789734 0.160187 0.000031
0.801331 0.165497 0.000031
0.813812 0.172699 0.000031
0.011658 0.231293 0.011658
0.012085 0.227142 0.012085
0.025421 0.233490 0.024414
0.068817 0.223572 0.022339
0.109253 0.212280 0.020081
0.143738 0.202454 0.019165
0.175262 0.194244 0.018646
0.205963 0.187714 0.018219
0.236450 0.182739 0.017914
0.267334 0.178619 0.017731
0.297821 0.175323 0.017303
0.328430 0.172455 0.016693
0.359375 0.169617 0.015991
0.390503 0.167084 0.015137
0.422089 0.164795 0.013947
0.454407 0.162750 0.012543
0.487335 0.161163 0.010864
0.520996 0.159943 0.008820
0.555603 0.159210 0.006500
0.591003 0.158966 0.003754
0.627319 0.159241 0.000732
0.661560 0.161072 0.000031
0.695068 0.163971 0.000031
0.728760 0.167725 0.000031
0.762726 0.172272 0.000031
0.797577 0.177063 0.000031
0.829102 0.181946 0.000031
0.826813 0.180695 0.000031
0.825317 0.179718 0.000031
0.824890 0.179260 0.000031
0.826172 0.179993 0.000031
0.830139 0.182739 0.000031
0.836914 0.187988 0.000031
0.845642 0.195038 0.000031
0.013214 0.270386 0.013214
0.013428 0.266266 0.013428
0.026093 0.273163 0.026093
0.061676 0.266876 0.027740
0.106232 0.253693 0.023895
0.142761 0.242126 0.022247
0.175354 0.232117 0.021362
0.206116 0.223724 0.020813
0.235779 0.217377 0.020508
0.265411 0.212341 0.020203
0.294983 0.208191 0.019928
0.324493 0.204803 0.019562
0.354248 0.201691 0.019226
0.384125 0.198914 0.018616
0.414215 0.196533 0.017822
0.445099 0.194366 0.017029
0.476562 0.192657 0.015961
0.508789 0.191345 0.014679
0.542053 0.190430 0.013245
0.576141 0.190094 0.011536
0.611115 0.190369 0.009521
0.647308 0.191071 0.007385
0.684418 0.192352 0.004944
0.722626 0.194122 0.002350
0.761292 0.196533 0.000031
0.797211 0.200714 0.000031
0.833466 0.205170 0.000031
0.860138 0.208527 0.000031
0.859070 0.207672 0.000031
0.858826 0.207184 0.000031
0.859222 0.207703 0.000031
0.861053 0.209778 0.000031
0.865326 0.214081 0.000031
0.870331 0.220612 0.000031
0.014801 0.309509 0.014801
0.015289 0.305756 0.015289
0.027863 0.312805 0.027863
0.054169 0.310730 0.033569
0.103302 0.295624 0.028076
0.142151 0.282623 0.025543
0.175598 0.271118 0.024353
0.206512 0.261169 0.023499
0.235931 0.253021 0.022980
0.264740 0.246735 0.022675
0.293579 0.241669 0.022400
0.322266 0.237671 0.022095
0.351257 0.234344 0.021790
0.380646 0.231262 0.021484
0.410217 0.228638 0.021057
0.440094 0.226440 0.020508
0.470581 0.224640 0.019836
0.501709 0.223206 0.019012
0.533508 0.222382 0.018066
0.566345 0.221985 0.016968
0.600128 0.222168 0.015747
0.634857 0.222931 0.014374
0.670563 0.224365 0.012726
0.707520 0.226196 0.011017
0.745514 0.228516 0.009125
0.784332 0.231140 0.007050
0.823669 0.234070 0.004669
0.863434 0.237213 0.002258
0.882263 0.238525 0.000977
0.882050 0.238342 0.000824
0.882294 0.238739 0.001038
0.882629 0.240479 0.001404
0.883545 0.244415 0.002411
0.885071 0.250092 0.003937
0.016418 0.348419 0.016418
0.017273 0.345337 0.017273
0.029694 0.352417 0.029694
0.044647 0.355438 0.040314
0.098724 0.338348 0.032898
0.140381 0.324066 0.029358
0.175446 0.311157 0.027527
0.206665 0.299744 0.026398
0.236115 0.289978 0.025635
0.264832 0.281982 0.025177
0.292755 0.275909 0.024841
0.321228 0.270966 0.024567
0.349854 0.267120 0.024384
0.378784 0.263855 0.024139
0.407898 0.261261 0.023804
0.437531 0.259003 0.023438
0.467621 0.257111 0.023041
0.498077 0.255798 0.022522
0.529297 0.254822 0.021973
0.560944 0.254578 0.021210
0.593536 0.254852 0.020416
0.627075 0.255646 0.019531
0.661682 0.257019 0.018555
0.697174 0.258972 0.017395
0.733734 0.261292 0.016174
0.770996 0.263977 0.014709
0.809204 0.266815 0.013214
0.847748 0.269958 0.011444
0.886475 0.273407 0.009644
0.890320 0.273834 0.009491
0.890320 0.274414 0.009521
0.890656 0.275696 0.009827
0.891144 0.278442 0.010406
0.891968 0.282593 0.011261
0.017975 0.387177 0.017975
0.019348 0.384613 0.019348
0.031616 0.391693 0.031616
0.043396 0.396179 0.043396
0.090057 0.382568 0.039154
0.137207 0.365967 0.033539
0.173889 0.352081 0.031067
0.206146 0.339294 0.029510
0.236176 0.327942 0.028442
0.264435 0.318634 0.027802
0.292358 0.311035 0.027374
0.320251 0.305176 0.027039
0.348633 0.300598 0.026764
0.377350 0.297028 0.026520
0.406738 0.294067 0.026428
0.436310 0.291779 0.026184
0.466125 0.290161 0.025909
0.496552 0.288788 0.025635
0.527313 0.288025 0.025269
0.558746 0.287750 0.024841
0.590790 0.288025 0.024353
0.623322 0.289032 0.023743
0.656860 0.290497 0.023163
0.691162 0.292542 0.022369
0.726318 0.294891 0.021606
0.762238 0.297485 0.020660
0.798889 0.300293 0.019592
0.836182 0.303406 0.018463
0.873596 0.306763 0.017090
0.896667 0.309082 0.016296
0.896881 0.309723 0.016510
0.896973 0.310913 0.016663
0.897278 0.312744 0.016968
0.897675 0.315552 0.017426
0.019562 0.425812 0.019562
0.021057 0.423370 0.021057
0.033203 0.430389 0.033203
0.044861 0.435059 0.044861
0.077118 0.427917 0.046875
0.131104 0.408661 0.038452
0.170990 0.393341 0.034851
0.204834 0.379486 0.032806
0.235413 0.367065 0.031494
0.263916 0.356323 0.030579
0.291687 0.347473 0.029999
0.319336 0.340393 0.029510
0.347626 0.334869 0.029236
0.376404 0.330658 0.029053
0.405579 0.327576 0.028900
0.435181 0.325226 0.028748
0.465393 0.323425 0.028625
0.495880 0.322235 0.028473
0.526794 0.321533 0.028229
0.558044 0.321503 0.027954
0.589905 0.321960 0.027710
0.622284 0.322998 0.027374
0.655151 0.324646 0.026978
0.688660 0.326691 0.026520
0.722809 0.329010 0.026062
0.757538 0.331573 0.025421
0.792786 0.334442 0.024719
0.828735 0.337402 0.023926
0.864929 0.340637 0.023041
0.901031 0.343994 0.022095
0.902039 0.344788 0.022247
0.902100 0.345825 0.022369
0.902283 0.347107 0.022552
0.902557 0.348877 0.022827
0.021118 0.464447 0.021118
0.022217 0.461609 0.022217
0.034271 0.468597 0.034271
0.045898 0.473419 0.045898
0.057465 0.475433 0.056732
0.120667 0.452576 0.044495
0.164581 0.435822 0.039429
0.201080 0.420746 0.036499
0.233002 0.407288 0.034760
0.262604 0.395294 0.033569
0.290863 0.385071 0.032745
0.318573 0.376862 0.032104
0.346710 0.370270 0.031708
0.375336 0.365326 0.031525
0.404541 0.361664 0.031372
0.434326 0.359070 0.031250
0.464539 0.357330 0.031189
0.495331 0.356140 0.031067
0.526642 0.355591 0.031036
0.558044 0.355743 0.030884
0.590149 0.356354 0.030792
0.622528 0.357544 0.030609
0.655304 0.359314 0.030426
0.688507 0.361298 0.030182
0.721954 0.363678 0.029846
0.755951 0.366211 0.029510
0.790283 0.368958 0.029022
0.825134 0.371887 0.028564
0.860138 0.374908 0.027954
0.894958 0.378082 0.027283
0.906250 0.379639 0.027100
0.906342 0.380493 0.027222
0.906433 0.381470 0.027344
0.906616 0.382599 0.027527
0.022675 0.503479 0.022675
0.022919 0.499664 0.022919
0.034882 0.506561 0.034882
0.046448 0.511475 0.046448
0.057556 0.514008 0.057556
0.103699 0.498932 0.052765
0.155609 0.479065 0.044556
0.194977 0.463043 0.040741
0.229126 0.448486 0.038361
0.259949 0.435577 0.036804
0.289276 0.424133 0.035675
0.317627 0.414612 0.034912
0.345978 0.406891 0.034363
0.374573 0.401001 0.034027
0.403748 0.396667 0.033844
0.433563 0.393677 0.033722
0.464020 0.391663 0.033691
0.494934 0.390564 0.033630
0.526520 0.390137 0.033661
0.558533 0.390381 0.033661
0.590729 0.391266 0.033630
0.623413 0.392609 0.033630
0.656311 0.394379 0.033569
0.689484 0.396393 0.033508
0.722717 0.398773 0.033295
0.756287 0.401276 0.033081
0.790161 0.403961 0.032837
0.824280 0.406708 0.032532
0.858398 0.409576 0.032135
0.892303 0.412506 0.031677
0.909851 0.414429 0.031464
0.909973 0.415100 0.031555
0.910004 0.415802 0.031616
0.910095 0.416473 0.031708
0.024261 0.543182 0.024261
0.024109 0.538788 0.024109
0.035065 0.544708 0.035065
0.046631 0.549683 0.046631
0.057770 0.552460 0.057770
0.076111 0.549683 0.065063
0.141571 0.524506 0.051331
0.186554 0.506439 0.045532
0.223236 0.490936 0.042358
0.256226 0.476898 0.040344
0.286865 0.464417 0.038849
0.316162 0.453796 0.037872
0.345062 0.444977 0.037201
0.373840 0.438110 0.036682
0.403076 0.432892 0.036407
0.433044 0.429260 0.036255
0.463623 0.426880 0.036194
0.494751 0.425629 0.036194
0.526550 0.425232 0.036255
0.558868 0.425568 0.036346
0.591461 0.426575 0.036407
0.624420 0.427979 0.036469
0.657623 0.429749 0.036530
0.690796 0.431915 0.036530
0.724243 0.434235 0.036530
0.757721 0.436676 0.036407
0.791351 0.439270 0.036285
0.825043 0.441956 0.036102
0.858704 0.444611 0.035858
0.891937 0.447296 0.035553
0.912964 0.449219 0.035370
0.913025 0.449677 0.035431
0.913116 0.450165 0.035522
0.913116 0.450531 0.035522
0.025970 0.583679 0.025970
0.025757 0.579163 0.025757
0.035065 0.583405 0.035065
0.046600 0.588379 0.046600
0.057800 0.591309 0.057800
0.068542 0.592163 0.068542
0.121887 0.572601 0.060211
0.174683 0.551605 0.051392
0.215576 0.534607 0.046967
0.250763 0.519623 0.044250
0.283386 0.506073 0.042358
0.314178 0.494354 0.041046
0.343811 0.484528 0.040131
0.373260 0.476532 0.039520
0.402832 0.470428 0.039093
0.432739 0.466003 0.038849
0.463562 0.463043 0.038788
0.494934 0.461426 0.038788
0.526855 0.460876 0.038849
0.559296 0.461273 0.038971
0.592224 0.462250 0.039093
0.625397 0.463806 0.039246
0.658813 0.465576 0.039368
0.692291 0.467651 0.039459
0.725861 0.469910 0.039520
0.759491 0.472382 0.039551
0.793152 0.474854 0.039520
0.826691 0.477325 0.039398
0.860046 0.479828 0.039276
0.893036 0.482269 0.039093
0.915588 0.484100 0.038940
0.915680 0.484344 0.038971
0.915741 0.484619 0.039032
0.915649 0.484863 0.039001
0.027618 0.625305 0.027618
0.027466 0.620667 0.027466
0.035095 0.623077 0.035095
0.046600 0.628021 0.046600
0.057800 0.631042 0.057800
0.068604 0.632141 0.068604
0.089508 0.626923 0.074493
0.158844 0.599182 0.058807
0.205322 0.580139 0.052368
0.244171 0.563721 0.048584
0.278717 0.549225 0.046204
0.311005 0.536560 0.044525
0.342133 0.525543 0.043365
0.372406 0.516541 0.042480
0.402557 0.509430 0.041931
0.432953 0.504150 0.041656
0.463776 0.500519 0.041473
0.495178 0.498413 0.041412
0.527313 0.497467 0.041443
0.559937 0.497620 0.041565
0.592957 0.498474 0.041748
0.626373 0.499878 0.041931
0.659973 0.501678 0.042114
0.693695 0.503723 0.042297
0.727325 0.505981 0.042358
0.761108 0.508301 0.042480
0.794830 0.510651 0.042511
0.828461 0.513000 0.042542
0.861816 0.515228 0.042480
0.894501 0.517487 0.042328
0.917969 0.519012 0.042267
0.917999 0.519196 0.042297
0.917969 0.519226 0.042267
0.917938 0.519287 0.042267
0.029419 0.668243 0.029419
0.029175 0.663391 0.029175
0.035095 0.663971 0.035095
0.046631 0.668793 0.046631
0.057831 0.671936 0.057831
0.068726 0.673218 0.068726
0.079224 0.672760 0.079224
0.137024 0.650360 0.068817
0.192291 0.627777 0.058868
0.235443 0.609650 0.053650
0.272583 0.594086 0.050507
0.307068 0.580200 0.048340
0.339691 0.568115 0.046783
0.371033 0.558167 0.045746
0.402222 0.549957 0.044952
0.433258 0.543671 0.044464
0.464478 0.539246 0.044220
0.495941 0.536438 0.044128
0.528137 0.535004 0.044128
0.560852 0.534637 0.044250
0.593872 0.535217 0.044373
0.627350 0.536377 0.044556
0.661072 0.538025 0.044800
0.694885 0.540009 0.044983
0.728821 0.542084 0.045166
0.762726 0.544281 0.045319
0.796417 0.546509 0.045380
0.830078 0.548676 0.045471
0.863373 0.550720 0.045502
0.896149 0.552704 0.045441
0.920044 0.554108 0.045410
0.920044 0.554016 0.045410
0.920013 0.553894 0.045410
0.920013 0.553711 0.045380
0.031158 0.712708 0.031158
0.030975 0.707672 0.030975
0.035370 0.706543 0.035370
0.046814 0.711243 0.046814
0.058044 0.714386 0.058044
0.069000 0.715729 0.069000
0.079620 0.715454 0.079620
0.099823 0.709381 0.085480
0.176239 0.678070 0.066864
0.224823 0.657806 0.059631
0.265594 0.640625 0.055328
0.302124 0.625610 0.052521
0.336487 0.612488 0.050537
0.369446 0.601349 0.049194
0.401550 0.592224 0.048218
0.433380 0.584991 0.047607
0.465118 0.579590 0.047180
0.497040 0.575836 0.046967
0.529266 0.573608 0.046906
0.562073 0.572510 0.046936
0.595001 0.572601 0.047058
0.628387 0.573425 0.047241
0.662231 0.574768 0.047485
0.695984 0.576569 0.047668
0.730072 0.578430 0.047882
0.763977 0.580475 0.048035
0.797821 0.582489 0.048218
0.831360 0.584473 0.048309
0.864685 0.586334 0.048401
0.897461 0.588043 0.048401
0.921783 0.589294 0.048401
0.921814 0.588989 0.048401
0.921722 0.588654 0.048309
0.921722 0.588318 0.048309
0.033081 0.758911 0.033081
0.032867 0.753693 0.032867
0.035828 0.750916 0.035828
0.047211 0.755524 0.047211
0.058472 0.758575 0.058472
0.069458 0.759979 0.069458
0.080170 0.759827 0.080170
0.090546 0.758240 0.090546
0.153076 0.732941 0.078033
0.212006 0.708374 0.066650
0.257141 0.689301 0.060852
0.296417 0.672974 0.057251
0.332733 0.658630 0.054718
0.367157 0.646332 0.052948
0.400635 0.636047 0.051697
0.433441 0.627777 0.050842
0.466003 0.621307 0.050293
0.498260 0.616577 0.049927
0.530701 0.613373 0.049744
0.563324 0.611542 0.049713
0.596283 0.610840 0.049774
0.629639 0.611023 0.049896
0.663330 0.611908 0.050079
0.697144 0.613342 0.050323
0.731079 0.614990 0.050537
0.765076 0.616760 0.050781
0.798828 0.618530 0.050934
0.832428 0.620239 0.051086
0.865631 0.621948 0.051208
0.898315 0.623474 0.051270
0.923340 0.624420 0.051239
0.923340 0.623993 0.051208
0.923309 0.623413 0.051147
0.923340 0.622894 0.051147
0.035034 0.807098 0.035034
0.034790 0.801636 0.034790
0.036560 0.797455 0.036560
0.047943 0.801910 0.047943
0.059204 0.804901 0.059204
0.070221 0.806305 0.070221
0.080994 0.806152 0.080994
0.091461 0.804596 0.091461
0.113251 0.796936 0.096680
0.195587 0.762329 0.075500
0.246704 0.740601 0.067383
0.289581 0.722443 0.062531
0.328156 0.706726 0.059326
0.364319 0.693176 0.057098
0.399170 0.681610 0.055450
0.433105 0.672119 0.054352
0.466522 0.664490 0.053558
0.499481 0.658630 0.053040
0.532166 0.654388 0.052734
0.564972 0.651520 0.052612
0.597961 0.649902 0.052551
0.631104 0.649384 0.052643
0.664551 0.649689 0.052795
0.698303 0.650513 0.053009
0.731995 0.651733 0.053162
0.765869 0.653137 0.053406
0.799591 0.654663 0.053619
0.832977 0.656097 0.053741
0.866150 0.657471 0.053894
0.898773 0.658752 0.053986
0.924744 0.659607 0.054016
0.924744 0.658966 0.054016
0.924683 0.658264 0.053925
0.924622 0.657471 0.053833
0.037079 0.857605 0.037079
0.036835 0.851837 0.036835
0.037537 0.846436 0.037537
0.048950 0.850708 0.048950
0.060211 0.853546 0.060211
0.071259 0.854889 0.071259
0.082123 0.854675 0.082123
0.092712 0.853149 0.092712
0.102997 0.850342 0.102997
0.172974 0.820923 0.087341
0.234283 0.794617 0.075043
0.281342 0.774353 0.068604
0.322784 0.756836 0.064392
0.360992 0.741730 0.061554
0.397247 0.728821 0.059540
0.432343 0.717957 0.058075
0.466583 0.709106 0.057037
0.500275 0.702057 0.056366
0.533661 0.696533 0.055847
0.566620 0.692657 0.055603
0.599640 0.690002 0.055450
0.632751 0.688416 0.055420
0.665955 0.687927 0.055511
0.699371 0.688080 0.055634
0.732971 0.688690 0.055817
0.766602 0.689636 0.056030
0.800049 0.690735 0.056213
0.833252 0.691895 0.056366
0.866241 0.692993 0.056519
0.898773 0.694000 0.056610
0.925903 0.694702 0.056732
0.925842 0.693909 0.056641
0.925842 0.692993 0.056580
0.925812 0.692047 0.056488
0.039246 0.910522 0.039246
0.038971 0.904541 0.038971
0.038849 0.898041 0.038849
0.050232 0.902130 0.050232
0.061554 0.904816 0.061554
0.072662 0.906036 0.072662
0.083557 0.905640 0.083557
0.094177 0.903870 0.094177
0.104553 0.900848 0.104553
0.131927 0.889435 0.107300
0.218567 0.851929 0.084381
0.271698 0.828552 0.075531
0.316284 0.809082 0.070129
0.356659 0.792267 0.066528
0.394409 0.777710 0.063934
0.430908 0.765320 0.062073
0.466248 0.755005 0.060760
0.500824 0.746582 0.059784
0.534729 0.739929 0.059143
0.568176 0.734772 0.058685
0.601288 0.730957 0.058441
0.634338 0.728363 0.058289
0.667450 0.726807 0.058319
0.700592 0.726013 0.058350
0.733795 0.725922 0.058472
0.767059 0.726318 0.058624
0.800232 0.726898 0.058807
0.833221 0.727661 0.058960
0.865967 0.728455 0.059113
0.898407 0.729156 0.059235
0.926849 0.729675 0.059296
0.926849 0.728729 0.059235
0.926819 0.727661 0.059174
0.926788 0.726562 0.059052
0.041473 0.965485 0.041473
0.041229 0.959473 0.041229
0.040924 0.952789 0.040924
0.051910 0.956299 0.051910
0.063171 0.958740 0.063171
0.074280 0.959656 0.074280
0.085205 0.959015 0.085205
0.095917 0.956848 0.095917
0.106354 0.953369 0.106354
0.116547 0.948853 0.116547
0.195892 0.913910 0.096863
0.259308 0.885437 0.083710
0.308350 0.863342 0.076569
0.351257 0.844513 0.071991
0.391052 0.828094 0.068726
0.428741 0.814056 0.066345
0.465332 0.802094 0.064636
0.500732 0.792297 0.063446
0.535339 0.784271 0.062561
0.569336 0.777832 0.061951
0.602814 0.772766 0.061523
0.635925 0.769012 0.061279
0.668854 0.766327 0.061157
0.701721 0.764526 0.061127
0.734528 0.763580 0.061157
0.767395 0.763153 0.061249
0.800262 0.763184 0.061401
0.832977 0.763397 0.061523
0.865417 0.763763 0.061646
0.897644 0.764160 0.061768
0.927673 0.764496 0.061859
0.927704 0.763367 0.061798
0.927643 0.762177 0.061676
0.927612 0.761017 0.061615
0.041656 0.971039 0.041656
0.041656 0.971039 0.041656
0.041656 0.971039 0.041656
0.052643 0.982025 0.052643
0.064209 0.993622 0.064209
0.083221 1.000000 0.083221
0.107452 1.000000 0.107452
0.114380 1.000000 0.114380
0.118896 1.000000 0.118896
0.121735 1.000000 0.121735
0.155151 0.984955 0.117126
0.242950 0.945282 0.093628
0.298523 0.919525 0.083862
0.344788 0.898285 0.077942
0.386719 0.879944 0.073883
0.425995 0.864044 0.070953
0.463623 0.850464 0.068848
0.500000 0.838989 0.067261
0.535309 0.829498 0.066132
0.569916 0.821625 0.065277
0.603760 0.815247 0.064697
0.637085 0.810242 0.064301
0.669952 0.806396 0.064056
0.702667 0.803497 0.063934
0.735107 0.801514 0.063873
0.767639 0.800232 0.063904
0.800079 0.799500 0.063965
0.832428 0.799164 0.064056
0.864655 0.799072 0.064178
0.896576 0.799042 0.064240
0.928314 0.799164 0.064392
0.928436 0.797821 0.064301
0.928406 0.796509 0.064209
0.928345 0.795258 0.064117
0.041656 0.971039 0.041656
0.041656 0.971039 0.041656
0.041901 0.971252 0.041901
0.052979 0.982391 0.052979
0.064209 0.993622 0.064209
0.082611 1.000000 0.082611
0.110229 1.000000 0.110229
0.137726 1.000000 0.137726
0.165070 1.000000 0.165070
0.192108 1.000000 0.192108
0.202545 1.000000 0.202545
0.232086 1.000000 0.121765
0.285614 0.978058 0.092438
0.336548 0.953949 0.084717
0.381226 0.933289 0.079590
0.422272 0.915375 0.075958
0.461395 0.899750 0.073273
0.498566 0.886505 0.071289
0.534790 0.875305 0.069885
0.569977 0.865906 0.068756
0.604156 0.858215 0.067993
0.637695 0.851898 0.067444
0.670715 0.846771 0.067047
0.703217 0.842804 0.066772
0.735535 0.839752 0.066620
0.767639 0.837555 0.066559
0.799774 0.835999 0.066559
0.831787 0.834961 0.066620
0.863617 0.834290 0.066681
0.895325 0.833893 0.066772
