colors/彩色负片100T.cube
#Created by: Adobe Photoshop Export Color Lookup Plugin
#Copyright: (C) Copyright 2026 汉图
TITLE "mint本征源文件-适配lut筛选-恢复的.psd"
#LUT size
LUT_3D_SIZE 7
#data domain
#LUT data points
DOMAIN_MIN 0.000000 0.000000 0.000000
DOMAIN_MAX 0.909091 0.909091 0.909091
0.000000 0.000000 0.000000
0.222443 0.016907 0.001068
0.420074 0.061737 0.000031
0.601532 0.105927 0.000031
0.730865 0.136871 0.000031
0.730865 0.136871 0.000031
0.730865 0.136871 0.000031
0.010071 0.192230 0.010071
0.144775 0.164154 0.016266
0.304230 0.142639 0.014252
0.469452 0.131622 0.006195
0.630798 0.135315 0.000031
0.787842 0.159241 0.000031
0.782104 0.156830 0.000031
0.017975 0.387177 0.017975
0.137207 0.365967 0.033539
0.292358 0.311035 0.027374
0.436310 0.291779 0.026184
0.590790 0.288025 0.024353
0.762238 0.297485 0.020660
0.896881 0.309723 0.016510
0.025970 0.583679 0.025970
0.068542 0.592163 0.068542
0.283386 0.506073 0.042358
0.432739 0.466003 0.038849
0.592224 0.462250 0.039093
0.759491 0.472382 0.039551
0.915588 0.484100 0.038940
0.035034 0.807098 0.035034
0.070221 0.806305 0.070221
0.246704 0.740601 0.067383
0.433105 0.672119 0.054352
0.597961 0.649902 0.052551
0.765869 0.653137 0.053406
0.924744 0.659607 0.054016
0.041656 0.971039 0.041656
0.082611 1.000000 0.082611
0.202545 1.000000 0.202545
0.422272 0.915375 0.075958
0.604156 0.858215 0.067993
0.767639 0.837555 0.066559
0.926880 0.833557 0.066864
0.055878 0.985291 0.055878
0.117096 1.000000 0.117096
0.224701 1.000000 0.224701
0.436279 1.000000 0.128174
0.611023 1.000000 0.125122
0.769257 1.000000 0.148041
0.916107 1.000000 0.103943
0.004364 0.002441 0.127838
0.160278 0.014099 0.098358
0.487671 0.069641 0.000031
0.730865 0.136871 0.000031
0.730865 0.136871 0.000031
0.730865 0.136871 0.000031
0.730865 0.136871 0.000031
0.010773 0.148102 0.126953
0.050781 0.066498 0.048523
0.265198 0.043915 0.000854
0.461914 0.071930 0.000031
0.661926 0.120392 0.000031
0.734344 0.138306 0.000031
0.753113 0.145538 0.000031
0.018585 0.322266 0.084106
0.035919 0.215424 0.029694
0.163086 0.178406 0.023499
0.343506 0.211151 0.022705
0.558258 0.269287 0.028687
0.786591 0.317963 0.027100
0.897003 0.309479 0.016632
0.029602 0.533325 0.029602
0.046814 0.448059 0.046814
0.218658 0.392426 0.034851
0.370514 0.397247 0.038574
0.561920 0.452118 0.075867
0.752991 0.497162 0.098236
0.926117 0.504272 0.049652
0.038666 0.786469 0.038666
0.070679 0.735626 0.070679
0.255890 0.668549 0.062683
0.425232 0.640594 0.057556
0.612671 0.666748 0.069153
0.788208 0.691071 0.089783
0.936646 0.681396 0.066559
0.049835 0.979218 0.049835
0.108124 0.999817 0.108124
0.265045 0.957184 0.100891
0.451721 0.906372 0.079895
0.634888 0.881989 0.078857
0.807129 0.882294 0.082825
0.941498 0.856262 0.079895
0.066925 0.996399 0.126129
0.205048 1.000000 0.249603
0.316467 1.000000 0.203766
0.460724 1.000000 0.143707
0.625092 1.000000 0.147552
0.790375 1.000000 0.200104
0.925842 1.000000 0.225494
0.009644 0.003601 0.251740
0.086792 0.010162 0.192932
0.254333 0.024719 0.184418
0.605042 0.075134 0.118134
0.746063 0.139679 0.000031
0.730865 0.136871 0.000031
0.730865 0.136871 0.000031
0.010712 0.123352 0.259613
0.035889 0.045349 0.137390
0.161652 0.050079 0.082520
0.482147 0.076752 0.000031
0.730865 0.136871 0.000031
0.738068 0.138336 0.000031
0.733643 0.137512 0.000031
0.018311 0.289062 0.251099
0.017975 0.169861 0.147705
0.097473 0.150513 0.145020
0.384552 0.203644 0.114166
0.685486 0.289703 0.150726
0.905396 0.334778 0.169373
0.889771 0.249664 0.052551
0.026489 0.473541 0.246216
0.040405 0.392914 0.189392
0.187500 0.367920 0.198700
0.363586 0.403137 0.239624
0.593628 0.504395 0.312714
0.789856 0.534882 0.315369
0.922333 0.493042 0.224396
0.037903 0.715515 0.264130
0.075104 0.712433 0.286926
0.327362 0.663086 0.308777
0.477264 0.671234 0.314789
0.652771 0.714264 0.360870
0.801544 0.721649 0.368042
0.932983 0.681458 0.290253
0.050995 0.980560 0.288391
0.114624 0.964417 0.404694
0.368958 0.897430 0.386871
0.499786 0.918976 0.341553
0.659912 0.901855 0.350311
0.814636 0.893677 0.373810
0.936005 0.854401 0.301453
0.057526 0.987213 0.348755
0.204651 1.000000 0.456085
0.331024 1.000000 0.412140
0.482758 1.000000 0.338013
0.639221 1.000000 0.331055
0.793274 1.000000 0.383270
0.923218 1.000000 0.360260
0.018768 0.003784 0.378784
0.088654 0.012054 0.328156
0.172424 0.049530 0.272522
0.355103 0.092224 0.273041
0.658295 0.084808 0.231476
0.825317 0.109436 0.181183
0.825043 0.109406 0.166656
0.021423 0.097443 0.390747
0.054291 0.052643 0.276276
0.131042 0.091949 0.228973
0.321838 0.173645 0.215973
0.717590 0.152039 0.217072
0.825317 0.109741 0.197601
0.825256 0.109222 0.163269
0.018921 0.273468 0.398987
0.043671 0.192932 0.291412
0.178894 0.214874 0.284363
0.375610 0.314850 0.298126
0.739136 0.360596 0.338318
0.900787 0.301392 0.327606
0.855103 0.157928 0.202148
0.026978 0.451050 0.404083
0.047089 0.406464 0.363586
0.248383 0.418640 0.383362
0.457062 0.517944 0.468079
0.711761 0.580933 0.494354
0.919342 0.536011 0.437683
0.918518 0.438965 0.340179
0.036957 0.667969 0.437378
0.081238 0.699921 0.481964
0.370300 0.707275 0.515533
0.556580 0.773987 0.566010
0.723175 0.793518 0.587006
0.850647 0.757996 0.542114
0.934174 0.680206 0.442444
0.050110 0.949402 0.483124
0.113312 0.968933 0.577484
0.382843 0.958160 0.578461
0.542297 0.991425 0.569061
0.694580 0.950104 0.551758
0.841309 0.923157 0.551025
0.939301 0.858734 0.472137
0.051788 0.981842 0.511993
0.205627 1.000000 0.602509
0.346283 1.000000 0.590240
0.504181 1.000000 0.545166
0.655426 1.000000 0.527039
0.800690 1.000000 0.552002
0.919983 1.000000 0.496338
0.030670 0.003632 0.508667
0.098541 0.015625 0.466736
0.199158 0.068420 0.395630
0.314209 0.193359 0.358521
0.493866 0.286285 0.371826
0.751404 0.217896 0.398743
0.829468 0.117462 0.374664
0.038055 0.077454 0.527374
0.087097 0.079895 0.448700
0.216095 0.149658 0.413239
0.337891 0.294525 0.390472
0.539459 0.434631 0.424347
0.770172 0.395844 0.473846
0.877838 0.209259 0.447327
0.024719 0.262207 0.549347
0.091522 0.241608 0.479736
0.280487 0.307373 0.480011
0.437653 0.442200 0.504608
0.623657 0.592010 0.538818
0.846588 0.504242 0.549652
0.896057 0.272308 0.487610
0.028076 0.443237 0.559723
0.082886 0.449402 0.546814
0.329865 0.498322 0.565796
0.534851 0.599762 0.639923
0.724457 0.709656 0.663086
0.918152 0.599823 0.610931
0.918243 0.415771 0.519135
0.037231 0.642365 0.584381
0.078522 0.700043 0.640106
0.375244 0.729950 0.668823
0.588531 0.794525 0.727112
0.766846 0.841705 0.754181
0.900970 0.768494 0.680878
0.934479 0.646210 0.569458
0.048767 0.890167 0.634918
0.104736 0.953400 0.721588
0.391724 0.951599 0.730743
0.575409 0.989594 0.751495
0.728394 0.981476 0.739471
0.860138 0.941101 0.711395
0.941406 0.857880 0.625702
0.053253 0.983856 0.668060
0.202911 1.000000 0.726715
0.366119 1.000000 0.733521
0.531525 1.000000 0.716705
0.682983 1.000000 0.702576
0.816284 1.000000 0.705963
0.917572 1.000000 0.628967
0.042969 0.004211 0.642212
0.109711 0.020721 0.606903
0.245056 0.092834 0.539764
0.361420 0.250885 0.480469
0.469299 0.411713 0.460175
0.590973 0.478943 0.487183
0.747833 0.425537 0.531464
0.054657 0.069916 0.671082
0.123718 0.111694 0.628052
0.286926 0.203583 0.599457
0.422485 0.356354 0.556671
0.543365 0.529999 0.541718
0.655365 0.604919 0.555084
0.800537 0.505890 0.584900
0.053162 0.252502 0.698029
0.137909 0.286011 0.670502
0.330566 0.356110 0.672668
0.492523 0.463654 0.661713
0.641846 0.641022 0.659271
0.742249 0.710754 0.650940
0.875244 0.562469 0.652191
0.029419 0.446686 0.723602
0.130737 0.480072 0.723083
0.351227 0.525604 0.735626
0.525177 0.578949 0.776001
0.710327 0.722504 0.777527
0.817017 0.794250 0.743896
0.935455 0.620087 0.708252
0.038177 0.631287 0.737396
0.080719 0.699341 0.794067
0.362335 0.714966 0.796387
0.546936 0.753265 0.836212
0.724457 0.806213 0.853760
0.862213 0.855347 0.814148
0.938904 0.693054 0.734131
0.048065 0.844269 0.772797
0.097351 0.914490 0.845215
0.367920 0.909210 0.840179
0.550537 0.932587 0.859955
0.713196 0.945557 0.867920
0.854095 0.937531 0.844849
0.943237 0.838593 0.755798
0.054749 0.986023 0.812927
0.189667 1.000000 0.833313
0.365509 1.000000 0.843353
0.535767 1.000000 0.839050
0.695465 1.000000 0.837769
0.832977 1.000000 0.840179
0.912506 0.996918 0.759583
0.052429 0.006683 0.776489
0.122406 0.027374 0.746307
0.278961 0.108856 0.684113
0.408325 0.268280 0.609955
0.502869 0.431976 0.562927
0.591736 0.556915 0.557343
0.672760 0.588684 0.575684
0.071655 0.073456 0.817444
0.132782 0.107849 0.814911
0.298187 0.192871 0.782104
0.451508 0.337646 0.698212
0.565369 0.504883 0.640198
0.661072 0.644073 0.632935
0.725403 0.663940 0.635468
0.079315 0.249817 0.848145
0.146820 0.282349 0.854614
0.307190 0.323181 0.853333
0.472534 0.403473 0.803375
0.622314 0.557892 0.745026
0.731323 0.720459 0.723450
0.784271 0.735657 0.709473
0.039978 0.448273 0.883057
0.134705 0.469818 0.884796
0.303131 0.485260 0.892334
0.467194 0.509155 0.891876
0.647491 0.611115 0.849518
0.784668 0.782410 0.809296
0.837341 0.805695 0.781982
0.039429 0.629486 0.895966
0.074432 0.674255 0.930176
0.294586 0.665375 0.917206
0.464722 0.673981 0.923431
0.637390 0.702148 0.917572
0.807220 0.823883 0.881073
0.882111 0.866302 0.842743
0.047943 0.813293 0.908783
0.084473 0.853699 0.945068
0.275726 0.852264 0.941803
0.461121 0.850464 0.936981
0.628418 0.854553 0.936432
0.790314 0.878876 0.924042
0.909943 0.911346 0.880737
0.055817 0.987701 0.913727
0.154480 1.000000 0.932739
0.323090 1.000000 0.940521
0.477631 1.000000 0.932587
0.625031 1.000000 0.928223
0.761230 1.000000 0.920013
0.896301 0.984650 0.890381
