colors/彩色反转T64.cube
#Created by: Adobe Photoshop Export Color Lookup Plugin
#Copyright: (C) Copyright 2026 汉图
TITLE "mint本征源文件-适配lut筛选-恢复的.psd"
#LUT size
LUT_3D_SIZE 34
#data domain
DOMAIN_MIN 0.0 0.0 0.0
DOMAIN_MAX 1.0 1.0 1.0
#LUT data points
0.000000 0.000000 0.000000
0.018188 0.000000 0.000000
0.036377 0.000000 0.000000
0.054535 0.000000 0.000000
0.072723 0.000000 0.000000
0.090912 0.000000 0.000000
0.109100 0.000000 0.000000
0.127289 0.000000 0.000000
0.145447 0.000000 0.000000
0.163635 0.000000 0.000000
0.181824 0.000000 0.000000
0.200012 0.000000 0.000000
0.218201 0.000000 0.000000
0.236877 0.000000 0.000000
0.270569 0.000000 0.000000
0.308655 0.000000 0.000000
0.349121 0.000000 0.000000
0.391174 0.000000 0.000000
0.434662 0.000000 0.000000
0.479248 0.000000 0.000000
0.524811 0.000000 0.000000
0.571228 0.000000 0.000000
0.618439 0.000000 0.000000
0.666382 0.000000 0.000000
0.714966 0.000000 0.000000
0.764160 0.000000 0.000000
0.813904 0.000000 0.000000
0.864227 0.000000 0.000000
0.909088 0.000000 0.000000
0.927277 0.000000 0.000000
0.945465 0.000000 0.000000
0.963623 0.000000 0.000000
0.981812 0.000000 0.000000
1.000000 0.000000 0.000000
0.000000 0.029053 0.000000
0.018188 0.029053 0.000000
0.036377 0.029053 0.000000
0.054535 0.029053 0.000000
0.072723 0.029053 0.000000
0.090912 0.029053 0.000000
0.109100 0.029053 0.000000
0.127289 0.029053 0.000000
0.145447 0.029053 0.000000
0.163635 0.029053 0.000000
0.181824 0.029053 0.000000
0.200012 0.029053 0.000000
0.218201 0.029053 0.000000
0.236877 0.029053 0.000000
0.270569 0.029053 0.000000
0.308655 0.029053 0.000000
0.349121 0.029053 0.000000
0.391174 0.029053 0.000000
0.434662 0.029053 0.000000
0.479248 0.029053 0.000000
0.524811 0.029053 0.000000
0.571228 0.029053 0.000000
0.618439 0.029053 0.000000
0.666382 0.029053 0.000000
0.714966 0.029053 0.000000
0.764160 0.029053 0.000000
0.813904 0.029053 0.000000
0.864227 0.029053 0.000000
0.909088 0.029053 0.000000
0.927277 0.029053 0.000000
0.945465 0.029053 0.000000
0.963623 0.029053 0.000000
0.981812 0.029053 0.000000
1.000000 0.029053 0.000000
0.000000 0.058594 0.000000
0.018188 0.058594 0.000000
0.036377 0.058594 0.000000
0.054535 0.058594 0.000000
0.072723 0.058594 0.000000
0.090912 0.058594 0.000000
0.109100 0.058594 0.000000
0.127289 0.058594 0.000000
0.145447 0.058594 0.000000
0.163635 0.058594 0.000000
0.181824 0.058594 0.000000
0.200012 0.058594 0.000000
0.218201 0.058594 0.000000
0.236877 0.058594 0.000000
0.270569 0.058594 0.000000
0.308655 0.058594 0.000000
0.349121 0.058594 0.000000
0.391174 0.058594 0.000000
0.434662 0.058594 0.000000
0.479248 0.058594 0.000000
0.524811 0.058594 0.000000
0.571228 0.058594 0.000000
0.618439 0.058594 0.000000
0.666382 0.058594 0.000000
0.714966 0.058594 0.000000
0.764160 0.058594 0.000000
0.813904 0.058594 0.000000
0.864227 0.058594 0.000000
0.909088 0.058594 0.000000
0.927277 0.058594 0.000000
0.945465 0.058594 0.000000
0.963623 0.058594 0.000000
0.981812 0.058594 0.000000
1.000000 0.058594 0.000000
0.000000 0.088318 0.000000
0.018188 0.088318 0.000000
0.036377 0.088318 0.000000
0.054535 0.088318 0.000000
0.072723 0.088318 0.000000
0.090912 0.088318 0.000000
0.109100 0.088318 0.000000
0.127289 0.088318 0.000000
0.145447 0.088318 0.000000
0.163635 0.088318 0.000000
0.181824 0.088318 0.000000
0.200012 0.088318 0.000000
0.218201 0.088318 0.000000
0.236877 0.088318 0.000000
0.270569 0.088318 0.000000
0.308655 0.088318 0.000000
0.349121 0.088318 0.000000
0.391174 0.088318 0.000000
0.434662 0.088318 0.000000
0.479248 0.088318 0.000000
0.524811 0.088318 0.000000
0.571228 0.088318 0.000000
0.618439 0.088318 0.000000
0.666382 0.088318 0.000000
0.714966 0.088318 0.000000
0.764160 0.088318 0.000000
0.813904 0.088318 0.000000
0.864227 0.088318 0.000000
0.909088 0.088318 0.000000
0.927277 0.088318 0.000000
0.945465 0.088318 0.000000
0.963623 0.088318 0.000000
0.981812 0.088318 0.000000
1.000000 0.088318 0.000000
0.000000 0.118164 0.000000
0.018188 0.118164 0.000000
0.036377 0.118164 0.000000
0.054535 0.118164 0.000000
0.072723 0.118164 0.000000
0.090912 0.118164 0.000000
0.109100 0.118164 0.000000
0.127289 0.118164 0.000000
0.145447 0.118164 0.000000
0.163635 0.118164 0.000000
0.181824 0.118164 0.000000
0.200012 0.118164 0.000000
0.218201 0.118164 0.000000
0.236877 0.118164 0.000000
0.270569 0.118164 0.000000
0.308655 0.118164 0.000000
0.349121 0.118164 0.000000
0.391174 0.118164 0.000000
0.434662 0.118164 0.000000
0.479248 0.118164 0.000000
0.524811 0.118164 0.000000
0.571228 0.118164 0.000000
0.618439 0.118164 0.000000
0.666382 0.118164 0.000000
0.714966 0.118164 0.000000
0.764160 0.118164 0.000000
0.813904 0.118164 0.000000
0.864227 0.118164 0.000000
0.909088 0.118164 0.000000
0.927277 0.118164 0.000000
0.945465 0.118164 0.000000
0.963623 0.118164 0.000000
0.981812 0.118164 0.000000
1.000000 0.118164 0.000000
0.000000 0.148071 0.000000
0.018188 0.148071 0.000000
0.036377 0.148071 0.000000
0.054535 0.148071 0.000000
0.072723 0.148071 0.000000
0.090912 0.148071 0.000000
0.109100 0.148071 0.000000
0.127289 0.148071 0.000000
0.145447 0.148071 0.000000
0.163635 0.148071 0.000000
0.181824 0.148071 0.000000
0.200012 0.148071 0.000000
0.218201 0.148071 0.000000
0.236877 0.148071 0.000000
0.270569 0.148071 0.000000
0.308655 0.148071 0.000000
0.349121 0.148071 0.000000
0.391174 0.148071 0.000000
0.434662 0.148071 0.000000
0.479248 0.148071 0.000000
0.524811 0.148071 0.000000
0.571228 0.148071 0.000000
0.618439 0.148071 0.000000
0.666382 0.148071 0.000000
0.714966 0.148071 0.000000
0.764160 0.148071 0.000000
0.813904 0.148071 0.000000
0.864227 0.148071 0.000000
0.909088 0.148071 0.000000
0.927277 0.148071 0.000000
0.945465 0.148071 0.000000
0.963623 0.148071 0.000000
0.981812 0.148071 0.000000
1.000000 0.148071 0.000000
0.000000 0.178101 0.000000
0.018188 0.178101 0.000000
0.036377 0.178101 0.000000
0.054535 0.178101 0.000000
0.072723 0.178101 0.000000
0.090912 0.178101 0.000000
0.109100 0.178101 0.000000
0.127289 0.178101 0.000000
0.145447 0.178101 0.000000
0.163635 0.178101 0.000000
0.181824 0.178101 0.000000
0.200012 0.178101 0.000000
0.218201 0.178101 0.000000
0.236877 0.178101 0.000000
0.270569 0.178101 0.000000
0.308655 0.178101 0.000000
0.349121 0.178101 0.000000
0.391174 0.178101 0.000000
0.434662 0.178101 0.000000
0.479248 0.178101 0.000000
0.524811 0.178101 0.000000
0.571228 0.178101 0.000000
0.618439 0.178101 0.000000
0.666382 0.178101 0.000000
0.714966 0.178101 0.000000
0.764160 0.178101 0.000000
0.813904 0.178101 0.000000
0.864227 0.178101 0.000000
0.909088 0.178101 0.000000
0.927277 0.178101 0.000000
0.945465 0.178101 0.000000
0.963623 0.178101 0.000000
0.981812 0.178101 0.000000
1.000000 0.178101 0.000000
0.000000 0.208160 0.000000
0.018188 0.208160 0.000000
0.036377 0.208160 0.000000
0.054535 0.208160 0.000000
0.072723 0.208160 0.000000
0.090912 0.208160 0.000000
0.109100 0.208160 0.000000
0.127289 0.208160 0.000000
0.145447 0.208160 0.000000
0.163635 0.208160 0.000000
0.181824 0.208160 0.000000
0.200012 0.208160 0.000000
0.218201 0.208160 0.000000
0.236877 0.208160 0.000000
0.270569 0.208160 0.000000
0.308655 0.208160 0.000000
0.349121 0.208160 0.000000
0.391174 0.208160 0.000000
0.434662 0.208160 0.000000
0.479248 0.208160 0.000000
0.524811 0.208160 0.000000
0.571228 0.208160 0.000000
0.618439 0.208160 0.000000
0.666382 0.208160 0.000000
0.714966 0.208160 0.000000
0.764160 0.208160 0.000000
0.813904 0.208160 0.000000
0.864227 0.208160 0.000000
0.909088 0.208160 0.000000
0.927277 0.208160 0.000000
0.945465 0.208160 0.000000
0.963623 0.208160 0.000000
0.981812 0.208160 0.000000
1.000000 0.208160 0.000000
0.000000 0.238281 0.000000
0.018188 0.238281 0.000000
0.036377 0.238281 0.000000
0.054535 0.238281 0.000000
0.072723 0.238281 0.000000
0.090912 0.238281 0.000000
0.109100 0.238281 0.000000
0.127289 0.238281 0.000000
0.145447 0.238281 0.000000
0.163635 0.238281 0.000000
0.181824 0.238281 0.000000
0.200012 0.238281 0.000000
0.218201 0.238281 0.000000
0.236877 0.238281 0.000000
0.270569 0.238281 0.000000
0.308655 0.238281 0.000000
0.349121 0.238281 0.000000
0.391174 0.238281 0.000000
0.434662 0.238281 0.000000
0.479248 0.238281 0.000000
0.524811 0.238281 0.000000
0.571228 0.238281 0.000000
0.618439 0.238281 0.000000
0.666382 0.238281 0.000000
0.714966 0.238281 0.000000
0.764160 0.238281 0.000000
0.813904 0.238281 0.000000
0.864227 0.238281 0.000000
0.909088 0.238281 0.000000
0.927277 0.238281 0.000000
0.945465 0.238281 0.000000
0.963623 0.238281 0.000000
0.981812 0.238281 0.000000
1.000000 0.238281 0.000000
0.000000 0.268433 0.000000
0.018188 0.268433 0.000000
0.036377 0.268433 0.000000
0.054535 0.268433 0.000000
0.072723 0.268433 0.000000
0.090912 0.268433 0.000000
0.109100 0.268433 0.000000
0.127289 0.268433 0.000000
0.145447 0.268433 0.000000
0.163635 0.268433 0.000000
0.181824 0.268433 0.000000
0.200012 0.268433 0.000000
0.218201 0.268433 0.000000
0.236877 0.268433 0.000000
0.270569 0.268433 0.000000
0.308655 0.268433 0.000000
0.349121 0.268433 0.000000
0.391174 0.268433 0.000000
0.434662 0.268433 0.000000
0.479248 0.268433 0.000000
0.524811 0.268433 0.000000
0.571228 0.268433 0.000000
0.618439 0.268433 0.000000
0.666382 0.268433 0.000000
0.714966 0.268433 0.000000
0.764160 0.268433 0.000000
0.813904 0.268433 0.000000
0.864227 0.268433 0.000000
0.909088 0.268433 0.000000
0.927277 0.268433 0.000000
0.945465 0.268433 0.000000
0.963623 0.268433 0.000000
0.981812 0.268433 0.000000
1.000000 0.268433 0.000000
0.000000 0.298645 0.000000
0.018188 0.298645 0.000000
0.036377 0.298645 0.000000
0.054535 0.298645 0.000000
0.072723 0.298645 0.000000
0.090912 0.298645 0.000000
0.109100 0.298645 0.000000
0.127289 0.298645 0.000000
0.145447 0.298645 0.000000
0.163635 0.298645 0.000000
0.181824 0.298645 0.000000
0.200012 0.298645 0.000000
0.218201 0.298645 0.000000
0.236877 0.298645 0.000000
0.270569 0.298645 0.000000
0.308655 0.298645 0.000000
0.349121 0.298645 0.000000
0.391174 0.298645 0.000000
0.434662 0.298645 0.000000
0.479248 0.298645 0.000000
0.524811 0.298645 0.000000
0.571228 0.298645 0.000000
0.618439 0.298645 0.000000
0.666382 0.298645 0.000000
0.714966 0.298645 0.000000
0.764160 0.298645 0.000000
0.813904 0.298645 0.000000
0.864227 0.298645 0.000000
0.909088 0.298645 0.000000
0.927277 0.298645 0.000000
0.945465 0.298645 0.000000
0.963623 0.298645 0.000000
0.981812 0.298645 0.000000
1.000000 0.298645 0.000000
0.000000 0.328888 0.000000
0.018188 0.328888 0.000000
0.036377 0.328888 0.000000
0.054535 0.328888 0.000000
0.072723 0.328888 0.000000
0.090912 0.328888 0.000000
0.109100 0.328888 0.000000
0.127289 0.328888 0.000000
0.145447 0.328888 0.000000
0.163635 0.328888 0.000000
0.181824 0.328888 0.000000
0.200012 0.328888 0.000000
0.218201 0.328888 0.000000
0.236877 0.328888 0.000000
0.270569 0.328888 0.000000
0.308655 0.328888 0.000000
0.349121 0.328888 0.000000
0.391174 0.328888 0.000000
0.434662 0.328888 0.000000
0.479248 0.328888 0.000000
0.524811 0.328888 0.000000
0.571228 0.328888 0.000000
0.618439 0.328888 0.000000
0.666382 0.328888 0.000000
0.714966 0.328888 0.000000
0.764160 0.328888 0.000000
0.813904 0.328888 0.000000
0.864227 0.328888 0.000000
0.909088 0.328888 0.000000
0.927277 0.328888 0.000000
0.945465 0.328888 0.000000
0.963623 0.328888 0.000000
0.981812 0.328888 0.000000
1.000000 0.328888 0.000000
0.000000 0.359161 0.000000
0.018188 0.359161 0.000000
0.036377 0.359161 0.000000
0.054535 0.359161 0.000000
0.072723 0.359161 0.000000
0.090912 0.359161 0.000000
0.109100 0.359161 0.000000
0.127289 0.359161 0.000000
0.145447 0.359161 0.000000
0.163635 0.359161 0.000000
0.181824 0.359161 0.000000
0.200012 0.359161 0.000000
0.218201 0.359161 0.000000
0.236877 0.359161 0.000000
0.270569 0.359161 0.000000
0.308655 0.359161 0.000000
0.349121 0.359161 0.000000
0.391174 0.359161 0.000000
0.434662 0.359161 0.000000
0.479248 0.359161 0.000000
0.524811 0.359161 0.000000
0.571228 0.359161 0.000000
0.618439 0.359161 0.000000
0.666382 0.359161 0.000000
0.714966 0.359161 0.000000
0.764160 0.359161 0.000000
0.813904 0.359161 0.000000
0.864227 0.359161 0.000000
0.909088 0.359161 0.000000
0.927277 0.359161 0.000000
0.945465 0.359161 0.000000
0.963623 0.359161 0.000000
0.981812 0.359161 0.000000
1.000000 0.359161 0.000000
0.000000 0.389465 0.000000
0.018188 0.389465 0.000000
0.036377 0.389465 0.000000
0.054535 0.389465 0.000000
0.072723 0.389465 0.000000
0.090912 0.389465 0.000000
0.109100 0.389465 0.000000
0.127289 0.389465 0.000000
0.145447 0.389465 0.000000
0.163635 0.389465 0.000000
0.181824 0.389465 0.000000
0.200012 0.389465 0.000000
0.218201 0.389465 0.000000
0.236877 0.389465 0.000000
0.270569 0.389465 0.000000
0.308655 0.389465 0.000000
0.349121 0.389465 0.000000
0.391174 0.389465 0.000000
0.434662 0.389465 0.000000
0.479248 0.389465 0.000000
0.524811 0.389465 0.000000
0.571228 0.389465 0.000000
0.618439 0.389465 0.000000
0.666382 0.389465 0.000000
0.714966 0.389465 0.000000
0.764160 0.389465 0.000000
0.813904 0.389465 0.000000
0.864227 0.389465 0.000000
0.909088 0.389465 0.000000
0.927277 0.389465 0.000000
0.945465 0.389465 0.000000
0.963623 0.389465 0.000000
0.981812 0.389465 0.000000
1.000000 0.389465 0.000000
0.000000 0.419800 0.000000
0.018188 0.419800 0.000000
0.036377 0.419800 0.000000
0.054535 0.419800 0.000000
0.072723 0.419800 0.000000
0.090912 0.419800 0.000000
0.109100 0.419800 0.000000
0.127289 0.419800 0.000000
0.145447 0.419800 0.000000
0.163635 0.419800 0.000000
0.181824 0.419800 0.000000
0.200012 0.419800 0.000000
0.218201 0.419800 0.000000
0.236877 0.419800 0.000000
0.270569 0.419800 0.000000
0.308655 0.419800 0.000000
0.349121 0.419800 0.000000
0.391174 0.419800 0.000000
0.434662 0.419800 0.000000
0.479248 0.419800 0.000000
0.524811 0.419800 0.000000
0.571228 0.419800 0.000000
0.618439 0.419800 0.000000
0.666382 0.419800 0.000000
0.714966 0.419800 0.000000
0.764160 0.419800 0.000000
0.813904 0.419800 0.000000
0.864227 0.419800 0.000000
0.909088 0.419800 0.000000
0.927277 0.419800 0.000000
0.945465 0.419800 0.000000
0.963623 0.419800 0.000000
0.981812 0.419800 0.000000
1.000000 0.419800 0.000000
0.000000 0.450165 0.000000
0.018188 0.450165 0.000000
0.036377 0.450165 0.000000
0.054535 0.450165 0.000000
0.072723 0.450165 0.000000
0.090912 0.450165 0.000000
0.109100 0.450165 0.000000
0.127289 0.450165 0.000000
0.145447 0.450165 0.000000
0.163635 0.450165 0.000000
0.181824 0.450165 0.000000
0.200012 0.450165 0.000000
0.218201 0.450165 0.000000
0.236877 0.450165 0.000000
0.270569 0.450165 0.000000
0.308655 0.450165 0.000000
0.349121 0.450165 0.000000
0.391174 0.450165 0.000000
0.434662 0.450165 0.000000
0.479248 0.450165 0.000000
0.524811 0.450165 0.000000
0.571228 0.450165 0.000000
0.618439 0.450165 0.000000
0.666382 0.450165 0.000000
0.714966 0.450165 0.000000
0.764160 0.450165 0.000000
0.813904 0.450165 0.000000
0.864227 0.450165 0.000000
0.909088 0.450165 0.000000
0.927277 0.450165 0.000000
0.945465 0.450165 0.000000
0.963623 0.450165 0.000000
0.981812 0.450165 0.000000
1.000000 0.450165 0.000000
0.000000 0.480560 0.000000
0.018188 0.480560 0.000000
0.036377 0.480560 0.000000
0.054535 0.480560 0.000000
0.072723 0.480560 0.000000
0.090912 0.480560 0.000000
0.109100 0.480560 0.000000
0.127289 0.480560 0.000000
0.145447 0.480560 0.000000
0.163635 0.480560 0.000000
0.181824 0.480560 0.000000
0.200012 0.480560 0.000000
0.218201 0.480560 0.000000
0.236877 0.480560 0.000000
0.270569 0.480560 0.000000
0.308655 0.480560 0.000000
0.349121 0.480560 0.000000
0.391174 0.480560 0.000000
0.434662 0.480560 0.000000
0.479248 0.480560 0.000000
0.524811 0.480560 0.000000
0.571228 0.480560 0.000000
0.618439 0.480560 0.000000
0.666382 0.480560 0.000000
0.714966 0.480560 0.000000
0.764160 0.480560 0.000000
0.813904 0.480560 0.000000
0.864227 0.480560 0.000000
0.909088 0.480560 0.000000
0.927277 0.480560 0.000000
0.945465 0.480560 0.000000
0.963623 0.480560 0.000000
0.981812 0.480560 0.000000
1.000000 0.480560 0.000000
0.000000 0.510956 0.000000
0.018188 0.510956 0.000000
0.036377 0.510956 0.000000
0.054535 0.510956 0.000000
0.072723 0.510956 0.000000
0.090912 0.510956 0.000000
0.109100 0.510956 0.000000
0.127289 0.510956 0.000000
0.145447 0.510956 0.000000
0.163635 0.510956 0.000000
0.181824 0.510956 0.000000
0.200012 0.510956 0.000000
0.218201 0.510956 0.000000
0.236877 0.510956 0.000000
0.270569 0.510956 0.000000
0.308655 0.510956 0.000000
0.349121 0.510956 0.000000
0.391174 0.510956 0.000000
0.434662 0.510956 0.000000
0.479248 0.510956 0.000000
0.524811 0.510956 0.000000
0.571228 0.510956 0.000000
0.618439 0.510956 0.000000
0.666382 0.510956 0.000000
0.714966 0.510956 0.000000
0.764160 0.510956 0.000000
0.813904 0.510956 0.000000
0.864227 0.510956 0.000000
0.909088 0.510956 0.000000
0.927277 0.510956 0.000000
0.945465 0.510956 0.000000
0.963623 0.510956 0.000000
0.981812 0.510956 0.000000
1.000000 0.510956 0.000000
0.000000 0.541382 0.000000
0.018188 0.541382 0.000000
0.036377 0.541382 0.000000
0.054535 0.541382 0.000000
0.072723 0.541382 0.000000
0.090912 0.541382 0.000000
0.109100 0.541382 0.000000
0.127289 0.541382 0.000000
0.145447 0.541382 0.000000
0.163635 0.541382 0.000000
0.181824 0.541382 0.000000
0.200012 0.541382 0.000000
0.218201 0.541382 0.000000
0.236877 0.541382 0.000000
0.270569 0.541382 0.000000
0.308655 0.541382 0.000000
0.349121 0.541382 0.000000
0.391174 0.541382 0.000000
0.434662 0.541382 0.000000
0.479248 0.541382 0.000000
0.524811 0.541382 0.000000
0.571228 0.541382 0.000000
0.618439 0.541382 0.000000
0.666382 0.541382 0.000000
0.714966 0.541382 0.000000
0.764160 0.541382 0.000000
0.813904 0.541382 0.000000
0.864227 0.541382 0.000000
0.909088 0.541382 0.000000
0.927277 0.541382 0.000000
0.945465 0.541382 0.000000
0.963623 0.541382 0.000000
0.981812 0.541382 0.000000
1.000000 0.541382 0.000000
0.000000 0.571838 0.000000
0.018188 0.571838 0.000000
0.036377 0.571838 0.000000
0.054535 0.571838 0.000000
0.072723 0.571838 0.000000
0.090912 0.571838 0.000000
0.109100 0.571838 0.000000
0.127289 0.571838 0.000000
0.145447 0.571838 0.000000
0.163635 0.571838 0.000000
0.181824 0.571838 0.000000
0.200012 0.571838 0.000000
0.218201 0.571838 0.000000
0.236877 0.571838 0.000000
0.270569 0.571838 0.000000
0.308655 0.571838 0.000000
0.349121 0.571838 0.000000
0.391174 0.571838 0.000000
0.434662 0.571838 0.000000
0.479248 0.571838 0.000000
0.524811 0.571838 0.000000
0.571228 0.571838 0.000000
0.618439 0.571838 0.000000
0.666382 0.571838 0.000000
0.714966 0.571838 0.000000
0.764160 0.571838 0.000000
0.813904 0.571838 0.000000
0.864227 0.571838 0.000000
0.909088 0.571838 0.000000
0.927277 0.571838 0.000000
0.945465 0.571838 0.000000
0.963623 0.571838 0.000000
0.981812 0.571838 0.000000
1.000000 0.571838 0.000000
0.000000 0.602325 0.000000
0.018188 0.602325 0.000000
0.036377 0.602325 0.000000
0.054535 0.602325 0.000000
0.072723 0.602325 0.000000
0.090912 0.602325 0.000000
0.109100 0.602325 0.000000
0.127289 0.602325 0.000000
0.145447 0.602325 0.000000
0.163635 0.602325 0.000000
0.181824 0.602325 0.000000
0.200012 0.602325 0.000000
0.218201 0.602325 0.000000
0.236877 0.602325 0.000000
0.270569 0.602325 0.000000
0.308655 0.602325 0.000000
0.349121 0.602325 0.000000
0.391174 0.602325 0.000000
0.434662 0.602325 0.000000
0.479248 0.602325 0.000000
0.524811 0.602325 0.000000
0.571228 0.602325 0.000000
0.618439 0.602325 0.000000
0.666382 0.602325 0.000000
0.714966 0.602325 0.000000
0.764160 0.602325 0.000000
0.813904 0.602325 0.000000
0.864227 0.602325 0.000000
0.909088 0.602325 0.000000
0.927277 0.602325 0.000000
0.945465 0.602325 0.000000
0.963623 0.602325 0.000000
0.981812 0.602325 0.000000
1.000000 0.602325 0.000000
0.000000 0.632812 0.000000
0.018188 0.632812 0.000000
0.036377 0.632812 0.000000
0.054535 0.632812 0.000000
0.072723 0.632812 0.000000
0.090912 0.632812 0.000000
0.109100 0.632812 0.000000
0.127289 0.632812 0.000000
0.145447 0.632812 0.000000
0.163635 0.632812 0.000000
0.181824 0.632812 0.000000
0.200012 0.632812 0.000000
0.218201 0.632812 0.000000
0.236877 0.632812 0.000000
0.270569 0.632812 0.000000
0.308655 0.632812 0.000000
0.349121 0.632812 0.000000
0.391174 0.632812 0.000000
0.434662 0.632812 0.000000
0.479248 0.632812 0.000000
0.524811 0.632812 0.000000
0.571228 0.632812 0.000000
0.618439 0.632812 0.000000
0.666382 0.632812 0.000000
0.714966 0.632812 0.000000
0.764160 0.632812 0.000000
0.813904 0.632812 0.000000
0.864227 0.632812 0.000000
0.909088 0.632812 0.000000
0.927277 0.632812 0.000000
0.945465 0.632812 0.000000
0.963623 0.632812 0.000000
0.981812 0.632812 0.000000
1.000000 0.632812 0.000000
0.000000 0.663330 0.000000
0.018188 0.663330 0.000000
0.036377 0.663330 0.000000
0.054535 0.663330 0.000000
0.072723 0.663330 0.000000
0.090912 0.663330 0.000000
0.109100 0.663330 0.000000
0.127289 0.663330 0.000000
0.145447 0.663330 0.000000
0.163635 0.663330 0.000000
0.181824 0.663330 0.000000
0.200012 0.663330 0.000000
0.218201 0.663330 0.000000
0.236877 0.663330 0.000000
0.270569 0.663330 0.000000
0.308655 0.663330 0.000000
0.349121 0.663330 0.000000
0.391174 0.663330 0.000000
0.434662 0.663330 0.000000
0.479248 0.663330 0.000000
0.524811 0.663330 0.000000
0.571228 0.663330 0.000000
0.618439 0.663330 0.000000
0.666382 0.663330 0.000000
0.714966 0.663330 0.000000
0.764160 0.663330 0.000000
0.813904 0.663330 0.000000
0.864227 0.663330 0.000000
0.909088 0.663330 0.000000
0.927277 0.663330 0.000000
0.945465 0.663330 0.000000
0.963623 0.663330 0.000000
0.981812 0.663330 0.000000
1.000000 0.663330 0.000000
0.000000 0.693848 0.000000
0.018188 0.693848 0.000000
0.036377 0.693848 0.000000
0.054535 0.693848 0.000000
0.072723 0.693848 0.000000
0.090912 0.693848 0.000000
0.109100 0.693848 0.000000
0.127289 0.693848 0.000000
0.145447 0.693848 0.000000
0.163635 0.693848 0.000000
0.181824 0.693848 0.000000
0.200012 0.693848 0.000000
0.218201 0.693848 0.000000
0.236877 0.693848 0.000000
0.270569 0.693848 0.000000
0.308655 0.693848 0.000000
0.349121 0.693848 0.000000
0.391174 0.693848 0.000000
0.434662 0.693848 0.000000
0.479248 0.693848 0.000000
0.524811 0.693848 0.000000
0.571228 0.693848 0.000000
0.618439 0.693848 0.000000
0.666382 0.693848 0.000000
0.714966 0.693848 0.000000
0.764160 0.693848 0.000000
0.813904 0.693848 0.000000
0.864227 0.693848 0.000000
0.909088 0.693848 0.000000
0.927277 0.693848 0.000000
0.945465 0.693848 0.000000
0.963623 0.693848 0.000000
0.981812 0.693848 0.000000
1.000000 0.693848 0.000000
0.000000 0.724396 0.000000
0.018188 0.724396 0.000000
0.036377 0.724396 0.000000
0.054535 0.724396 0.000000
0.072723 0.724396 0.000000
0.090912 0.724396 0.000000
0.109100 0.724396 0.000000
0.127289 0.724396 0.000000
0.145447 0.724396 0.000000
0.163635 0.724396 0.000000
0.181824 0.724396 0.000000
0.200012 0.724396 0.000000
0.218201 0.724396 0.000000
0.236877 0.724396 0.000000
0.270569 0.724396 0.000000
0.308655 0.724396 0.000000
0.349121 0.724396 0.000000
0.391174 0.724396 0.000000
0.434662 0.724396 0.000000
0.479248 0.724396 0.000000
0.524811 0.724396 0.000000
0.571228 0.724396 0.000000
0.618439 0.724396 0.000000
0.666382 0.724396 0.000000
0.714966 0.724396 0.000000
0.764160 0.724396 0.000000
0.813904 0.724396 0.000000
0.864227 0.724396 0.000000
0.909088 0.724396 0.000000
0.927277 0.724396 0.000000
0.945465 0.724396 0.000000
0.963623 0.724396 0.000000
0.981812 0.724396 0.000000
1.000000 0.724396 0.000000
0.000000 0.754974 0.000000
0.018188 0.754974 0.000000
0.036377 0.754974 0.000000
0.054535 0.754974 0.000000
0.072723 0.754974 0.000000
0.090912 0.754974 0.000000
0.109100 0.754974 0.000000
0.127289 0.754974 0.000000
0.145447 0.754974 0.000000
0.163635 0.754974 0.000000
0.181824 0.754974 0.000000
0.200012 0.754974 0.000000
0.218201 0.754974 0.000000
0.236877 0.754974 0.000000
0.270569 0.754974 0.000000
0.308655 0.754974 0.000000
0.349121 0.754974 0.000000
0.391174 0.754974 0.000000
0.434662 0.754974 0.000000
0.479248 0.754974 0.000000
0.524811 0.754974 0.000000
0.571228 0.754974 0.000000
0.618439 0.754974 0.000000
0.666382 0.754974 0.000000
0.714966 0.754974 0.000000
0.764160 0.754974 0.000000
0.813904 0.754974 0.000000
0.864227 0.754974 0.000000
0.909088 0.754974 0.000000
0.927277 0.754974 0.000000
