colors/滋味.cube
#Created by: Adobe Photoshop Export Color Lookup Plugin
#Copyright: (C) Copyright 2026 小米
TITLE "美食.psd"
#LUT size
LUT_3D_SIZE 8
#data domain
DOMAIN_MIN 0.0 0.0 0.0
DOMAIN_MAX 1.0 1.0 1.0
#LUT data points
0.000000 0.000000 0.000000
0.135895 0.000000 0.000000
0.298340 0.000000 0.000000
0.473389 0.000000 0.000000
0.665314 0.000000 0.000000
0.854797 0.000000 0.000000
0.950134 0.000000 0.000000
1.000000 0.000000 0.000000
0.003967 0.132019 0.000000
0.141693 0.132507 0.000000
0.298309 0.138855 0.000000
0.469330 0.142609 0.000000
0.658752 0.142975 0.000000
0.855865 0.136566 0.000000
0.950134 0.116302 0.000000
1.000000 0.089081 0.000000
0.029968 0.293304 0.000000
0.164307 0.292938 0.000000
0.312256 0.292877 0.000000
0.484894 0.304871 0.000000
0.678070 0.318451 0.000000
0.855225 0.317993 0.000000
0.950134 0.306183 0.000000
1.000000 0.290558 0.000000
0.066406 0.479248 0.000000
0.193481 0.478149 0.000000
0.348511 0.479706 0.000000
0.520172 0.488342 0.000000
0.703156 0.497894 0.000000
0.860657 0.488342 0.000000
0.950134 0.471771 0.000000
1.000000 0.452423 0.000000
0.100952 0.664551 0.000000
0.221619 0.670013 0.000000
0.375244 0.668854 0.000000
0.540009 0.667786 0.000000
0.705200 0.663452 0.000000
0.857361 0.649109 0.000000
0.950134 0.627686 0.000000
1.000000 0.605072 0.000000
0.133728 0.814148 0.000000
0.236633 0.814087 0.000000
0.376587 0.812347 0.000000
0.531311 0.810303 0.000000
0.690491 0.807220 0.000000
0.851013 0.803894 0.000000
0.950134 0.777893 0.000000
1.000000 0.751312 0.000000
0.166016 0.937531 0.000000
0.254150 0.937042 0.000000
0.379089 0.936462 0.000000
0.522003 0.935272 0.000000
0.670441 0.931946 0.000000
0.821503 0.928040 0.000000
0.950134 0.922424 0.000000
1.000000 0.892120 0.000000
0.196564 1.000000 0.000000
0.272369 1.000000 0.000000
0.379578 1.000000 0.000000
0.508057 1.000000 0.000000
0.647766 1.000000 0.000000
0.792969 1.000000 0.000000
0.935638 1.000000 0.000000
1.000000 1.000000 0.000000
0.000000 0.000000 0.130646
0.136230 0.000000 0.132080
0.297241 0.000000 0.136505
0.472412 0.000000 0.129852
0.662109 0.000000 0.118622
0.847382 0.000000 0.104248
0.950134 0.000000 0.086121
1.000000 0.000000 0.074402
0.000000 0.130859 0.131683
0.143921 0.129578 0.130646
0.299957 0.126770 0.128998
0.471100 0.118774 0.123230
0.661469 0.101379 0.111633
0.848877 0.074463 0.096283
0.950134 0.066772 0.079010
1.000000 0.061096 0.074799
0.000000 0.291931 0.118011
0.157288 0.291656 0.117279
0.315430 0.291931 0.114258
0.486755 0.298492 0.110992
0.675629 0.305450 0.090302
0.848816 0.302063 0.072144
0.950134 0.291016 0.067352
1.000000 0.277893 0.065552
0.012482 0.473267 0.066284
0.176453 0.472260 0.064728
0.340271 0.473328 0.061829
0.511902 0.478180 0.055725
0.691742 0.484375 0.051758
0.849884 0.476288 0.053009
0.950134 0.461884 0.052887
1.000000 0.444885 0.057281
0.063660 0.659698 0.049866
0.202606 0.662048 0.049866
0.363739 0.660645 0.049866
0.531219 0.658966 0.049866
0.698395 0.655487 0.049866
0.851990 0.642090 0.049866
0.950134 0.622650 0.049866
1.000000 0.601501 0.050354
0.113831 0.810516 0.049866
0.223022 0.809509 0.049866
0.367889 0.807617 0.049866
0.525360 0.805725 0.049866
0.685852 0.802704 0.049866
0.847900 0.800232 0.049866
0.950134 0.776276 0.049866
1.000000 0.749725 0.049866
0.159576 0.936646 0.049866
0.249298 0.936188 0.049866
0.375702 0.935394 0.049866
0.519745 0.934174 0.049866
0.668640 0.930725 0.049866
0.818909 0.925720 0.049866
0.950134 0.920135 0.049866
1.000000 0.890259 0.049866
0.191559 1.000000 0.069458
0.270386 1.000000 0.065826
0.382263 1.000000 0.065765
0.509644 1.000000 0.070312
0.648651 1.000000 0.073578
0.793121 1.000000 0.099274
0.935089 1.000000 0.123535
1.000000 1.000000 0.159241
0.000000 0.000000 0.286163
0.145844 0.000000 0.287781
0.299042 0.000000 0.289612
0.472260 0.000000 0.298920
0.663666 0.000000 0.303406
0.848938 0.000000 0.293762
0.950134 0.000000 0.278687
1.000000 0.000000 0.273041
0.000000 0.122437 0.289825
0.143921 0.119598 0.290222
0.305664 0.111420 0.290680
0.476807 0.085449 0.294281
0.668243 0.049866 0.294556
0.848602 0.049866 0.283813
0.950134 0.049866 0.276123
1.000000 0.049866 0.270538
0.000000 0.289825 0.291504
0.139099 0.289154 0.291046
0.314819 0.286652 0.288879
0.492371 0.285065 0.288361
0.681488 0.279175 0.284302
0.849945 0.272125 0.278961
0.950134 0.265045 0.273407
1.000000 0.259857 0.269196
0.000000 0.472137 0.276947
0.107239 0.472107 0.273834
0.329193 0.472198 0.273254
0.514038 0.473602 0.270355
0.692200 0.473877 0.274994
0.851471 0.465912 0.274353
0.950134 0.453918 0.271423
1.000000 0.440521 0.269806
0.000000 0.657166 0.252716
0.146515 0.657013 0.252319
0.343872 0.655518 0.250793
0.522919 0.653503 0.248352
0.696808 0.649963 0.244690
0.849274 0.634369 0.248962
0.950134 0.618011 0.264862
1.000000 0.599335 0.269043
0.062500 0.809662 0.239594
0.196259 0.808380 0.238068
0.355499 0.806885 0.237000
0.519684 0.805054 0.236511
0.684113 0.802032 0.235504
0.848022 0.799103 0.237122
0.950134 0.773438 0.249268
1.000000 0.748932 0.271240
0.150238 0.934937 0.250885
0.242493 0.934540 0.251129
0.372192 0.933990 0.253754
0.518036 0.932983 0.258911
0.667023 0.929504 0.258270
0.817902 0.925201 0.259033
0.950134 0.919464 0.259277
1.000000 0.889984 0.276245
0.212952 1.000000 0.291412
0.286560 1.000000 0.290466
0.389648 1.000000 0.290649
0.514069 1.000000 0.293060
0.650696 1.000000 0.295380
0.793365 1.000000 0.301117
0.933624 1.000000 0.307678
1.000000 1.000000 0.322845
0.000000 0.000000 0.462585
0.157349 0.000000 0.464447
0.318512 0.000000 0.466187
0.483734 0.000000 0.468719
0.671722 0.000000 0.481873
0.850525 0.000000 0.479919
0.950134 0.000000 0.464294
1.000000 0.000000 0.450775
0.000000 0.112030 0.465820
0.145386 0.106323 0.466461
0.317566 0.086365 0.467102
0.486694 0.053986 0.468231
0.674683 0.049866 0.478546
0.849030 0.049866 0.473724
0.950134 0.049866 0.459900
1.000000 0.049866 0.449493
0.000000 0.285126 0.470398
0.085175 0.278595 0.471100
0.315826 0.274109 0.473053
0.503448 0.267578 0.475067
0.688080 0.258118 0.475189
0.852020 0.251801 0.466949
0.950134 0.261749 0.459869
1.000000 0.284302 0.457214
0.000000 0.473633 0.476227
0.058594 0.473389 0.476196
0.313263 0.471527 0.474854
0.513397 0.468231 0.471741
0.690552 0.466003 0.470154
0.847137 0.463409 0.467926
0.950134 0.459778 0.464478
1.000000 0.454773 0.459595
0.000000 0.656738 0.461578
0.066498 0.656982 0.460632
0.324951 0.655273 0.458710
0.521484 0.654083 0.459686
0.698761 0.648193 0.456879
0.844727 0.635590 0.465607
0.950134 0.624329 0.467285
1.000000 0.611206 0.464600
0.053986 0.807159 0.452484
0.190979 0.806519 0.451111
0.351654 0.804932 0.449554
0.517181 0.802948 0.449158
0.681946 0.800049 0.448761
0.844330 0.796478 0.450500
0.950134 0.773926 0.455963
1.000000 0.756012 0.469177
0.174957 0.932526 0.454132
0.260254 0.932037 0.453918
0.382507 0.931213 0.454803
0.523071 0.930054 0.457397
0.668060 0.926971 0.456665
0.816162 0.923370 0.457947
0.950134 0.918518 0.458588
1.000000 0.891449 0.463074
0.244171 1.000000 0.467010
0.310883 1.000000 0.464508
0.407379 1.000000 0.464294
0.525757 1.000000 0.467102
0.657074 1.000000 0.469482
0.794922 1.000000 0.473267
0.931061 1.000000 0.476562
1.000000 1.000000 0.483185
0.000000 0.000000 0.645935
0.163208 0.000000 0.646973
0.330688 0.000000 0.647552
0.498932 0.000000 0.649048
0.673981 0.000000 0.653656
0.847351 0.000000 0.652100
0.950134 0.000000 0.633484
1.000000 0.000000 0.612488
0.000000 0.089081 0.647858
0.144348 0.078278 0.648682
0.325867 0.058624 0.648773
0.499451 0.049866 0.650360
0.675415 0.049866 0.652679
0.846649 0.049866 0.648438
0.950134 0.049866 0.630188
1.000000 0.049866 0.611145
0.000000 0.268616 0.652985
0.067993 0.267639 0.653320
0.313629 0.262909 0.654510
0.502380 0.253296 0.655640
0.685425 0.237366 0.656219
0.851166 0.234344 0.645935
0.950134 0.248138 0.627319
1.000000 0.283264 0.614258
0.000000 0.461212 0.654510
0.049866 0.458740 0.654633
0.297638 0.453186 0.654602
0.507141 0.454681 0.657013
0.694153 0.452026 0.655396
0.844452 0.460663 0.641907
0.950134 0.470703 0.633728
1.000000 0.485962 0.630524
0.000000 0.650360 0.653503
0.072601 0.650177 0.653381
0.323914 0.648834 0.652191
0.518372 0.647156 0.650635
0.684845 0.644562 0.647614
0.830780 0.643524 0.646545
0.950134 0.641235 0.644165
1.000000 0.637848 0.640594
0.100037 0.804779 0.636353
0.221313 0.804016 0.636810
0.373566 0.802155 0.637848
0.530304 0.799866 0.640076
0.681732 0.797882 0.637726
0.834259 0.793121 0.637604
0.949799 0.781982 0.644775
1.000000 0.772003 0.646027
0.252594 0.928101 0.636871
0.328888 0.927521 0.638489
0.431702 0.926849 0.640808
0.543457 0.926758 0.636597
0.677399 0.924561 0.636658
0.816040 0.921570 0.636780
0.949615 0.917511 0.636444
1.000000 0.896179 0.636414
0.308197 1.000000 0.636871
0.367004 1.000000 0.634338
0.451874 1.000000 0.634491
0.556824 1.000000 0.636200
0.673950 1.000000 0.637177
0.800934 1.000000 0.639099
0.928162 1.000000 0.640381
1.000000 1.000000 0.644775
0.000000 0.000000 0.800720
0.157043 0.000000 0.801270
0.325195 0.000000 0.801636
0.491150 0.000000 0.803070
0.657990 0.000000 0.803528
0.826782 0.000000 0.803680
0.950134 0.000000 0.793091
1.000000 0.000000 0.766815
0.000000 0.065002 0.802124
0.136230 0.059204 0.802521
0.318817 0.049866 0.802734
0.488678 0.049866 0.802887
0.656982 0.049866 0.802399
0.827362 0.049866 0.802887
0.950134 0.049866 0.791351
1.000000 0.049866 0.765533
0.000000 0.261200 0.806610
0.066772 0.258850 0.805969
0.303619 0.253357 0.805206
0.485229 0.244446 0.805206
0.659576 0.230804 0.804810
0.833282 0.214478 0.805359
0.950134 0.226837 0.790070
1.000000 0.270386 0.765717
0.000000 0.444305 0.806458
0.049866 0.442474 0.805725
0.295807 0.441162 0.805298
0.487701 0.442535 0.806366
0.664917 0.442810 0.805939
0.836395 0.443451 0.804901
0.950134 0.456421 0.786499
1.000000 0.476013 0.769287
0.000000 0.624878 0.801666
0.111450 0.625092 0.801392
0.328430 0.626160 0.800629
0.511322 0.633514 0.802094
0.670807 0.632599 0.800842
0.831848 0.632935 0.799652
0.949768 0.640808 0.786316
1.000000 0.649628 0.779541
0.127319 0.795288 0.798004
0.236389 0.795593 0.798309
0.379150 0.795135 0.797852
0.532074 0.794464 0.797089
0.681702 0.792847 0.795349
0.819763 0.791840 0.793915
0.941925 0.791718 0.793610
1.000000 0.790436 0.792084
0.260193 0.925873 0.782349
0.335724 0.925415 0.782898
0.441986 0.924286 0.784515
0.566895 0.922546 0.787689
0.694763 0.920074 0.791687
0.815765 0.918701 0.789185
0.941925 0.914581 0.788757
1.000000 0.904999 0.790466
0.370331 1.000000 0.781769
0.433105 1.000000 0.782806
0.515656 1.000000 0.786285
0.615723 1.000000 0.793396
0.699585 1.000000 0.785950
0.811462 1.000000 0.786926
0.926117 1.000000 0.788361
1.000000 1.000000 0.791840
0.000000 0.000000 0.926697
0.141663 0.000000 0.927429
0.308685 0.000000 0.927521
0.469177 0.000000 0.927979
0.629883 0.000000 0.929108
0.790527 0.000000 0.928894
0.946747 0.000000 0.928223
1.000000 0.000000 0.917908
0.000000 0.050781 0.927216
0.117737 0.049866 0.927277
0.300873 0.049866 0.927002
0.465118 0.049866 0.926819
0.626434 0.049866 0.926300
0.788116 0.049866 0.926270
0.946259 0.049866 0.926025
1.000000 0.049866 0.914673
0.000000 0.246613 0.928040
0.055115 0.244690 0.927765
0.284180 0.240265 0.927521
0.458740 0.232788 0.927307
0.624695 0.221436 0.926727
0.789062 0.209473 0.926788
0.947205 0.197784 0.926270
1.000000 0.227692 0.911713
0.000000 0.422760 0.926666
0.049866 0.420563 0.926270
0.272339 0.419861 0.925995
0.457245 0.421356 0.926361
0.625946 0.421570 0.925751
0.789795 0.423126 0.924927
0.946198 0.426086 0.923645
1.000000 0.445343 0.906769
0.005096 0.601471 0.924133
0.156433 0.603790 0.924438
0.329895 0.607178 0.923706
0.489899 0.612335 0.922913
0.639252 0.610474 0.922119
0.793732 0.613159 0.921173
0.944733 0.616791 0.920013
1.000000 0.631989 0.904327
0.154419 0.764191 0.919342
0.248627 0.765045 0.919220
0.378479 0.766907 0.918762
0.522614 0.770721 0.918091
0.666687 0.776184 0.916901
0.800995 0.777557 0.916870
0.938812 0.780731 0.916962
1.000000 0.788330 0.906158
0.258545 0.913239 0.915314
0.332367 0.913116 0.915161
0.437927 0.913300 0.915283
0.562286 0.913696 0.915588
0.690247 0.913635 0.915344
0.815216 0.913269 0.914764
0.928528 0.913361 0.914307
1.000000 0.915497 0.915070
0.368500 1.000000 0.899170
0.431793 1.000000 0.899475
0.514496 1.000000 0.900543
0.614014 1.000000 0.902802
0.722778 1.000000 0.906952
0.836639 1.000000 0.915558
0.928558 1.000000 0.916962
1.000000 0.999847 0.921661
0.000000 0.000000 1.000000
0.110901 0.000000 1.000000
0.283875 0.000000 1.000000
0.439606 0.000000 1.000000
0.592438 0.000000 1.000000
0.745026 0.000000 1.000000
0.898132 0.000000 1.000000
1.000000 0.000000 1.000000
0.000000 0.049866 1.000000
0.066650 0.049866 1.000000
0.273895 0.049866 1.000000
0.434509 0.049866 1.000000
0.589355 0.049866 1.000000
0.743225 0.049866 1.000000
0.897003 0.049866 1.000000
1.000000 0.049866 1.000000
0.000000 0.233795 1.000000
0.049866 0.231171 1.000000
0.257904 0.225281 1.000000
0.426849 0.214752 1.000000
0.585144 0.199188 1.000000
0.741394 0.182251 1.000000
0.896667 0.178680 1.000000
1.000000 0.205200 1.000000
0.000000 0.387848 1.000000
0.049866 0.387421 1.000000
0.212158 0.385895 1.000000
0.410095 0.384521 1.000000
0.577118 0.382812 1.000000
0.741058 0.395264 1.000000
0.896515 0.406097 1.000000
1.000000 0.432922 1.000000
0.000000 0.570221 1.000000
0.084717 0.571350 1.000000
0.282837 0.573639 1.000000
0.435242 0.571350 1.000000
0.593719 0.575073 1.000000
0.749359 0.585144 1.000000
0.899445 0.603577 1.000000
1.000000 0.613983 1.000000
0.199127 0.740326 1.000000
0.277374 0.741364 1.000000
0.390289 0.745239 1.000000
0.525116 0.754456 1.000000
0.659271 0.765747 1.000000
0.779907 0.767670 1.000000
0.905029 0.772003 1.000000
1.000000 0.777344 1.000000
0.319427 0.884064 1.000000
0.402832 0.887115 1.000000
0.490936 0.889343 1.000000
0.598083 0.893707 1.000000
0.708801 0.898956 1.000000
0.821167 0.907166 1.000000
0.918091 0.912354 1.000000
1.000000 0.920227 1.000000
0.414276 1.000000 1.000000
0.476196 1.000000 1.000000
0.552582 1.000000 1.000000
0.644196 1.000000 1.000000
0.746918 1.000000 1.000000
0.852661 1.000000 1.000000
0.946686 0.999969 1.000000
1.000000 1.000000 1.000000
