colors/滋味.cube
#Created by: Adobe Photoshop Export Color Lookup Plugin
#Copyright: (C) Copyright 2026 小米
TITLE "美食.psd"
#LUT size
LUT_3D_SIZE 36
#data domain
DOMAIN_MIN 0.0 0.0 0.0
DOMAIN_MAX 1.0 1.0 1.0
#LUT data points
0.000000 0.000000 0.000000
0.017883 0.000000 0.000000
0.043671 0.000000 0.000000
0.073059 0.000000 0.000000
0.104126 0.000000 0.000000
0.135895 0.000000 0.000000
0.168030 0.000000 0.000000
0.200378 0.000000 0.000000
0.232758 0.000000 0.000000
0.265381 0.000000 0.000000
0.298340 0.000000 0.000000
0.331909 0.000000 0.000000
0.366119 0.000000 0.000000
0.401154 0.000000 0.000000
0.436951 0.000000 0.000000
0.473389 0.000000 0.000000
0.510559 0.000000 0.000000
0.548401 0.000000 0.000000
0.587006 0.000000 0.000000
0.626251 0.000000 0.000000
0.665314 0.000000 0.000000
0.703949 0.000000 0.000000
0.741821 0.000000 0.000000
0.779541 0.000000 0.000000
0.817688 0.000000 0.000000
0.854797 0.000000 0.000000
0.889038 0.000000 0.000000
0.918365 0.000000 0.000000
0.930176 0.000000 0.000000
0.940186 0.000000 0.000000
0.950134 0.000000 0.000000
0.960114 0.000000 0.000000
0.970093 0.000000 0.000000
0.980072 0.000000 0.000000
0.990021 0.000000 0.000000
1.000000 0.000000 0.000000
0.000000 0.019196 0.000000
0.020966 0.019226 0.000000
0.045593 0.019257 0.000000
0.074646 0.019867 0.000000
0.105438 0.020325 0.000000
0.136749 0.020782 0.000000
0.168335 0.021149 0.000000
0.200317 0.021118 0.000000
0.232452 0.020844 0.000000
0.264740 0.020203 0.000000
0.297516 0.018860 0.000000
0.330780 0.017731 0.000000
0.364838 0.016235 0.000000
0.399658 0.014069 0.000000
0.435211 0.011810 0.000000
0.471466 0.010345 0.000000
0.508514 0.009979 0.000000
0.546204 0.009979 0.000000
0.584808 0.009979 0.000000
0.623993 0.009979 0.000000
0.662994 0.009979 0.000000
0.701569 0.009979 0.000000
0.739380 0.009979 0.000000
0.777344 0.009979 0.000000
0.815491 0.009979 0.000000
0.851776 0.009979 0.000000
0.885681 0.009979 0.000000
0.917206 0.009979 0.000000
0.930084 0.009979 0.000000
0.940186 0.009979 0.000000
0.950134 0.009979 0.000000
0.960114 0.009979 0.000000
0.970093 0.009979 0.000000
0.980072 0.009979 0.000000
0.990021 0.009979 0.000000
1.000000 0.009979 0.000000
0.000000 0.043365 0.000000
0.022766 0.043732 0.000000
0.048004 0.043732 0.000000
0.076355 0.045013 0.000000
0.106598 0.046417 0.000000
0.137634 0.047546 0.000000
0.168945 0.048340 0.000000
0.200653 0.048706 0.000000
0.232544 0.048859 0.000000
0.264587 0.048615 0.000000
0.297150 0.048340 0.000000
0.330383 0.047424 0.000000
0.364288 0.046417 0.000000
0.399017 0.045135 0.000000
0.434448 0.043274 0.000000
0.470551 0.041046 0.000000
0.507477 0.038727 0.000000
0.545074 0.035919 0.000000
0.583527 0.032898 0.000000
0.622620 0.028107 0.000000
0.661560 0.023346 0.000000
0.700134 0.020630 0.000000
0.737915 0.019928 0.000000
0.776123 0.019928 0.000000
0.814423 0.019928 0.000000
0.850220 0.019928 0.000000
0.883698 0.019928 0.000000
0.915070 0.019928 0.000000
0.929932 0.019928 0.000000
0.940186 0.019928 0.000000
0.950134 0.019928 0.000000
0.960114 0.019928 0.000000
0.970093 0.019928 0.000000
0.980072 0.019928 0.000000
0.990021 0.019928 0.000000
1.000000 0.019928 0.000000
0.000031 0.071899 0.000000
0.025238 0.072266 0.000000
0.051239 0.072449 0.000000
0.078583 0.072479 0.000000
0.108734 0.074554 0.000000
0.139343 0.076141 0.000000
0.170380 0.077332 0.000000
0.201721 0.078094 0.000000
0.233276 0.078644 0.000000
0.265137 0.078857 0.000000
0.297577 0.078979 0.000000
0.330536 0.079071 0.000000
0.364349 0.078796 0.000000
0.398804 0.078400 0.000000
0.434052 0.077728 0.000000
0.469971 0.076660 0.000000
0.506622 0.075073 0.000000
0.544006 0.072937 0.000000
0.582153 0.070587 0.000000
0.620941 0.067657 0.000000
0.659576 0.064117 0.000000
0.697876 0.059540 0.000000
0.736389 0.055481 0.000000
0.774261 0.052216 0.000000
0.812134 0.048248 0.000000
0.847504 0.043701 0.000000
0.880859 0.039124 0.000000
0.912445 0.033051 0.000000
0.929474 0.029907 0.000000
0.940186 0.029907 0.000000
0.950134 0.029907 0.000000
0.960114 0.029907 0.000000
0.970093 0.029907 0.000000
0.980072 0.029907 0.000000
0.990021 0.029907 0.000000
1.000000 0.029907 0.000000
0.001404 0.101807 0.000000
0.027710 0.102051 0.000000
0.054626 0.102173 0.000000
0.082092 0.102295 0.000000
0.109924 0.102386 0.000000
0.140991 0.104736 0.000000
0.171661 0.106232 0.000000
0.202667 0.107239 0.000000
0.233887 0.107971 0.000000
0.265442 0.108551 0.000000
0.297607 0.109131 0.000000
0.330505 0.109497 0.000000
0.364014 0.110016 0.000000
0.398407 0.110229 0.000000
0.433441 0.110443 0.000000
0.469238 0.110382 0.000000
0.505798 0.110046 0.000000
0.543060 0.109528 0.000000
0.581177 0.108673 0.000000
0.619934 0.107483 0.000000
0.658508 0.105804 0.000000
0.696625 0.103638 0.000000
0.735626 0.100891 0.000000
0.773682 0.097412 0.000000
0.810669 0.093018 0.000000
0.845612 0.087555 0.000000
0.878876 0.081848 0.000000
0.910492 0.075958 0.000000
0.928833 0.070801 0.000000
0.940186 0.066498 0.000000
0.950134 0.063171 0.000000
0.960114 0.060028 0.000000
0.970093 0.056671 0.000000
0.980072 0.053162 0.000000
0.990021 0.049713 0.000000
1.000000 0.046539 0.000000
0.003967 0.132019 0.000000
0.031097 0.132202 0.000000
0.058197 0.132233 0.000000
0.085754 0.132355 0.000000
0.113525 0.132416 0.000000
0.141693 0.132507 0.000000
0.173309 0.135010 0.000000
0.204071 0.136383 0.000000
0.235046 0.137207 0.000000
0.266266 0.138000 0.000000
0.298309 0.138855 0.000000
0.331055 0.139648 0.000000
0.364471 0.140442 0.000000
0.398651 0.141296 0.000000
0.433655 0.141968 0.000000
0.469330 0.142609 0.000000
0.505920 0.143097 0.000000
0.543243 0.143372 0.000000
0.581451 0.143494 0.000000
0.620239 0.143433 0.000000
0.658752 0.142975 0.000000
0.697693 0.142120 0.000000
0.736389 0.140961 0.000000
0.774750 0.139404 0.000000
0.817261 0.138550 0.000000
0.855865 0.136566 0.000000
0.888275 0.133148 0.000000
0.913391 0.129608 0.000000
0.928528 0.125488 0.000000
0.940186 0.120911 0.000000
0.950134 0.116302 0.000000
0.960114 0.111633 0.000000
0.970093 0.106415 0.000000
0.980072 0.100525 0.000000
0.990021 0.094513 0.000000
1.000000 0.089081 0.000000
0.007324 0.164124 0.000000
0.035919 0.164215 0.000000
0.062958 0.164215 0.000000
0.090546 0.164276 0.000000
0.118500 0.164307 0.000000
0.146790 0.164307 0.000000
0.175415 0.164337 0.000000
0.207733 0.166992 0.000000
0.238739 0.168152 0.000000
0.269928 0.169006 0.000000
0.301971 0.169952 0.000000
0.334747 0.171051 0.000000
0.368195 0.172241 0.000000
0.402405 0.173309 0.000000
0.437408 0.174438 0.000000
0.473175 0.175476 0.000000
0.509674 0.176483 0.000000
0.547028 0.177307 0.000000
0.585266 0.178040 0.000000
0.623810 0.178619 0.000000
0.662811 0.179047 0.000000
0.702820 0.179352 0.000000
0.742310 0.179169 0.000000
0.780609 0.178436 0.000000
0.816803 0.177124 0.000000
0.867889 0.179108 0.000000
0.900208 0.176636 0.000000
0.919525 0.173889 0.000000
0.930176 0.170807 0.000000
0.940186 0.167358 0.000000
0.950134 0.163666 0.000000
0.960114 0.160126 0.000000
0.970093 0.156464 0.000000
0.980072 0.152740 0.000000
0.990021 0.149261 0.000000
1.000000 0.145905 0.000000
0.011688 0.198212 0.000000
0.041656 0.198181 0.000000
0.068634 0.198181 0.000000
0.096130 0.198181 0.000000
0.124329 0.198151 0.000000
0.153015 0.198059 0.000000
0.181976 0.197998 0.000000
0.211182 0.197968 0.000000
0.244141 0.200623 0.000000
0.275848 0.201752 0.000000
0.307922 0.202820 0.000000
0.340851 0.204041 0.000000
0.374481 0.205383 0.000000
0.408783 0.206757 0.000000
0.443848 0.208099 0.000000
0.479675 0.209473 0.000000
0.516205 0.210724 0.000000
0.553467 0.212006 0.000000
0.591614 0.213165 0.000000
0.630188 0.214203 0.000000
0.669952 0.215332 0.000000
0.710693 0.216431 0.000000
0.750916 0.217072 0.000000
0.789215 0.216888 0.000000
0.825745 0.216064 0.000000
0.860992 0.214783 0.000000
0.894440 0.213196 0.000000
0.918884 0.210815 0.000000
0.930176 0.208221 0.000000
0.940186 0.205292 0.000000
0.950134 0.202026 0.000000
0.960114 0.198669 0.000000
0.970093 0.195435 0.000000
0.980072 0.192139 0.000000
0.990021 0.188782 0.000000
1.000000 0.185638 0.000000
0.016785 0.229034 0.000000
0.046478 0.229004 0.000000
0.072815 0.229034 0.000000
0.099854 0.229004 0.000000
0.127869 0.228973 0.000000
0.156433 0.228882 0.000000
0.185333 0.228821 0.000000
0.214569 0.228790 0.000000
0.244141 0.228790 0.000000
0.277527 0.231689 0.000000
0.309845 0.233185 0.000000
0.342560 0.234619 0.000000
0.375946 0.236084 0.000000
0.410034 0.237610 0.000000
0.444824 0.239197 0.000000
0.480377 0.240784 0.000000
0.516663 0.242432 0.000000
0.553802 0.244110 0.000000
0.591797 0.245667 0.000000
0.631287 0.247589 0.000000
0.671722 0.249481 0.000000
0.711761 0.250916 0.000000
0.750519 0.251587 0.000000
0.787628 0.251495 0.000000
0.823425 0.250793 0.000000
0.858032 0.249847 0.000000
0.891205 0.248291 0.000000
0.918549 0.246307 0.000000
0.930176 0.243774 0.000000
0.940186 0.241028 0.000000
0.950134 0.238068 0.000000
0.960114 0.234924 0.000000
0.970093 0.231659 0.000000
0.980072 0.228485 0.000000
0.990021 0.225372 0.000000
1.000000 0.222168 0.000000
0.023010 0.260803 0.000000
0.051636 0.260803 0.000000
0.077393 0.260834 0.000000
0.104034 0.260803 0.000000
0.131836 0.260742 0.000000
0.160370 0.260681 0.000000
0.189240 0.260590 0.000000
0.218475 0.260590 0.000000
0.248047 0.260590 0.000000
0.278015 0.260712 0.000000
0.312012 0.263855 0.000000
0.345062 0.265656 0.000000
0.378479 0.267395 0.000000
0.412476 0.269135 0.000000
0.447083 0.270874 0.000000
0.482361 0.272705 0.000000
0.518433 0.274597 0.000000
0.555420 0.276459 0.000000
0.595428 0.279572 0.000000
0.635193 0.281952 0.000000
0.674622 0.283844 0.000000
0.713470 0.285217 0.000000
0.751160 0.285950 0.000000
0.787506 0.285950 0.000000
0.822693 0.285370 0.000000
0.856903 0.284363 0.000000
0.889709 0.283020 0.000000
0.918457 0.281097 0.000000
0.930176 0.278625 0.000000
0.940186 0.275940 0.000000
0.950134 0.272949 0.000000
0.960114 0.269806 0.000000
0.970093 0.266632 0.000000
0.980072 0.263458 0.000000
0.990021 0.260254 0.000000
1.000000 0.257111 0.000000
0.029968 0.293304 0.000000
0.057312 0.293304 0.000000
0.082336 0.293243 0.000000
0.108398 0.293182 0.000000
0.135925 0.293091 0.000000
0.164307 0.292938 0.000000
0.193146 0.292786 0.000000
0.222412 0.292664 0.000000
0.252045 0.292633 0.000000
0.281921 0.292633 0.000000
0.312256 0.292877 0.000000
0.346588 0.296173 0.000000
0.380341 0.298401 0.000000
0.414429 0.300415 0.000000
0.449036 0.302399 0.000000
0.484894 0.304871 0.000000
0.522461 0.307922 0.000000
0.560944 0.311005 0.000000
0.600128 0.314087 0.000000
0.639130 0.316528 0.000000
0.678070 0.318451 0.000000
0.716034 0.319702 0.000000
0.752686 0.320221 0.000000
0.787964 0.320038 0.000000
0.822083 0.319244 0.000000
0.855225 0.317993 0.000000
0.887146 0.316406 0.000000
0.917511 0.314301 0.000000
0.930145 0.311829 0.000000
0.940186 0.309082 0.000000
0.950134 0.306183 0.000000
0.960114 0.303101 0.000000
0.970093 0.300018 0.000000
0.980072 0.296844 0.000000
0.990021 0.293701 0.000000
1.000000 0.290558 0.000000
0.036926 0.325684 0.000000
0.062897 0.325653 0.000000
0.087128 0.325684 0.000000
0.112854 0.325684 0.000000
0.140137 0.325653 0.000000
0.168335 0.325592 0.000000
0.197174 0.325592 0.000000
0.226624 0.325592 0.000000
0.256378 0.325653 0.000000
0.286469 0.325775 0.000000
0.316925 0.325989 0.000000
0.347717 0.326294 0.000000
0.383026 0.330139 0.000000
0.418365 0.333405 0.000000
0.454102 0.336334 0.000000
0.490326 0.339203 0.000000
0.527832 0.342407 0.000000
0.566040 0.345642 0.000000
0.604431 0.348480 0.000000
0.642487 0.350800 0.000000
0.680450 0.352631 0.000000
0.717499 0.353668 0.000000
0.753296 0.353912 0.000000
0.787842 0.353546 0.000000
0.821411 0.352661 0.000000
0.854004 0.351349 0.000000
0.885468 0.349670 0.000000
0.915710 0.347534 0.000000
0.929962 0.344971 0.000000
0.940186 0.342285 0.000000
0.950134 0.339325 0.000000
0.960114 0.336243 0.000000
0.970093 0.333069 0.000000
0.980072 0.329865 0.000000
0.990021 0.326660 0.000000
1.000000 0.323456 0.000000
0.043732 0.359467 0.000000
0.068665 0.359467 0.000000
0.092590 0.359497 0.000000
0.117920 0.359558 0.000000
0.144775 0.359589 0.000000
0.173004 0.359619 0.000000
0.201843 0.359741 0.000000
0.231445 0.359863 0.000000
0.261444 0.360016 0.000000
0.292053 0.360504 0.000000
0.323364 0.361450 0.000000
0.355072 0.362366 0.000000
0.387085 0.363312 0.000000
0.431702 0.374695 0.000000
0.471069 0.380402 0.000000
0.508850 0.384033 0.000000
0.546722 0.387177 0.000000
0.584778 0.390045 0.000000
0.622681 0.392334 0.000000
0.660156 0.393982 0.000000
0.696564 0.394806 0.000000
0.731903 0.394836 0.000000
0.766296 0.394348 0.000000
0.799530 0.393219 0.000000
0.831879 0.391663 0.000000
0.863312 0.389740 0.000000
0.893433 0.387482 0.000000
0.917145 0.384674 0.000000
0.929596 0.381653 0.000000
0.940186 0.378296 0.000000
0.950134 0.374908 0.000000
0.960114 0.371399 0.000000
0.970093 0.367920 0.000000
0.980072 0.364380 0.000000
0.990021 0.360840 0.000000
1.000000 0.357361 0.000000
0.051361 0.397797 0.000000
0.075623 0.397980 0.000000
0.099335 0.398041 0.000000
0.124573 0.398193 0.000000
0.151794 0.398376 0.000000
0.180054 0.398529 0.000000
0.209290 0.398773 0.000000
0.239258 0.399170 0.000000
0.269806 0.399567 0.000000
0.301178 0.400391 0.000000
0.333313 0.401703 0.000000
0.366119 0.403259 0.000000
0.399536 0.404968 0.000000
0.433441 0.406860 0.000000
0.479370 0.418549 0.000000
0.518738 0.423370 0.000000
0.557526 0.427032 0.000000
0.595490 0.429688 0.000000
0.632904 0.431610 0.000000
0.669556 0.432739 0.000000
0.705017 0.432983 0.000000
0.739197 0.432373 0.000000
0.772308 0.431122 0.000000
0.804626 0.429504 0.000000
0.836090 0.427460 0.000000
0.866669 0.425018 0.000000
0.896179 0.422333 0.000000
0.919189 0.419250 0.000000
0.930176 0.415985 0.000000
0.940186 0.412445 0.000000
0.950134 0.408783 0.000000
0.960114 0.404999 0.000000
0.970093 0.401215 0.000000
0.980072 0.397461 0.000000
0.990021 0.393677 0.000000
1.000000 0.389984 0.000000
0.059143 0.438782 0.000000
0.083130 0.438965 0.000000
0.106567 0.438965 0.000000
0.131683 0.438995 0.000000
0.158783 0.439026 0.000000
0.187408 0.439056 0.000000
0.216980 0.439209 0.000000
0.247162 0.439636 0.000000
0.278259 0.440216 0.000000
0.310089 0.441040 0.000000
0.342590 0.442291 0.000000
0.375885 0.443909 0.000000
0.409882 0.445831 0.000000
0.444427 0.447937 0.000000
0.479492 0.450104 0.000000
0.518829 0.455383 0.000000
0.558258 0.459991 0.000000
0.596313 0.462952 0.000000
0.633270 0.464722 0.000000
0.669067 0.465485 0.000000
0.703735 0.465332 0.000000
0.737183 0.464386 0.000000
0.769745 0.462952 0.000000
0.801544 0.461151 0.000000
0.832733 0.459045 0.000000
0.863129 0.456573 0.000000
0.892670 0.453857 0.000000
0.918762 0.450775 0.000000
0.930176 0.447479 0.000000
0.940186 0.443939 0.000000
0.950134 0.440247 0.000000
0.960114 0.436462 0.000000
0.970093 0.432617 0.000000
0.980072 0.428833 0.000000
0.990021 0.425018 0.000000
1.000000 0.421234 0.000000
0.066406 0.479248 0.000000
0.089935 0.479309 0.000000
0.113159 0.479095 0.000000
0.138184 0.478851 0.000000
0.165039 0.478516 0.000000
0.193481 0.478149 0.000000
0.222961 0.477936 0.000000
0.253265 0.477905 0.000000
0.284149 0.478149 0.000000
0.315948 0.478729 0.000000
0.348511 0.479706 0.000000
0.381775 0.481079 0.000000
0.415710 0.482819 0.000000
0.450226 0.484741 0.000000
0.485077 0.486633 0.000000
0.520172 0.488342 0.000000
0.558624 0.492554 0.000000
0.597015 0.496155 0.000000
0.633972 0.498047 0.000000
0.669128 0.498413 0.000000
0.703156 0.497894 0.000000
0.735992 0.496643 0.000000
0.768066 0.494965 0.000000
0.799561 0.493042 0.000000
0.830444 0.490845 0.000000
0.860657 0.488342 0.000000
0.890137 0.485565 0.000000
0.917999 0.482452 0.000000
0.930176 0.479095 0.000000
0.940186 0.475494 0.000000
0.950134 0.471771 0.000000
0.960114 0.467926 0.000000
0.970093 0.464050 0.000000
0.980072 0.460236 0.000000
0.990021 0.456299 0.000000
1.000000 0.452423 0.000000
0.073517 0.518707 0.000000
0.096344 0.518768 0.000000
0.119141 0.518555 0.000000
0.143982 0.518188 0.000000
0.170807 0.517731 0.000000
0.199066 0.517212 0.000000
0.228577 0.516785 0.000000
0.258942 0.516571 0.000000
0.290100 0.516571 0.000000
0.321930 0.516968 0.000000
0.354462 0.517792 0.000000
0.387695 0.518951 0.000000
0.421539 0.520386 0.000000
0.455872 0.521973 0.000000
0.490509 0.523529 0.000000
0.525299 0.524902 0.000000
0.560028 0.525940 0.000000
0.597412 0.528961 0.000000
0.634705 0.531372 0.000000
0.669586 0.531677 0.000000
0.703064 0.530762 0.000000
0.735504 0.529175 0.000000
0.767181 0.527283 0.000000
0.798309 0.525146 0.000000
0.828888 0.522766 0.000000
0.858826 0.520081 0.000000
0.888031 0.517181 0.000000
0.916382 0.514008 0.000000
0.929840 0.510559 0.000000
0.940186 0.506927 0.000000
0.950134 0.503174 0.000000
0.960114 0.499329 0.000000
0.970093 0.495422 0.000000
0.980072 0.491516 0.000000
0.990021 0.487640 0.000000
1.000000 0.483704 0.000000
0.079376 0.556488 0.000000
0.102478 0.556610 0.000000
0.124969 0.556549 0.000000
0.149536 0.556396 0.000000
0.176300 0.556152 0.000000
0.204651 0.555878 0.000000
0.234222 0.555695 0.000000
0.264923 0.555695 0.000000
0.296295 0.555939 0.000000
0.328247 0.556427 0.000000
0.360931 0.557068 0.000000
0.394073 0.557800 0.000000
0.427612 0.558716 0.000000
0.461456 0.559570 0.000000
0.495422 0.560272 0.000000
0.529449 0.560852 0.000000
0.563538 0.561188 0.000000
0.597473 0.561218 0.000000
0.633331 0.562836 0.000000
0.668732 0.563721 0.000000
0.702118 0.562897 0.000000
0.734406 0.561218 0.000000
0.766113 0.559265 0.000000
0.797180 0.557068 0.000000
0.827637 0.554596 0.000000
0.857422 0.551819 0.000000
0.886536 0.548859 0.000000
0.914886 0.545593 0.000000
0.929504 0.542145 0.000000
0.940186 0.538483 0.000000
0.950134 0.534637 0.000000
0.960114 0.530701 0.000000
0.970093 0.526672 0.000000
0.980072 0.522583 0.000000
0.990021 0.518463 0.000000
1.000000 0.514313 0.000000
0.085968 0.592560 0.000000
0.108276 0.592529 0.000000
0.130127 0.592468 0.000000
0.154236 0.592346 0.000000
0.180725 0.592163 0.000000
0.208954 0.592010 0.000000
0.238373 0.591888 0.000000
0.268890 0.591858 0.000000
0.300171 0.591949 0.000000
0.332123 0.592224 0.000000
0.364502 0.592651 0.000000
0.397430 0.593140 0.000000
0.430756 0.593719 0.000000
0.464294 0.594269 0.000000
0.497955 0.594727 0.000000
0.531738 0.595032 0.000000
0.565491 0.595093 0.000000
0.599091 0.594940 0.000000
0.632690 0.594666 0.000000
0.667267 0.595062 0.000000
0.701416 0.594971 0.000000
0.733765 0.593475 0.000000
0.765259 0.591339 0.000000
0.796204 0.588959 0.000000
0.826477 0.586304 0.000000
0.856110 0.583405 0.000000
0.885071 0.580322 0.000000
0.913330 0.576935 0.000000
0.929230 0.573425 0.000000
0.940186 0.569672 0.000000
0.950134 0.565796 0.000000
0.960114 0.561798 0.000000
0.970093 0.557678 0.000000
0.980072 0.553497 0.000000
0.990021 0.549255 0.000000
1.000000 0.544983 0.000000
0.092896 0.627960 0.000000
0.114380 0.628082 0.000000
0.139618 0.637482 0.000000
0.163727 0.638031 0.000000
0.190125 0.637817 0.000000
0.218262 0.637543 0.000000
0.247650 0.637238 0.000000
0.278137 0.636963 0.000000
0.309357 0.636780 0.000000
0.341400 0.636719 0.000000
0.373901 0.636780 0.000000
0.406921 0.636932 0.000000
0.440125 0.637054 0.000000
0.473541 0.637024 0.000000
0.507019 0.636871 0.000000
0.540527 0.636566 0.000000
0.573975 0.636017 0.000000
0.607208 0.635223 0.000000
0.640381 0.634247 0.000000
0.673340 0.633087 0.000000
0.706421 0.631989 0.000000
0.738678 0.630249 0.000000
0.769531 0.627472 0.000000
0.799713 0.624329 0.000000
0.829376 0.621033 0.000000
0.858429 0.617554 0.000000
0.886780 0.613892 0.000000
0.914215 0.609863 0.000000
0.929169 0.605682 0.000000
0.940186 0.601532 0.000000
0.950134 0.597260 0.000000
0.960114 0.592957 0.000000
0.970093 0.588654 0.000000
0.980072 0.584290 0.000000
0.990021 0.579865 0.000000
1.000000 0.575378 0.000000
0.100952 0.664551 0.000000
0.122040 0.665222 0.000000
0.143219 0.666595 0.000000
0.168060 0.669861 0.000000
0.193939 0.670044 0.000000
0.221619 0.670013 0.000000
0.250610 0.669769 0.000000
0.280762 0.669464 0.000000
0.311584 0.669159 0.000000
0.343109 0.669006 0.000000
0.375244 0.668854 0.000000
0.407776 0.668793 0.000000
0.440735 0.668732 0.000000
0.473724 0.668610 0.000000
0.506866 0.668274 0.000000
0.540009 0.667786 0.000000
0.573181 0.667145 0.000000
0.606232 0.666351 0.000000
0.639252 0.665375 0.000000
0.672180 0.664398 0.000000
0.705200 0.663452 0.000000
0.737579 0.661926 0.000000
0.768829 0.659454 0.000000
0.798920 0.656250 0.000000
0.828430 0.652771 0.000000
0.857361 0.649109 0.000000
0.885529 0.645172 0.000000
0.912842 0.640961 0.000000
0.929382 0.636627 0.000000
0.940186 0.632141 0.000000
0.950134 0.627686 0.000000
0.960114 0.623199 0.000000
0.970093 0.618713 0.000000
0.980072 0.614227 0.000000
0.990021 0.609680 0.000000
1.000000 0.605072 0.000000
0.107391 0.696350 0.000000
0.127686 0.697144 0.000000
0.148407 0.697937 0.000000
0.171356 0.698578 0.000000
0.196686 0.699066 0.000000
0.223846 0.699249 0.000000
0.252319 0.699158 0.000000
0.282013 0.698914 0.000000
0.312378 0.698578 0.000000
0.343445 0.698364 0.000000
0.375061 0.698151 0.000000
0.407166 0.697998 0.000000
0.439606 0.697815 0.000000
0.472321 0.697601 0.000000
0.505096 0.697266 0.000000
0.537933 0.696808 0.000000
0.570831 0.696228 0.000000
0.603638 0.695496 0.000000
0.636475 0.694611 0.000000
0.669220 0.693695 0.000000
0.702057 0.692780 0.000000
0.734924 0.691925 0.000000
0.766785 0.690125 0.000000
0.797119 0.687134 0.000000
0.826508 0.683563 0.000000
0.855347 0.679779 0.000000
0.883484 0.675720 0.000000
0.910736 0.671356 0.000000
0.928925 0.666840 0.000000
0.940186 0.662201 0.000000
0.950134 0.657562 0.000000
0.960114 0.652954 0.000000
0.970093 0.648315 0.000000
0.980072 0.643677 0.000000
0.990021 0.639038 0.000000
1.000000 0.634338 0.000000
0.113068 0.725616 0.000000
0.132812 0.726349 0.000000
0.152924 0.727112 0.000000
0.175446 0.727722 0.000000
0.200043 0.728149 0.000000
0.226379 0.728363 0.000000
0.254303 0.728271 0.000000
0.283417 0.728058 0.000000
0.313293 0.727722 0.000000
0.343964 0.727448 0.000000
0.375153 0.727173 0.000000
0.406769 0.726929 0.000000
0.438751 0.726654 0.000000
0.470978 0.726379 0.000000
0.503448 0.726013 0.000000
0.535980 0.725586 0.000000
0.568665 0.725037 0.000000
0.601288 0.724426 0.000000
0.634003 0.723724 0.000000
0.666718 0.723022 0.000000
0.699585 0.722412 0.000000
0.732483 0.721832 0.000000
0.765503 0.721252 0.000000
0.797028 0.719330 0.000000
0.826538 0.715820 0.000000
0.855194 0.711853 0.000000
0.883301 0.707703 0.000000
0.910614 0.703278 0.000000
0.928436 0.698578 0.000000
0.940186 0.693756 0.000000
0.950134 0.688873 0.000000
0.960114 0.684052 0.000000
0.970093 0.679230 0.000000
0.980072 0.674408 0.000000
0.990021 0.669556 0.000000
1.000000 0.664642 0.000000
0.120056 0.756226 0.000000
0.139130 0.756714 0.000000
0.158539 0.757202 0.000000
0.180237 0.757568 0.000000
0.204132 0.757782 0.000000
0.229858 0.757812 0.000000
0.257019 0.757690 0.000000
0.285461 0.757385 0.000000
0.314850 0.757050 0.000000
0.345032 0.756714 0.000000
0.375763 0.756439 0.000000
0.407013 0.756165 0.000000
0.438538 0.755859 0.000000
0.470367 0.755524 0.000000
0.502411 0.755096 0.000000
0.534637 0.754608 0.000000
0.566956 0.754059 0.000000
0.599426 0.753479 0.000000
0.631897 0.752899 0.000000
0.664490 0.752289 0.000000
0.697144 0.751740 0.000000
0.729919 0.751221 0.000000
0.762756 0.750732 0.000000
0.795654 0.750275 0.000000
0.826874 0.748260 0.000000
0.855469 0.744110 0.000000
0.883179 0.739594 0.000000
0.910339 0.734955 0.000000
0.928772 0.730133 0.000000
0.940186 0.725189 0.000000
0.950134 0.720154 0.000000
0.960114 0.715118 0.000000
0.970093 0.710083 0.000000
0.980072 0.705017 0.000000
0.990021 0.699921 0.000000
1.000000 0.694733 0.000000
0.127808 0.787109 0.000000
0.146027 0.787323 0.000000
0.164795 0.787445 0.000000
0.185577 0.787506 0.000000
0.208649 0.787415 0.000000
0.233612 0.787201 0.000000
0.260101 0.786865 0.000000
0.287964 0.786530 0.000000
0.316711 0.786133 0.000000
0.346405 0.785828 0.000000
0.376617 0.785553 0.000000
0.407501 0.785278 0.000000
0.438690 0.784973 0.000000
0.470184 0.784607 0.000000
0.501862 0.784180 0.000000
0.533691 0.783691 0.000000
0.565735 0.783112 0.000000
