colors/滋味.cube
#Created by: Adobe Photoshop Export Color Lookup Plugin
#Copyright: (C) Copyright 2026 小米
TITLE "美食.psd"
#LUT size
LUT_3D_SIZE 6
#data domain
DOMAIN_MIN 0.0 0.0 0.0
DOMAIN_MAX 1.0 1.0 1.0
#LUT data points
0.000000 0.000000 0.000000
0.200378 0.000000 0.000000
0.436951 0.000000 0.000000
0.703949 0.000000 0.000000
0.930176 0.000000 0.000000
1.000000 0.000000 0.000000
0.011688 0.198212 0.000000
0.211182 0.197968 0.000000
0.443848 0.208099 0.000000
0.710693 0.216431 0.000000
0.930176 0.208221 0.000000
1.000000 0.185638 0.000000
0.059143 0.438782 0.000000
0.247162 0.439636 0.000000
0.479492 0.450104 0.000000
0.737183 0.464386 0.000000
0.930176 0.447479 0.000000
1.000000 0.421234 0.000000
0.107391 0.696350 0.000000
0.282013 0.698914 0.000000
0.505096 0.697266 0.000000
0.734924 0.691925 0.000000
0.928925 0.666840 0.000000
1.000000 0.634338 0.000000
0.151886 0.890106 0.000000
0.294891 0.889160 0.000000
0.493683 0.886200 0.000000
0.707062 0.880981 0.000000
0.923920 0.875397 0.000000
1.000000 0.835510 0.000000
0.196564 1.000000 0.000000
0.311646 1.000000 0.000000
0.481323 1.000000 0.000000
0.676575 1.000000 0.000000
0.879578 1.000000 0.000000
1.000000 1.000000 0.000000
0.000000 0.000000 0.192078
0.200317 0.000000 0.194061
0.435974 0.000000 0.200623
0.704132 0.000000 0.187103
0.929871 0.000000 0.176208
1.000000 0.000000 0.166412
0.000000 0.194519 0.195770
0.212036 0.192200 0.193787
0.444916 0.186951 0.190125
0.712799 0.173126 0.180511
0.929657 0.156403 0.169647
1.000000 0.143158 0.161743
0.000000 0.434418 0.168732
0.229950 0.435364 0.167328
0.472321 0.438568 0.162445
0.723724 0.444641 0.157013
0.927948 0.429077 0.146667
1.000000 0.408661 0.144012
0.030151 0.688660 0.082397
0.256165 0.688080 0.081818
0.491882 0.686310 0.080963
0.725128 0.680115 0.078979
0.927277 0.657745 0.084808
1.000000 0.629059 0.130249
0.127075 0.885498 0.078735
0.278595 0.883392 0.078857
0.485291 0.881592 0.078766
0.702820 0.877777 0.078369
0.920288 0.871552 0.079407
1.000000 0.832184 0.091919
0.190491 1.000000 0.132965
0.311340 1.000000 0.148743
0.479767 1.000000 0.149200
0.674896 1.000000 0.147308
0.878296 1.000000 0.161194
1.000000 1.000000 0.197754
0.000000 0.000000 0.425018
0.218536 0.000000 0.427856
0.444763 0.000000 0.430878
0.708618 0.000000 0.447968
0.928650 0.000000 0.434662
1.000000 0.000000 0.416016
0.000000 0.179688 0.432983
0.210754 0.175385 0.433502
0.455292 0.157990 0.434448
0.718384 0.091125 0.442810
0.929047 0.080750 0.428406
1.000000 0.133575 0.419617
0.000000 0.436584 0.438965
0.191681 0.435364 0.438110
0.473877 0.431183 0.434540
0.724731 0.427673 0.432159
0.928589 0.423248 0.428375
1.000000 0.416260 0.421661
0.000000 0.690277 0.415955
0.204681 0.689026 0.415192
0.484161 0.686920 0.415436
0.730804 0.680786 0.413239
0.926392 0.658386 0.425232
1.000000 0.637085 0.426880
0.130890 0.886078 0.412750
0.282440 0.885223 0.412476
0.486603 0.882538 0.411377
0.702881 0.878143 0.410736
0.919739 0.872894 0.413635
1.000000 0.836334 0.423462
0.237457 1.000000 0.434113
0.339203 1.000000 0.429596
0.497559 1.000000 0.433105
0.682343 1.000000 0.434906
0.877716 1.000000 0.441650
1.000000 1.000000 0.452179
0.000000 0.000000 0.678528
0.230347 0.000000 0.679749
0.464691 0.000000 0.681244
0.706482 0.000000 0.685455
0.928528 0.000000 0.673920
1.000000 0.000000 0.643341
0.000000 0.162537 0.682373
0.208649 0.153778 0.682800
0.464294 0.119659 0.685364
0.712341 0.070679 0.687164
0.928589 0.069824 0.670776
1.000000 0.107758 0.643250
0.000000 0.419922 0.687561
0.138458 0.414215 0.688049
0.462036 0.410278 0.687988
0.722443 0.405792 0.686859
0.927124 0.421997 0.667053
1.000000 0.446411 0.654236
0.000000 0.680969 0.684082
0.204224 0.680176 0.683380
0.482788 0.678589 0.681915
0.713623 0.675629 0.678497
0.907318 0.674194 0.676910
1.000000 0.670258 0.672791
0.203003 0.880951 0.664368
0.334473 0.879944 0.666260
0.519165 0.877136 0.671295
0.706024 0.874451 0.666534
0.906128 0.868896 0.666718
1.000000 0.848450 0.672363
0.348480 1.000000 0.679871
0.423737 1.000000 0.672424
0.545197 1.000000 0.668915
0.703461 1.000000 0.669922
0.878571 1.000000 0.672272
1.000000 1.000000 0.676941
0.000000 0.000000 0.882477
0.218872 0.000000 0.883331
0.448242 0.000000 0.883575
0.675781 0.000000 0.882812
0.905792 0.000000 0.882202
1.000000 0.000000 0.858521
0.000000 0.145508 0.884338
0.196136 0.136322 0.883698
0.442017 0.100372 0.883179
0.674652 0.072357 0.882263
0.908264 0.069824 0.883057
1.000000 0.077362 0.856659
0.000000 0.397217 0.883026
0.145050 0.394562 0.881989
0.434967 0.394104 0.882141
0.675446 0.392670 0.881134
0.907776 0.394897 0.879822
1.000000 0.422302 0.852142
0.006378 0.645081 0.877014
0.237823 0.646545 0.876587
0.472107 0.652679 0.875427
0.685028 0.653381 0.873840
0.899902 0.655884 0.872467
1.000000 0.671234 0.853790
0.208130 0.867737 0.870087
0.332886 0.867188 0.869476
0.514038 0.866486 0.868713
0.708008 0.866089 0.868103
0.886932 0.866150 0.867645
1.000000 0.866699 0.867096
0.368958 1.000000 0.851868
0.462280 1.000000 0.853088
0.593842 1.000000 0.858063
0.746155 1.000000 0.867798
0.885010 1.000000 0.867310
1.000000 1.000000 0.871643
0.000000 0.000000 1.000000
0.185699 0.000000 1.000000
0.408783 0.000000 1.000000
0.622925 0.000000 1.000000
0.836792 0.000000 1.000000
1.000000 0.000000 1.000000
0.000000 0.097870 1.000000
0.151947 0.086090 1.000000
0.399384 0.074493 1.000000
0.618805 0.069824 1.000000
0.835114 0.069824 1.000000
1.000000 0.069824 1.000000
0.000000 0.356812 1.000000
0.069824 0.356049 1.000000
0.379822 0.353363 1.000000
0.611511 0.349548 1.000000
0.833282 0.354736 1.000000
1.000000 0.389282 1.000000
0.000000 0.601440 1.000000
0.186432 0.603058 1.000000
0.417053 0.608063 1.000000
0.628998 0.611359 1.000000
0.841797 0.630310 1.000000
1.000000 0.644836 1.000000
0.265778 0.828430 1.000000
0.372467 0.830048 1.000000
0.527771 0.835571 1.000000
0.702393 0.846252 1.000000
0.861938 0.852356 1.000000
1.000000 0.859802 1.000000
0.414276 1.000000 1.000000
0.504822 1.000000 1.000000
0.624786 1.000000 1.000000
0.768158 1.000000 1.000000
0.913055 0.999969 1.000000
1.000000 1.000000 1.000000
