colors/灰绿色调-f.CUBE
#Created by: Adobe Photoshop Export Color Lookup Plugin
TITLE "多场景样片-v1.0.psd"
#LUT size
LUT_3D_SIZE 7
#data domain
#LUT data points
DOMAIN_MIN 0.000000 0.000000 0.000000
DOMAIN_MAX 0.909091 0.909091 0.909091
0.000000 0.062134 0.000000
0.097046 0.063599 0.022186
0.258636 0.067657 0.044312
0.430969 0.076416 0.068817
0.606506 0.086395 0.093414
0.756042 0.096436 0.114655
0.855621 0.111694 0.145264
0.000000 0.142365 0.000000
0.101715 0.141571 0.014587
0.263184 0.121338 0.016571
0.432465 0.102631 0.013885
0.604675 0.088776 0.003906
0.751801 0.079559 0.000000
0.851318 0.081543 0.000732
0.000000 0.266388 0.000000
0.133636 0.282837 0.011932
0.272034 0.265594 0.025360
0.451904 0.244690 0.019684
0.625763 0.222534 0.015228
0.773621 0.204681 0.004974
0.870758 0.192047 0.000000
0.000000 0.416534 0.000000
0.146973 0.435028 0.000000
0.323944 0.442780 0.000824
0.456268 0.413635 0.024750
0.645599 0.396027 0.009308
0.795166 0.377289 0.002808
0.890594 0.364197 0.002319
0.000000 0.582031 0.000000
0.148865 0.591309 0.000000
0.363251 0.606018 0.000000
0.508759 0.591888 0.000000
0.647858 0.567841 0.000000
0.807312 0.563477 0.000000
0.908997 0.551575 0.000000
0.000000 0.738403 0.000000
0.143860 0.745026 0.000000
0.380371 0.764038 0.000000
0.581909 0.767487 0.000000
0.700745 0.742157 0.000000
0.812500 0.719299 0.000000
0.911072 0.727417 0.000000
0.000000 0.859009 0.000000
0.132050 0.869080 0.000000
0.398285 0.883759 0.000000
0.626953 0.889801 0.000000
0.787964 0.895111 0.000000
0.864563 0.871735 0.000000
0.922211 0.846802 0.000000
0.000000 0.079315 0.097656
0.091522 0.079559 0.133606
0.248749 0.099213 0.185455
0.419891 0.120636 0.230438
0.595612 0.143250 0.273010
0.748260 0.166504 0.312469
0.851685 0.189362 0.350128
0.000000 0.152710 0.103577
0.104645 0.162506 0.125610
0.267578 0.160675 0.152832
0.443054 0.165070 0.178131
0.620514 0.176086 0.208771
0.771851 0.192291 0.243378
0.871674 0.211792 0.279541
0.000000 0.267151 0.098969
0.121094 0.294708 0.124420
0.275665 0.286652 0.144165
0.451141 0.263550 0.147491
0.626831 0.238983 0.147400
0.774414 0.219574 0.146454
0.872559 0.212311 0.149811
0.000000 0.418335 0.100891
0.123932 0.439117 0.122833
0.315369 0.454315 0.143860
0.458038 0.434601 0.162262
0.644562 0.414246 0.156372
0.793610 0.394196 0.159088
0.891022 0.379639 0.162628
0.000000 0.574432 0.056549
0.120697 0.593170 0.112915
0.335968 0.616089 0.123505
0.519745 0.621704 0.142303
0.647522 0.588104 0.165771
0.808807 0.580170 0.161591
0.907379 0.566833 0.165680
0.000000 0.722015 0.000000
0.110229 0.744263 0.091095
0.342285 0.762329 0.095215
0.561920 0.772400 0.125305
0.711853 0.768982 0.125305
0.810547 0.735809 0.154053
0.911438 0.741302 0.173798
0.000000 0.842407 0.000000
0.093658 0.866852 0.063751
0.348450 0.876709 0.056213
0.582733 0.891907 0.061310
0.765228 0.893829 0.092316
0.866791 0.886566 0.090118
0.919037 0.856873 0.130005
0.005096 0.098663 0.228943
0.078369 0.086517 0.240692
0.249420 0.098541 0.293396
0.414429 0.120178 0.347809
0.585114 0.142273 0.401611
0.739563 0.166016 0.445221
0.848358 0.189331 0.484283
0.006989 0.179535 0.237213
0.096588 0.173737 0.254913
0.259125 0.186157 0.303925
0.430481 0.209076 0.357483
0.607758 0.233154 0.405090
0.762543 0.257629 0.448822
0.867859 0.281708 0.489471
0.000793 0.293457 0.240540
0.106842 0.304291 0.264343
0.279144 0.316498 0.291840
0.455170 0.312164 0.320526
0.635315 0.314697 0.347107
0.788330 0.321838 0.373138
0.889099 0.338226 0.407379
0.000000 0.418732 0.236725
0.102692 0.435822 0.254608
0.302856 0.469757 0.290955
0.463654 0.462006 0.313049
0.645294 0.439697 0.317261
0.795074 0.418365 0.322998
0.893280 0.403046 0.329987
0.000000 0.572998 0.237457
0.092316 0.592468 0.255676
0.307587 0.621857 0.290375
0.509674 0.635590 0.314362
0.650696 0.615173 0.331573
0.810944 0.604309 0.334778
0.908447 0.589905 0.343933
0.004211 0.721649 0.213776
0.053925 0.749481 0.261993
0.309021 0.765228 0.285339
0.533691 0.785034 0.299774
0.713501 0.789734 0.322693
0.812683 0.758514 0.341034
0.915314 0.761810 0.359436
0.005219 0.841919 0.153778
0.045532 0.865631 0.234222
0.311554 0.876404 0.278778
0.545929 0.892578 0.289886
0.750336 0.899231 0.324280
0.872925 0.904266 0.323547
0.920258 0.872711 0.345764
0.034698 0.119904 0.371124
0.078613 0.095123 0.377441
0.214661 0.107178 0.395630
0.412872 0.123962 0.458191
0.587280 0.142914 0.512787
0.741302 0.166077 0.562866
0.850433 0.190674 0.608856
0.038635 0.204376 0.380585
0.109863 0.200012 0.398254
0.239685 0.195099 0.413666
0.431213 0.208374 0.472473
0.603760 0.232147 0.527710
0.757080 0.257050 0.580475
0.865143 0.281097 0.627441
0.033630 0.328186 0.391907
0.120300 0.335876 0.410614
0.269318 0.329834 0.432678
0.443909 0.341888 0.484802
0.622742 0.366272 0.536835
0.779114 0.390656 0.584595
0.885315 0.414429 0.628418
0.014801 0.450317 0.385162
0.105408 0.462494 0.410645
0.274841 0.479492 0.433044
0.468567 0.492950 0.470612
0.649841 0.489380 0.499023
0.803040 0.489258 0.527283
0.904541 0.500824 0.558258
0.013550 0.574585 0.373932
0.086121 0.590240 0.401581
0.261078 0.617493 0.411896
0.496185 0.651337 0.469788
0.656403 0.644592 0.491638
0.813965 0.630951 0.501129
0.911774 0.616028 0.512482
0.024048 0.719910 0.377991
0.048706 0.745453 0.419128
0.244171 0.762024 0.398590
0.504028 0.790070 0.471802
0.703979 0.801056 0.497772
0.817047 0.782928 0.511322
0.920197 0.784088 0.530060
0.038391 0.840393 0.363129
0.059540 0.858398 0.403015
0.223907 0.875366 0.386749
0.513855 0.893951 0.475372
0.727295 0.908844 0.491364
0.866455 0.911438 0.514130
0.923798 0.889740 0.527710
0.070953 0.143616 0.517761
0.087769 0.103821 0.516113
0.213593 0.117554 0.541931
0.361115 0.130707 0.555450
0.579681 0.152802 0.625702
0.745026 0.168365 0.681305
0.858643 0.191803 0.726929
0.077545 0.231354 0.527832
0.137451 0.236053 0.546875
0.236328 0.205994 0.560089
0.390015 0.219574 0.575745
0.603729 0.235901 0.644653
0.762329 0.257599 0.698120
0.873566 0.281738 0.745148
0.071411 0.353271 0.541077
0.136658 0.360474 0.557373
0.269653 0.344910 0.582397
0.426727 0.352997 0.600616
0.623322 0.364441 0.660400
0.778259 0.389099 0.714966
0.885620 0.413788 0.764130
0.055481 0.492950 0.548370
0.124573 0.496582 0.561340
0.298370 0.511871 0.595154
0.456482 0.505096 0.619598
0.636841 0.516418 0.669189
0.794312 0.540405 0.720764
0.900970 0.563477 0.766449
0.050415 0.603882 0.526550
0.087616 0.621094 0.552277
0.281525 0.643158 0.599487
0.461395 0.659912 0.617401
0.662231 0.674500 0.656219
0.818512 0.676300 0.688171
0.919373 0.679230 0.718475
0.053406 0.722382 0.513824
0.069885 0.740753 0.541199
0.269379 0.759705 0.586060
0.449158 0.783875 0.595886
0.690247 0.813873 0.658752
0.823242 0.807373 0.679108
0.926270 0.806030 0.697601
0.064880 0.839905 0.521210
0.078796 0.852173 0.544220
0.254669 0.874084 0.593994
0.439636 0.888916 0.586365
0.701111 0.911346 0.665680
0.860962 0.918335 0.691681
0.928680 0.906311 0.701538
0.113861 0.168182 0.666840
0.111603 0.117493 0.658997
0.220001 0.127625 0.686035
0.360107 0.141205 0.708496
0.513275 0.155701 0.718658
0.712799 0.177368 0.773102
0.860626 0.198456 0.838501
0.121704 0.258179 0.677582
0.160156 0.260040 0.691925
0.242157 0.217346 0.703888
0.386597 0.230804 0.727966
0.545898 0.245911 0.741577
0.738220 0.266724 0.790924
0.878815 0.284027 0.858032
0.117493 0.381104 0.691681
0.161316 0.386749 0.703613
0.309479 0.396484 0.737701
0.418365 0.364838 0.749573
0.585480 0.378235 0.768250
0.767700 0.390442 0.816986
0.893036 0.413116 0.875702
0.097961 0.523834 0.708588
0.143158 0.525299 0.716492
0.313263 0.539490 0.749542
0.459930 0.524811 0.771912
0.619537 0.529755 0.787292
0.788666 0.537537 0.837738
0.902130 0.561493 0.890808
0.101685 0.657471 0.703644
0.113037 0.668274 0.719116
0.302643 0.677917 0.750244
0.487366 0.690735 0.782410
0.650909 0.683624 0.803864
0.807526 0.681122 0.832825
0.914856 0.702423 0.877411
0.096039 0.746094 0.669098
0.104950 0.755859 0.683777
0.274445 0.782379 0.739899
0.471283 0.802002 0.787109
0.652954 0.819183 0.802216
0.828583 0.829742 0.837860
0.932404 0.838562 0.868652
0.098755 0.843048 0.658508
0.106415 0.848206 0.668976
0.250183 0.875183 0.733429
0.465790 0.887787 0.772430
0.642273 0.904510 0.781708
0.851593 0.926178 0.843750
0.934418 0.921600 0.860352
0.158356 0.194794 0.803009
0.156342 0.162659 0.798279
0.231659 0.136688 0.814636
0.361816 0.153534 0.839783
0.510498 0.167053 0.859863
0.665771 0.182648 0.870819
0.816864 0.200958 0.897522
0.166595 0.286835 0.813934
0.184601 0.285126 0.822174
0.252411 0.227631 0.831238
0.386627 0.244263 0.857269
0.539459 0.257996 0.878662
0.699432 0.273651 0.894623
0.839111 0.291229 0.914398
0.165009 0.410950 0.828217
0.187378 0.414368 0.834015
0.334839 0.432037 0.869080
0.417572 0.378021 0.876984
0.573853 0.390778 0.899200
0.732697 0.405365 0.914764
0.863281 0.417572 0.934875
0.143738 0.551208 0.846130
0.165100 0.551880 0.848999
0.332031 0.567322 0.880524
0.500977 0.580750 0.907257
0.608887 0.541870 0.917816
0.764587 0.554749 0.932098
0.884430 0.558167 0.956512
0.144073 0.691223 0.855652
0.147552 0.694763 0.860596
0.318787 0.707245 0.891754
0.498718 0.718964 0.917908
0.667877 0.718658 0.936981
0.793793 0.705688 0.950867
0.896210 0.710480 0.974396
0.154114 0.801453 0.842560
0.155304 0.802612 0.844482
0.295013 0.823517 0.888000
0.488098 0.831573 0.917450
0.674133 0.840515 0.946533
0.825897 0.843384 0.962524
0.918243 0.833527 0.963104
0.144043 0.856995 0.802612
0.144287 0.857330 0.803040
0.248932 0.889374 0.869293
0.466064 0.899200 0.907013
0.660431 0.913177 0.945007
0.820404 0.928345 0.956360
0.939972 0.935760 0.983917
