colors/灰绿色调-f.CUBE
#Created by: Adobe Photoshop Export Color Lookup Plugin
TITLE "多场景样片-v1.0.psd"
#LUT size
LUT_3D_SIZE 4
#data domain
DOMAIN_MIN 0.0 0.0 0.0
DOMAIN_MAX 1.0 1.0 1.0
#LUT data points
0.000000 0.062134 0.000000
0.292114 0.068878 0.048279
0.671265 0.090118 0.101898
0.890228 0.124939 0.171478
0.000000 0.295288 0.000000
0.308258 0.294312 0.026062
0.694885 0.247101 0.011475
0.907623 0.219360 0.004150
0.000000 0.649109 0.000000
0.412048 0.672180 0.000000
0.719147 0.629791 0.000000
0.945099 0.621399 0.000000
0.000000 0.910675 0.000000
0.463470 0.937347 0.000000
0.859589 0.945221 0.000000
0.961029 0.904510 0.000000
0.010620 0.102600 0.257080
0.282043 0.103119 0.326263
0.649811 0.152008 0.443542
0.887817 0.202393 0.534576
0.003754 0.323822 0.268616
0.316071 0.350555 0.327087
0.704315 0.349457 0.387512
0.927277 0.380402 0.458527
0.000366 0.633942 0.261688
0.346497 0.687012 0.325531
0.721558 0.680145 0.368896
0.948303 0.662018 0.388245
0.011475 0.893463 0.164307
0.358337 0.924927 0.318604
0.821716 0.945709 0.367310
0.958496 0.924561 0.386902
0.087524 0.153351 0.577942
0.242889 0.124603 0.604462
0.635986 0.162781 0.686157
0.906006 0.205505 0.798279
0.086731 0.391205 0.604797
0.313110 0.389038 0.651978
0.693787 0.403198 0.733002
0.930908 0.455811 0.838379
0.067963 0.663300 0.583862
0.317932 0.706329 0.665924
0.734406 0.741425 0.730988
0.959930 0.752014 0.798340
0.084961 0.891907 0.580536
0.289551 0.922638 0.664825
0.775208 0.953827 0.746033
0.968719 0.951569 0.779785
0.182159 0.212219 0.869812
0.261383 0.146210 0.881683
0.569244 0.180420 0.930420
0.863770 0.214691 0.955170
0.188477 0.456360 0.897491
0.376465 0.480377 0.937836
0.639160 0.433655 0.969421
0.908722 0.458893 0.991913
0.171783 0.754791 0.921967
0.355957 0.775299 0.962341
0.751282 0.797546 0.992157
0.942841 0.777618 0.992157
0.170349 0.903778 0.871674
0.277618 0.933746 0.939789
0.728729 0.951904 0.992157
0.978577 0.972015 0.992157
