colors/灰绿色调-f.CUBE
#Created by: Adobe Photoshop Export Color Lookup Plugin
TITLE "多场景样片-v1.0.psd"
#LUT size
LUT_3D_SIZE 34
#data domain
DOMAIN_MIN 0.0 0.0 0.0
DOMAIN_MAX 1.0 1.0 1.0
#LUT data points
0.000000 0.062134 0.000000
0.000000 0.065033 0.002502
0.013824 0.064423 0.008087
0.040436 0.064056 0.013245
0.068359 0.063721 0.017395
0.097046 0.063599 0.022186
0.127899 0.064484 0.026855
0.159241 0.065430 0.031403
0.191650 0.066223 0.035767
0.224548 0.067108 0.040344
0.258636 0.067657 0.044312
0.292114 0.068878 0.048279
0.326324 0.069946 0.052246
0.360779 0.071899 0.057892
0.395966 0.074432 0.064331
0.430969 0.076416 0.068817
0.466705 0.078735 0.074799
0.501831 0.080597 0.079071
0.537659 0.082703 0.084503
0.572571 0.084473 0.088837
0.606506 0.086395 0.093414
0.639343 0.088196 0.097229
0.671265 0.090118 0.101898
0.701569 0.092102 0.106140
0.729980 0.094208 0.110352
0.756042 0.096436 0.114655
0.780518 0.098907 0.119812
0.802673 0.101654 0.125061
0.822876 0.104675 0.131592
0.840271 0.108093 0.138550
0.855621 0.111694 0.145264
0.868683 0.115631 0.152924
0.880219 0.120117 0.162109
0.890228 0.124939 0.171478
0.000000 0.071930 0.000000
0.000000 0.071838 0.001495
0.013855 0.070160 0.003601
0.039886 0.067627 0.005554
0.067444 0.065887 0.008881
0.096558 0.065094 0.011932
0.127045 0.063629 0.016296
0.158325 0.064453 0.020844
0.190674 0.065247 0.024719
0.223511 0.065918 0.029022
0.257263 0.066895 0.032776
0.291107 0.067780 0.036957
0.325195 0.068726 0.040527
0.359558 0.069611 0.044189
0.394684 0.070435 0.047424
0.430054 0.071075 0.050995
0.465515 0.072083 0.053986
0.500854 0.073181 0.057037
0.536682 0.074249 0.061127
0.571350 0.076080 0.065247
0.605591 0.077606 0.068787
0.638458 0.079529 0.073334
0.670166 0.081421 0.077454
0.700562 0.083221 0.081543
0.729218 0.085266 0.085663
0.755554 0.087372 0.090271
0.779877 0.089600 0.094543
0.802032 0.092316 0.100006
0.822235 0.095337 0.106049
0.839661 0.098480 0.112305
0.855011 0.102264 0.119873
0.868286 0.106110 0.127747
0.879669 0.110168 0.135498
0.889618 0.114929 0.145081
0.000000 0.087006 0.000000
0.000000 0.086456 0.001617
0.013519 0.086700 0.005035
0.041290 0.083374 0.006256
0.068481 0.080292 0.007629
0.097260 0.077057 0.009216
0.127502 0.073212 0.010284
0.158234 0.069824 0.011078
0.189636 0.067413 0.012451
0.222412 0.066376 0.015015
0.255585 0.067108 0.017914
0.289520 0.067322 0.020844
0.323883 0.067780 0.024261
0.358032 0.068481 0.027100
0.393158 0.069031 0.030182
0.428345 0.069672 0.033081
0.463867 0.070374 0.035645
0.499176 0.071045 0.038025
0.534729 0.071747 0.040588
0.569794 0.072296 0.043304
0.604126 0.072968 0.045807
0.636871 0.073883 0.047882
0.668884 0.074799 0.050293
0.699188 0.075745 0.052826
0.727966 0.076752 0.055756
0.754181 0.078125 0.058563
0.778687 0.079742 0.062378
0.800903 0.081818 0.066437
0.821198 0.083984 0.071625
0.838898 0.086365 0.076874
0.854065 0.088989 0.082306
0.867615 0.092316 0.090149
0.879089 0.096222 0.097809
0.889008 0.100830 0.107056
0.000000 0.103851 0.000000
0.000000 0.105255 0.003052
0.014893 0.102661 0.005615
0.041840 0.102539 0.008575
0.070312 0.099579 0.009186
0.099335 0.095612 0.010345
0.129486 0.091888 0.010559
0.159882 0.088226 0.011780
0.191772 0.084320 0.011993
0.223328 0.080963 0.013214
0.256683 0.077576 0.013367
0.289978 0.075134 0.013519
0.323547 0.073334 0.013367
0.357391 0.071838 0.013611
0.391754 0.070404 0.013947
0.427002 0.069916 0.015411
0.462463 0.070251 0.016907
0.497833 0.070343 0.018372
0.533142 0.070831 0.020508
0.568298 0.071259 0.022491
0.602386 0.071533 0.023682
0.635284 0.072205 0.025940
0.667236 0.072998 0.027985
0.697571 0.074280 0.029968
0.726349 0.075226 0.032745
0.752899 0.076385 0.035400
0.777496 0.077759 0.038574
0.799744 0.079376 0.042175
0.819946 0.081055 0.045807
0.837677 0.083038 0.050232
0.853149 0.085205 0.055206
0.866638 0.087402 0.060791
0.878357 0.089783 0.067200
0.888306 0.092468 0.073822
0.000000 0.122284 0.000000
0.000000 0.125488 0.002594
0.021393 0.125763 0.006744
0.042328 0.121765 0.009644
0.071228 0.120911 0.011780
0.101074 0.117706 0.011749
0.131836 0.113373 0.012878
0.162994 0.109436 0.013489
0.194855 0.105499 0.014221
0.227203 0.101776 0.014496
0.259705 0.098206 0.014709
0.292908 0.094391 0.015106
0.326385 0.090912 0.014526
0.360016 0.087555 0.013397
0.394409 0.084564 0.013062
0.428894 0.082458 0.011871
0.463776 0.080536 0.010651
0.498749 0.078308 0.009491
0.533447 0.076416 0.007141
0.567596 0.074646 0.005707
0.601227 0.072662 0.003693
0.633820 0.071808 0.003143
0.665619 0.072357 0.003937
0.696106 0.072937 0.005524
0.724945 0.074036 0.007538
0.751373 0.075043 0.009705
0.776093 0.076111 0.012085
0.798431 0.077576 0.014801
0.818787 0.079163 0.019104
0.836548 0.081238 0.023315
0.852081 0.083344 0.028107
0.865601 0.085541 0.033783
0.877441 0.088013 0.039764
0.887390 0.090607 0.046082
0.000000 0.142365 0.000000
0.000610 0.146118 0.002441
0.024994 0.147278 0.007477
0.044800 0.142242 0.009247
0.070587 0.142334 0.012421
0.101715 0.141571 0.014587
0.133759 0.137848 0.013794
0.165527 0.133423 0.014587
0.196747 0.129852 0.015869
0.229889 0.125549 0.016388
0.263184 0.121338 0.016571
0.296509 0.117401 0.016449
0.330139 0.113647 0.016632
0.363556 0.110321 0.016113
0.398041 0.106293 0.015198
0.432465 0.102631 0.013885
0.467499 0.098785 0.011902
0.502014 0.095459 0.010834
0.537109 0.093048 0.009033
0.571106 0.090881 0.006256
0.604675 0.088776 0.003906
0.636963 0.086792 0.001312
0.668335 0.084808 0.000061
0.697906 0.082886 0.000000
0.725861 0.081085 0.000000
0.751801 0.079559 0.000000
0.775787 0.078033 0.000000
0.797516 0.077026 0.000061
0.817657 0.077881 0.000305
0.835602 0.079437 0.000427
0.851318 0.081543 0.000732
0.864868 0.083710 0.003815
0.876526 0.086121 0.010193
0.886536 0.088654 0.016388
0.000000 0.164917 0.000000
0.001892 0.168030 0.001770
0.029144 0.171692 0.006287
0.055237 0.171753 0.010132
0.073639 0.163818 0.012115
0.101318 0.164429 0.015533
0.133698 0.163483 0.017212
0.167206 0.159760 0.016449
0.199677 0.155640 0.016937
0.232880 0.151184 0.017639
0.266174 0.147308 0.017792
0.299835 0.143005 0.017944
0.333649 0.138916 0.018280
0.367462 0.135193 0.017517
0.401855 0.130981 0.017029
0.436646 0.127441 0.015747
0.471619 0.123016 0.014832
0.505951 0.119537 0.013428
0.540497 0.115875 0.011841
0.575928 0.111481 0.008179
0.608856 0.108276 0.006470
0.640900 0.105560 0.004059
0.672363 0.103424 0.001617
0.701904 0.101410 0.000000
0.730225 0.099609 0.000000
0.755829 0.098053 0.000000
0.779755 0.096466 0.000000
0.801544 0.094971 0.000000
0.821320 0.093842 0.000000
0.838409 0.092957 0.000000
0.853485 0.092285 0.000000
0.866394 0.091980 0.000000
0.877594 0.091614 0.000000
0.886963 0.091888 0.000000
0.000000 0.188354 0.000000
0.001343 0.192017 0.000946
0.030396 0.196533 0.003540
0.061371 0.197510 0.010437
0.086975 0.197601 0.011292
0.103516 0.186829 0.014313
0.133698 0.187927 0.018005
0.166809 0.187103 0.019562
0.201996 0.183380 0.018219
0.235657 0.179077 0.018250
0.268829 0.174896 0.019135
0.302399 0.170715 0.019287
0.337006 0.166107 0.019714
0.370972 0.161987 0.019684
0.405457 0.158051 0.018707
0.440094 0.153839 0.018372
0.475494 0.149628 0.016968
0.510132 0.145569 0.015839
0.545593 0.141602 0.013306
0.579865 0.137604 0.011078
0.612701 0.134186 0.010010
0.645020 0.130524 0.007782
0.676392 0.127167 0.004852
0.706360 0.123718 0.001678
0.734650 0.120789 0.000000
0.760254 0.118408 0.000000
0.783875 0.116302 0.000000
0.805481 0.114929 0.000000
0.825378 0.113464 0.000000
0.842285 0.112610 0.000000
0.857269 0.111511 0.000000
0.870178 0.110870 0.000000
0.881165 0.110382 0.000000
0.890564 0.110107 0.000000
0.000000 0.213440 0.000000
0.001801 0.216553 0.000671
0.031158 0.221283 0.002808
0.063904 0.224701 0.007202
0.093781 0.225342 0.011475
0.113831 0.219177 0.012756
0.135132 0.211304 0.015686
0.166901 0.212860 0.020203
0.200806 0.212128 0.022278
0.236633 0.208527 0.020386
0.271729 0.204193 0.020050
0.305603 0.199799 0.020355
0.340179 0.195312 0.020416
0.374329 0.191223 0.020538
0.409302 0.186859 0.020264
0.444000 0.182465 0.019714
0.479156 0.178253 0.018555
0.514282 0.174103 0.017273
0.549896 0.169769 0.015137
0.583893 0.165619 0.014252
0.617676 0.161621 0.011719
0.650635 0.157715 0.008850
0.681671 0.154297 0.006958
0.710876 0.151123 0.005188
0.738342 0.148285 0.002991
0.764008 0.145599 0.001068
0.788971 0.141846 0.000000
0.810577 0.139252 0.000000
0.829712 0.137207 0.000000
0.846863 0.134949 0.000000
0.861542 0.133514 0.000000
0.874268 0.132446 0.000000
0.885071 0.132019 0.000000
0.894440 0.131561 0.000000
0.000000 0.239288 0.000000
0.001984 0.242462 0.000000
0.031494 0.247437 0.001343
0.065430 0.252075 0.003937
0.098419 0.252777 0.012024
0.126404 0.253784 0.012177
0.139435 0.238525 0.014343
0.167877 0.236755 0.017792
0.201050 0.239044 0.022369
0.236176 0.238007 0.024109
0.273315 0.234680 0.021942
0.308441 0.230530 0.020813
0.342896 0.226166 0.020935
0.377136 0.221924 0.021454
0.412109 0.217621 0.021332
0.447723 0.212830 0.020355
0.482849 0.208374 0.019684
0.518463 0.203827 0.018494
0.553864 0.199524 0.016541
0.588379 0.195343 0.014496
0.621704 0.191132 0.014038
0.654785 0.187042 0.011108
0.685394 0.183899 0.009583
0.715698 0.180115 0.007019
0.743164 0.177216 0.005188
0.769989 0.173615 0.001984
0.793365 0.170746 0.000336
0.814545 0.168488 0.000000
0.833618 0.165985 0.000000
0.850220 0.164246 0.000000
0.864746 0.162689 0.000000
0.878418 0.160309 0.000000
0.890259 0.157898 0.000153
0.899261 0.156708 0.000244
0.000000 0.266388 0.000000
0.001587 0.269867 0.000000
0.032166 0.274597 0.000061
0.066162 0.279449 0.002197
0.101990 0.282410 0.006866
0.133636 0.282837 0.011932
0.161652 0.283295 0.012421
0.173248 0.265747 0.015259
0.202393 0.263733 0.019135
0.236298 0.265869 0.023712
0.272034 0.265594 0.025360
0.308716 0.262512 0.023590
0.345428 0.258270 0.021576
0.380890 0.253815 0.020874
0.416199 0.249542 0.020233
0.451904 0.244690 0.019684
0.486633 0.240021 0.020508
0.522522 0.235474 0.018585
0.557281 0.231110 0.018555
0.592834 0.226715 0.015594
0.625763 0.222534 0.015228
0.658752 0.218475 0.012909
0.690857 0.214508 0.010132
0.719940 0.211456 0.009003
0.748260 0.207550 0.005981
0.773621 0.204681 0.004974
0.797028 0.202118 0.004211
0.819489 0.198669 0.001312
0.838470 0.196808 0.000671
0.856323 0.193604 0.000031
0.870758 0.192047 0.000000
0.883087 0.190704 0.000061
0.893890 0.189056 0.001038
0.902679 0.188080 0.003052
0.000000 0.295288 0.000000
0.001953 0.297729 0.000000
0.031921 0.302765 0.000000
0.067688 0.307373 0.000214
0.104675 0.311737 0.002686
0.138977 0.311859 0.011139
0.170105 0.313599 0.012115
0.196442 0.311951 0.011963
0.206177 0.291870 0.016327
0.237762 0.291412 0.020203
0.272034 0.293884 0.024597
0.308258 0.294312 0.026062
0.345154 0.291016 0.024750
0.382935 0.286896 0.021729
0.418610 0.282684 0.021118
0.454285 0.277924 0.020569
0.489990 0.273285 0.019989
0.526062 0.268463 0.018921
0.561584 0.263947 0.017975
0.596527 0.259583 0.016327
0.629913 0.255310 0.015747
0.663605 0.250885 0.012604
0.694885 0.247101 0.011475
0.723999 0.243805 0.010376
0.752533 0.240295 0.007874
0.778564 0.237030 0.005371
0.802246 0.233795 0.004425
0.823669 0.231140 0.003326
0.843170 0.228699 0.001678
0.859619 0.226715 0.001770
0.874481 0.224365 0.001923
0.886780 0.222778 0.003235
0.897980 0.220795 0.003723
0.907623 0.219360 0.004150
0.000000 0.324310 0.000000
0.001587 0.326263 0.000000
0.032806 0.331299 0.000000
0.068329 0.336212 0.000000
0.105621 0.340851 0.000000
0.142578 0.343292 0.004425
0.176514 0.343536 0.011261
0.207062 0.345306 0.010620
0.228271 0.337494 0.011719
0.240631 0.319611 0.017090
0.273407 0.320160 0.020264
0.308289 0.322571 0.024597
0.343933 0.323242 0.027649
0.382233 0.320557 0.024841
0.420349 0.316681 0.021729
0.457764 0.312378 0.019073
0.493866 0.307587 0.018524
0.529938 0.302979 0.017517
0.565582 0.298004 0.016937
0.600342 0.293823 0.016052
0.634216 0.289337 0.014832
0.667480 0.285187 0.013000
0.698914 0.281250 0.011932
0.728607 0.277679 0.010162
0.757019 0.273804 0.008026
0.782410 0.270752 0.006866
0.806061 0.267853 0.005920
0.828339 0.264587 0.003693
0.847168 0.261993 0.003418
0.864227 0.259857 0.002625
0.879272 0.257385 0.002258
0.891571 0.255890 0.003418
0.902344 0.254425 0.005005
0.911438 0.252869 0.006592
0.000000 0.354370 0.000000
0.000458 0.356140 0.000000
0.032318 0.360474 0.000000
0.069061 0.365326 0.000000
0.106262 0.370056 0.000000
0.144196 0.375092 0.000000
0.182037 0.374390 0.007324
0.214355 0.375702 0.009369
0.245117 0.377289 0.008514
0.260345 0.363342 0.011139
0.276276 0.348175 0.016327
0.309784 0.349121 0.019928
0.345184 0.351593 0.024231
0.380737 0.352875 0.028046
0.419617 0.350098 0.025146
0.457458 0.346802 0.021881
0.496521 0.342560 0.018158
0.533508 0.337921 0.016357
0.568970 0.333221 0.016052
0.603699 0.328735 0.015198
0.638306 0.324219 0.013763
0.671173 0.320160 0.012329
0.702850 0.316223 0.011108
0.733154 0.312195 0.009155
0.760620 0.308868 0.008636
0.786560 0.305420 0.006653
0.811096 0.302032 0.004486
0.832306 0.299133 0.004059
0.851196 0.297089 0.004120
0.868408 0.294312 0.003143
0.882629 0.292450 0.004517
0.895416 0.290527 0.004547
0.906616 0.288727 0.005188
0.915344 0.287415 0.008087
0.000000 0.385010 0.000000
0.000000 0.385773 0.000000
0.031921 0.390411 0.000000
0.068909 0.394836 0.000000
0.106781 0.399933 0.000000
0.145386 0.404938 0.000000
0.184723 0.406403 0.000946
0.221191 0.406372 0.006897
0.253143 0.408447 0.006409
0.284027 0.409698 0.005951
0.291626 0.388336 0.009979
0.312561 0.377350 0.015076
0.346832 0.378601 0.018860
0.382446 0.381042 0.023132
0.418427 0.383240 0.027313
0.456757 0.380524 0.024597
0.496429 0.377350 0.020386
0.535309 0.373444 0.016113
0.571838 0.368896 0.014679
0.607697 0.364441 0.012909
0.642456 0.360016 0.011383
0.674805 0.356110 0.010956
0.706848 0.352081 0.008850
0.736816 0.348328 0.007538
0.764069 0.344635 0.007996
0.791229 0.340759 0.004517
0.814728 0.337952 0.004211
0.835480 0.335358 0.004639
0.855682 0.332367 0.002563
0.873016 0.329651 0.002075
0.887329 0.327301 0.002899
0.899353 0.325897 0.004517
0.909851 0.324707 0.006409
0.918488 0.323090 0.009888
0.000000 0.416534 0.000000
0.000000 0.416992 0.000000
0.030914 0.420807 0.000000
0.068848 0.425537 0.000000
0.107727 0.430328 0.000000
0.146973 0.435028 0.000000
0.187195 0.438995 0.000000
0.225769 0.438416 0.001526
0.260498 0.439606 0.003418
0.292450 0.441650 0.002533
0.323944 0.442780 0.000824
0.322296 0.412415 0.008301
0.348969 0.406738 0.013092
0.384216 0.408539 0.016846
0.420532 0.410980 0.020844
0.456268 0.413635 0.024750
0.495270 0.411285 0.022369
0.533997 0.408356 0.018738
0.572906 0.404663 0.014374
0.611267 0.400574 0.009613
0.645599 0.396027 0.009308
0.678528 0.392120 0.008331
0.710938 0.388123 0.006134
0.740601 0.384094 0.005554
0.767975 0.380676 0.006226
0.795166 0.377289 0.002808
0.818176 0.374054 0.002625
0.839539 0.370972 0.002716
0.860229 0.368073 0.000427
0.876251 0.365906 0.001434
0.890594 0.364197 0.002319
0.902618 0.362457 0.004761
0.914398 0.360229 0.004242
0.922913 0.358948 0.007477
0.000000 0.448486 0.000000
0.000000 0.448303 0.000000
0.029633 0.452118 0.000000
0.068390 0.456116 0.000000
0.107880 0.460510 0.000000
0.148102 0.465454 0.000000
0.189117 0.469879 0.000000
0.229553 0.472229 0.000000
0.267517 0.471863 0.000458
0.300293 0.473236 0.000000
0.332977 0.475281 0.000000
0.361816 0.474121 0.000092
0.356232 0.439941 0.005463
0.385834 0.436584 0.010254
0.422211 0.438782 0.013855
0.458649 0.441376 0.017426
0.495056 0.444153 0.021240
0.533691 0.443085 0.019501
0.572296 0.439941 0.016327
0.610504 0.436523 0.011719
0.647827 0.432617 0.007111
0.682526 0.428741 0.004517
0.714752 0.424927 0.002106
0.744415 0.421143 0.001923
0.772797 0.417480 0.000916
0.798462 0.414124 0.001129
0.822327 0.411102 0.000000
0.844208 0.407990 0.000000
0.863251 0.405487 0.000336
0.879730 0.403198 0.000275
0.893860 0.400787 0.001465
0.906891 0.398895 0.001495
0.917694 0.397125 0.002655
0.926849 0.395721 0.004822
0.000000 0.481049 0.000000
0.000000 0.480499 0.000000
0.027679 0.482849 0.000000
0.067474 0.487427 0.000000
0.107788 0.492218 0.000000
0.148651 0.496429 0.000000
0.190399 0.501068 0.000000
0.231812 0.504791 0.000000
0.271973 0.505066 0.000000
0.308105 0.505066 0.000000
0.341003 0.507050 0.000000
0.373016 0.508606 0.000000
0.397583 0.502747 0.000000
0.391266 0.468140 0.002716
0.423462 0.467041 0.006073
0.460175 0.469360 0.009491
0.497131 0.471893 0.013123
0.533905 0.474487 0.017090
0.572479 0.474731 0.015564
0.609772 0.471741 0.012939
0.647552 0.468597 0.008179
0.683289 0.465332 0.003510
0.717438 0.462097 0.000000
0.748047 0.458069 0.000000
0.776459 0.454529 0.000000
0.802216 0.451233 0.000000
0.826691 0.448303 0.000000
0.847839 0.445251 0.000000
0.866272 0.442413 0.000000
0.883759 0.440033 0.000000
0.898376 0.437714 0.000000
0.910797 0.435974 0.000000
0.921051 0.434387 0.000824
0.929565 0.432953 0.004303
0.000000 0.514374 0.000000
0.000000 0.513428 0.000000
0.024841 0.515106 0.000000
0.066223 0.518921 0.000000
0.107666 0.523224 0.000000
0.148895 0.527954 0.000000
0.191315 0.532440 0.000000
0.233551 0.536835 0.000000
0.275055 0.538940 0.000000
0.314240 0.537659 0.000000
0.349213 0.539307 0.000000
0.382202 0.541229 0.000000
0.413879 0.542053 0.000000
0.433929 0.532166 0.000000
0.428406 0.498566 0.000000
0.461792 0.497833 0.001495
0.498779 0.500336 0.003754
0.535858 0.502869 0.007660
0.572571 0.505463 0.011597
0.608643 0.506073 0.013397
0.646423 0.504272 0.008911
0.683044 0.501801 0.003693
0.717255 0.498505 0.000000
0.749664 0.495575 0.000000
0.779724 0.492218 0.000000
0.805786 0.488861 0.000000
0.830200 0.485596 0.000000
0.850769 0.483032 0.000000
0.870483 0.480286 0.000000
0.887421 0.477600 0.000000
0.901825 0.475494 0.000000
0.913666 0.473816 0.000000
0.923828 0.472412 0.000000
0.934387 0.470428 0.000000
0.000000 0.547699 0.000000
0.000000 0.546783 0.000000
0.021179 0.547333 0.000000
0.064514 0.550903 0.000000
0.107086 0.554932 0.000000
0.149353 0.559448 0.000000
0.192291 0.562988 0.000000
0.235229 0.568176 0.000000
0.277924 0.571899 0.000000
0.318756 0.571625 0.000000
0.357086 0.571716 0.000000
0.390717 0.573486 0.000000
0.424347 0.575378 0.000000
0.455353 0.575623 0.000000
0.470703 0.561279 0.000000
0.466675 0.529205 0.000000
0.500458 0.528900 0.000000
0.537598 0.531311 0.000061
0.574341 0.533844 0.000610
0.610657 0.536255 0.004211
0.645752 0.538666 0.006775
0.681915 0.537018 0.003082
0.716339 0.534515 0.000824
0.749359 0.531921 0.000000
0.779633 0.528961 0.000000
0.807770 0.526001 0.000000
0.833313 0.523529 0.000000
0.854279 0.520569 0.000000
0.873749 0.518005 0.000000
0.890930 0.515656 0.000000
0.904755 0.513550 0.000000
0.917114 0.511688 0.000000
0.929047 0.509766 0.000000
0.937531 0.508057 0.000000
0.000000 0.582031 0.000000
0.000000 0.581055 0.000000
0.016815 0.579468 0.000000
0.062012 0.582977 0.000000
0.106262 0.586945 0.000000
0.148865 0.591309 0.000000
0.192871 0.595703 0.000000
0.236298 0.599701 0.000000
0.280060 0.604401 0.000000
0.322479 0.606171 0.000000
0.363251 0.606018 0.000000
0.399139 0.606232 0.000000
0.432922 0.608093 0.000000
0.466522 0.609924 0.000000
0.498138 0.609894 0.000000
0.508759 0.591888 0.000000
0.505035 0.560181 0.000000
0.539307 0.560272 0.000000
0.576355 0.562775 0.000000
0.612335 0.565308 0.000000
0.647858 0.567841 0.000000
0.681824 0.570251 0.000641
0.716187 0.570282 0.000000
0.748901 0.568054 0.000000
0.779236 0.565704 0.000000
0.807312 0.563477 0.000000
0.833282 0.560730 0.000000
0.856628 0.558594 0.000000
0.877289 0.556122 0.000000
0.893890 0.553925 0.000000
0.908997 0.551575 0.000000
0.920807 0.549622 0.000000
0.931824 0.548004 0.000000
0.940277 0.546570 0.000000
0.000000 0.615631 0.000000
0.000000 0.614960 0.000000
0.013458 0.611847 0.000000
0.059052 0.615143 0.000000
0.104645 0.618805 0.000000
0.148224 0.623413 0.000000
0.193054 0.627167 0.000000
0.237427 0.631317 0.000000
0.281677 0.635773 0.000000
0.325104 0.639740 0.000000
0.367218 0.639069 0.000000
0.406769 0.638336 0.000000
0.441559 0.640167 0.000000
0.475647 0.641968 0.000000
0.509552 0.643890 0.000000
0.540375 0.643463 0.000000
0.546967 0.621979 0.000000
0.543579 0.591125 0.000000
0.578278 0.591461 0.000000
0.614441 0.594025 0.000000
0.649872 0.596497 0.000000
0.684021 0.598816 0.000000
0.716705 0.601288 0.000000
0.747681 0.602264 0.000000
0.778839 0.601227 0.000000
0.806580 0.599182 0.000000
0.832855 0.597260 0.000000
0.856262 0.595337 0.000000
0.877594 0.593170 0.000000
0.894684 0.590820 0.000000
0.910950 0.589264 0.000000
0.923981 0.587494 0.000000
0.934418 0.585754 0.000000
0.943390 0.584198 0.000000
0.000000 0.649109 0.000000
0.000000 0.648590 0.000000
0.009033 0.645569 0.000000
0.055328 0.647552 0.000000
0.102905 0.650482 0.000000
0.148499 0.654175 0.000000
0.193420 0.658661 0.000000
0.238617 0.662476 0.000000
0.283569 0.667328 0.000000
0.327454 0.671021 0.000000
0.371307 0.673309 0.000000
0.412048 0.672180 0.000000
0.450684 0.672028 0.000000
0.484650 0.673737 0.000000
0.519073 0.675629 0.000000
0.552948 0.677582 0.000000
0.583130 0.676544 0.000000
0.585938 0.652679 0.000000
0.582581 0.622192 0.000000
0.616638 0.622711 0.000000
0.652100 0.625183 0.000000
0.686310 0.627502 0.000000
0.719147 0.629791 0.000000
0.749939 0.632141 0.000000
0.778900 0.634521 0.000000
0.806671 0.634277 0.000000
0.832947 0.632874 0.000000
0.855988 0.631134 0.000000
0.877228 0.629425 0.000000
0.894958 0.627686 0.000000
0.910736 0.625946 0.000000
0.924042 0.624054 0.000000
0.935638 0.622772 0.000000
0.945099 0.621399 0.000000
0.000000 0.680389 0.000000
0.000000 0.680206 0.000000
0.004791 0.677551 0.000000
0.050262 0.678436 0.000000
0.099487 0.681946 0.000000
0.147308 0.685516 0.000000
0.193726 0.689362 0.000000
0.239502 0.693604 0.000000
0.285004 0.697296 0.000000
0.329498 0.701538 0.000000
0.374390 0.704803 0.000000
0.416840 0.704865 0.000000
0.458160 0.704376 0.000000
0.494202 0.704834 0.000000
0.528442 0.706635 0.000000
0.562744 0.708405 0.000000
0.596436 0.710358 0.000000
0.625214 0.708832 0.000000
0.624451 0.682983 0.000000
0.620728 0.653137 0.000000
0.653992 0.653503 0.000000
0.688385 0.655762 0.000000
0.721222 0.658020 0.000000
0.752167 0.660156 0.000000
0.781250 0.662506 0.000000
0.807922 0.664581 0.000000
0.832336 0.666077 0.000000
0.855927 0.665741 0.000000
0.877106 0.664062 0.000000
0.894440 0.662354 0.000000
0.911255 0.661438 0.000000
0.924561 0.660034 0.000000
0.935669 0.658630 0.000000
0.945923 0.657379 0.000000
0.000000 0.710114 0.000000
0.000000 0.710236 0.000000
0.000000 0.709930 0.000000
0.043945 0.709229 0.000000
0.097290 0.712128 0.000000
0.146606 0.715240 0.000000
0.193268 0.719666 0.000000
0.240143 0.723389 0.000000
0.286530 0.727081 0.000000
0.332062 0.731323 0.000000
0.377472 0.735626 0.000000
0.421539 0.736847 0.000000
0.463593 0.735992 0.000000
0.503143 0.735291 0.000000
0.538177 0.736908 0.000000
0.572327 0.738556 0.000000
0.606171 0.740417 0.000000
0.638916 0.741882 0.000000
0.664734 0.738617 0.000000
0.663300 0.713135 0.000000
0.658356 0.683472 0.000000
0.690491 0.683960 0.000000
0.723358 0.686035 0.000000
0.754456 0.688080 0.000000
0.783661 0.690308 0.000000
0.810181 0.692352 0.000000
0.834595 0.694275 0.000000
0.856628 0.696320 0.000000
0.876678 0.697784 0.000000
0.894196 0.696350 0.000000
0.911652 0.695831 0.000000
0.924530 0.694427 0.000000
0.935822 0.693176 0.000000
0.945892 0.692444 0.000000
0.000000 0.738403 0.000000
0.000000 0.738983 0.000000
0.000000 0.740723 0.000000
0.036072 0.739594 0.000000
0.093079 0.741974 0.000000
0.143860 0.745026 0.000000
0.193268 0.748779 0.000000
0.240845 0.752655 0.000000
0.288300 0.755859 0.000000
0.334167 0.759827 0.000000
0.380371 0.764038 0.000000
0.425354 0.766418 0.000000
0.468811 0.766022 0.000000
0.510345 0.765259 0.000000
0.547607 0.765778 0.000000
0.581909 0.767487 0.000000
0.615997 0.769043 0.000000
0.648804 0.770844 0.000000
0.680573 0.772125 0.000000
0.703339 0.767029 0.000000
0.700745 0.742157 0.000000
0.694824 0.713043 0.000000
0.725647 0.713287 0.000000
0.756775 0.715363 0.000000
0.785767 0.717468 0.000000
0.812500 0.719299 0.000000
0.836945 0.721283 0.000000
0.859009 0.723145 0.000000
0.878876 0.724884 0.000000
0.896027 0.726349 0.000000
0.911072 0.727417 0.000000
0.924683 0.727203 0.000000
