colors/蓝晒-f.CUBE
#Created by: Adobe Photoshop Export Color Lookup Plugin
TITLE "多场景样片-v1.0.psd"
#LUT size
LUT_3D_SIZE 7
#data domain
#LUT data points
DOMAIN_MIN 0.000000 0.000000 0.000000
DOMAIN_MAX 0.909091 0.909091 0.909091
0.022583 0.022064 0.026550
0.022583 0.022064 0.110168
0.049438 0.094299 0.181519
0.131836 0.184814 0.272614
0.232056 0.288269 0.387726
0.339722 0.395477 0.505829
0.460083 0.511414 0.615448
0.022583 0.022064 0.113647
0.022583 0.022064 0.115509
0.062439 0.109039 0.195435
0.147675 0.201599 0.290741
0.247925 0.304382 0.406036
0.356232 0.411591 0.522522
0.478058 0.528412 0.629456
0.069489 0.117065 0.203125
0.073425 0.121429 0.207275
0.078979 0.127716 0.213470
0.166809 0.221588 0.312531
0.267914 0.324371 0.428497
0.377045 0.431793 0.542633
0.501251 0.549805 0.646362
0.171356 0.226227 0.317780
0.176025 0.231110 0.323059
0.181732 0.237030 0.329987
0.189636 0.245026 0.338989
0.289307 0.345581 0.452118
0.400970 0.455017 0.565247
0.527710 0.573853 0.664368
0.289124 0.345398 0.451874
0.294800 0.351074 0.458160
0.299957 0.356232 0.463684
0.307953 0.364166 0.472382
0.316254 0.372345 0.481110
0.427124 0.480225 0.588440
0.556763 0.599884 0.683075
0.418854 0.472321 0.581238
0.424835 0.478027 0.586456
0.431580 0.484375 0.592133
0.440002 0.492462 0.599304
0.449463 0.501556 0.607025
0.458557 0.509888 0.614197
0.587738 0.627075 0.701691
0.568054 0.609833 0.690002
0.574615 0.615631 0.694000
0.581451 0.621582 0.698029
0.590637 0.629547 0.703369
0.601135 0.638794 0.709442
0.614258 0.650024 0.716858
0.623627 0.657959 0.722046
0.022583 0.022064 0.107788
0.022583 0.022064 0.110168
0.049438 0.094299 0.181519
0.131836 0.184814 0.272614
0.232056 0.288269 0.387726
0.339722 0.395477 0.505829
0.460083 0.511414 0.615448
0.022583 0.022064 0.109619
0.041138 0.084625 0.172729
0.088715 0.138306 0.224060
0.179260 0.234497 0.327026
0.285187 0.341705 0.447784
0.404358 0.458405 0.568451
0.541901 0.586731 0.673584
0.065735 0.112762 0.199066
0.094238 0.144409 0.230286
0.098541 0.149231 0.235046
0.191803 0.247498 0.341614
0.300079 0.356323 0.463837
0.421051 0.474365 0.583160
0.560974 0.603638 0.685638
0.168579 0.223389 0.314484
0.196198 0.251892 0.346619
0.200378 0.256226 0.351532
0.205505 0.261444 0.357422
0.316315 0.372437 0.481171
0.440948 0.493347 0.600006
0.583527 0.623352 0.699219
0.289124 0.345398 0.451874
0.317535 0.373596 0.482697
0.322144 0.378296 0.487671
0.327759 0.383789 0.493469
0.334229 0.390015 0.500183
0.460968 0.512390 0.616180
0.608429 0.644836 0.713531
0.418854 0.472321 0.581238
0.457245 0.508881 0.613220
0.463684 0.514893 0.618256
0.469482 0.520386 0.622925
0.477783 0.528046 0.629181
0.485229 0.534973 0.634735
0.634033 0.666901 0.727905
0.568054 0.609833 0.690002
0.621094 0.655853 0.720642
0.628204 0.661896 0.724579
0.635742 0.668365 0.728943
0.645050 0.676300 0.733978
0.654419 0.684418 0.739197
0.662506 0.691162 0.743591
0.034637 0.076965 0.165497
0.040497 0.084015 0.171783
0.049438 0.094299 0.181519
0.131836 0.184814 0.272614
0.232056 0.288269 0.387726
0.339722 0.395477 0.505829
0.460083 0.511414 0.615448
0.046295 0.090668 0.178131
0.084717 0.134003 0.219788
0.088715 0.138306 0.224060
0.179260 0.234497 0.327026
0.285187 0.341705 0.447784
0.404358 0.458405 0.568451
0.541901 0.586731 0.673584
0.061310 0.108002 0.194305
0.091949 0.141815 0.227631
0.216980 0.272919 0.370361
0.258026 0.314453 0.417358
0.355255 0.410583 0.521393
0.483093 0.532806 0.633087
0.637268 0.669586 0.729706
0.157928 0.212372 0.302460
0.191589 0.247131 0.341370
0.262360 0.318970 0.422363
0.267334 0.323853 0.427887
0.367218 0.422394 0.533356
0.498199 0.547180 0.644257
0.654724 0.684509 0.739258
0.278290 0.334778 0.440002
0.314575 0.370758 0.479309
0.369965 0.424927 0.535889
0.374756 0.429657 0.540558
0.379913 0.434753 0.545471
0.515381 0.562866 0.656128
0.675018 0.701752 0.750336
0.410278 0.464020 0.573639
0.457245 0.508881 0.613220
0.513947 0.561584 0.655243
0.519440 0.566315 0.658875
0.526154 0.572632 0.663361
0.532623 0.578400 0.667664
0.694427 0.718353 0.760803
0.560791 0.603485 0.685516
0.621094 0.655853 0.720642
0.687592 0.712463 0.757111
0.694061 0.717926 0.760590
0.700562 0.723480 0.764130
0.708984 0.730743 0.768707
0.715546 0.736267 0.772186
0.101318 0.152069 0.238007
0.108551 0.160095 0.246429
0.118744 0.170929 0.257935
0.131836 0.184814 0.272614
0.232056 0.288269 0.387726
0.339722 0.395477 0.505829
0.460083 0.511414 0.615448
0.116974 0.169098 0.255890
0.167175 0.221863 0.312836
0.172485 0.227386 0.319000
0.179260 0.234497 0.327026
0.285187 0.341705 0.447784
0.404358 0.458405 0.568451
0.541901 0.586731 0.673584
0.131714 0.184631 0.272491
0.175995 0.231049 0.323059
0.254852 0.311401 0.413879
0.258026 0.314453 0.417358
0.355255 0.410583 0.521393
0.483093 0.532806 0.633087
0.637268 0.669586 0.729706
0.154724 0.209076 0.298859
0.186401 0.241852 0.335327
0.260376 0.316895 0.420074
0.408478 0.462433 0.572052
0.462616 0.513733 0.617432
0.585022 0.624664 0.700043
0.740021 0.757111 0.785736
0.266144 0.322632 0.426605
0.303375 0.359619 0.467377
0.365204 0.420380 0.531342
0.466827 0.517731 0.620728
0.472382 0.522980 0.625122
0.598022 0.635986 0.707611
0.753632 0.768982 0.793365
0.397675 0.451935 0.562164
0.444641 0.496857 0.602997
0.510742 0.558350 0.652893
0.599823 0.637573 0.708649
0.605286 0.642273 0.711823
0.611053 0.647308 0.715027
0.768311 0.781830 0.801697
0.547791 0.591827 0.677277
0.610779 0.647034 0.714844
0.687592 0.712463 0.757111
0.765839 0.779480 0.800293
0.770447 0.783661 0.802948
0.776611 0.789062 0.806519
0.781799 0.793518 0.809509
0.187744 0.243103 0.336853
0.195068 0.250702 0.345337
0.204956 0.260864 0.356659
0.217255 0.273285 0.370819
0.232056 0.288269 0.387726
0.339722 0.395477 0.505829
0.460083 0.511414 0.615448
0.205383 0.261353 0.357208
0.262085 0.318665 0.422089
0.268402 0.324860 0.429108
0.276031 0.332520 0.437622
0.285187 0.341705 0.447784
0.404358 0.458405 0.568451
0.541901 0.586731 0.673584
0.220337 0.276520 0.374390
0.275116 0.331604 0.436523
0.345001 0.400665 0.511169
0.349701 0.405151 0.515869
0.355255 0.410583 0.521393
0.483093 0.532806 0.633087
0.637268 0.669586 0.729706
0.237549 0.293915 0.393951
0.283752 0.340057 0.446014
0.352234 0.407623 0.518524
0.459534 0.511108 0.615082
0.462616 0.513733 0.617432
0.585022 0.624664 0.700043
0.740021 0.757111 0.785736
0.265839 0.322418 0.426300
0.300079 0.356354 0.463867
0.360199 0.415588 0.526367
0.464569 0.515564 0.618927
0.630310 0.663788 0.725830
0.710907 0.732330 0.769623
0.835663 0.842041 0.843201
0.387054 0.441620 0.552246
0.430542 0.483551 0.591400
0.497681 0.546478 0.643829
0.594177 0.632599 0.705414
0.714691 0.735474 0.771729
0.719482 0.739624 0.774506
0.844147 0.849915 0.848877
0.533020 0.578705 0.667938
0.595642 0.633881 0.706238
0.673431 0.700439 0.749451
0.762573 0.776733 0.798401
0.845123 0.850861 0.849548
0.848602 0.854034 0.851929
0.852203 0.857483 0.854401
0.279419 0.335846 0.441376
0.286926 0.343445 0.449677
0.296814 0.353119 0.460297
0.308899 0.365112 0.473297
0.323212 0.379181 0.488617
0.339722 0.395477 0.505829
0.460083 0.511414 0.615448
0.298004 0.354309 0.461609
0.366516 0.421661 0.532501
0.373627 0.428467 0.539429
0.382416 0.437042 0.547729
0.392578 0.446960 0.557526
0.404358 0.458405 0.568451
0.541901 0.586731 0.673584
0.314819 0.371002 0.479614
0.383667 0.438354 0.549011
0.461334 0.512665 0.616394
0.467499 0.518402 0.621307
0.474579 0.525085 0.626831
0.483093 0.532806 0.633087
0.637268 0.669586 0.729706
0.332642 0.388489 0.498566
0.394440 0.448761 0.559265
0.473572 0.524170 0.626038
0.574951 0.615997 0.694031
0.579620 0.620117 0.696930
0.585022 0.624664 0.700043
0.740021 0.757111 0.785736
0.355042 0.410431 0.521271
0.406433 0.460327 0.570190
0.479553 0.529724 0.630493
0.581268 0.621368 0.697876
0.708252 0.730011 0.768250
0.710907 0.732330 0.769623
0.835663 0.842041 0.843201
0.387054 0.441620 0.552246
0.430267 0.483307 0.591095
0.493927 0.543060 0.641174
0.588104 0.627319 0.701874
0.711243 0.732635 0.769867
0.838074 0.844177 0.844696
0.910522 0.915100 0.900604
0.524963 0.571655 0.662689
0.582794 0.622864 0.698822
0.657745 0.687042 0.740936
0.749573 0.765564 0.791138
0.840546 0.846558 0.846466
0.912384 0.917084 0.902313
0.914429 0.919250 0.904144
0.379333 0.434021 0.544922
0.387390 0.441864 0.552521
0.397552 0.451691 0.562073
0.409760 0.463623 0.573303
0.424408 0.477600 0.586029
0.441101 0.493469 0.600159
0.460083 0.511414 0.615448
0.399139 0.453247 0.563568
0.484314 0.534180 0.634155
0.492432 0.541779 0.640106
0.502258 0.550781 0.647125
0.513794 0.561340 0.655090
0.527039 0.573303 0.663940
0.541901 0.586731 0.673584
0.418976 0.472412 0.581360
0.504395 0.552734 0.648651
0.600433 0.638123 0.708984
0.607971 0.644470 0.713257
0.616608 0.651886 0.718140
0.626343 0.660339 0.723572
0.637268 0.669586 0.729706
0.437866 0.490356 0.597473
0.519684 0.566620 0.659058
0.618347 0.653473 0.719116
0.721252 0.741211 0.775482
0.726837 0.745941 0.778503
0.733093 0.751312 0.781921
0.740021 0.757111 0.785736
0.459808 0.511292 0.615265
0.534241 0.579803 0.668671
0.626404 0.660431 0.723633
0.731842 0.750275 0.781189
0.828979 0.835907 0.838837
0.832184 0.838867 0.840851
0.835663 0.842041 0.843201
0.487976 0.537628 0.636871
0.553162 0.596771 0.680847
0.635162 0.667877 0.728607
0.734497 0.752563 0.782684
0.832092 0.838776 0.840790
0.909210 0.913727 0.899445
0.910522 0.915100 0.900604
0.524963 0.571655 0.662689
0.582794 0.622864 0.698822
0.657379 0.686768 0.740723
0.746033 0.762360 0.789032
0.835388 0.841675 0.842957
0.909454 0.913940 0.899689
0.961456 0.972504 0.953857
