colors/蓝晒-f.CUBE
#Created by: Adobe Photoshop Export Color Lookup Plugin
TITLE "多场景样片-v1.0.psd"
#LUT size
LUT_3D_SIZE 34
#data domain
DOMAIN_MIN 0.0 0.0 0.0
DOMAIN_MAX 1.0 1.0 1.0
#LUT data points
0.022583 0.022064 0.026550
0.022583 0.022064 0.041412
0.022583 0.022064 0.059021
0.022583 0.022064 0.076233
0.022583 0.022064 0.093292
0.022583 0.022064 0.110168
0.022583 0.030090 0.126038
0.022583 0.048584 0.141022
0.024689 0.065125 0.155029
0.037292 0.080170 0.168304
0.049438 0.094299 0.181519
0.062134 0.108704 0.195038
0.076263 0.124573 0.210541
0.093323 0.143585 0.229248
0.112457 0.164368 0.250885
0.131836 0.184814 0.272614
0.151459 0.205475 0.294952
0.171234 0.226257 0.317657
0.191254 0.246857 0.341003
0.211426 0.267487 0.364227
0.232056 0.288269 0.387726
0.252747 0.309296 0.411469
0.273987 0.330383 0.435211
0.295502 0.351807 0.458923
0.317322 0.373474 0.482300
0.339722 0.395477 0.505829
0.362579 0.417786 0.528778
0.385956 0.440613 0.551300
0.409851 0.463745 0.573486
0.434662 0.487305 0.594727
0.460083 0.511414 0.615448
0.486023 0.535797 0.635468
0.512939 0.560547 0.654510
0.540527 0.585480 0.672791
0.022583 0.022064 0.041595
0.022583 0.022064 0.041687
0.022583 0.022064 0.059509
0.022583 0.022064 0.076721
0.022583 0.022064 0.093964
0.022583 0.022064 0.111053
0.022583 0.031464 0.127197
0.022583 0.050171 0.142426
0.026245 0.067078 0.156769
0.039093 0.082306 0.170319
0.051666 0.096741 0.183899
0.064484 0.111450 0.197693
0.078827 0.127502 0.213318
0.096008 0.146393 0.232300
0.115173 0.167053 0.253876
0.134552 0.187683 0.275757
0.154175 0.208344 0.298096
0.173950 0.228912 0.320892
0.194031 0.249664 0.344147
0.214203 0.270386 0.367371
0.234863 0.291107 0.390900
0.255646 0.312134 0.414734
0.276825 0.333252 0.438446
0.298248 0.354706 0.462006
0.320282 0.376404 0.485596
0.342712 0.398376 0.508881
0.365631 0.420746 0.531677
0.389069 0.443481 0.554169
0.413025 0.466827 0.576202
0.437897 0.490417 0.597443
0.463165 0.514496 0.617920
0.489410 0.538940 0.637909
0.516388 0.563721 0.656830
0.544037 0.588593 0.674957
0.022583 0.022064 0.059570
0.022583 0.022064 0.059723
0.022583 0.022064 0.059937
0.022583 0.022064 0.077271
0.022583 0.022064 0.094635
0.022583 0.022064 0.112030
0.022583 0.033020 0.128418
0.022583 0.052185 0.144043
0.028107 0.069397 0.158691
0.041290 0.084900 0.172607
0.054016 0.099609 0.186462
0.067169 0.114380 0.200562
0.081696 0.130676 0.216431
0.098969 0.149536 0.235504
0.118134 0.170288 0.257202
0.137573 0.190887 0.279114
0.157074 0.211456 0.301453
0.176941 0.231995 0.324280
0.196930 0.252563 0.347473
0.217163 0.273438 0.370789
0.237732 0.294189 0.394287
0.258667 0.315033 0.418182
0.279816 0.336304 0.441772
0.301361 0.357788 0.465271
0.323425 0.379333 0.488922
0.345886 0.401367 0.512054
0.368805 0.423828 0.534790
0.392303 0.446655 0.557159
0.416321 0.470032 0.579132
0.441162 0.493561 0.600220
0.466675 0.517761 0.620758
0.492889 0.542236 0.640442
0.519958 0.566986 0.659210
0.547638 0.591919 0.677246
0.022583 0.022064 0.077209
0.022583 0.022064 0.077393
0.022583 0.022064 0.077667
0.022583 0.022064 0.077911
0.022583 0.022064 0.095337
0.022583 0.022064 0.113037
0.022583 0.034698 0.129791
0.022583 0.054169 0.145721
0.029938 0.071594 0.160675
0.043579 0.087524 0.175323
0.056793 0.102783 0.189362
0.070129 0.117737 0.203766
0.084839 0.134155 0.219818
0.102081 0.152954 0.239044
0.121277 0.173676 0.260712
0.140717 0.194214 0.282654
0.160248 0.214752 0.305023
0.180115 0.235291 0.327911
0.200134 0.255829 0.351166
0.220337 0.276550 0.374390
0.240936 0.297363 0.397858
0.261810 0.318329 0.421753
0.283112 0.339508 0.445312
0.304565 0.360870 0.468750
0.326630 0.382538 0.492340
0.349152 0.404602 0.515350
0.372162 0.427124 0.538025
0.395691 0.450012 0.560333
0.419830 0.473236 0.582184
0.444794 0.496979 0.603180
0.470306 0.521179 0.623596
0.496613 0.545593 0.643097
0.523682 0.570374 0.661743
0.551483 0.595337 0.679688
0.022583 0.022064 0.095184
0.022583 0.022064 0.095490
0.022583 0.022064 0.095703
0.022583 0.022064 0.096008
0.022583 0.022064 0.096344
0.022583 0.022064 0.114197
0.022583 0.036499 0.131226
0.022583 0.056122 0.147430
0.032104 0.074158 0.162964
0.046051 0.090393 0.177856
0.059326 0.105408 0.192017
0.072784 0.120789 0.206696
0.088074 0.137787 0.223480
0.105774 0.156860 0.243042
0.124725 0.177338 0.264679
0.144135 0.197845 0.286621
0.163666 0.218262 0.308929
0.183472 0.238739 0.331970
0.203461 0.259247 0.355011
0.223694 0.279907 0.378265
0.244324 0.300781 0.401733
0.265167 0.321655 0.425507
0.286499 0.342896 0.449097
0.307953 0.364166 0.472443
0.330109 0.385956 0.495911
0.352631 0.408020 0.518890
0.375671 0.430542 0.541412
0.399261 0.453491 0.563812
0.423401 0.476685 0.585358
0.448456 0.500519 0.606171
0.474152 0.524719 0.626495
0.500427 0.549225 0.645813
0.527649 0.573853 0.664368
0.555481 0.598877 0.682373
0.022583 0.022064 0.113647
0.022583 0.022064 0.114014
0.022583 0.022064 0.114349
0.022583 0.022064 0.114624
0.022583 0.022064 0.115143
0.022583 0.022064 0.115509
0.022583 0.038452 0.132782
0.022858 0.058258 0.149231
0.034332 0.076691 0.165222
0.048370 0.093079 0.180420
0.062439 0.109039 0.195435
0.076141 0.124512 0.210327
0.091248 0.141174 0.226868
0.108612 0.160004 0.246338
0.127655 0.180511 0.267975
0.147675 0.201599 0.290741
0.167450 0.222137 0.313232
0.187225 0.242554 0.336304
0.207184 0.263184 0.359314
0.227478 0.283752 0.382446
0.247925 0.304382 0.406036
0.268768 0.325317 0.429504
0.290039 0.346405 0.452972
0.311737 0.367920 0.476318
0.333679 0.389496 0.499725
0.356232 0.411591 0.522522
0.379333 0.434265 0.545013
0.403015 0.457092 0.567230
0.427460 0.480530 0.588623
0.452271 0.504181 0.609314
0.478058 0.528412 0.629456
0.504517 0.552887 0.648651
0.531708 0.577637 0.667053
0.559509 0.602539 0.684906
0.022583 0.037079 0.131714
0.022583 0.037689 0.132111
0.022583 0.038147 0.132507
0.022583 0.038666 0.132996
0.022583 0.039520 0.133575
0.022583 0.040161 0.134155
0.022583 0.040649 0.134613
0.024200 0.061035 0.151489
0.036407 0.079224 0.167572
0.050964 0.096039 0.183167
0.065247 0.112183 0.198395
0.079102 0.127808 0.213654
0.094727 0.145050 0.230835
0.112427 0.164215 0.250793
0.131622 0.184570 0.272400
0.150848 0.204926 0.294373
0.170380 0.225311 0.316711
0.190399 0.245911 0.339966
0.210663 0.266510 0.363129
0.231323 0.287689 0.387024
0.251923 0.308350 0.410522
0.272797 0.329254 0.433960
0.293884 0.350342 0.457214
0.315552 0.371704 0.480438
0.337738 0.393463 0.503723
0.360291 0.415527 0.526337
0.383453 0.437988 0.548706
0.407135 0.460876 0.570801
0.431366 0.484314 0.592041
0.456390 0.507965 0.612579
0.482208 0.532257 0.632599
0.508728 0.556732 0.651611
0.535858 0.581451 0.669830
0.563934 0.606323 0.687592
0.023315 0.058746 0.149597
0.023590 0.059357 0.150177
0.024048 0.060181 0.150787
0.024231 0.060730 0.151276
0.024445 0.061249 0.151794
0.024780 0.061981 0.152344
0.025269 0.063019 0.153320
0.025665 0.063690 0.153900
0.039124 0.082367 0.170410
0.053802 0.099335 0.186188
0.068146 0.115479 0.201630
0.082886 0.131866 0.217651
0.098114 0.148712 0.234619
0.115601 0.167572 0.254364
0.135132 0.188385 0.276398
0.154938 0.209229 0.299011
0.174500 0.229523 0.321533
0.194275 0.249878 0.344391
0.214203 0.270325 0.367310
0.234344 0.290741 0.390411
0.255127 0.311615 0.414185
0.276306 0.332764 0.437897
0.298187 0.354553 0.461761
0.319794 0.375824 0.484924
0.341827 0.397552 0.508057
0.364441 0.419617 0.530579
0.387604 0.442108 0.552856
0.411255 0.465027 0.574615
0.435638 0.488403 0.595673
0.460724 0.512146 0.615967
0.486603 0.536163 0.635803
0.513153 0.560669 0.654602
0.540497 0.585449 0.672729
0.568542 0.610291 0.690338
0.036285 0.078918 0.167328
0.036896 0.079742 0.167999
0.037628 0.080627 0.168823
0.038147 0.081116 0.169312
0.038635 0.081787 0.169891
0.039703 0.082977 0.170898
0.040253 0.083710 0.171570
0.041443 0.084930 0.172791
0.041931 0.085571 0.173401
0.056976 0.102997 0.189667
0.071411 0.119171 0.205200
0.085938 0.135223 0.221008
0.101898 0.152679 0.238739
0.119812 0.172028 0.259094
0.138824 0.192322 0.280579
0.158142 0.212555 0.302612
0.178345 0.233521 0.325958
0.198456 0.254120 0.349182
0.218353 0.274475 0.372101
0.238647 0.295013 0.395233
0.259125 0.315613 0.418732
0.279938 0.336426 0.441956
0.301239 0.357452 0.465057
0.322815 0.378906 0.488434
0.345947 0.401489 0.512146
0.369080 0.424103 0.535034
0.392303 0.446655 0.557129
0.416046 0.469513 0.578705
0.440399 0.492889 0.599579
0.465393 0.516571 0.619690
0.491333 0.540741 0.639282
0.517792 0.564941 0.657806
0.545105 0.589630 0.675751
0.573090 0.614349 0.693115
0.052826 0.098236 0.185120
0.053558 0.098938 0.185913
0.054443 0.100037 0.186829
0.055176 0.100830 0.187683
0.055939 0.101807 0.188416
0.056458 0.102386 0.189117
0.057465 0.103302 0.190033
0.058502 0.104614 0.191193
0.059723 0.106079 0.192535
0.060516 0.106781 0.193268
0.075043 0.123260 0.209167
0.089752 0.139648 0.225311
0.105377 0.156555 0.242798
0.123199 0.175690 0.262878
0.143005 0.196686 0.285370
0.162506 0.216980 0.307526
0.181854 0.237183 0.330078
0.201599 0.257355 0.352814
0.222534 0.278870 0.376923
0.242828 0.299347 0.400116
0.263611 0.320038 0.423706
0.284424 0.340881 0.446838
0.305725 0.361938 0.469910
0.327301 0.383392 0.493103
0.349579 0.404968 0.515778
0.372253 0.427124 0.538055
0.395447 0.449677 0.560028
0.420624 0.474030 0.582794
0.445251 0.497437 0.603607
0.470428 0.521301 0.623566
0.496429 0.545349 0.642944
0.523010 0.569733 0.661316
0.550476 0.594391 0.679077
0.578430 0.619049 0.696259
0.069489 0.117065 0.203125
0.070343 0.117950 0.203979
0.071289 0.119080 0.205048
0.072113 0.119965 0.205841
0.072815 0.120758 0.206665
0.073425 0.121429 0.207275
0.074707 0.122803 0.208740
0.075409 0.123596 0.209503
0.076904 0.125214 0.211090
0.078430 0.126831 0.212708
0.078979 0.127716 0.213470
0.093872 0.144012 0.229858
0.109680 0.161224 0.247559
0.127380 0.180145 0.267578
0.146393 0.200226 0.289246
0.166809 0.221588 0.312531
0.186310 0.241821 0.335297
0.206085 0.262024 0.358002
0.226013 0.282288 0.380829
0.246338 0.302734 0.403961
0.267914 0.324371 0.428497
0.289032 0.345398 0.451843
0.310303 0.366486 0.474823
0.332031 0.387817 0.497894
0.354279 0.409607 0.520508
0.377045 0.431793 0.542633
0.400299 0.454376 0.564484
0.424133 0.477325 0.585785
0.448639 0.500671 0.606354
0.474030 0.524750 0.626556
0.501251 0.549805 0.646362
0.528442 0.574615 0.664886
0.555878 0.599243 0.682465
0.583984 0.623901 0.699493
0.086853 0.136261 0.222015
0.087769 0.137268 0.222992
0.088684 0.138428 0.224152
0.089844 0.139526 0.225342
0.090210 0.140045 0.225800
0.091614 0.141510 0.227264
0.092102 0.142059 0.227936
0.093658 0.143738 0.229645
0.094299 0.144531 0.230377
0.095856 0.146271 0.232147
0.097687 0.148041 0.234009
0.098297 0.148926 0.234741
0.114227 0.166077 0.252716
0.131897 0.184937 0.272736
0.150879 0.204956 0.294312
0.170227 0.225128 0.316406
0.189606 0.245087 0.339020
0.210602 0.266632 0.363220
0.230560 0.286865 0.386078
0.250763 0.307281 0.409363
0.271393 0.327820 0.432373
0.292267 0.348572 0.455383
0.314514 0.370697 0.479370
0.336823 0.392578 0.502869
0.359100 0.414429 0.525269
0.381897 0.436584 0.547272
0.405273 0.459167 0.569153
0.429169 0.482086 0.590088
0.453735 0.505524 0.610474
0.478973 0.529236 0.630219
0.505188 0.553497 0.649078
0.532013 0.577820 0.667175
0.560059 0.602905 0.685211
0.588196 0.627411 0.701996
0.105469 0.156586 0.242798
0.106354 0.157654 0.243866
0.107422 0.158722 0.245026
0.108612 0.160034 0.246338
0.109161 0.160645 0.247040
0.110321 0.161987 0.248322
0.111084 0.162659 0.249146
0.112396 0.164154 0.250610
0.113251 0.165009 0.251526
0.114716 0.166595 0.253326
0.116455 0.168457 0.255341
0.118256 0.170502 0.257416
0.118927 0.171051 0.258026
0.136566 0.189880 0.278046
0.155579 0.209869 0.299652
0.174774 0.229828 0.321686
0.194214 0.249878 0.344360
0.213776 0.269928 0.366943
0.234863 0.291260 0.390930
0.255524 0.311951 0.414642
0.276123 0.332520 0.437622
0.297028 0.353363 0.460510
0.318329 0.374481 0.483490
0.340179 0.395844 0.506256
0.363312 0.418518 0.529449
0.386932 0.441528 0.552094
0.410309 0.464142 0.573669
0.434418 0.487152 0.594543
0.459045 0.510529 0.614716
0.484467 0.534363 0.634277
0.510681 0.558441 0.652924
0.537689 0.582794 0.670837
0.565033 0.607300 0.688263
0.593231 0.631927 0.704956
0.126404 0.179108 0.266479
0.127289 0.180023 0.267578
0.128357 0.181213 0.268707
0.129425 0.182343 0.269989
0.130585 0.183594 0.271271
0.131134 0.184082 0.271881
0.132782 0.185822 0.273712
0.133118 0.186340 0.274231
0.134949 0.188110 0.276123
0.135437 0.188721 0.276733
0.137207 0.190674 0.278839
0.139038 0.192505 0.280853
0.140961 0.194550 0.283020
0.141296 0.195068 0.283539
0.160370 0.214844 0.305176
0.179504 0.234741 0.327423
0.198975 0.254700 0.349792
0.218536 0.274719 0.372406
0.238525 0.294952 0.395264
0.258759 0.315277 0.418365
0.280914 0.337372 0.442993
0.301941 0.358215 0.465820
0.323303 0.379333 0.488647
0.345154 0.400787 0.511322
0.367462 0.422485 0.533478
0.390289 0.444794 0.555298
0.415161 0.468811 0.577972
0.439758 0.492340 0.599030
0.464447 0.515656 0.619019
0.490082 0.539520 0.638428
0.516296 0.563599 0.656830
0.543365 0.587952 0.674530
0.571045 0.612457 0.691772
0.599091 0.637054 0.708344
0.148682 0.202576 0.291870
0.149658 0.203705 0.292908
0.150696 0.204742 0.294098
0.151825 0.205933 0.295441
0.153168 0.207367 0.296906
0.153442 0.207611 0.297272
0.154968 0.209198 0.298981
0.155945 0.210083 0.300049
0.157043 0.211334 0.301331
0.158661 0.213196 0.303314
0.159363 0.213654 0.303925
0.161133 0.215607 0.306030
0.162994 0.217621 0.308228
0.165009 0.219635 0.310425
0.165314 0.220123 0.310852
0.184387 0.239746 0.333069
0.203796 0.259674 0.355377
0.223511 0.279663 0.377930
0.243317 0.299835 0.400696
0.263580 0.320129 0.423859
0.284210 0.340576 0.446625
0.306152 0.362366 0.470367
0.328278 0.384277 0.494110
0.350281 0.405640 0.516479
0.372620 0.427521 0.538483
0.395477 0.449829 0.560272
0.418976 0.472473 0.581390
0.443207 0.495667 0.601929
0.470062 0.520874 0.623260
0.495789 0.544708 0.642548
0.522156 0.568909 0.660706
0.549194 0.593231 0.678314
0.576965 0.617737 0.695343
0.605194 0.642273 0.711792
0.171356 0.226227 0.317780
0.172333 0.227295 0.318817
0.173309 0.228302 0.320038
0.174469 0.229492 0.321350
0.175781 0.230896 0.322815
0.176025 0.231110 0.323059
0.177490 0.232635 0.325043
0.179047 0.234253 0.326874
0.179413 0.234589 0.327240
0.181244 0.236481 0.329285
0.181732 0.237030 0.329987
0.183441 0.238831 0.331940
0.185394 0.240753 0.334106
0.187286 0.242767 0.336365
0.189392 0.244812 0.338684
0.189636 0.245026 0.338989
0.208801 0.264832 0.361176
0.228455 0.284729 0.383667
0.248352 0.304779 0.406311
0.268707 0.325134 0.429413
0.289307 0.345581 0.452118
0.310272 0.366486 0.474792
0.332092 0.387878 0.497925
0.355438 0.410767 0.521698
0.377960 0.432678 0.543579
0.400970 0.455017 0.565247
0.424561 0.477783 0.586243
0.448883 0.500854 0.606506
0.473785 0.524323 0.626251
0.499451 0.548340 0.645172
0.527710 0.573853 0.664368
0.555206 0.598572 0.682068
0.583008 0.623016 0.698975
0.611328 0.647522 0.715210
0.194244 0.249817 0.344391
0.195251 0.250885 0.345490
0.196259 0.251862 0.346680
0.197327 0.253113 0.348022
0.198639 0.254364 0.349396
0.200073 0.255890 0.351166
0.200256 0.256012 0.351257
0.201874 0.257660 0.353119
0.202454 0.258301 0.353882
0.203857 0.259613 0.355408
0.205658 0.261658 0.357544
0.205994 0.261963 0.357971
0.207886 0.263916 0.360168
0.209900 0.265900 0.362366
0.211823 0.267944 0.364624
0.213989 0.269958 0.366974
0.214111 0.270081 0.367157
0.233521 0.289978 0.389526
0.253479 0.309906 0.412384
0.273712 0.330231 0.435028
0.294403 0.350677 0.457703
0.315460 0.371643 0.480438
0.336945 0.392670 0.502960
0.358887 0.414215 0.525085
0.382141 0.436798 0.547577
0.406494 0.460358 0.570251
0.430206 0.483093 0.590973
0.454529 0.506195 0.611023
0.479492 0.529785 0.630707
0.505341 0.553619 0.649231
0.531830 0.577698 0.667145
0.559052 0.601959 0.684387
0.588287 0.627533 0.702026
0.617462 0.652802 0.718689
0.217438 0.273438 0.371002
0.218384 0.274536 0.372131
0.219421 0.275604 0.373322
0.220490 0.276733 0.374603
0.221802 0.278046 0.376007
0.223206 0.279449 0.377655
0.223267 0.279510 0.377716
0.224945 0.281158 0.379547
0.226562 0.282837 0.381500
0.226746 0.282990 0.381714
0.228638 0.284821 0.383820
0.230133 0.286469 0.385529
0.230835 0.287140 0.386383
0.232727 0.289154 0.388611
0.234802 0.291199 0.390869
0.236786 0.293182 0.393127
0.238922 0.295319 0.395538
0.238922 0.295319 0.395538
0.258850 0.315277 0.418335
0.278900 0.335449 0.440857
0.299561 0.355896 0.463348
0.320648 0.376740 0.485962
0.342285 0.397888 0.508392
0.364288 0.419464 0.530396
0.386841 0.441345 0.552002
0.410553 0.464386 0.574005
0.435760 0.488495 0.595764
0.460205 0.511658 0.615662
0.485474 0.535278 0.635071
0.511383 0.559082 0.653442
0.537933 0.583191 0.671082
0.565247 0.607452 0.688324
0.593170 0.631744 0.704834
0.621368 0.656097 0.720886
0.240936 0.297394 0.397888
0.241821 0.298340 0.398987
0.242950 0.299377 0.400177
0.244019 0.300507 0.401459
0.245178 0.301727 0.402802
0.246643 0.303162 0.404480
0.247040 0.303528 0.404846
0.248230 0.304718 0.406189
0.249969 0.306427 0.408112
0.250214 0.306610 0.408447
0.251892 0.308289 0.410553
0.253754 0.310364 0.412750
0.254974 0.311493 0.414093
0.255981 0.312500 0.415222
0.258148 0.314636 0.417511
0.260040 0.316589 0.419769
0.262115 0.318634 0.422119
0.264313 0.320770 0.424500
0.264130 0.320679 0.424377
0.284424 0.340851 0.446808
0.305023 0.361298 0.469208
0.326050 0.382019 0.491608
0.347656 0.403229 0.513855
0.369690 0.424683 0.535675
0.392395 0.446838 0.557251
0.415649 0.469147 0.578430
0.439484 0.491882 0.598755
0.465881 0.517059 0.620117
0.491455 0.540894 0.639465
0.517365 0.564636 0.657593
0.544220 0.588776 0.675079
0.571564 0.613068 0.692169
0.599518 0.637299 0.708527
0.627838 0.661499 0.724426
0.264740 0.321320 0.425079
0.265778 0.322235 0.426147
0.266724 0.323334 0.427307
0.267944 0.324402 0.428558
0.269226 0.325592 0.429932
0.270447 0.327026 0.431427
0.272034 0.328613 0.433258
0.271973 0.328461 0.433136
0.273682 0.330109 0.434998
0.275330 0.331696 0.436798
0.275482 0.332123 0.437073
0.277588 0.334045 0.439270
0.279510 0.335938 0.441437
0.279572 0.336182 0.441589
0.281769 0.338287 0.443939
0.283752 0.340179 0.446167
0.285797 0.342224 0.448395
0.287994 0.344360 0.450684
0.290070 0.346558 0.453125
0.289825 0.346313 0.452881
0.310486 0.366730 0.475067
0.331696 0.387512 0.497498
0.353149 0.408630 0.519379
0.375366 0.430115 0.541077
0.397980 0.452240 0.562653
0.421326 0.474640 0.583405
0.445282 0.497559 0.603607
0.469879 0.520752 0.623199
0.495331 0.544434 0.642242
0.523834 0.570526 0.661835
0.550537 0.594452 0.679260
0.578033 0.618652 0.696014
0.605988 0.642944 0.712158
0.634216 0.667206 0.727997
0.289124 0.345398 0.451874
0.290039 0.346527 0.453003
0.291138 0.347473 0.454132
0.292206 0.348633 0.455353
0.293396 0.349731 0.456635
0.294800 0.351074 0.458160
0.296448 0.352661 0.459839
0.296234 0.352478 0.459656
0.297913 0.354309 0.461487
0.299713 0.356079 0.463501
0.299957 0.356232 0.463684
0.301636 0.357880 0.465515
0.303650 0.359894 0.467682
0.305267 0.361542 0.469360
0.305847 0.362091 0.470001
0.307953 0.364166 0.472382
0.310028 0.366211 0.474548
0.312164 0.368378 0.476807
0.314423 0.370422 0.479126
0.316620 0.372772 0.481506
0.316254 0.372345 0.481110
0.337280 0.393097 0.503357
0.358887 0.414124 0.525085
0.381012 0.435822 0.546509
0.403809 0.457733 0.567841
0.427124 0.480225 0.588440
0.451172 0.503113 0.608429
0.476074 0.526398 0.627930
0.501434 0.549927 0.646515
0.527466 0.573822 0.664337
0.556763 0.599884 0.683075
0.584656 0.624390 0.699890
0.612549 0.648560 0.715912
0.640930 0.672791 0.731781
0.313751 0.369873 0.478485
0.314819 0.370941 0.479767
0.315826 0.371979 0.480896
0.317017 0.373138 0.482056
0.318329 0.374329 0.483398
0.319489 0.375580 0.484772
0.321075 0.377228 0.486420
0.321747 0.377899 0.487122
0.322601 0.378662 0.487976
0.324432 0.380463 0.489899
0.326324 0.382263 0.491882
0.326233 0.382202 0.491791
0.328278 0.384216 0.493896
0.330322 0.386261 0.496185
0.331543 0.387360 0.497406
0.332642 0.388489 0.498535
0.334808 0.390625 0.500763
0.336884 0.392670 0.502899
0.339081 0.394867 0.505157
0.341309 0.397034 0.507477
0.343658 0.399200 0.509827
0.343201 0.398743 0.509308
0.364685 0.419922 0.530823
0.386963 0.441437 0.552063
0.409637 0.463501 0.573181
0.433136 0.485931 0.593475
0.457306 0.508789 0.613220
0.482086 0.532166 0.632568
0.507629 0.555786 0.650909
0.534027 0.579590 0.668518
0.560852 0.603607 0.685608
0.588501 0.627747 0.702118
0.619385 0.654297 0.719696
0.647369 0.678284 0.735382
0.339111 0.394745 0.505188
0.340179 0.395844 0.506195
0.341156 0.396881 0.507324
0.342407 0.398041 0.508514
0.343536 0.399170 0.509766
0.344879 0.400452 0.511078
0.346466 0.401947 0.512665
0.347809 0.403351 0.513977
0.347931 0.403442 0.514099
0.349762 0.405273 0.515961
0.351624 0.407135 0.517853
0.352173 0.407593 0.518402
0.353546 0.408875 0.519714
0.355652 0.411011 0.521881
0.357758 0.413177 0.524017
0.357758 0.413116 0.523987
0.360046 0.415222 0.526215
0.362244 0.417511 0.528381
0.364502 0.419586 0.530548
0.366608 0.421783 0.532745
0.369019 0.424103 0.534973
0.371368 0.426331 0.537292
0.370789 0.425751 0.536682
0.392792 0.447296 0.557678
0.415710 0.469299 0.578552
0.439301 0.491791 0.598633
0.463440 0.514709 0.618134
0.488403 0.537964 0.637115
0.514038 0.561523 0.655243
0.540375 0.585541 0.672760
0.567657 0.609467 0.689728
0.595093 0.633545 0.705994
0.623169 0.657654 0.721802
0.653229 0.683350 0.738525
0.365082 0.420135 0.531097
0.365936 0.421234 0.532104
0.367096 0.422211 0.533142
0.368286 0.423340 0.534271
0.369507 0.424530 0.535492
0.370819 0.425873 0.536804
0.372345 0.427307 0.538208
0.374084 0.428986 0.539948
0.373657 0.428589 0.539551
0.375610 0.430389 0.541351
0.377594 0.432312 0.543213
0.379547 0.434296 0.545166
0.379333 0.434143 0.544983
0.381561 0.436218 0.547028
0.383728 0.438263 0.549072
0.385925 0.440613 0.551208
0.385864 0.440491 0.551178
0.388275 0.442749 0.553375
0.390533 0.445007 0.555450
0.392792 0.447113 0.557556
0.395020 0.449341 0.559662
0.397491 0.451721 0.562134
0.399872 0.454041 0.564392
0.399078 0.453278 0.563629
0.422028 0.475311 0.583984
0.445374 0.497650 0.603760
0.469666 0.520630 0.623108
0.494629 0.543854 0.641754
0.520477 0.567352 0.659668
0.546967 0.591309 0.676880
0.574188 0.615265 0.693756
0.601990 0.639374 0.709930
0.629913 0.663391 0.725616
0.657928 0.687408 0.741089
0.391602 0.446014 0.556396
0.392639 0.447052 0.557373
0.393738 0.448090 0.558655
0.394867 0.449188 0.559753
0.396149 0.450409 0.560944
0.397522 0.451752 0.562134
0.398987 0.453156 0.563446
0.400665 0.454834 0.565002
0.401672 0.455750 0.565918
0.402069 0.456238 0.566376
0.404205 0.458099 0.568207
0.406250 0.460114 0.570068
0.406982 0.460846 0.570770
0.407959 0.461945 0.571747
0.410400 0.464050 0.573730
0.412567 0.466187 0.575775
0.413208 0.466827 0.576355
0.414917 0.468506 0.577789
0.417206 0.470825 0.579895
0.419678 0.473083 0.581909
0.421844 0.475220 0.583893
0.424286 0.477417 0.585938
0.426758 0.479919 0.588135
0.429321 0.482330 0.590302
0.428284 0.481354 0.589447
0.451874 0.503784 0.609009
0.476257 0.526642 0.628052
0.501282 0.549744 0.646423
0.527008 0.573456 0.664032
0.553558 0.597137 0.681183
0.580933 0.621216 0.697693
0.608704 0.645203 0.713715
0.636719 0.669189 0.729370
0.664856 0.693054 0.744751
0.418854 0.472321 0.581238
0.419952 0.473389 0.582153
0.420959 0.474304 0.583099
0.422272 0.475616 0.584198
0.423462 0.476776 0.585297
0.424835 0.478027 0.586456
0.426300 0.479492 0.587708
0.428101 0.481201 0.589233
0.429260 0.482239 0.590210
0.429504 0.482452 0.590424
0.431580 0.484375 0.592133
0.433624 0.486389 0.593872
0.435760 0.488495 0.595703
0.435455 0.488159 0.595428
0.437714 0.490265 0.597321
0.440002 0.492462 0.599304
0.442535 0.494904 0.601288
0.442261 0.494659 0.601105
0.444641 0.496948 0.603119
0.447235 0.499359 0.605164
0.449463 0.501556 0.607025
0.452026 0.503815 0.609009
0.454407 0.506195 0.611023
0.457062 0.508606 0.613068
0.459625 0.511139 0.615173
0.458557 0.509888 0.614197
0.482941 0.532806 0.633118
0.508026 0.556000 0.651062
0.533875 0.579437 0.668457
0.560364 0.603180 0.685394
0.587738 0.627075 0.701691
0.615448 0.651062 0.717529
