colors/蓝晒-f.CUBE
#Created by: Adobe Photoshop Export Color Lookup Plugin
TITLE "多场景样片-v1.0.psd"
#LUT size
LUT_3D_SIZE 4
#data domain
DOMAIN_MIN 0.0 0.0 0.0
DOMAIN_MAX 1.0 1.0 1.0
#LUT data points
0.022583 0.022064 0.026550
0.062134 0.108704 0.195038
0.273987 0.330383 0.435211
0.540527 0.585480 0.672791
0.086853 0.136261 0.222015
0.098297 0.148926 0.234741
0.314514 0.370697 0.479370
0.588196 0.627411 0.701996
0.339111 0.394745 0.505188
0.352173 0.407593 0.518402
0.370789 0.425751 0.536682
0.653229 0.683350 0.738525
0.665588 0.693665 0.745209
0.681183 0.707062 0.753632
0.703949 0.726440 0.765930
0.726471 0.745483 0.778137
0.043457 0.087372 0.175018
0.062134 0.108704 0.195038
0.273987 0.330383 0.435211
0.540527 0.585480 0.672791
0.077332 0.125824 0.211639
0.253510 0.309998 0.412354
0.420410 0.473816 0.582581
0.753265 0.768616 0.793182
0.326477 0.382385 0.492004
0.437775 0.490417 0.597351
0.449707 0.501678 0.607117
0.790405 0.801208 0.814575
0.657562 0.687103 0.740906
0.802582 0.811981 0.821838
0.815308 0.823334 0.829926
0.828674 0.835571 0.838470
0.223572 0.279907 0.378113
0.243164 0.299591 0.400482
0.273987 0.330383 0.435211
0.540527 0.585480 0.672791
0.260742 0.317230 0.420532
0.408447 0.462219 0.571930
0.420410 0.473816 0.582581
0.753265 0.768616 0.793182
0.312744 0.369019 0.477539
0.425873 0.479126 0.587372
0.720917 0.740906 0.775238
0.927032 0.932739 0.915985
0.626495 0.660431 0.723694
0.788605 0.799500 0.813477
0.933929 0.940338 0.922913
0.938721 0.945709 0.927979
0.444794 0.497040 0.603302
0.466248 0.517365 0.620392
0.498199 0.546875 0.644226
0.540527 0.585480 0.672791
0.491638 0.541046 0.639618
0.714844 0.735657 0.771820
0.731903 0.750275 0.781250
0.753265 0.768616 0.793182
0.540253 0.585297 0.672668
0.742340 0.759125 0.786987
0.922150 0.927429 0.911194
0.927032 0.932739 0.915985
0.617249 0.652588 0.718628
0.773163 0.785858 0.804443
0.925995 0.931641 0.914948
1.000000 1.000000 0.985229
