other luts/Kodak/Kodak Portra 800.cube
# Created by Adobe Lightroom plugin Export LUT (1.24.0)
# www.johnrellis.com/lightroom/exportlut.htm
# Preset: FCP - Kodak Portra 800 | Skin Tones GR+
# Color profile: C:\Windows\System32\Spool\Drivers\Color\AdobeRGB1998.icc
LUT_3D_SIZE 5
DOMAIN_MIN 0.000000 0.000000 0.000000
DOMAIN_MAX 0.903226 0.903226 0.903226
0.091096 0.119844 0.089967
0.271061 0.129427 0.076631
0.629969 0.226108 0.000000
0.808530 0.285191 0.000000
0.897704 0.316014 0.000000
0.070527 0.209842 0.119722
0.253727 0.269932 0.003723
0.601129 0.327489 0.000000
0.801144 0.353765 0.000000
0.895140 0.360357 0.000000
0.000000 0.513848 0.259556
0.087984 0.498482 0.201266
0.533837 0.571344 0.000000
0.777981 0.524834 0.000000
0.872282 0.499550 0.096284
0.267948 0.690578 0.413916
0.281712 0.682826 0.391119
0.328435 0.653468 0.325200
0.673030 0.725856 0.000000
0.874968 0.654505 0.000000
0.516228 0.789548 0.586145
0.522789 0.788418 0.581323
0.544610 0.784543 0.567041
0.594415 0.798672 0.528008
0.811002 0.880125 0.000000
0.082887 0.117678 0.249058
0.269322 0.077852 0.257450
0.654444 0.000000 0.165499
0.812070 0.254978 0.157534
0.899748 0.302586 0.068116
0.000000 0.266087 0.269352
0.292393 0.283940 0.280919
0.632807 0.313359 0.224765
0.803830 0.343847 0.173922
0.895872 0.354345 0.087343
0.090944 0.544244 0.352026
0.311345 0.536980 0.372992
0.547997 0.577569 0.195773
0.767636 0.534630 0.265415
0.873594 0.510735 0.248997
0.322362 0.702296 0.467720
0.385473 0.695369 0.473823
0.395087 0.667414 0.400336
0.679408 0.725643 0.147005
0.872801 0.656886 0.112276
0.536400 0.790372 0.607721
0.554162 0.788022 0.610010
0.571893 0.784787 0.594965
0.612238 0.795346 0.563470
0.816342 0.880674 0.000000
0.121614 0.135439 0.581201
0.314427 0.144594 0.581140
0.604669 0.181399 0.583001
0.795743 0.279484 0.511040
0.891600 0.443854 0.495613
0.199985 0.325689 0.586389
0.353796 0.341680 0.586206
0.605982 0.359594 0.585657
0.789242 0.399664 0.524590
0.885801 0.511315 0.523186
0.213840 0.574701 0.586969
0.376165 0.580804 0.588678
0.609491 0.596582 0.592889
0.764462 0.597009 0.563897
0.871427 0.587243 0.524773
0.364721 0.733700 0.579644
0.446143 0.727138 0.589380
0.588891 0.707301 0.608118
0.705806 0.723781 0.518364
0.849149 0.695338 0.535302
0.546807 0.799985 0.648127
0.578393 0.796811 0.656611
0.648829 0.787167 0.674708
0.661067 0.781552 0.649805
0.832029 0.877806 0.445960
0.337530 0.328801 0.739376
0.409888 0.346929 0.738277
0.573693 0.393256 0.734554
0.750332 0.432013 0.731624
0.856138 0.553155 0.709163
0.408453 0.438300 0.736660
0.458381 0.446235 0.735683
0.590814 0.472419 0.732509
0.747890 0.497383 0.730037
0.858915 0.577996 0.712551
0.455573 0.577203 0.732265
0.514397 0.591455 0.731044
0.634302 0.622950 0.728328
0.741146 0.633173 0.725612
0.872618 0.644282 0.718563
0.472053 0.718257 0.728542
0.525139 0.719997 0.728084
0.649500 0.725582 0.727413
0.741665 0.732082 0.728359
0.873228 0.739315 0.712673
0.567956 0.825315 0.725948
0.600549 0.823026 0.731106
0.670283 0.818357 0.741573
0.726284 0.807279 0.737118
0.855375 0.877745 0.674769
0.555535 0.545525 0.836210
0.577996 0.551385 0.835538
0.647364 0.570886 0.834714
0.742916 0.599481 0.832914
0.851255 0.610498 0.837583
0.578058 0.583276 0.834195
0.597253 0.587366 0.833646
0.658839 0.602106 0.833066
0.745846 0.623560 0.830686
0.849943 0.630335 0.836637
0.617304 0.662745 0.834928
0.637659 0.669062 0.834623
0.683497 0.674495 0.833677
0.753262 0.679652 0.832303
0.855161 0.677729 0.842924
0.620081 0.739376 0.843320
0.637537 0.741360 0.842435
0.682826 0.744961 0.844083
0.744442 0.736660 0.852262
0.879240 0.727932 0.868681
0.615412 0.856809 0.869047
0.629694 0.857572 0.869139
0.668421 0.863676 0.873716
0.718654 0.873869 0.881926
0.900237 0.896208 0.894469
