other luts/Kodak/Kodak Portra 800.cube
# Created by Adobe Lightroom plugin Export LUT (1.24.0)
# www.johnrellis.com/lightroom/exportlut.htm
# Preset: FCP - Kodak Portra 800 | Skin Tones GR+
# Color profile: C:\Windows\System32\Spool\Drivers\Color\AdobeRGB1998.icc
LUT_3D_SIZE 32
DOMAIN_MIN 0.0 0.0 0.0
DOMAIN_MAX 1.0 1.0 1.0
0.091096 0.119844 0.089967
0.091096 0.119844 0.089967
0.091096 0.119844 0.089967
0.100923 0.119234 0.089754
0.123781 0.118959 0.089021
0.156954 0.120424 0.087312
0.207614 0.123354 0.083680
0.271061 0.129427 0.076631
0.337407 0.139254 0.064973
0.398962 0.152346 0.036713
0.455360 0.167208 0.000000
0.506218 0.182956 0.000000
0.551904 0.198642 0.000000
0.592920 0.213962 0.000000
0.629969 0.226108 0.000000
0.663783 0.236790 0.000000
0.694972 0.246555 0.000000
0.723903 0.256016 0.000000
0.750301 0.265019 0.000000
0.773220 0.272831 0.000000
0.792325 0.279515 0.000000
0.808530 0.285191 0.000000
0.822324 0.290074 0.000000
0.834226 0.294255 0.000000
0.844907 0.298039 0.000000
0.855283 0.301640 0.000000
0.866423 0.305486 0.000000
0.879942 0.310063 0.000000
0.897704 0.316014 0.000000
0.921874 0.324163 0.000000
0.954620 0.335241 0.000000
0.997131 0.349920 0.000000
0.091096 0.119844 0.089967
0.091096 0.119844 0.089967
0.091096 0.119844 0.089967
0.101381 0.120027 0.089662
0.123690 0.121279 0.088746
0.156466 0.123659 0.086946
0.207034 0.127779 0.083131
0.269810 0.135195 0.075898
0.336126 0.145724 0.063813
0.397742 0.158877 0.033417
0.454017 0.173617 0.000000
0.504936 0.189029 0.000000
0.550774 0.204074 0.000000
0.591791 0.218662 0.000000
0.629023 0.229984 0.000000
0.662898 0.240177 0.000000
0.694087 0.249912 0.000000
0.723079 0.259129 0.000000
0.749538 0.267826 0.000000
0.772457 0.275395 0.000000
0.791653 0.281895 0.000000
0.807919 0.287266 0.000000
0.821775 0.291997 0.000000
0.833768 0.296025 0.000000
0.844511 0.299748 0.000000
0.854887 0.303258 0.000000
0.866056 0.306889 0.000000
0.879484 0.311406 0.000000
0.897154 0.317296 0.000000
0.921263 0.325322 0.000000
0.953857 0.336278 0.000000
0.996277 0.350927 0.000000
0.091096 0.119844 0.089967
0.091096 0.119844 0.089967
0.091096 0.119844 0.089967
0.100191 0.121889 0.089479
0.123476 0.124636 0.088350
0.156191 0.127749 0.086427
0.205814 0.133486 0.082399
0.268467 0.142123 0.074861
0.334569 0.153872 0.062165
0.396155 0.167269 0.028901
0.452522 0.181796 0.000000
0.503471 0.196780 0.000000
0.549371 0.211307 0.000000
0.590814 0.224582 0.000000
0.628016 0.235447 0.000000
0.662043 0.245029 0.000000
0.693233 0.254459 0.000000
0.722255 0.263249 0.000000
0.748867 0.271489 0.000000
0.771817 0.278874 0.000000
0.791104 0.285069 0.000000
0.807431 0.290440 0.000000
0.821347 0.294835 0.000000
0.833402 0.298680 0.000000
0.844205 0.302129 0.000000
0.854612 0.305425 0.000000
0.865751 0.309026 0.000000
0.879179 0.313298 0.000000
0.896818 0.319097 0.000000
0.920867 0.327031 0.000000
0.953429 0.337896 0.000000
0.995819 0.352422 0.000000
0.089815 0.124727 0.091066
0.089631 0.125338 0.091279
0.089906 0.125338 0.089906
0.101015 0.128817 0.088624
0.123659 0.131472 0.087465
0.148806 0.134157 0.085969
0.200656 0.143252 0.081331
0.266148 0.155825 0.072511
0.331914 0.169467 0.058656
0.393408 0.183810 0.018738
0.449805 0.198245 0.000000
0.500877 0.212589 0.000000
0.547021 0.225742 0.000000
0.588769 0.236667 0.000000
0.626276 0.246464 0.000000
0.660395 0.255406 0.000000
0.691707 0.263798 0.000000
0.720821 0.272221 0.000000
0.747494 0.279820 0.000000
0.770565 0.286625 0.000000
0.790005 0.292058 0.000000
0.806455 0.296849 0.000000
0.820554 0.300847 0.000000
0.832761 0.304234 0.000000
0.843656 0.307286 0.000000
0.854154 0.310277 0.000000
0.865354 0.313512 0.000000
0.878843 0.317601 0.000000
0.896483 0.323125 0.000000
0.920531 0.330816 0.000000
0.953063 0.341619 0.000000
0.995422 0.356023 0.000000
0.086854 0.135897 0.093782
0.087251 0.136049 0.093507
0.088319 0.135988 0.091890
0.092256 0.137118 0.089174
0.120119 0.144717 0.085695
0.156039 0.149538 0.083223
0.196658 0.157321 0.079194
0.245304 0.167147 0.073274
0.317723 0.186343 0.054597
0.384985 0.204440 0.007141
0.445411 0.220432 0.000000
0.496986 0.233371 0.000000
0.543816 0.244144 0.000000
0.585840 0.253910 0.000000
0.623590 0.262669 0.000000
0.657832 0.270665 0.000000
0.689479 0.278202 0.000000
0.718715 0.285496 0.000000
0.745785 0.292241 0.000000
0.769070 0.298131 0.000000
0.788693 0.302892 0.000000
0.805325 0.306859 0.000000
0.819577 0.310155 0.000000
0.831907 0.312902 0.000000
0.842924 0.315373 0.000000
0.853513 0.317723 0.000000
0.864744 0.320531 0.000000
0.878233 0.324132 0.000000
0.895872 0.329351 0.000000
0.919860 0.336797 0.000000
0.952422 0.347265 0.000000
0.994842 0.361547 0.000000
0.085115 0.150851 0.098726
0.085695 0.150820 0.097719
0.086854 0.150576 0.095979
0.089174 0.150149 0.092317
0.104524 0.156527 0.086702
0.151492 0.171115 0.079530
0.204685 0.181399 0.073365
0.263035 0.199039 0.061585
0.309850 0.208011 0.045106
0.363745 0.220890 0.018433
0.428656 0.239231 0.000000
0.486671 0.253666 0.000000
0.537896 0.265507 0.000000
0.582361 0.275059 0.000000
0.620325 0.282841 0.000000
0.654871 0.289677 0.000000
0.686671 0.296147 0.000000
0.716274 0.302403 0.000000
0.743496 0.308080 0.000000
0.767178 0.313024 0.000000
0.787106 0.316899 0.000000
0.804074 0.319860 0.000000
0.820676 0.323186 0.000000
0.832883 0.325017 0.000000
0.843778 0.326726 0.000000
0.854398 0.328344 0.000000
0.865751 0.330510 0.000000
0.879545 0.333684 0.000000
0.897642 0.338537 0.000000
0.922301 0.345830 0.000000
0.955505 0.356390 0.000000
0.998444 0.370703 0.000000
0.080873 0.174228 0.107027
0.082246 0.173892 0.105226
0.083314 0.173587 0.102937
0.086580 0.172793 0.098177
0.092470 0.171603 0.093111
0.130190 0.190799 0.080812
0.199130 0.215030 0.064149
0.266636 0.228824 0.041535
0.328099 0.247898 0.000000
0.379095 0.258183 0.000000
0.419867 0.263066 0.000000
0.470954 0.274357 0.000000
0.524743 0.287419 0.000000
0.572320 0.297612 0.000000
0.614252 0.305455 0.000000
0.651545 0.311986 0.000000
0.683986 0.317327 0.000000
0.714107 0.322545 0.000000
0.741665 0.327214 0.000000
0.765774 0.331029 0.000000
0.786160 0.333898 0.000000
0.803494 0.335943 0.000000
0.818265 0.337469 0.000000
0.831022 0.338476 0.000000
0.842344 0.339361 0.000000
0.853117 0.340337 0.000000
0.864622 0.341772 0.000000
0.878386 0.344305 0.000000
0.896483 0.348577 0.000000
0.921050 0.355413 0.000000
0.954223 0.365728 0.000000
0.997284 0.379828 0.000000
0.070527 0.209842 0.119722
0.072267 0.209476 0.117769
0.074434 0.208988 0.114778
0.078645 0.207797 0.108522
0.084749 0.205844 0.098970
0.106661 0.211734 0.090120
0.169497 0.240482 0.068360
0.253727 0.269932 0.003723
0.330022 0.282139 0.000000
0.387091 0.296880 0.000000
0.439368 0.307134 0.000000
0.475563 0.307927 0.000000
0.510216 0.309545 0.000000
0.556970 0.319036 0.000000
0.601129 0.327489 0.000000
0.640223 0.333806 0.000000
0.675776 0.339300 0.000000
0.708461 0.343969 0.000000
0.737819 0.348089 0.000000
0.762570 0.350927 0.000000
0.783413 0.352728 0.000000
0.801144 0.353765 0.000000
0.816281 0.354314 0.000000
0.829313 0.354376 0.000000
0.840818 0.354192 0.000000
0.851743 0.354345 0.000000
0.863279 0.354894 0.000000
0.877073 0.356695 0.000000
0.895140 0.360357 0.000000
0.919707 0.366796 0.000000
0.952911 0.376745 0.000000
0.996155 0.390723 0.000000
0.032227 0.256565 0.136538
0.038758 0.256107 0.134218
0.047059 0.255375 0.130861
0.059846 0.253880 0.123384
0.069978 0.251560 0.111513
0.080354 0.248447 0.095735
0.135103 0.266117 0.080812
0.216190 0.297948 0.024628
0.307378 0.325566 0.000000
0.387243 0.336797 0.000000
0.440681 0.344762 0.000000
0.488350 0.351110 0.000000
0.525231 0.351385 0.000000
0.555749 0.349554 0.000000
0.585534 0.349340 0.000000
0.626947 0.356420 0.000000
0.664149 0.361700 0.000000
0.697993 0.366186 0.000000
0.729061 0.369726 0.000000
0.756893 0.372442 0.000000
0.779934 0.373510 0.000000
0.798550 0.373449 0.000000
0.814084 0.372992 0.000000
0.827390 0.372107 0.000000
0.839139 0.371038 0.000000
0.850248 0.370031 0.000000
0.861875 0.369940 0.000000
0.875669 0.370886 0.000000
0.893706 0.373907 0.000000
0.918303 0.379736 0.000000
0.951629 0.389410 0.000000
0.995056 0.403296 0.000000
0.000000 0.307469 0.155642
0.000000 0.307042 0.153109
0.000000 0.306249 0.149508
0.000000 0.304631 0.141543
0.018738 0.302098 0.128725
0.057008 0.298650 0.110750
0.089723 0.293950 0.096132
0.173556 0.323156 0.063508
0.263249 0.352880 0.000000
0.355962 0.377142 0.000000
0.438544 0.388190 0.000000
0.488594 0.389380 0.000000
0.531640 0.392187 0.000000
0.568811 0.392004 0.000000
0.595972 0.387396 0.000000
0.621698 0.384100 0.000000
0.650446 0.384466 0.000000
0.685878 0.388800 0.000000
0.718441 0.392279 0.000000
0.748196 0.394934 0.000000
0.773068 0.395789 0.000000
0.793576 0.395056 0.000000
0.810727 0.393500 0.000000
0.825132 0.391302 0.000000
0.837156 0.389227 0.000000
0.848447 0.387457 0.000000
0.860166 0.386267 0.000000
0.874022 0.386542 0.000000
0.892119 0.388800 0.000000
0.916808 0.394232 0.000000
0.950378 0.403601 0.000000
0.994293 0.417517 0.000000
0.000000 0.356115 0.175479
0.000000 0.355566 0.172915
0.000000 0.354772 0.169345
0.000000 0.353277 0.161440
0.000000 0.350683 0.148959
0.000000 0.347387 0.131228
0.048585 0.343236 0.107149
0.122744 0.348272 0.088991
0.214664 0.375769 0.013947
0.307530 0.402899 0.000000
0.399756 0.424323 0.000000
0.482246 0.433967 0.000000
0.531670 0.431067 0.000000
0.570581 0.430610 0.000000
0.605707 0.428840 0.000000
0.631983 0.422919 0.000000
0.655055 0.417487 0.000000
0.676997 0.413977 0.000000
0.705501 0.415137 0.000000
0.737362 0.418036 0.000000
0.764523 0.419104 0.000000
0.786801 0.418158 0.000000
0.805295 0.416022 0.000000
0.820768 0.413062 0.000000
0.834073 0.409766 0.000000
0.846250 0.406378 0.000000
0.858366 0.404089 0.000000
0.872282 0.403449 0.000000
0.890379 0.405127 0.000000
0.915099 0.410010 0.000000
0.948882 0.419074 0.000000
0.993133 0.432990 0.000000
0.000000 0.400977 0.195346
0.000000 0.400610 0.193088
0.000000 0.399817 0.189853
0.000000 0.398291 0.182467
0.000000 0.395911 0.170687
0.000000 0.392676 0.154574
0.000000 0.388495 0.132967
0.068269 0.383490 0.106142
0.163882 0.398138 0.080659
0.255833 0.423590 0.000000
0.348455 0.448188 0.000000
0.439124 0.467109 0.000000
0.521569 0.476387 0.000000
0.573663 0.472480 0.000000
0.608545 0.468757 0.000000
0.640375 0.464393 0.000000
0.667597 0.458534 0.000000
0.688594 0.451301 0.000000
0.708980 0.446357 0.000000
0.729091 0.444343 0.000000
0.756405 0.445167 0.000000
0.780362 0.444099 0.000000
0.800046 0.441291 0.000000
0.816464 0.437537 0.000000
0.830472 0.433173 0.000000
0.843107 0.428809 0.000000
0.855833 0.425025 0.000000
0.870512 0.422797 0.000000
0.889555 0.423072 0.000000
0.914672 0.427588 0.000000
0.948882 0.436561 0.000000
0.993835 0.450507 0.000000
0.000000 0.443153 0.216526
0.000000 0.442725 0.214572
0.000000 0.442023 0.211337
0.000000 0.440375 0.204715
0.000000 0.437995 0.194278
0.000000 0.434668 0.179934
0.000000 0.430701 0.161105
0.056916 0.425757 0.137057
0.112795 0.419257 0.122530
0.205234 0.443641 0.073671
0.295415 0.467720 0.000000
0.386999 0.490333 0.000000
0.475532 0.507164 0.000000
0.552270 0.511284 0.000000
0.607233 0.506859 0.000000
0.639124 0.501091 0.000000
0.668574 0.495125 0.000000
0.696010 0.489296 0.000000
0.716426 0.481209 0.000000
0.735775 0.475196 0.000000
0.753536 0.471504 0.000000
0.770077 0.470222 0.000000
0.791653 0.467689 0.000000
0.809567 0.463783 0.000000
0.824704 0.458839 0.000000
0.838102 0.453498 0.000000
0.851225 0.448646 0.000000
0.866026 0.444984 0.000000
0.884916 0.443885 0.000000
0.910796 0.446662 0.000000
0.946288 0.454505 0.000000
0.992493 0.468299 0.000000
0.000000 0.480201 0.237797
0.000000 0.479652 0.235721
0.000000 0.479072 0.233158
0.000000 0.477638 0.227481
0.000000 0.475196 0.218204
0.000000 0.472114 0.205875
0.000000 0.468299 0.189944
0.066072 0.463813 0.169650
0.094881 0.458473 0.144747
0.161135 0.461433 0.128725
0.245426 0.484352 0.070588
0.332341 0.506279 0.000000
0.420661 0.526574 0.000000
0.506249 0.541039 0.000000
0.580987 0.544366 0.000000
0.637629 0.538567 0.000000
0.667018 0.531090 0.000000
0.694514 0.523949 0.000000
0.720363 0.517144 0.000000
0.741909 0.509422 0.000000
0.758785 0.501396 0.000000
0.773922 0.495796 0.000000
0.787198 0.493080 0.000000
0.801205 0.491920 0.092134
0.817594 0.487160 0.065705
0.831846 0.481605 0.000000
0.845487 0.476051 0.000000
0.860410 0.471443 0.000000
0.879301 0.469032 0.000000
0.905150 0.470130 0.000000
0.940795 0.476478 0.000000
0.988190 0.488991 0.000000
0.000000 0.513848 0.259556
0.000000 0.513451 0.258000
0.000000 0.512871 0.255558
0.000000 0.511498 0.250645
0.000000 0.509331 0.242649
0.000000 0.506462 0.231907
0.059236 0.502831 0.218265
0.087984 0.498482 0.201266
0.110079 0.493385 0.180819
0.137942 0.487160 0.161990
0.204929 0.499275 0.135988
0.283391 0.520592 0.071443
0.366064 0.540581 0.000000
0.451179 0.558831 0.000000
0.533837 0.571344 0.000000
0.606531 0.574151 0.000000
0.665431 0.567926 0.000000
0.692897 0.559380 0.000000
0.718837 0.551293 0.000000
0.742733 0.543359 0.000000
0.763424 0.534539 0.000000
0.777981 0.524834 0.000000
0.791012 0.517571 0.000000
0.802396 0.513542 0.000000
0.812039 0.513420 0.129427
0.824247 0.511681 0.156069
0.838376 0.506554 0.142977
0.853452 0.502129 0.125277
0.872282 0.499550 0.096284
0.898131 0.500237 0.000000
0.934234 0.505669 0.000000
0.982757 0.516899 0.000000
0.000000 0.544579 0.281865
0.000000 0.544152 0.280430
0.000000 0.543542 0.278416
0.014282 0.542321 0.274052
0.055848 0.540368 0.267185
0.078401 0.537652 0.257877
0.097017 0.534325 0.246128
0.115114 0.530327 0.231846
0.131655 0.525597 0.214817
0.147524 0.520012 0.194522
0.181460 0.512993 0.186343
0.245518 0.533593 0.145480
0.318639 0.553124 0.076967
0.397314 0.571252 0.000000
0.478950 0.587640 0.000000
0.558556 0.598749 0.000000
0.629389 0.601190 0.000000
0.689662 0.597528 0.000000
0.717220 0.586023 0.000000
0.741115 0.576776 0.000000
0.761959 0.566796 0.000000
0.780209 0.556390 0.000000
0.794339 0.545830 0.000000
0.805722 0.537255 0.000000
0.815610 0.532097 0.000000
0.824033 0.531487 0.128511
0.831388 0.535973 0.210971
0.845335 0.534325 0.216617
0.863859 0.532799 0.207919
0.889281 0.534600 0.193851
0.925200 0.541253 0.171267
0.974182 0.553613 0.131289
0.087709 0.571832 0.303990
0.090150 0.571405 0.302647
0.093568 0.570886 0.300969
0.100130 0.569726 0.297154
0.109133 0.567895 0.291203
0.119478 0.565515 0.283177
0.131411 0.562371 0.273106
0.143648 0.558618 0.260594
0.156130 0.554223 0.246006
0.168673 0.549096 0.228946
0.180850 0.543328 0.209537
0.223423 0.544793 0.198215
0.282780 0.564050 0.155947
0.351446 0.582177 0.085603
0.426246 0.598901 0.000000
0.504387 0.614069 0.000000
0.581384 0.624140 0.000000
0.650599 0.626581 0.000000
0.712703 0.625544 0.000000
0.739193 0.610651 0.000000
0.760037 0.599329 0.000000
0.778286 0.587671 0.000000
0.794369 0.575982 0.000000
0.808133 0.564569 0.000000
0.818357 0.554864 0.000000
0.827359 0.549065 0.000000
0.835477 0.548425 0.123629
0.843687 0.553979 0.215763
0.854490 0.564843 0.280766
0.879240 0.568414 0.277440
0.914702 0.577356 0.270726
0.963958 0.592828 0.259251
0.135286 0.596796 0.325902
0.136873 0.596460 0.324712
0.142489 0.598077 0.325261
0.146181 0.596948 0.321843
0.151766 0.595300 0.316655
0.158328 0.592981 0.309667
0.166354 0.590082 0.300725
0.175051 0.586481 0.289982
0.184512 0.582361 0.277256
0.194186 0.577630 0.262699
0.203891 0.572229 0.246067
0.221469 0.565698 0.233799
0.263340 0.575616 0.212253
0.318883 0.593622 0.168826
0.383398 0.610681 0.098512
0.454597 0.626337 0.000000
0.530175 0.640772 0.000000
0.604639 0.649897 0.000000
0.672023 0.651881 0.000000
0.734524 0.652216 0.000000
0.758694 0.632959 0.000000
0.776822 0.619867 0.000000
0.792874 0.606806 0.000000
0.807095 0.594110 0.000000
0.819913 0.581842 0.000000
0.830076 0.571466 0.000000
0.839200 0.565423 0.000000
0.848600 0.565698 0.112947
0.859861 0.573693 0.218204
0.875669 0.590265 0.296513
0.903624 0.610864 0.343114
0.952911 0.629572 0.342901
0.174136 0.621057 0.348119
0.175509 0.621027 0.347448
0.177249 0.620783 0.346258
0.180240 0.620081 0.343572
0.184237 0.618769 0.339239
0.189517 0.616724 0.333196
0.195254 0.614191 0.325353
0.202335 0.610895 0.315892
0.209720 0.607202 0.304967
0.217472 0.602869 0.292149
0.225437 0.597955 0.277745
0.233188 0.592462 0.261479
0.256687 0.585473 0.256779
0.298650 0.603296 0.224704
0.351415 0.620417 0.180514
0.412940 0.636652 0.110292
0.481147 0.651789 0.000000
0.553674 0.665126 0.000000
0.625116 0.672724 0.000000
0.689876 0.673548 0.000000
0.752193 0.674800 0.000000
0.774594 0.651789 0.000000
0.790707 0.637537 0.000000
0.805020 0.623651 0.000000
0.817960 0.610346 0.000000
0.830198 0.597986 0.000000
0.841917 0.587488 0.000000
0.853025 0.582300 0.000000
0.866239 0.584955 0.087556
0.883940 0.597711 0.216587
0.909728 0.621271 0.303960
0.947204 0.656489 0.381506
0.206943 0.644038 0.369482
0.208072 0.643977 0.368872
0.209384 0.643824 0.367956
0.211521 0.643183 0.365576
0.214755 0.641962 0.361700
0.218784 0.640162 0.356298
0.223606 0.637720 0.349523
0.228672 0.634882 0.341131
0.234592 0.631495 0.331395
0.240787 0.627527 0.320073
0.247654 0.623072 0.307500
0.254398 0.618097 0.293309
0.261814 0.612360 0.278447
0.291264 0.613458 0.269932
0.332372 0.630488 0.237583
0.383124 0.646967 0.193057
0.441810 0.662593 0.122652
0.506920 0.676600 0.000000
0.575677 0.687709 0.000000
0.643183 0.692775 0.000000
0.705074 0.692317 0.000000
0.767575 0.695003 0.000000
0.788449 0.668696 0.000000
0.802853 0.653651 0.000000
0.815915 0.639185 0.000000
0.828305 0.625849 0.000000
0.841123 0.614069 0.000000
0.856016 0.605066 0.000000
0.871946 0.602167 0.000000
0.892454 0.609216 0.000000
0.920775 0.629084 0.206577
0.960479 0.662287 0.308019
0.237247 0.667048 0.391089
0.238163 0.667018 0.390600
0.239078 0.666896 0.389746
0.241062 0.666285 0.387671
0.243534 0.665156 0.384253
0.246708 0.663508 0.379431
0.250462 0.661341 0.373388
0.254734 0.658686 0.365942
0.259678 0.655543 0.357275
0.265019 0.652003 0.347356
0.270451 0.647944 0.336034
0.276158 0.643397 0.323491
0.281804 0.638270 0.309667
0.295537 0.632044 0.301274
0.324956 0.641108 0.284001
0.365026 0.657710 0.251316
0.414099 0.673610 0.206577
0.469978 0.687922 0.137118
0.530999 0.699275 0.000000
0.595392 0.707515 0.000000
0.659144 0.710536 0.000000
0.718502 0.709163 0.000000
0.777707 0.709957 0.000000
0.801022 0.684230 0.000000
0.814206 0.668696 0.000000
0.826810 0.654383 0.000000
0.839963 0.641932 0.000000
0.855406 0.632502 0.000000
0.875639 0.627375 0.000000
0.901579 0.629206 0.000000
0.934020 0.643336 0.000000
0.977020 0.673182 0.186435
0.267948 0.690578 0.413916
0.268376 0.690455 0.413306
0.268956 0.690242 0.412421
0.270329 0.689631 0.410498
0.272465 0.688533 0.407446
0.274968 0.687068 0.403082
0.278111 0.685145 0.397650
0.281712 0.682826 0.391119
0.285710 0.680171 0.383429
0.290105 0.676997 0.374517
0.295018 0.673487 0.364691
0.300023 0.669398 0.353552
0.305058 0.664851 0.341344
0.310094 0.659785 0.328008
0.328435 0.653468 0.325200
0.358801 0.669886 0.299748
0.397925 0.685420 0.267002
0.444404 0.699184 0.222538
0.496345 0.710262 0.155581
0.552758 0.718746 0.000000
0.612726 0.724575 0.000000
0.673030 0.725856 0.000000
0.729732 0.723568 0.000000
0.785550 0.722530 0.000000
0.811948 0.698085 0.000000
0.824735 0.682826 0.000000
0.838193 0.669642 0.000000
0.854093 0.659693 0.000000
0.874968 0.654505 0.000000
0.903990 0.655879 0.000000
0.944274 0.665614 0.000000
0.991028 0.687556 0.000000
0.297734 0.711238 0.435889
0.298344 0.711177 0.435370
0.298772 0.710994 0.434699
0.299931 0.710536 0.432929
0.301671 0.709682 0.430213
0.303471 0.708522 0.426398
0.306035 0.707027 0.421637
0.308782 0.705196 0.415808
0.312230 0.703029 0.409033
0.315892 0.700496 0.401190
0.319951 0.697627 0.392462
0.324315 0.694270 0.382666
0.328771 0.690486 0.371923
0.333349 0.686152 0.360143
0.340368 0.681270 0.349554
0.362066 0.682551 0.342321
0.392126 0.697292 0.316899
0.429419 0.710018 0.284184
0.472572 0.720607 0.240604
0.520378 0.729091 0.176059
0.572320 0.735348 0.000000
0.628077 0.739315 0.000000
0.685237 0.739315 0.000000
0.739590 0.736416 0.000000
0.792264 0.733822 0.000000
0.821805 0.713558 0.000000
0.836210 0.697444 0.000000
0.852598 0.687068 0.000000
0.874113 0.681819 0.000000
0.904051 0.683619 0.000000
0.945830 0.694392 0.000000
0.999786 0.713619 0.000000
0.330632 0.729549 0.458900
0.331090 0.729549 0.458503
0.331487 0.729397 0.457862
0.332372 0.729000 0.456336
0.333440 0.728359 0.453925
0.335088 0.727443 0.450660
0.336980 0.726284 0.446479
0.339269 0.724849 0.441352
0.341802 0.723171 0.435370
0.344915 0.721218 0.428565
0.348150 0.718990 0.420844
0.351751 0.716457 0.412268
0.355566 0.713558 0.402838
0.359533 0.710384 0.392493
0.363470 0.706783 0.381384
0.375128 0.702113 0.376196
0.396796 0.709194 0.362036
0.425391 0.720699 0.336675
0.459663 0.730526 0.304265
0.498909 0.738643 0.261082
0.542382 0.745022 0.198367
0.589899 0.749599 0.066041
0.641657 0.752193 0.000000
0.696132 0.751278 0.000000
0.748379 0.748043 0.000000
0.799039 0.744961 0.000000
0.833097 0.729885 0.000000
0.851286 0.714900 0.000000
0.873564 0.709743 0.000000
0.904570 0.712154 0.000000
0.947143 0.723690 0.000000
1.000000 0.743984 0.000000
0.363287 0.744656 0.481300
0.363745 0.744625 0.481086
0.364263 0.744533 0.480537
0.364935 0.744259 0.479286
0.365942 0.743740 0.477211
0.367254 0.743069 0.474403
0.368872 0.742214 0.470893
0.370916 0.741176 0.466651
0.373266 0.739956 0.461616
0.375860 0.738521 0.455909
0.378882 0.736934 0.449470
0.382116 0.735103 0.442298
0.385626 0.733089 0.434455
0.389349 0.730831 0.425849
0.393133 0.728328 0.416632
0.397070 0.725551 0.406683
0.412512 0.721767 0.406226
0.433509 0.731899 0.386206
0.459419 0.740780 0.361059
0.489998 0.748287 0.328985
0.524712 0.754421 0.286107
0.563592 0.759182 0.224704
0.606744 0.762570 0.111055
0.654749 0.764523 0.000000
0.707088 0.763455 0.000000
0.758145 0.760433 0.000000
0.807431 0.757412 0.000000
0.848234 0.749386 0.000000
0.873564 0.738491 0.000000
0.905974 0.741878 0.000000
0.949401 0.754177 0.000000
1.000000 0.775845 0.000000
0.398505 0.757687 0.505058
0.398871 0.757626 0.504753
0.399237 0.757565 0.504356
0.399817 0.757351 0.503288
0.400610 0.756985 0.501549
0.401709 0.756466 0.499214
0.403113 0.755856 0.496254
0.404822 0.755093 0.492714
0.407050 0.754177 0.488655
0.409400 0.753170 0.483925
0.412238 0.752010 0.478706
0.415442 0.750729 0.472969
0.418708 0.749355 0.466621
0.422339 0.747768 0.459754
0.426032 0.746059 0.452369
0.429999 0.744167 0.444587
0.437018 0.741817 0.438941
0.452552 0.742733 0.433936
0.471168 0.750484 0.414160
0.493507 0.757290 0.389349
0.519677 0.763119 0.357244
0.549737 0.767941 0.314305
0.584070 0.771969 0.252750
0.623255 0.775265 0.146273
0.668482 0.777798 0.000000
0.719783 0.777554 0.000000
0.770657 0.775662 0.000000
0.820340 0.774044 0.000000
0.870329 0.775143 0.000000
0.906554 0.771267 0.000000
0.951080 0.784695 0.000000
1.000000 0.807645 0.000000
0.435187 0.768612 0.529717
0.435431 0.768612 0.529503
0.435767 0.768521 0.529107
0.436316 0.768368 0.528313
0.437079 0.768124 0.526940
0.438331 0.767788 0.525139
0.439948 0.767361 0.523003
0.441962 0.766903 0.520439
0.444343 0.766354 0.517449
0.446998 0.765713 0.514092
0.450141 0.764981 0.510307
0.453407 0.764218 0.506096
0.457069 0.763302 0.501488
0.460914 0.762295 0.496590
0.464912 0.761196 0.491279
0.469001 0.759945 0.485573
0.473426 0.758663 0.479805
0.483986 0.756649 0.479194
0.497139 0.760433 0.469001
0.512169 0.766445 0.449561
0.530266 0.771908 0.424964
0.551720 0.777035 0.392828
0.576928 0.781949 0.349310
0.606958 0.786862 0.286748
0.643153 0.791836 0.182528
0.686976 0.796902 0.000000
0.739040 0.799039 0.000000
0.791501 0.799466 0.000000
0.843168 0.800198 0.000000
0.905180 0.812436 0.000000
0.955444 0.818112 0.000000
1.000000 0.842588 0.000000
0.475807 0.778836 0.557366
0.476051 0.778836 0.557214
0.476356 0.778775 0.556939
0.476783 0.778622 0.556268
0.477577 0.778408 0.555200
0.478676 0.778134 0.553857
0.480201 0.777829 0.552178
0.481941 0.777432 0.550164
0.484138 0.776974 0.547906
0.486763 0.776486 0.545403
0.489601 0.775937 0.542596
0.492927 0.775296 0.539574
0.496468 0.774624 0.536339
0.500328 0.773892 0.532891
