other luts/Kodak/Kodak Portra 800.cube
# Created by Adobe Lightroom plugin Export LUT (1.24.0)
# www.johnrellis.com/lightroom/exportlut.htm
# Preset: FCP - Kodak Portra 800 | Skin Tones GR+
# Color profile: C:\Windows\System32\Spool\Drivers\Color\AdobeRGB1998.icc
LUT_3D_SIZE 8
DOMAIN_MIN 0.000000 0.000000 0.000000
DOMAIN_MAX 0.903226 0.903226 0.903226
0.091096 0.119844 0.089967
0.123781 0.118959 0.089021
0.337407 0.139254 0.064973
0.551904 0.198642 0.000000
0.694972 0.246555 0.000000
0.792325 0.279515 0.000000
0.844907 0.298039 0.000000
0.897704 0.316014 0.000000
0.086854 0.135897 0.093782
0.120119 0.144717 0.085695
0.317723 0.186343 0.054597
0.543816 0.244144 0.000000
0.689479 0.278202 0.000000
0.788693 0.302892 0.000000
0.842924 0.315373 0.000000
0.895872 0.329351 0.000000
0.032227 0.256565 0.136538
0.069978 0.251560 0.111513
0.307378 0.325566 0.000000
0.525231 0.351385 0.000000
0.664149 0.361700 0.000000
0.779934 0.373510 0.000000
0.839139 0.371038 0.000000
0.893706 0.373907 0.000000
0.000000 0.443153 0.216526
0.000000 0.437995 0.194278
0.112795 0.419257 0.122530
0.475532 0.507164 0.000000
0.668574 0.495125 0.000000
0.753536 0.471504 0.000000
0.824704 0.458839 0.000000
0.884916 0.443885 0.000000
0.087709 0.571832 0.303990
0.109133 0.567895 0.291203
0.156130 0.554223 0.246006
0.282780 0.564050 0.155947
0.581384 0.624140 0.000000
0.760037 0.599329 0.000000
0.818357 0.554864 0.000000
0.854490 0.564843 0.280766
0.237247 0.667048 0.391089
0.243534 0.665156 0.384253
0.259678 0.655543 0.357275
0.281804 0.638270 0.309667
0.414099 0.673610 0.206577
0.659144 0.710536 0.000000
0.814206 0.668696 0.000000
0.875639 0.627375 0.000000
0.363287 0.744656 0.481300
0.365942 0.743740 0.477211
0.373266 0.739956 0.461616
0.385626 0.733089 0.434455
0.412512 0.721767 0.406226
0.524712 0.754421 0.286107
0.707088 0.763455 0.000000
0.873564 0.738491 0.000000
0.516228 0.789548 0.586145
0.518120 0.789181 0.584649
0.525200 0.788083 0.579919
0.538628 0.786343 0.573144
0.555077 0.783383 0.563775
0.585809 0.790646 0.547295
0.642390 0.829801 0.422461
0.811002 0.880125 0.000000
0.085176 0.119875 0.118746
0.122408 0.115206 0.119295
0.352270 0.037598 0.096315
0.561456 0.154269 0.030365
0.700465 0.218204 0.000000
0.793729 0.260716 0.000000
0.845151 0.285557 0.000000
0.897642 0.306493 0.000000
0.081910 0.141695 0.121492
0.128267 0.145357 0.124880
0.345464 0.168734 0.103822
0.555138 0.216281 0.015869
0.695705 0.256931 0.000000
0.790738 0.287205 0.000000
0.843381 0.304356 0.000000
0.895781 0.320531 0.000000
0.000000 0.279026 0.176974
0.120516 0.287480 0.176211
0.316960 0.333532 0.073152
0.525475 0.341466 0.056062
0.674037 0.356023 0.000000
0.781857 0.364233 0.000000
0.838956 0.363287 0.000000
0.893156 0.367071 0.000000
0.000000 0.457038 0.256352
0.122377 0.456367 0.254917
0.169100 0.438697 0.187594
0.479103 0.509392 0.000000
0.668452 0.489357 0.000000
0.748501 0.472358 0.126131
0.824155 0.458289 0.019440
0.884977 0.439918 0.000000
0.168246 0.579644 0.340337
0.198337 0.576287 0.335576
0.222202 0.562463 0.294438
0.302007 0.563714 0.221927
0.582910 0.624414 0.000000
0.759731 0.596551 0.000000
0.815824 0.555627 0.000000
0.853819 0.567193 0.303532
0.280034 0.670893 0.418677
0.284703 0.668330 0.411688
0.296117 0.658808 0.385321
0.312566 0.641688 0.339544
0.423774 0.672267 0.254337
0.660609 0.710536 0.000000
0.813748 0.667384 0.000000
0.874784 0.626276 0.000000
0.384955 0.744472 0.497475
0.386450 0.743374 0.492897
0.392279 0.739742 0.477424
0.402655 0.733181 0.450538
0.423621 0.722103 0.419837
0.530266 0.752895 0.315862
0.707729 0.762692 0.000000
0.872404 0.737087 0.000000
0.524804 0.788968 0.593866
0.526787 0.788693 0.592493
0.533318 0.787594 0.587610
0.545800 0.785946 0.580468
0.563622 0.783688 0.572717
0.591913 0.789700 0.557580
0.645930 0.828580 0.439490
0.811124 0.878996 0.000000
0.082582 0.114595 0.310399
0.167544 0.104036 0.311528
0.334295 0.000000 0.319371
0.571008 0.000000 0.304601
0.718807 0.000000 0.216983
0.798245 0.255222 0.237064
0.844266 0.298650 0.218357
0.899931 0.317113 0.175784
0.000000 0.162631 0.321508
0.142763 0.153384 0.323857
0.342138 0.131563 0.327153
0.571832 0.000000 0.290471
0.713008 0.211215 0.247623
0.794797 0.288945 0.242527
0.842344 0.318822 0.220981
0.898222 0.332464 0.178408
0.000000 0.323003 0.330175
0.109590 0.328191 0.334203
0.354406 0.342473 0.340734
0.555352 0.353246 0.311620
0.692561 0.367987 0.285100
0.784390 0.379706 0.260441
0.836454 0.382513 0.234531
0.893645 0.382818 0.190494
0.000000 0.495155 0.354498
0.153811 0.494789 0.359991
0.354894 0.487892 0.382452
0.503471 0.519707 0.290898
0.663569 0.496895 0.302831
0.756344 0.495460 0.316838
0.824613 0.473365 0.266361
0.885801 0.457038 0.211276
0.183963 0.601740 0.402838
0.249638 0.599756 0.410468
0.371130 0.591211 0.427436
0.381628 0.566308 0.373236
0.599451 0.630762 0.254887
0.757900 0.598749 0.235172
0.803983 0.576379 0.330694
0.855314 0.579675 0.376593
0.298924 0.685634 0.461891
0.333013 0.683619 0.468025
0.401953 0.675654 0.475898
0.405524 0.658350 0.432593
0.461402 0.670039 0.374395
0.669154 0.710628 0.226596
0.809415 0.667445 0.194644
0.868406 0.637140 0.245029
0.406714 0.749447 0.528130
0.424781 0.747646 0.532219
0.459297 0.742611 0.534264
0.462013 0.736385 0.506981
0.465431 0.726528 0.467933
0.551476 0.749233 0.402777
0.713863 0.761624 0.206119
0.871794 0.739406 0.133791
0.535912 0.790921 0.610620
0.545342 0.789792 0.613550
0.564294 0.787259 0.616449
0.573724 0.785733 0.608179
0.586786 0.783413 0.597986
0.610712 0.785428 0.589014
0.658900 0.825772 0.493050
0.817075 0.879423 0.123354
0.088380 0.114748 0.508659
0.185336 0.107637 0.509422
0.350958 0.093050 0.510094
0.535088 0.062593 0.514000
0.682979 0.186343 0.490547
0.792935 0.200565 0.419959
0.835874 0.352697 0.416846
0.892485 0.424750 0.427070
0.067170 0.183627 0.514641
0.183200 0.184146 0.514641
0.355718 0.189670 0.513787
0.536828 0.192142 0.516106
0.685756 0.244572 0.492226
0.790890 0.259342 0.424659
0.832090 0.395178 0.434363
0.891234 0.433265 0.426276
0.093172 0.341527 0.517479
0.208286 0.348058 0.518700
0.378973 0.365911 0.520653
0.540032 0.372045 0.520775
0.692134 0.376928 0.494240
0.782528 0.410895 0.454932
0.824399 0.464881 0.457710
0.887541 0.468910 0.430915
0.088228 0.507897 0.520104
0.206149 0.510460 0.521080
0.385107 0.518730 0.523980
0.543908 0.529931 0.526940
0.674250 0.533837 0.507378
0.761257 0.535821 0.489326
0.813199 0.531304 0.469306
0.878630 0.525139 0.440223
0.207248 0.639948 0.509819
0.271550 0.637507 0.513176
0.408515 0.629511 0.524987
0.532616 0.616144 0.541680
0.629328 0.639246 0.483803
0.743099 0.618311 0.485084
0.791012 0.611322 0.502739
0.861784 0.599573 0.469795
0.323491 0.709468 0.532250
0.357427 0.707851 0.537011
0.443488 0.700649 0.549828
0.530358 0.688258 0.561639
0.526177 0.666316 0.508965
0.686549 0.711025 0.444648
0.797726 0.674769 0.428992
0.850034 0.669398 0.483680
0.424933 0.757778 0.570611
0.443091 0.756161 0.574182
0.495216 0.750698 0.584863
0.551110 0.742031 0.592767
0.543755 0.733364 0.553521
0.585168 0.743038 0.508354
0.725246 0.759182 0.410712
0.866972 0.745571 0.381933
0.543511 0.796475 0.633692
0.553277 0.795468 0.636500
0.583703 0.791958 0.645380
0.620874 0.786740 0.654841
0.626795 0.784054 0.641047
0.639643 0.781460 0.630549
0.678340 0.820462 0.565850
0.827268 0.879240 0.365484
0.174380 0.177676 0.641260
0.233768 0.184329 0.641199
0.366155 0.208133 0.640406
0.512871 0.244694 0.638666
0.661952 0.262333 0.640650
0.756161 0.356878 0.610986
0.820645 0.376043 0.560021
0.890166 0.430732 0.541711
0.215366 0.251987 0.642603
0.263493 0.256870 0.642573
0.380499 0.272160 0.641505
0.518303 0.296880 0.639429
0.661799 0.310430 0.640955
0.754574 0.388922 0.613581
0.818753 0.404150 0.564752
0.889311 0.449256 0.546380
0.280583 0.385260 0.644160
0.326177 0.394934 0.644465
0.418250 0.405158 0.643427
0.534264 0.418250 0.641260
0.661402 0.426276 0.641779
0.749599 0.473396 0.621332
0.812894 0.479103 0.578332
0.885618 0.510582 0.565118
0.290776 0.503136 0.643519
0.333989 0.508171 0.643641
0.443183 0.524712 0.644221
0.556847 0.543694 0.645045
0.662440 0.548180 0.644648
0.752590 0.558404 0.625330
0.805600 0.568048 0.597040
0.878202 0.595148 0.594965
0.298985 0.631189 0.643397
0.339696 0.632685 0.643763
0.444068 0.637354 0.644800
0.559960 0.644617 0.646693
0.663905 0.652186 0.648249
0.739864 0.650874 0.633387
0.789792 0.645624 0.617151
0.866300 0.640925 0.593896
0.358251 0.730373 0.626246
0.389288 0.729488 0.627405
0.472847 0.725154 0.631830
0.567376 0.714992 0.640131
0.645838 0.700221 0.647333
0.707057 0.712276 0.603510
0.779904 0.692134 0.602167
0.836576 0.704433 0.626184
0.451575 0.767453 0.627649
0.468849 0.765866 0.630060
0.519890 0.760678 0.637751
0.586053 0.752316 0.648920
0.643000 0.740780 0.656733
0.628382 0.732113 0.609216
0.738613 0.756252 0.560601
0.861143 0.755612 0.546380
0.551751 0.805020 0.666102
0.561639 0.804013 0.668360
0.592981 0.800748 0.675868
0.637140 0.795956 0.687373
0.674281 0.789334 0.693660
0.675807 0.785153 0.674464
0.701930 0.810788 0.643244
0.838499 0.877684 0.519585
0.305333 0.297826 0.726650
0.333898 0.304387 0.726314
0.413886 0.323369 0.725002
0.518364 0.351751 0.722957
0.628412 0.384009 0.720180
0.738888 0.400580 0.719600
0.791623 0.483955 0.685969
0.869657 0.509972 0.677028
0.335180 0.344457 0.725582
0.358740 0.348608 0.725216
0.429145 0.362310 0.724117
0.525750 0.384009 0.722072
0.630945 0.411475 0.719356
0.737972 0.425360 0.718990
0.790280 0.500511 0.687343
0.870298 0.519188 0.678065
0.400946 0.448585 0.723781
0.417426 0.450568 0.723445
0.470375 0.457923 0.722408
0.549218 0.470710 0.720638
0.640040 0.487922 0.718257
0.735927 0.496742 0.717891
0.786160 0.552422 0.692775
0.874174 0.549493 0.681910
0.423438 0.531029 0.721614
0.445686 0.536522 0.721248
0.511101 0.554772 0.720333
0.581598 0.569482 0.719234
0.654475 0.579675 0.717433
0.733486 0.586297 0.716884
0.780148 0.623285 0.702907
0.875120 0.611261 0.693080
0.430945 0.615351 0.719265
0.452461 0.618402 0.719051
0.515709 0.628321 0.718349
0.598718 0.644770 0.717372
0.673365 0.662440 0.716304
0.730678 0.666316 0.715694
0.782528 0.673518 0.708034
0.880888 0.662776 0.692622
0.439857 0.705745 0.716670
0.460334 0.706508 0.716701
0.519982 0.708766 0.716487
0.600244 0.712428 0.716213
0.676387 0.716670 0.716213
0.730770 0.720851 0.717067
0.776516 0.720882 0.709255
0.869108 0.726101 0.697566
0.487129 0.772793 0.700587
0.503563 0.771878 0.701137
0.553552 0.768795 0.703059
0.622736 0.764309 0.707668
0.679683 0.756191 0.713161
0.717311 0.745296 0.713191
0.754940 0.755734 0.687129
0.858213 0.774228 0.684077
0.564538 0.820218 0.712154
0.574731 0.819364 0.713863
0.606439 0.816709 0.719387
0.647913 0.813352 0.726619
0.686580 0.809232 0.731380
0.717189 0.801633 0.728756
0.720577 0.797055 0.703273
0.852476 0.877562 0.651606
0.435889 0.424842 0.769406
0.450416 0.430030 0.769436
0.492317 0.442267 0.768368
0.555016 0.461311 0.766690
0.627893 0.484932 0.764401
0.702510 0.507378 0.762173
0.778225 0.519951 0.761288
0.848844 0.585809 0.765988
0.449531 0.447089 0.767269
0.462440 0.451026 0.767300
0.500847 0.460883 0.766415
0.559594 0.476783 0.764797
0.629236 0.497017 0.762539
0.701686 0.516747 0.760128
0.776028 0.527337 0.759182
0.844022 0.589410 0.762142
0.497139 0.516564 0.765743
0.505974 0.518151 0.765469
0.535271 0.523583 0.764523
0.583429 0.533928 0.763119
0.642725 0.547387 0.760952
0.707424 0.563592 0.758846
0.774868 0.573297 0.758755
0.847044 0.622339 0.769436
0.535485 0.583856 0.764096
0.547326 0.588312 0.763516
0.580529 0.599847 0.762203
0.618280 0.607172 0.761288
0.665553 0.616632 0.759609
0.718593 0.629877 0.757992
0.773556 0.636133 0.758602
0.851560 0.659022 0.776822
0.539025 0.631830 0.761563
0.550286 0.634668 0.760983
0.588067 0.645808 0.759609
0.642725 0.664881 0.758389
0.686091 0.675868 0.757412
0.726162 0.681331 0.756313
0.770932 0.683986 0.756924
0.856229 0.691096 0.779721
0.543908 0.688533 0.760159
0.555596 0.690425 0.759976
0.593194 0.697017 0.759365
0.646082 0.707820 0.758785
0.694697 0.718135 0.758694
0.734340 0.725002 0.759915
0.773648 0.725795 0.760647
0.885985 0.713252 0.777554
0.554040 0.751888 0.760494
0.565820 0.752621 0.760678
0.601312 0.754177 0.760555
0.649439 0.756832 0.760739
0.694453 0.759548 0.760922
0.732784 0.762997 0.762142
0.776577 0.768093 0.764675
0.892821 0.776181 0.753109
0.581415 0.825345 0.771328
0.590539 0.825437 0.772030
0.620294 0.828305 0.776425
0.656123 0.832670 0.781033
0.691035 0.841520 0.785641
0.722103 0.844022 0.783749
0.756283 0.830594 0.766140
0.863218 0.879454 0.726406
0.555535 0.545525 0.836210
0.562951 0.547936 0.836606
0.585168 0.553185 0.835264
0.623713 0.564111 0.834958
0.672847 0.578088 0.834104
0.728267 0.594720 0.832944
0.787015 0.607355 0.834348
0.851255 0.610498 0.837583
0.561639 0.556481 0.834165
0.568658 0.558679 0.834592
0.590112 0.563531 0.833707
0.626642 0.572930 0.832975
0.674342 0.585901 0.832242
0.728420 0.601404 0.831113
0.785550 0.612848 0.831937
0.848936 0.615229 0.835264
0.583673 0.593439 0.833188
0.589410 0.594751 0.833249
0.607416 0.597559 0.831785
0.642115 0.606958 0.833219
0.684749 0.616541 0.832120
0.733639 0.627619 0.830350
0.787259 0.635981 0.831418
0.849058 0.635645 0.835813
0.614496 0.645167 0.834592
0.619501 0.646326 0.834958
0.634638 0.648127 0.834043
0.662043 0.652796 0.834226
0.698604 0.658289 0.834073
0.741878 0.663813 0.833463
0.791775 0.667689 0.834745
0.853117 0.663752 0.840513
0.618433 0.681300 0.835538
0.625208 0.683619 0.836179
0.644312 0.688319 0.836057
0.671473 0.693233 0.837430
0.703243 0.694575 0.836851
0.743618 0.696010 0.836606
0.793301 0.697505 0.838499
0.859739 0.691798 0.847898
0.618616 0.724666 0.839139
0.624109 0.725277 0.838590
0.642054 0.727749 0.837705
0.668391 0.730861 0.838254
0.697841 0.731258 0.841642
0.736507 0.728511 0.847745
0.794705 0.727474 0.854124
0.877287 0.719966 0.866514
0.618128 0.781125 0.849180
0.623194 0.781399 0.848936
0.639551 0.782498 0.848722
0.664302 0.784848 0.850462
0.692348 0.785977 0.854154
0.722438 0.782162 0.861601
0.778805 0.772000 0.875120
0.887419 0.765774 0.877989
0.615412 0.856809 0.869047
0.619745 0.856870 0.868864
0.634180 0.858061 0.869474
0.656153 0.861448 0.871977
0.681025 0.865995 0.875578
0.709316 0.871977 0.880400
0.762936 0.881010 0.887053
0.900237 0.896208 0.894469
