other luts/Cinestill 800T 35mm original.cube
#Generated with IWLTBAP LUT Generator
#Website: http://luts.iwltbap.com
TITLE "ÆØ¹â-1"
#LUT size
LUT_3D_SIZE 9
#LUT data points
0.058824 0.105882 0.152941
0.003922 0.000000 0.031373
0.109804 0.000000 0.000000
0.360784 0.086275 0.000000
0.580392 0.160784 0.000000
0.627451 0.082353 0.000000
0.788235 0.219608 0.000000
1.000000 0.403922 0.207843
0.992157 0.600000 0.466667
0.282353 0.156863 0.168627
0.003922 0.109804 0.074510
0.278431 0.231373 0.168627
0.407843 0.258824 0.117647
0.529412 0.250980 0.007843
0.843137 0.419608 0.168627
0.780392 0.282353 0.003922
1.000000 0.435294 0.231373
0.996078 0.580392 0.427451
0.207843 0.160784 0.003922
0.007843 0.231373 0.070588
0.000000 0.094118 0.000000
0.352941 0.239216 0.003922
0.780392 0.541176 0.294118
0.729412 0.380392 0.105882
0.819608 0.396078 0.152941
0.956863 0.462745 0.262745
0.854902 0.474510 0.345098
0.058824 0.286275 0.000000
0.000000 0.588235 0.368627
0.003922 0.560784 0.262745
0.258824 0.400000 0.023529
0.611765 0.529412 0.274510
0.721569 0.525490 0.286275
0.807843 0.505882 0.286275
0.862745 0.478431 0.294118
0.901961 0.470588 0.325490
0.007843 0.454902 0.109804
0.003922 0.725490 0.490196
0.003922 0.603922 0.352941
0.015686 0.584314 0.274510
0.541176 0.705882 0.376471
0.666667 0.607843 0.384314
0.756863 0.611765 0.407843
0.909804 0.682353 0.501961
0.992157 0.831373 0.705882
0.000000 0.780392 0.564706
0.000000 0.784314 0.580392
0.007843 0.749020 0.537255
0.007843 0.858824 0.588235
0.160784 0.796078 0.501961
0.607843 0.784314 0.521569
0.682353 0.674510 0.474510
0.964706 0.866667 0.705882
0.992157 0.937255 0.831373
0.000000 0.835294 0.372549
0.000000 0.941176 0.749020
0.000000 0.976471 0.796078
0.000000 0.819608 0.603922
0.003922 0.839216 0.588235
0.368627 0.847059 0.615686
0.901961 1.000000 0.819608
0.835294 0.823529 0.701961
0.784314 0.862745 0.717647
0.450980 1.000000 0.815686
0.003922 0.823529 0.737255
0.000000 0.949020 0.850980
0.003922 0.843137 0.733333
0.352941 0.909804 0.807843
0.827451 1.000000 0.984314
0.709804 0.819608 0.764706
0.835294 0.874510 0.831373
0.886275 0.968627 0.941176
0.600000 0.992157 0.960784
0.549020 1.000000 0.988235
0.717647 0.996078 1.000000
0.509804 1.000000 0.964706
0.878431 0.996078 1.000000
0.588235 1.000000 0.933333
1.000000 0.996078 1.000000
0.905882 0.988235 0.992157
0.811765 0.929412 0.929412
0.000000 0.000000 0.000000
0.000000 0.074510 0.090196
0.117647 0.250980 0.188235
0.239216 0.196078 0.078431
0.368627 0.247059 0.062745
0.541176 0.329412 0.078431
0.827451 0.509804 0.262745
0.776471 0.372549 0.113725
0.941176 0.694118 0.392157
0.082353 0.215686 0.149020
0.000000 0.066667 0.000000
0.003922 0.227451 0.090196
0.125490 0.321569 0.090196
0.172549 0.160784 0.000000
0.513725 0.400000 0.101961
0.556863 0.345098 0.000000
0.745098 0.423529 0.101961
0.815686 0.654902 0.341176
0.427451 0.352941 0.227451
0.000000 0.219608 0.152941
0.137255 0.247059 0.156863
0.517647 0.443137 0.325490
0.752941 0.537255 0.384314
0.768627 0.443137 0.278431
0.870588 0.474510 0.301961
0.905882 0.443137 0.301961
0.866667 0.498039 0.396078
0.141176 0.305882 0.117647
0.000000 0.552941 0.415686
0.000000 0.592157 0.392157
0.396078 0.533333 0.305882
0.498039 0.450980 0.247059
0.619608 0.450980 0.274510
0.819608 0.541176 0.368627
0.905882 0.552941 0.407843
0.854902 0.466667 0.345098
0.000000 0.552941 0.262745
0.011765 0.592157 0.403922
0.000000 0.607843 0.384314
0.000000 0.537255 0.243137
0.517647 0.698039 0.411765
0.505882 0.466667 0.258824
0.674510 0.545098 0.368627
0.945098 0.717647 0.560784
1.000000 0.831373 0.733333
0.007843 0.901961 0.709804
0.007843 0.800000 0.611765
0.000000 0.858824 0.639216
0.000000 0.898039 0.627451
0.274510 0.827451 0.556863
0.670588 0.835294 0.588235
0.850980 0.847059 0.666667
0.929412 0.831373 0.674510
0.780392 0.741176 0.603922
0.000000 0.564706 0.066667
0.000000 0.752941 0.560784
0.007843 1.000000 0.827451
0.000000 0.992157 0.776471
0.000000 0.913725 0.654902
0.403922 0.874510 0.631373
0.729412 0.878431 0.647059
0.960784 0.960784 0.819608
0.839216 0.937255 0.780392
0.623529 0.996078 0.901961
0.400000 1.000000 0.964706
0.313725 0.949020 0.890196
0.286275 0.909804 0.831373
0.584314 0.956863 0.878431
0.733333 0.917647 0.847059
0.992157 1.000000 0.988235
0.831373 0.854902 0.839216
0.819608 0.894118 0.886275
0.596078 0.996078 0.941176
0.298039 1.000000 0.984314
0.564706 0.996078 0.992157
0.749020 1.000000 0.996078
0.007843 0.984314 0.905882
0.874510 1.000000 0.988235
0.894118 0.996078 0.984314
0.831373 0.949020 0.980392
0.823529 0.941176 0.980392
0.000000 0.215686 0.294118
0.015686 0.254902 0.337255
0.200000 0.239216 0.337255
0.039216 0.007843 0.000000
0.341176 0.094118 0.066667
0.603922 0.286275 0.203922
0.682353 0.294118 0.203922
0.878431 0.419608 0.341176
0.800000 0.560784 0.376471
0.239216 0.231373 0.172549
0.000000 0.180392 0.156863
0.000000 0.219608 0.176471
0.258824 0.278431 0.192157
0.313725 0.235294 0.129412
0.478431 0.290196 0.149020
0.541176 0.247059 0.094118
0.752941 0.368627 0.231373
0.741176 0.619608 0.407843
0.286275 0.156863 0.137255
0.000000 0.101961 0.137255
0.176471 0.309804 0.349020
0.298039 0.211765 0.223529
0.725490 0.494118 0.470588
0.874510 0.537255 0.478431
0.713725 0.321569 0.258824
0.843137 0.400000 0.329412
0.964706 0.639216 0.607843
0.317647 0.474510 0.337255
0.003922 0.521569 0.466667
0.003922 0.572549 0.513725
0.345098 0.501961 0.400000
0.592157 0.560784 0.470588
0.788235 0.643137 0.541176
0.952941 0.709804 0.611765
0.733333 0.411765 0.325490
0.890196 0.517647 0.447059
0.003922 0.431373 0.207843
0.007843 0.666667 0.568627
0.011765 0.635294 0.525490
0.000000 0.686275 0.505882
0.403922 0.592157 0.403922
0.658824 0.647059 0.525490
0.839216 0.737255 0.639216
0.878431 0.701961 0.588235
0.913725 0.768627 0.698039
0.000000 0.960784 0.831373
0.000000 0.823529 0.709804
0.000000 0.811765 0.678431
0.000000 0.658824 0.490196
0.243137 0.800000 0.603922
0.588235 0.776471 0.588235
0.513725 0.525490 0.403922
0.929412 0.866667 0.764706
0.882353 0.847059 0.780392
0.000000 0.827451 0.486275
0.000000 0.992157 0.850980
0.003922 0.701961 0.568627
0.011765 0.960784 0.803922
0.000000 0.945098 0.737255
0.439216 0.870588 0.686275
0.819608 0.968627 0.807843
0.850980 0.866667 0.760784
0.749020 0.850980 0.752941
0.380392 0.909804 0.792157
0.878431 0.996078 0.988235
0.384314 0.996078 0.952941
0.219608 0.894118 0.839216
0.521569 1.000000 0.956863
0.792157 1.000000 0.988235
0.843137 0.964706 0.933333
0.764706 0.823529 0.811765
0.913725 0.988235 1.000000
0.564706 0.992157 0.917647
0.000000 1.000000 0.980392
1.000000 0.996078 1.000000
0.000000 1.000000 0.945098
0.325490 1.000000 0.929412
0.501961 0.992157 0.921569
0.807843 0.996078 0.996078
0.678431 0.901961 0.929412
0.811765 0.933333 0.945098
0.000000 0.184314 0.301961
0.000000 0.129412 0.250980
0.000000 0.329412 0.443137
0.078431 0.105882 0.215686
0.572549 0.270588 0.349020
0.552941 0.278431 0.278431
0.643137 0.298039 0.282353
0.901961 0.505882 0.466667
0.949020 0.717647 0.654902
0.329412 0.372549 0.247059
0.003922 0.313725 0.294118
0.003922 0.188235 0.164706
0.000000 0.364706 0.294118
0.309804 0.317647 0.266667
0.490196 0.411765 0.317647
0.505882 0.286275 0.180392
0.725490 0.411765 0.313725
0.686275 0.584314 0.494118
0.188235 0.078431 0.239216
0.003922 0.074510 0.254902
0.000000 0.329412 0.498039
0.349020 0.364706 0.513725
0.521569 0.364706 0.501961
0.541176 0.125490 0.266667
0.725490 0.298039 0.372549
0.862745 0.450980 0.478431
1.000000 0.701961 0.764706
0.000000 0.125490 0.160784
0.000000 0.447059 0.490196
0.003922 0.545098 0.588235
0.360784 0.564706 0.607843
0.509804 0.501961 0.521569
0.701961 0.560784 0.568627
0.768627 0.533333 0.541176
0.780392 0.482353 0.482353
0.937255 0.615686 0.623529
0.149020 0.654902 0.568627
0.007843 0.749020 0.721569
0.000000 0.690196 0.658824
0.207843 0.725490 0.682353
0.392157 0.611765 0.568627
0.564706 0.615686 0.580392
0.752941 0.701961 0.670588
0.972549 0.827451 0.792157
0.984314 0.882353 0.878431
0.000000 0.670588 0.600000
0.000000 0.964706 0.894118
0.000000 0.796078 0.749020
0.125490 0.854902 0.772549
0.000000 0.701961 0.596078
0.635294 0.839216 0.749020
0.647059 0.694118 0.639216
0.803922 0.776471 0.737255
0.972549 0.976471 0.945098
0.000000 0.733333 0.466667
0.011765 0.905882 0.839216
0.007843 0.764706 0.698039
0.003922 0.800000 0.721569
0.000000 0.815686 0.694118
0.337255 0.800000 0.674510
0.741176 0.901961 0.784314
0.701961 0.737255 0.670588
0.831373 0.921569 0.858824
0.831373 1.000000 1.000000
0.666667 0.992157 1.000000
0.603922 0.996078 1.000000
0.380392 0.835294 0.886275
0.411765 0.796078 0.792157
0.737255 0.933333 0.937255
0.807843 0.917647 0.929412
0.964706 1.000000 0.996078
0.996078 0.992157 1.000000
0.662745 1.000000 0.980392
0.870588 1.000000 1.000000
0.690196 1.000000 1.000000
0.000000 0.952941 1.000000
0.643137 1.000000 1.000000
0.980392 1.000000 1.000000
0.701961 0.956863 0.980392
0.909804 0.996078 0.988235
0.925490 1.000000 0.996078
0.000000 0.360784 0.686275
0.011765 0.254902 0.596078
0.011765 0.270588 0.709804
0.215686 0.223529 0.556863
0.133333 0.019608 0.270588
0.662745 0.478431 0.682353
0.674510 0.349020 0.529412
0.886275 0.435294 0.588235
0.992157 0.807843 0.847059
0.243137 0.180392 0.180392
0.000000 0.372549 0.560784
0.000000 0.341176 0.498039
0.070588 0.282353 0.462745
0.356863 0.341176 0.470588
0.466667 0.329412 0.454902
0.513725 0.180392 0.294118
0.635294 0.266667 0.337255
0.682353 0.619608 0.623529
0.360784 0.278431 0.549020
0.000000 0.258824 0.533333
0.003922 0.333333 0.615686
0.203922 0.321569 0.596078
0.392157 0.333333 0.588235
0.447059 0.309804 0.521569
0.756863 0.466667 0.658824
0.858824 0.458824 0.611765
0.886275 0.658824 0.807843
0.007843 0.250980 0.341176
0.000000 0.513725 0.678431
0.003922 0.674510 0.847059
0.125490 0.458824 0.619608
0.439216 0.517647 0.662745
0.533333 0.490196 0.615686
0.721569 0.474510 0.588235
0.882353 0.588235 0.666667
0.874510 0.584314 0.643137
0.419608 0.745098 0.768627
0.000000 0.796078 0.850980
0.007843 0.709804 0.788235
0.380392 0.831373 0.901961
0.537255 0.721569 0.784314
0.588235 0.658824 0.713725
0.635294 0.584314 0.611765
0.886275 0.756863 0.800000
0.854902 0.768627 0.819608
0.000000 0.858824 0.827451
0.000000 0.678431 0.662745
0.000000 0.866667 0.835294
0.000000 0.639216 0.635294
0.305882 0.752941 0.756863
0.627451 0.858824 0.850980
0.705882 0.800000 0.800000
0.866667 0.858824 0.862745
0.854902 0.870588 0.874510
0.000000 0.749020 0.627451
0.000000 0.862745 0.823529
0.000000 0.803922 0.764706
0.184314 0.847059 0.827451
0.254902 0.831373 0.792157
0.337255 0.796078 0.733333
0.654902 0.835294 0.784314
0.741176 0.784314 0.760784
0.894118 0.996078 0.984314
0.596078 1.000000 1.000000
0.850980 1.000000 1.000000
0.364706 0.901961 0.964706
0.592157 0.996078 0.992157
0.435294 0.839216 0.898039
0.725490 1.000000 1.000000
0.756863 0.901961 0.925490
1.000000 0.996078 1.000000
0.866667 0.980392 0.996078
0.580392 0.952941 0.960784
0.819608 1.000000 1.000000
0.666667 1.000000 1.000000
0.576471 1.000000 1.000000
0.917647 1.000000 1.000000
0.650980 0.996078 1.000000
0.815686 0.996078 0.988235
0.909804 0.992157 0.996078
0.823529 0.941176 0.980392
0.000000 0.592157 0.870588
0.000000 0.278431 0.560784
0.000000 0.192157 0.478431
0.003922 0.258824 0.580392
0.407843 0.439216 0.694118
0.443137 0.356863 0.611765
0.529412 0.376471 0.584314
0.611765 0.352941 0.533333
0.788235 0.654902 0.792157
0.227451 0.345098 0.541176
0.000000 0.356863 0.525490
0.000000 0.364706 0.525490
0.000000 0.329412 0.501961
0.156863 0.349020 0.517647
0.513725 0.525490 0.686275
0.713725 0.596078 0.729412
0.623529 0.349020 0.458824
0.772549 0.682353 0.784314
0.211765 0.184314 0.549020
0.000000 0.415686 0.745098
0.000000 0.411765 0.725490
0.000000 0.200000 0.537255
0.423529 0.466667 0.780392
0.458824 0.364706 0.670588
0.572549 0.415686 0.662745
0.725490 0.505882 0.698039
0.850980 0.764706 0.949020
0.258824 0.454902 0.701961
0.003922 0.537255 0.772549
0.000000 0.596078 0.815686
0.211765 0.584314 0.811765
0.396078 0.521569 0.752941
0.568627 0.596078 0.807843
0.792157 0.741176 0.921569
0.815686 0.654902 0.811765
0.941176 0.709804 0.835294
0.000000 0.568627 0.682353
0.000000 0.690196 0.843137
0.000000 0.772549 0.909804
0.066667 0.705882 0.843137
0.215686 0.552941 0.682353
0.588235 0.729412 0.870588
0.627451 0.650980 0.776471
0.847059 0.729412 0.831373
0.768627 0.682353 0.772549
0.000000 0.823529 0.882353
0.011765 0.690196 0.756863
0.000000 0.784314 0.847059
0.000000 0.768627 0.831373
0.415686 0.839216 0.890196
0.549020 0.796078 0.854902
0.749020 0.850980 0.901961
0.827451 0.823529 0.878431
0.921569 0.960784 1.000000
0.121569 0.698039 0.666667
0.003922 0.956863 0.933333
0.000000 0.882353 0.874510
0.000000 0.717647 0.709804
0.250980 0.776471 0.772549
0.572549 0.956863 0.960784
0.760784 0.956863 0.945098
0.725490 0.807843 0.811765
0.854902 0.976471 0.984314
0.729412 0.996078 1.000000
0.337255 0.874510 1.000000
0.000000 0.756863 1.000000
0.764706 1.000000 1.000000
0.760784 1.000000 1.000000
0.670588 0.917647 0.988235
0.886275 0.996078 1.000000
0.898039 0.992157 1.000000
0.952941 1.000000 0.992157
0.807843 1.000000 0.992157
0.819608 1.000000 1.000000
0.964706 1.000000 0.996078
0.376471 0.976471 1.000000
0.721569 0.988235 0.992157
0.666667 0.976471 1.000000
1.000000 0.996078 1.000000
0.886275 0.984314 1.000000
1.000000 0.996078 1.000000
0.000000 0.345098 0.725490
0.003922 0.235294 0.588235
0.003922 0.262745 0.639216
0.000000 0.141176 0.490196
0.149020 0.270588 0.627451
0.376471 0.345098 0.678431
0.517647 0.380392 0.701961
0.647059 0.439216 0.713725
0.639216 0.564706 0.784314
0.011765 0.090196 0.431373
0.003922 0.490196 0.772549
0.007843 0.250980 0.545098
0.000000 0.388235 0.682353
0.290196 0.470588 0.776471
0.403922 0.435294 0.717647
0.490196 0.400000 0.666667
0.380392 0.231373 0.462745
0.650980 0.682353 0.862745
0.239216 0.333333 0.686275
0.007843 0.478431 0.850980
0.000000 0.439216 0.819608
0.000000 0.388235 0.756863
0.243137 0.411765 0.772549
0.450980 0.454902 0.807843
0.666667 0.552941 0.874510
0.698039 0.521569 0.776471
0.729412 0.658824 0.901961
0.000000 0.262745 0.505882
0.000000 0.505882 0.780392
0.000000 0.501961 0.776471
0.000000 0.564706 0.843137
0.419608 0.643137 0.921569
0.509804 0.584314 0.854902
0.556863 0.513725 0.772549
0.611765 0.521569 0.725490
0.803922 0.666667 0.831373
0.180392 0.674510 0.835294
0.082353 0.866667 0.996078
0.000000 0.800000 0.972549
0.082353 0.721569 0.890196
0.431373 0.752941 0.949020
0.564706 0.764706 0.949020
0.545098 0.600000 0.776471
0.788235 0.764706 0.913725
0.862745 0.866667 0.988235
0.007843 0.858824 0.980392
0.003922 0.913725 1.000000
0.000000 0.811765 0.913725
0.011765 0.737255 0.854902
0.372549 0.800000 0.913725
0.043137 0.466667 0.580392
0.690196 0.835294 0.949020
0.678431 0.737255 0.827451
0.811765 0.870588 0.952941
0.913725 0.996078 1.000000
0.000000 0.737255 0.784314
0.000000 0.721569 0.768627
0.294118 0.905882 0.952941
0.466667 0.925490 0.960784
0.360784 0.721569 0.772549
0.498039 0.725490 0.772549
0.650980 0.760784 0.803922
0.756863 0.882353 0.933333
0.843137 1.000000 1.000000
0.537255 0.972549 1.000000
0.513725 0.949020 0.992157
0.294118 0.823529 1.000000
0.901961 0.996078 1.000000
0.749020 0.972549 1.000000
0.725490 0.913725 0.992157
0.796078 0.921569 1.000000
0.854902 0.988235 0.984314
0.874510 1.000000 0.996078
0.000000 0.945098 1.000000
0.996078 1.000000 1.000000
0.619608 0.988235 0.996078
0.905882 1.000000 0.992157
0.654902 0.968627 1.000000
0.905882 1.000000 1.000000
0.847059 0.976471 1.000000
0.800000 0.929412 0.996078
0.003922 0.494118 0.847059
0.000000 0.384314 0.705882
0.000000 0.376471 0.705882
0.003922 0.450980 0.788235
0.121569 0.458824 0.792157
0.254902 0.400000 0.713725
0.450980 0.431373 0.752941
0.760784 0.627451 0.925490
0.643137 0.560784 0.823529
0.003922 0.227451 0.545098
0.000000 0.388235 0.670588
0.000000 0.462745 0.745098
0.007843 0.509804 0.788235
0.121569 0.556863 0.839216
0.321569 0.517647 0.796078
0.294118 0.341176 0.623529
0.552941 0.474510 0.713725
0.682353 0.733333 0.949020
0.266667 0.470588 0.858824
0.000000 0.454902 0.807843
0.000000 0.423529 0.776471
0.007843 0.505882 0.870588
0.388235 0.627451 0.976471
0.247059 0.380392 0.733333
0.568627 0.517647 0.862745
0.564706 0.439216 0.737255
0.854902 0.819608 1.000000
0.003922 0.486275 0.792157
0.000000 0.658824 0.937255
0.000000 0.396078 0.670588
0.000000 0.470588 0.741176
0.458824 0.725490 1.000000
0.423529 0.580392 0.854902
0.384314 0.423529 0.694118
0.709804 0.627451 0.882353
0.835294 0.717647 0.921569
0.223529 0.713725 0.925490
0.200000 0.850980 1.000000
0.145098 0.823529 0.992157
0.286275 0.796078 0.992157
0.419608 0.788235 0.992157
0.494118 0.733333 0.945098
0.415686 0.529412 0.749020
0.768627 0.760784 0.956863
0.811765 0.843137 0.996078
0.156863 0.909804 1.000000
0.007843 0.862745 1.000000
0.003922 0.803922 0.949020
0.133333 0.772549 0.909804
0.525490 0.913725 0.996078
0.482353 0.776471 0.901961
0.478431 0.658824 0.800000
0.662745 0.725490 0.858824
0.909804 0.949020 0.996078
0.529412 0.949020 1.000000
0.462745 1.000000 0.996078
0.156863 0.850980 0.929412
0.003922 0.760784 0.831373
0.568627 0.972549 1.000000
0.670588 0.972549 0.996078
0.819608 1.000000 1.000000
0.772549 0.894118 0.976471
0.533333 0.698039 0.792157
0.494118 0.815686 1.000000
0.886275 0.996078 1.000000
0.729412 1.000000 1.000000
0.611765 0.929412 1.000000
0.721569 0.968627 0.988235
0.592157 0.862745 0.992157
0.921569 1.000000 0.992157
0.870588 0.956863 1.000000
0.772549 0.913725 1.000000
0.917647 1.000000 0.996078
0.564706 0.941176 0.996078
0.560784 0.937255 0.984314
0.784314 0.996078 0.996078
0.450980 0.901961 1.000000
0.505882 0.894118 1.000000
1.000000 1.000000 0.992157
1.000000 0.996078 1.000000
0.788235 0.941176 1.000000
0.000000 0.643137 0.992157
0.000000 0.333333 0.666667
0.000000 0.411765 0.741176
0.000000 0.541176 0.866667
0.188235 0.509804 0.831373
0.294118 0.470588 0.796078
0.470588 0.521569 0.831373
0.796078 0.717647 1.000000
0.701961 0.741176 0.980392
0.000000 0.388235 0.725490
0.007843 0.486275 0.780392
0.000000 0.388235 0.670588
0.000000 0.474510 0.784314
0.235294 0.572549 0.866667
0.419608 0.615686 0.894118
0.423529 0.501961 0.788235
0.843137 0.772549 1.000000
0.698039 0.819608 0.992157
0.000000 0.337255 0.717647
0.031373 0.698039 1.000000
0.003922 0.392157 0.725490
0.282353 0.698039 0.996078
0.301961 0.627451 0.941176
0.294118 0.509804 0.823529
0.403922 0.470588 0.776471
0.768627 0.705882 0.984314
0.921569 0.913725 0.996078
0.000000 0.517647 0.807843
0.266667 0.780392 0.992157
0.000000 0.662745 0.901961
0.007843 0.552941 0.823529
0.254902 0.627451 0.878431
0.333333 0.564706 0.823529
0.560784 0.670588 0.925490
0.717647 0.690196 0.964706
0.878431 0.760784 1.000000
0.450980 0.835294 1.000000
0.003922 0.721569 0.949020
0.400000 0.866667 0.992157
0.007843 0.635294 0.878431
0.349020 0.717647 0.917647
0.407843 0.682353 0.882353
0.560784 0.717647 0.917647
0.666667 0.694118 0.909804
0.627451 0.705882 0.952941
0.000000 0.603922 0.776471
0.000000 0.619608 0.784314
0.023529 0.796078 0.960784
0.298039 0.823529 0.972549
0.384314 0.792157 0.929412
0.603922 0.882353 1.000000
0.780392 0.945098 0.992157
0.701961 0.796078 0.945098
0.741176 0.839216 0.996078
0.521569 0.890196 1.000000
0.086275 0.823529 0.921569
0.439216 0.949020 1.000000
0.541176 0.964706 1.000000
0.435294 0.843137 0.941176
0.615686 0.909804 1.000000
0.682353 0.886275 0.968627
0.815686 0.937255 1.000000
0.682353 0.854902 0.968627
0.447059 0.803922 0.917647
0.360784 0.890196 0.968627
0.341176 0.847059 0.960784
0.564706 0.960784 0.992157
0.905882 1.000000 1.000000
0.694118 0.937255 0.988235
0.725490 0.929412 0.984314
0.725490 0.886275 0.964706
0.713725 0.878431 0.972549
0.772549 1.000000 1.000000
0.458824 0.913725 0.964706
0.533333 0.960784 0.988235
0.196078 0.709804 0.827451
0.533333 0.870588 0.921569
0.470588 0.737255 0.827451
0.603922 0.811765 0.874510
0.666667 0.807843 0.870588
0.768627 0.921569 0.941176
