other luts/Cinestill 50D 35mm 偏绿.cube
#Generated with IWLTBAP LUT Generator
#Website: http://luts.iwltbap.com
TITLE "ф╚бл"
#LUT size
LUT_3D_SIZE 5
#LUT data points
0.101961 0.011765 0.043137
0.258824 0.000000 0.109804
0.356863 0.000000 0.058824
0.580392 0.000000 0.003922
0.827451 0.007843 0.000000
0.007843 0.282353 0.086275
0.000000 0.270588 0.058824
0.341176 0.313725 0.000000
0.607843 0.192157 0.003922
0.972549 0.000000 0.000000
0.000000 0.729412 0.411765
0.007843 0.647059 0.329412
0.247059 0.690196 0.345098
0.843137 0.823529 0.227451
0.992157 0.831373 0.141176
0.000000 0.968627 0.717647
0.219608 0.941176 0.690196
0.533333 0.996078 0.760784
0.701961 0.901961 0.631373
0.945098 0.905882 0.533333
0.792157 0.992157 0.831373
0.819608 0.992157 0.850980
0.752941 0.972549 0.788235
1.000000 0.992157 0.956863
0.937255 0.992157 0.850980
0.000000 0.200000 0.321569
0.211765 0.223529 0.384314
0.505882 0.152941 0.262745
0.517647 0.000000 0.000000
0.996078 0.000000 0.007843
0.000000 0.639216 0.584314
0.003922 0.400000 0.368627
0.513725 0.447059 0.376471
0.796078 0.439216 0.160784
1.000000 0.360784 0.000000
0.003922 0.686275 0.478431
0.000000 0.823529 0.631373
0.427451 0.827451 0.670588
0.831373 0.854902 0.611765
0.996078 0.909804 0.368627
0.600000 1.000000 0.917647
0.501961 1.000000 0.831373
0.392157 0.764706 0.592157
0.854902 1.000000 0.866667
0.988235 0.964706 0.721569
1.000000 1.000000 1.000000
0.886275 1.000000 0.890196
0.803922 0.984314 0.831373
0.925490 0.996078 0.894118
0.956863 0.996078 0.890196
0.000000 0.533333 0.737255
0.003922 0.415686 0.674510
0.729412 0.752941 0.956863
0.960784 0.807843 0.913725
0.949020 0.000000 0.262745
0.000000 0.811765 0.843137
0.003922 0.803922 0.847059
0.458824 0.654902 0.752941
0.917647 0.866667 0.905882
1.000000 0.000000 0.305882
0.007843 0.992157 0.917647
0.000000 0.949020 0.862745
0.450980 0.847059 0.792157
0.819608 0.823529 0.803922
1.000000 0.741176 0.576471
0.423529 0.976471 0.811765
0.376471 0.843137 0.678431
0.729412 0.992157 0.862745
0.788235 0.905882 0.803922
0.996078 0.980392 0.835294
0.945098 0.996078 0.960784
1.000000 1.000000 0.992157
0.909804 1.000000 0.917647
0.850980 0.980392 0.858824
1.000000 1.000000 0.968627
0.003922 0.756863 0.847059
0.000000 0.682353 0.788235
0.368627 0.588235 0.725490
0.658824 0.592157 0.666667
1.000000 0.941176 0.968627
0.003922 0.874510 0.894118
0.003922 0.658824 0.690196
0.490196 0.752941 0.827451
0.886275 0.874510 0.909804
0.992157 0.905882 0.913725
0.000000 0.839216 0.780392
0.435294 1.000000 0.984314
0.619608 0.921569 0.898039
0.835294 0.878431 0.862745
0.827451 0.788235 0.749020
0.533333 0.976471 0.898039
0.729412 0.996078 1.000000
0.678431 0.937255 0.882353
0.839216 0.949020 0.890196
1.000000 1.000000 1.000000
0.760784 1.000000 0.878431
0.890196 0.992157 0.956863
0.694118 1.000000 0.803922
0.949020 0.996078 0.949020
0.925490 0.988235 0.847059
0.972549 0.996078 0.996078
0.760784 0.925490 0.972549
0.831373 0.941176 0.984314
0.976471 0.992157 1.000000
1.000000 1.000000 0.992157
0.709804 0.882353 0.925490
0.803922 0.964706 0.980392
0.772549 0.882353 0.937255
0.980392 0.996078 1.000000
1.000000 1.000000 1.000000
0.662745 0.901961 0.921569
0.670588 0.866667 0.909804
0.929412 1.000000 0.988235
0.862745 0.921569 0.949020
1.000000 1.000000 1.000000
0.792157 0.984314 0.972549
0.639216 0.952941 0.956863
1.000000 1.000000 0.992157
0.843137 0.956863 0.949020
1.000000 1.000000 1.000000
1.000000 0.992157 1.000000
1.000000 0.992157 1.000000
0.870588 0.996078 0.984314
0.996078 0.996078 1.000000
0.996078 0.996078 0.996078
