other luts/Cinestill 800T 35mm original.cube
#Generated with IWLTBAP LUT Generator
#Website: http://luts.iwltbap.com
TITLE "ÆØ¹â-1"
#LUT size
LUT_3D_SIZE 25
#LUT data points
0.058824 0.105882 0.152941
0.031373 0.098039 0.129412
0.050980 0.121569 0.137255
0.003922 0.000000 0.031373
0.000000 0.003922 0.000000
0.227451 0.137255 0.168627
0.109804 0.000000 0.000000
0.376471 0.192157 0.168627
0.407843 0.160784 0.125490
0.360784 0.086275 0.000000
0.349020 0.000000 0.003922
0.788235 0.396078 0.262745
0.580392 0.160784 0.000000
0.800000 0.345098 0.152941
0.827451 0.329412 0.113725
0.627451 0.082353 0.000000
0.721569 0.188235 0.000000
0.796078 0.235294 0.000000
0.788235 0.219608 0.000000
0.882353 0.305882 0.003922
0.886275 0.282353 0.007843
1.000000 0.403922 0.207843
0.917647 0.286275 0.082353
1.000000 0.380392 0.223529
0.992157 0.600000 0.466667
0.090196 0.011765 0.054902
0.058824 0.149020 0.172549
0.000000 0.019608 0.050980
0.090196 0.109804 0.125490
0.192157 0.172549 0.188235
0.133333 0.070588 0.074510
0.019608 0.000000 0.003922
0.000000 0.000000 0.007843
0.372549 0.172549 0.105882
0.494118 0.250980 0.160784
0.521569 0.235294 0.105882
0.584314 0.235294 0.070588
0.462745 0.090196 0.011765
0.603922 0.188235 0.000000
0.737255 0.270588 0.003922
0.690196 0.196078 0.000000
0.596078 0.039216 0.000000
0.733333 0.192157 0.007843
1.000000 0.537255 0.309804
1.000000 0.411765 0.180392
0.835294 0.239216 0.000000
0.972549 0.345098 0.141176
0.976471 0.356863 0.172549
0.996078 0.419608 0.247059
1.000000 0.643137 0.509804
0.262745 0.235294 0.266667
0.172549 0.309804 0.317647
0.000000 0.000000 0.007843
0.172549 0.203922 0.211765
0.031373 0.031373 0.031373
0.078431 0.058824 0.043137
0.176471 0.109804 0.070588
0.258824 0.133333 0.082353
0.411765 0.254902 0.152941
0.474510 0.298039 0.184314
0.643137 0.427451 0.274510
0.435294 0.152941 0.000000
0.392157 0.086275 0.000000
0.682353 0.298039 0.058824
0.698039 0.270588 0.000000
0.752941 0.298039 0.003922
0.721569 0.239216 0.003922
0.929412 0.411765 0.160784
0.980392 0.439216 0.196078
0.862745 0.309804 0.031373
0.996078 0.545098 0.329412
0.945098 0.341176 0.137255
0.898039 0.282353 0.082353
0.988235 0.431373 0.274510
0.992157 0.466667 0.321569
0.282353 0.156863 0.168627
0.000000 0.152941 0.133333
0.000000 0.203922 0.149020
0.003922 0.109804 0.074510
0.070588 0.133333 0.090196
0.066667 0.066667 0.019608
0.278431 0.231373 0.168627
0.109804 0.047059 0.000000
0.341176 0.227451 0.109804
0.407843 0.258824 0.117647
0.396078 0.215686 0.023529
0.627451 0.384314 0.200000
0.529412 0.250980 0.007843
0.580392 0.254902 0.000000
0.603922 0.254902 0.000000
0.843137 0.419608 0.168627
0.674510 0.231373 0.003922
0.819608 0.329412 0.066667
0.780392 0.282353 0.003922
0.929412 0.384314 0.152941
0.870588 0.313725 0.062745
1.000000 0.435294 0.231373
0.992157 0.415686 0.215686
1.000000 0.392157 0.219608
0.996078 0.580392 0.427451
0.282353 0.254902 0.215686
0.000000 0.219608 0.176471
0.000000 0.054902 0.000000
0.000000 0.243137 0.145098
0.000000 0.113725 0.003922
0.317647 0.372549 0.282353
0.000000 0.000000 0.000000
0.290196 0.247059 0.121569
0.219608 0.149020 0.000000
0.490196 0.392157 0.235294
0.470588 0.325490 0.149020
0.196078 0.039216 0.000000
0.435294 0.215686 0.000000
0.439216 0.176471 0.007843
0.592157 0.266667 0.007843
0.705882 0.341176 0.035294
0.752941 0.352941 0.058824
0.827451 0.376471 0.113725
0.772549 0.301961 0.000000
0.792157 0.290196 0.000000
0.870588 0.345098 0.098039
0.913725 0.376471 0.160784
1.000000 0.450980 0.270588
0.886275 0.313725 0.121569
1.000000 0.541176 0.384314
0.000000 0.133333 0.078431
0.000000 0.325490 0.262745
0.003922 0.215686 0.160784
0.000000 0.250980 0.164706
0.000000 0.176471 0.062745
0.196078 0.270588 0.152941
0.262745 0.243137 0.117647
0.184314 0.125490 0.000000
0.376471 0.270588 0.101961
0.231373 0.105882 0.015686
0.564706 0.368627 0.168627
0.658824 0.403922 0.184314
0.584314 0.301961 0.011765
0.678431 0.356863 0.066667
0.580392 0.247059 0.000000
0.866667 0.478431 0.223529
0.686275 0.278431 0.000000
0.984314 0.537255 0.294118
0.921569 0.458824 0.215686
0.807843 0.345098 0.094118
0.917647 0.419608 0.203922
0.854902 0.349020 0.121569
0.901961 0.384314 0.192157
1.000000 0.439216 0.266667
1.000000 0.670588 0.529412
0.207843 0.160784 0.003922
0.007843 0.313725 0.211765
0.000000 0.388235 0.278431
0.007843 0.231373 0.070588
0.000000 0.176471 0.000000
0.113725 0.360784 0.184314
0.000000 0.094118 0.000000
0.435294 0.439216 0.266667
0.352941 0.305882 0.101961
0.352941 0.239216 0.003922
0.529412 0.403922 0.172549
0.443137 0.258824 0.000000
0.780392 0.541176 0.294118
0.749020 0.462745 0.196078
0.827451 0.494118 0.239216
0.729412 0.380392 0.105882
0.686275 0.305882 0.000000
0.929412 0.501961 0.270588
0.819608 0.396078 0.152941
0.909804 0.443137 0.215686
0.921569 0.447059 0.239216
0.956863 0.462745 0.262745
0.992157 0.490196 0.298039
1.000000 0.501961 0.341176
0.854902 0.474510 0.345098
0.000000 0.039216 0.000000
0.000000 0.235294 0.090196
0.003922 0.286275 0.141176
0.000000 0.450980 0.274510
0.000000 0.478431 0.262745
0.007843 0.364706 0.125490
0.356863 0.596078 0.360784
0.160784 0.278431 0.003922
0.501961 0.501961 0.290196
0.333333 0.294118 0.023529
0.478431 0.392157 0.156863
0.482353 0.352941 0.090196
0.639216 0.447059 0.215686
0.615686 0.392157 0.121569
0.552941 0.294118 0.000000
0.670588 0.376471 0.121569
0.776471 0.439216 0.200000
0.800000 0.423529 0.188235
0.776471 0.392157 0.137255
0.729412 0.305882 0.054902
0.827451 0.400000 0.180392
0.854902 0.403922 0.192157
1.000000 0.517647 0.337255
0.984314 0.470588 0.298039
1.000000 0.650980 0.517647
0.270588 0.250980 0.023529
0.003922 0.388235 0.239216
0.003922 0.498039 0.313725
0.000000 0.313725 0.105882
0.000000 0.439216 0.211765
0.003922 0.305882 0.000000
0.000000 0.466667 0.188235
0.321569 0.623529 0.341176
0.043137 0.211765 0.003922
0.443137 0.439216 0.215686
0.447059 0.403922 0.152941
0.490196 0.407843 0.145098
0.533333 0.403922 0.141176
0.709804 0.529412 0.286275
0.819608 0.588235 0.352941
0.752941 0.494118 0.258824
0.756863 0.466667 0.227451
0.901961 0.580392 0.360784
0.721569 0.372549 0.137255
0.843137 0.450980 0.247059
0.996078 0.584314 0.368627
0.992157 0.584314 0.384314
0.988235 0.537255 0.360784
0.827451 0.372549 0.211765
0.945098 0.635294 0.505882
0.058824 0.286275 0.000000
0.000000 0.458824 0.270588
0.000000 0.643137 0.443137
0.000000 0.588235 0.368627
0.000000 0.450980 0.219608
0.000000 0.505882 0.231373
0.003922 0.560784 0.262745
0.000000 0.517647 0.223529
0.137255 0.439216 0.133333
0.258824 0.400000 0.023529
0.478431 0.486275 0.231373
0.741176 0.698039 0.447059
0.611765 0.529412 0.274510
0.588235 0.474510 0.207843
0.831373 0.654902 0.423529
0.721569 0.525490 0.286275
0.941176 0.701961 0.478431
0.615686 0.376471 0.121569
0.807843 0.505882 0.286275
0.870588 0.545098 0.333333
0.823529 0.462745 0.278431
0.862745 0.478431 0.294118
0.850980 0.458824 0.266667
1.000000 0.600000 0.431373
0.901961 0.470588 0.325490
0.000000 0.458824 0.262745
0.000000 0.701961 0.486275
0.003922 0.580392 0.376471
0.000000 0.647059 0.435294
0.000000 0.576471 0.349020
0.003922 0.623529 0.392157
0.003922 0.615686 0.337255
0.000000 0.513725 0.215686
0.000000 0.564706 0.254902
0.274510 0.560784 0.243137
0.537255 0.662745 0.376471
0.525490 0.549020 0.305882
0.556863 0.525490 0.278431
0.698039 0.623529 0.392157
0.615686 0.501961 0.266667
0.474510 0.337255 0.109804
0.752941 0.572549 0.368627
0.643137 0.450980 0.231373
0.737255 0.494118 0.294118
0.745098 0.498039 0.290196
0.823529 0.541176 0.345098
1.000000 0.713725 0.521569
0.705882 0.368627 0.184314
1.000000 0.643137 0.498039
0.972549 0.698039 0.564706
0.411765 0.560784 0.219608
0.000000 0.603922 0.392157
0.000000 0.768627 0.549020
0.000000 0.745098 0.494118
0.000000 0.458824 0.219608
0.000000 0.615686 0.364706
0.000000 0.607843 0.349020
0.000000 0.568627 0.250980
0.000000 0.686275 0.384314
0.286275 0.745098 0.435294
0.235294 0.517647 0.196078
0.600000 0.717647 0.427451
0.580392 0.600000 0.349020
0.517647 0.486275 0.243137
0.592157 0.529412 0.294118
0.752941 0.650980 0.427451
0.611765 0.474510 0.262745
0.580392 0.427451 0.211765
0.584314 0.400000 0.188235
0.847059 0.627451 0.427451
0.898039 0.627451 0.462745
0.811765 0.533333 0.360784
1.000000 0.725490 0.552941
0.921569 0.607843 0.462745
0.960784 0.819608 0.686275
0.007843 0.454902 0.109804
0.003922 0.745098 0.525490
0.000000 0.631373 0.396078
0.003922 0.725490 0.490196
0.007843 0.713725 0.458824
0.007843 0.588235 0.352941
0.003922 0.603922 0.352941
0.000000 0.525490 0.227451
0.000000 0.584314 0.262745
0.015686 0.584314 0.274510
0.305882 0.733333 0.415686
0.439216 0.713725 0.376471
0.541176 0.705882 0.376471
0.611765 0.643137 0.407843
0.631373 0.611765 0.384314
0.666667 0.607843 0.384314
0.682353 0.596078 0.372549
0.780392 0.662745 0.450980
0.756863 0.611765 0.407843
0.847059 0.686275 0.482353
0.835294 0.647059 0.458824
0.909804 0.682353 0.501961
0.827451 0.576471 0.403922
0.996078 0.701961 0.580392
0.992157 0.831373 0.705882
0.247059 0.572549 0.211765
0.000000 0.647059 0.443137
0.000000 0.776471 0.545098
0.003922 0.701961 0.466667
0.003922 0.662745 0.419608
0.000000 0.745098 0.501961
0.007843 0.552941 0.298039
0.000000 0.847059 0.576471
0.000000 0.666667 0.360784
0.000000 0.811765 0.490196
0.000000 0.717647 0.403922
0.317647 0.713725 0.407843
0.525490 0.780392 0.466667
0.478431 0.611765 0.321569
0.619608 0.650980 0.419608
0.650980 0.631373 0.403922
0.698039 0.654902 0.435294
0.686275 0.600000 0.403922
0.682353 0.564706 0.360784
0.811765 0.670588 0.482353
0.831373 0.670588 0.498039
0.827451 0.627451 0.458824
0.878431 0.670588 0.505882
0.882353 0.670588 0.521569
1.000000 0.945098 0.839216
0.000000 0.556863 0.211765
0.003922 0.803922 0.596078
0.007843 0.733333 0.505882
0.003922 0.643137 0.419608
0.000000 0.682353 0.450980
0.000000 0.803922 0.568627
0.000000 0.674510 0.427451
0.003922 0.909804 0.643137
0.000000 0.666667 0.368627
0.003922 0.674510 0.364706
0.000000 0.764706 0.443137
0.117647 0.713725 0.388235
0.392157 0.764706 0.447059
0.517647 0.772549 0.458824
0.501961 0.643137 0.352941
0.639216 0.670588 0.447059
0.596078 0.592157 0.368627
0.737255 0.717647 0.501961
0.901961 0.819608 0.635294
0.631373 0.537255 0.349020
0.870588 0.741176 0.564706
1.000000 0.866667 0.701961
0.749020 0.584314 0.435294
0.882353 0.694118 0.545098
0.862745 0.654902 0.529412
0.000000 0.780392 0.564706
0.003922 0.976471 0.772549
0.000000 0.941176 0.725490
0.000000 0.784314 0.580392
0.000000 0.858824 0.650980
0.000000 0.670588 0.443137
0.007843 0.749020 0.537255
0.011765 0.866667 0.631373
0.000000 0.839216 0.596078
0.007843 0.858824 0.588235
0.000000 0.733333 0.431373
0.007843 0.917647 0.627451
0.160784 0.796078 0.501961
0.325490 0.764706 0.482353
0.580392 0.878431 0.596078
0.607843 0.784314 0.521569
0.505882 0.600000 0.372549
0.823529 0.847059 0.658824
0.682353 0.674510 0.474510
0.768627 0.721569 0.533333
0.756863 0.686275 0.505882
0.964706 0.866667 0.705882
0.866667 0.741176 0.588235
0.768627 0.619608 0.466667
0.992157 0.937255 0.831373
0.000000 0.678431 0.235294
0.000000 0.839216 0.639216
0.000000 0.717647 0.505882
0.003922 0.764706 0.556863
0.000000 0.760784 0.525490
0.000000 0.874510 0.662745
0.003922 0.803922 0.596078
0.000000 0.764706 0.537255
0.003922 0.886275 0.658824
0.003922 0.835294 0.603922
0.003922 0.556863 0.286275
0.203922 1.000000 0.772549
0.000000 0.807843 0.525490
0.247059 0.815686 0.552941
0.384314 0.788235 0.517647
0.521569 0.803922 0.545098
0.721569 0.901961 0.650980
0.682353 0.752941 0.549020
0.807843 0.831373 0.643137
0.725490 0.717647 0.529412
0.780392 0.745098 0.576471
0.717647 0.639216 0.494118
0.909804 0.815686 0.682353
0.905882 0.768627 0.611765
1.000000 1.000000 0.933333
0.000000 0.713725 0.247059
0.482353 1.000000 1.000000
0.003922 0.807843 0.588235
0.000000 0.882353 0.674510
0.000000 0.901961 0.690196
0.000000 1.000000 0.843137
0.000000 0.705882 0.498039
0.003922 0.909804 0.698039
0.003922 0.941176 0.725490
0.003922 0.745098 0.517647
0.007843 0.890196 0.662745
0.000000 0.839216 0.564706
0.000000 0.831373 0.556863
0.000000 0.839216 0.576471
0.380392 0.874510 0.627451
0.509804 0.882353 0.623529
0.560784 0.835294 0.592157
0.752941 0.925490 0.686275
0.607843 0.678431 0.490196
0.835294 0.862745 0.698039
0.843137 0.847059 0.713725
0.749020 0.717647 0.564706
0.960784 0.898039 0.756863
0.917647 0.831373 0.686275
0.905882 0.886275 0.772549
0.000000 0.835294 0.372549
0.000000 0.858824 0.698039
0.007843 0.972549 0.772549
0.000000 0.941176 0.749020
0.000000 0.984314 0.792157
0.003922 0.760784 0.576471
0.000000 0.976471 0.796078
0.003922 0.811765 0.619608
0.000000 0.913725 0.705882
0.000000 0.819608 0.603922
0.000000 0.988235 0.772549
0.003922 0.886275 0.627451
0.003922 0.839216 0.588235
0.121569 0.945098 0.690196
0.301961 0.901961 0.650980
0.368627 0.847059 0.615686
0.474510 0.831373 0.600000
0.654902 0.894118 0.670588
0.901961 1.000000 0.819608
0.596078 0.662745 0.486275
0.788235 0.807843 0.650980
0.835294 0.823529 0.701961
0.811765 0.788235 0.654902
0.737255 0.666667 0.525490
0.784314 0.862745 0.717647
0.000000 0.847059 0.435294
0.000000 0.850980 0.674510
0.000000 1.000000 0.827451
0.000000 0.941176 0.764706
0.003922 0.870588 0.701961
0.007843 0.725490 0.545098
0.000000 0.996078 0.823529
0.003922 0.682353 0.505882
0.003922 0.815686 0.643137
0.003922 0.933333 0.752941
0.003922 0.921569 0.713725
0.000000 0.890196 0.658824
0.003922 0.788235 0.545098
0.007843 0.733333 0.505882
0.290196 0.972549 0.733333
0.431373 0.960784 0.733333
0.372549 0.815686 0.596078
0.635294 0.960784 0.741176
0.525490 0.760784 0.549020
0.839216 0.980392 0.792157
0.752941 0.835294 0.666667
0.682353 0.705882 0.572549
0.886275 0.898039 0.776471
0.890196 0.862745 0.749020
0.905882 0.874510 0.784314
0.003922 0.917647 0.835294
0.003922 0.956863 0.886275
0.003922 0.964706 0.894118
0.227451 1.000000 0.945098
0.000000 0.937255 0.862745
0.419608 1.000000 1.000000
0.000000 0.952941 0.854902
0.000000 0.933333 0.819608
0.160784 0.992157 0.901961
0.050980 0.988235 0.866667
0.325490 1.000000 0.913725
0.078431 0.850980 0.733333
0.372549 0.913725 0.784314
0.584314 1.000000 0.886275
0.666667 1.000000 0.886275
0.627451 0.878431 0.772549
0.725490 0.913725 0.811765
0.729412 0.858824 0.776471
0.905882 0.988235 0.929412
0.764706 0.827451 0.776471
0.729412 0.772549 0.709804
0.996078 1.000000 1.000000
0.815686 0.800000 0.752941
1.000000 0.980392 0.956863
1.000000 0.992157 1.000000
0.450980 1.000000 0.815686
0.007843 0.917647 0.854902
0.568627 1.000000 0.996078
0.003922 0.823529 0.737255
0.329412 1.000000 0.956863
0.282353 0.996078 0.937255
0.000000 0.949020 0.850980
0.227451 1.000000 0.905882
0.109804 0.956863 0.862745
0.003922 0.843137 0.733333
0.196078 0.980392 0.866667
0.729412 1.000000 1.000000
0.352941 0.909804 0.807843
0.929412 1.000000 1.000000
0.498039 0.890196 0.788235
0.827451 1.000000 0.984314
0.800000 1.000000 0.933333
0.752941 0.925490 0.835294
0.709804 0.819608 0.764706
0.737255 0.803922 0.772549
0.811765 0.874510 0.823529
0.835294 0.874510 0.831373
0.894118 0.917647 0.878431
0.972549 0.960784 0.933333
0.886275 0.968627 0.941176
0.258824 0.890196 0.729412
0.000000 0.937255 0.800000
0.258824 0.992157 0.925490
0.733333 1.000000 1.000000
0.000000 0.956863 0.823529
0.000000 0.952941 0.803922
0.823529 1.000000 1.000000
0.278431 0.996078 0.909804
0.101961 0.968627 0.847059
0.341176 1.000000 0.921569
0.650980 1.000000 1.000000
0.360784 1.000000 0.886275
0.462745 1.000000 0.905882
0.545098 1.000000 0.909804
0.611765 1.000000 0.921569
0.800000 1.000000 1.000000
0.874510 0.992157 0.992157
0.811765 1.000000 0.937255
0.709804 0.878431 0.803922
0.913725 0.996078 0.960784
0.674510 0.764706 0.741176
0.831373 0.890196 0.862745
0.941176 0.992157 0.964706
0.843137 0.886275 0.862745
0.898039 0.972549 0.956863
0.607843 1.000000 0.952941
0.611765 1.000000 1.000000
0.007843 1.000000 0.890196
0.000000 0.968627 0.780392
0.996078 1.000000 1.000000
0.000000 0.980392 0.796078
0.431373 1.000000 0.949020
0.098039 1.000000 0.898039
0.682353 1.000000 1.000000
0.686275 1.000000 0.988235
0.156863 0.984314 0.858824
0.372549 1.000000 0.890196
0.529412 1.000000 0.952941
0.537255 0.996078 0.921569
0.274510 0.945098 0.780392
0.968627 1.000000 1.000000
0.662745 0.980392 0.913725
0.745098 0.988235 0.937255
0.811765 0.992157 0.949020
0.619608 0.882353 0.760784
0.823529 0.929412 0.901961
0.886275 0.976471 0.952941
0.901961 0.988235 0.976471
0.882353 0.937255 0.941176
0.905882 1.000000 0.992157
0.600000 0.992157 0.960784
0.392157 1.000000 0.972549
0.701961 1.000000 1.000000
0.549020 1.000000 0.988235
0.839216 0.996078 1.000000
0.756863 0.996078 1.000000
0.717647 0.996078 1.000000
0.882353 1.000000 0.992157
0.545098 0.996078 0.976471
0.509804 1.000000 0.964706
0.313725 1.000000 0.949020
0.960784 1.000000 1.000000
0.878431 0.996078 1.000000
0.913725 1.000000 0.992157
0.329412 1.000000 0.898039
0.588235 1.000000 0.933333
0.658824 1.000000 0.949020
0.909804 1.000000 1.000000
1.000000 0.996078 1.000000
0.756863 0.984314 0.937255
0.662745 0.929412 0.886275
0.905882 0.988235 0.992157
0.917647 0.996078 0.992157
0.901961 0.984314 0.988235
0.811765 0.929412 0.929412
0.094118 0.200000 0.227451
0.000000 0.003922 0.023529
0.000000 0.000000 0.007843
0.019608 0.180392 0.196078
0.000000 0.117647 0.125490
0.003922 0.117647 0.101961
0.000000 0.098039 0.062745
0.172549 0.223529 0.156863
0.262745 0.250980 0.176471
0.360784 0.317647 0.207843
0.376471 0.286275 0.152941
0.384314 0.298039 0.113725
0.325490 0.207843 0.003922
0.301961 0.172549 0.003922
0.576471 0.407843 0.192157
0.600000 0.376471 0.113725
0.513725 0.266667 0.000000
0.643137 0.333333 0.023529
0.607843 0.298039 0.003922
0.658824 0.321569 0.000000
0.658824 0.290196 0.007843
0.745098 0.333333 0.015686
0.843137 0.396078 0.121569
0.800000 0.333333 0.003922
0.796078 0.537255 0.196078
0.058824 0.117647 0.129412
0.003922 0.086275 0.090196
0.003922 0.019608 0.031373
0.000000 0.180392 0.172549
0.000000 0.109804 0.094118
0.015686 0.290196 0.250980
0.000000 0.247059 0.172549
0.000000 0.164706 0.070588
0.149020 0.211765 0.098039
0.211765 0.196078 0.082353
0.258824 0.211765 0.047059
0.164706 0.109804 0.000000
0.431373 0.329412 0.129412
0.313725 0.196078 0.000000
0.349020 0.223529 0.000000
0.415686 0.239216 0.007843
0.549020 0.333333 0.011765
0.658824 0.396078 0.086275
0.690196 0.396078 0.078431
0.866667 0.525490 0.247059
0.764706 0.388235 0.086275
0.858824 0.458824 0.168627
0.850980 0.439216 0.180392
0.882353 0.439216 0.141176
0.803922 0.596078 0.227451
0.003922 0.180392 0.168627
0.000000 0.145098 0.125490
0.007843 0.168627 0.145098
0.000000 0.207843 0.172549
0.003922 0.152941 0.101961
0.011765 0.105882 0.054902
0.000000 0.074510 0.000000
0.000000 0.247059 0.098039
0.054902 0.243137 0.078431
0.207843 0.274510 0.098039
0.364706 0.349020 0.200000
0.305882 0.282353 0.086275
0.258824 0.196078 0.000000
0.192157 0.117647 0.000000
0.549020 0.427451 0.176471
0.454902 0.317647 0.000000
0.447059 0.258824 0.007843
0.525490 0.317647 0.003922
0.521569 0.286275 0.003922
0.462745 0.203922 0.007843
0.654902 0.360784 0.000000
0.698039 0.349020 0.000000
0.886275 0.486275 0.203922
0.952941 0.517647 0.247059
0.827451 0.623529 0.286275
0.000000 0.074510 0.000000
0.000000 0.254902 0.200000
0.011765 0.200000 0.152941
0.000000 0.294118 0.223529
0.003922 0.156863 0.082353
0.000000 0.372549 0.266667
0.000000 0.352941 0.215686
0.011765 0.196078 0.023529
0.000000 0.352941 0.121569
0.000000 0.180392 0.000000
0.243137 0.337255 0.101961
0.313725 0.313725 0.117647
0.345098 0.329412 0.090196
0.215686 0.184314 0.000000
0.458824 0.364706 0.090196
0.239216 0.137255 0.000000
0.584314 0.423529 0.109804
0.572549 0.403922 0.031373
0.596078 0.376471 0.003922
0.572549 0.329412 0.000000
0.792157 0.501961 0.160784
0.803922 0.470588 0.145098
0.643137 0.286275 0.000000
0.674510 0.298039 0.000000
0.792157 0.627451 0.290196
0.003922 0.250980 0.145098
0.003922 0.368627 0.286275
0.000000 0.380392 0.282353
0.000000 0.219608 0.113725
0.003922 0.262745 0.152941
0.000000 0.360784 0.215686
0.000000 0.298039 0.141176
0.000000 0.164706 0.000000
0.007843 0.188235 0.003922
0.003922 0.419608 0.160784
0.152941 0.360784 0.086275
0.094118 0.203922 0.003922
0.156863 0.207843 0.000000
0.329412 0.329412 0.054902
0.333333 0.286275 0.000000
0.400000 0.309804 0.011765
0.501961 0.388235 0.000000
0.564706 0.400000 0.000000
0.533333 0.345098 0.011765
0.721569 0.505882 0.141176
0.717647 0.466667 0.086275
0.654902 0.368627 0.007843
0.701961 0.376471 0.007843
1.000000 0.749020 0.474510
0.670588 0.294118 0.000000
0.000000 0.207843 0.184314
0.023529 0.454902 0.419608
0.000000 0.164706 0.129412
0.011765 0.172549 0.117647
0.164706 0.419608 0.325490
0.062745 0.156863 0.062745
0.301961 0.298039 0.215686
0.309804 0.254902 0.149020
0.223529 0.149020 0.023529
0.321569 0.211765 0.058824
0.368627 0.200000 0.023529
0.462745 0.262745 0.054902
0.607843 0.360784 0.152941
0.611765 0.313725 0.086275
0.694118 0.352941 0.141176
0.800000 0.431373 0.219608
0.784314 0.392157 0.188235
0.945098 0.533333 0.317647
0.537255 0.098039 0.003922
1.000000 0.537255 0.356863
0.858824 0.388235 0.192157
0.811765 0.321569 0.133333
0.945098 0.396078 0.258824
0.929412 0.380392 0.239216
0.988235 0.505882 0.376471
0.247059 0.188235 0.035294
0.000000 0.411765 0.388235
0.000000 0.125490 0.035294
0.000000 0.368627 0.258824
0.000000 0.262745 0.125490
0.000000 0.211765 0.074510
0.250980 0.352941 0.215686
0.203922 0.215686 0.094118
0.325490 0.294118 0.152941
0.278431 0.207843 0.011765
0.396078 0.294118 0.101961
0.431373 0.262745 0.047059
0.466667 0.262745 0.027451
0.498039 0.247059 0.003922
0.623529 0.341176 0.109804
0.513725 0.200000 0.000000
0.733333 0.384314 0.164706
0.721569 0.349020 0.137255
0.827451 0.419608 0.203922
0.768627 0.333333 0.125490
0.827451 0.372549 0.188235
0.749020 0.286275 0.105882
0.878431 0.384314 0.223529
0.898039 0.368627 0.243137
1.000000 0.737255 0.607843
0.176471 0.235294 0.074510
0.007843 0.443137 0.380392
0.000000 0.278431 0.172549
0.000000 0.305882 0.184314
0.000000 0.368627 0.223529
0.000000 0.392157 0.227451
0.070588 0.349020 0.184314
0.188235 0.298039 0.105882
0.282353 0.290196 0.137255
0.423529 0.400000 0.211765
0.486275 0.400000 0.203922
0.490196 0.368627 0.156863
0.647059 0.501961 0.298039
0.556863 0.364706 0.137255
0.682353 0.443137 0.231373
0.831373 0.549020 0.321569
0.811765 0.494118 0.286275
0.721569 0.400000 0.180392
0.807843 0.439216 0.235294
0.776471 0.396078 0.196078
0.925490 0.525490 0.333333
0.996078 0.560784 0.384314
0.831373 0.360784 0.215686
0.898039 0.407843 0.290196
1.000000 0.698039 0.580392
0.133333 0.121569 0.000000
0.000000 0.435294 0.368627
0.000000 0.415686 0.282353
0.000000 0.423529 0.262745
0.003922 0.364706 0.203922
0.003922 0.419608 0.231373
0.000000 0.509804 0.286275
0.000000 0.360784 0.145098
0.250980 0.400000 0.168627
0.372549 0.396078 0.207843
0.360784 0.341176 0.121569
0.588235 0.521569 0.317647
0.643137 0.537255 0.321569
0.454902 0.317647 0.090196
0.545098 0.372549 0.133333
0.635294 0.411765 0.203922
0.647059 0.403922 0.180392
0.721569 0.427451 0.211765
0.772549 0.454902 0.247059
0.772549 0.415686 0.231373
0.866667 0.490196 0.301961
0.756863 0.360784 0.180392
1.000000 0.650980 0.478431
0.890196 0.403922 0.294118
1.000000 0.725490 0.615686
0.164706 0.364706 0.141176
0.007843 0.196078 0.109804
0.003922 0.615686 0.470588
0.000000 0.490196 0.313725
0.000000 0.482353 0.298039
0.003922 0.278431 0.082353
0.000000 0.478431 0.239216
0.000000 0.450980 0.203922
0.211765 0.505882 0.250980
0.392157 0.533333 0.258824
0.482353 0.509804 0.305882
0.552941 0.529412 0.301961
0.662745 0.615686 0.388235
0.529412 0.427451 0.196078
0.529412 0.403922 0.164706
0.729412 0.560784 0.352941
0.623529 0.415686 0.203922
0.788235 0.552941 0.349020
0.819608 0.545098 0.352941
0.917647 0.603922 0.411765
0.713725 0.392157 0.196078
0.807843 0.443137 0.274510
0.996078 0.772549 0.603922
0.952941 0.552941 0.403922
0.929412 0.521569 0.384314
0.007843 0.725490 0.545098
0.003922 0.537255 0.356863
0.003922 0.564706 0.392157
0.000000 0.592157 0.407843
0.003922 0.576471 0.384314
0.000000 0.447059 0.231373
0.000000 0.564706 0.301961
0.000000 0.694118 0.411765
0.270588 0.717647 0.447059
