other luts/Cinestill 800T 35mm 偏绿.cube
#Generated with IWLTBAP LUT Generator
#Website: http://luts.iwltbap.com
TITLE "ф╚бл"
#LUT size
LUT_3D_SIZE 9
#LUT data points
0.125490 0.015686 0.062745
0.000000 0.000000 0.000000
0.231373 0.000000 0.086275
0.294118 0.000000 0.078431
0.360784 0.000000 0.058824
0.556863 0.003922 0.078431
0.588235 0.003922 0.011765
0.870588 0.000000 0.058824
0.752941 0.000000 0.000000
0.121569 0.172549 0.133333
0.000000 0.000000 0.000000
0.168627 0.149020 0.062745
0.282353 0.184314 0.066667
0.341176 0.098039 0.000000
0.462745 0.019608 0.000000
0.533333 0.003922 0.000000
0.890196 0.000000 0.000000
0.964706 0.003922 0.000000
0.000000 0.215686 0.000000
0.003922 0.125490 0.000000
0.015686 0.337255 0.149020
0.133333 0.278431 0.003922
0.392157 0.372549 0.003922
0.537255 0.313725 0.011765
0.717647 0.313725 0.003922
0.717647 0.000000 0.000000
0.992157 0.000000 0.007843
0.000000 0.400000 0.062745
0.000000 0.450980 0.156863
0.000000 0.529412 0.258824
0.000000 0.392157 0.086275
0.423529 0.619608 0.176471
0.403922 0.427451 0.011765
0.698039 0.560784 0.003922
0.996078 0.741176 0.000000
0.992157 0.650980 0.003922
0.000000 0.925490 0.592157
0.003922 0.831373 0.521569
0.000000 0.694118 0.364706
0.003922 0.709804 0.423529
0.227451 0.686275 0.341176
0.474510 0.658824 0.149020
0.870588 0.847059 0.266667
0.776471 0.639216 0.000000
0.996078 0.776471 0.003922
0.000000 0.913725 0.603922
0.007843 0.933333 0.650980
0.000000 0.788235 0.482353
0.000000 0.666667 0.380392
0.003922 0.733333 0.454902
0.388235 0.741176 0.400000
0.678431 0.803922 0.368627
0.925490 0.882353 0.380392
1.000000 0.921569 0.400000
0.007843 0.933333 0.674510
0.200000 0.952941 0.729412
0.309804 0.988235 0.737255
0.356863 0.960784 0.709804
0.368627 0.858824 0.631373
0.686275 0.996078 0.780392
0.764706 0.968627 0.717647
0.827451 0.886275 0.552941
1.000000 1.000000 0.780392
0.596078 0.980392 0.788235
0.549020 0.925490 0.745098
0.509804 0.890196 0.690196
0.615686 0.960784 0.764706
0.592157 0.898039 0.709804
0.752941 0.992157 0.827451
0.776471 0.964706 0.776471
0.925490 1.000000 0.823529
1.000000 1.000000 0.847059
0.800000 1.000000 0.831373
1.000000 1.000000 1.000000
0.866667 0.996078 0.874510
0.819608 0.992157 0.850980
0.807843 0.984314 0.815686
0.874510 0.992157 0.858824
0.890196 0.988235 0.862745
0.992157 1.000000 0.913725
1.000000 1.000000 0.921569
0.027451 0.015686 0.050980
0.133333 0.031373 0.129412
0.000000 0.003922 0.000000
0.164706 0.003922 0.000000
0.435294 0.168627 0.023529
0.450980 0.000000 0.000000
0.709804 0.011765 0.003922
0.909804 0.000000 0.000000
0.980392 0.003922 0.000000
0.000000 0.200000 0.180392
0.011765 0.180392 0.152941
0.184314 0.196078 0.168627
0.321569 0.211765 0.125490
0.403922 0.203922 0.000000
0.596078 0.270588 0.003922
0.482353 0.003922 0.000000
0.780392 0.003922 0.007843
0.992157 0.000000 0.007843
0.000000 0.321569 0.141176
0.000000 0.462745 0.286275
0.000000 0.309804 0.184314
0.133333 0.309804 0.094118
0.396078 0.380392 0.090196
0.470588 0.301961 0.000000
0.756863 0.415686 0.003922
0.964706 0.419608 0.007843
0.796078 0.003922 0.000000
0.000000 0.733333 0.462745
0.007843 0.541176 0.290196
0.000000 0.552941 0.333333
0.231373 0.678431 0.478431
0.419608 0.643137 0.333333
0.333333 0.368627 0.003922
0.827451 0.701961 0.039216
0.835294 0.580392 0.007843
1.000000 0.631373 0.003922
0.003922 0.741176 0.450980
0.000000 0.623529 0.360784
0.000000 0.741176 0.490196
0.000000 0.737255 0.509804
0.333333 0.768627 0.501961
0.537255 0.745098 0.384314
0.901961 0.901961 0.462745
0.996078 0.972549 0.345098
0.976471 0.745098 0.007843
0.000000 0.905882 0.631373
0.000000 0.827451 0.564706
0.000000 0.843137 0.580392
0.000000 0.854902 0.619608
0.231373 0.803922 0.560784
0.356863 0.721569 0.443137
0.847059 0.980392 0.643137
0.976471 0.941176 0.545098
1.000000 0.929412 0.396078
0.000000 0.898039 0.674510
0.003922 0.858824 0.631373
0.341176 0.925490 0.709804
0.380392 0.925490 0.709804
0.360784 0.807843 0.603922
0.596078 0.917647 0.729412
0.839216 0.996078 0.800000
0.925490 1.000000 0.733333
0.882353 0.850980 0.517647
0.698039 1.000000 0.866667
0.545098 0.898039 0.698039
0.839216 1.000000 0.929412
0.800000 1.000000 0.878431
0.796078 0.996078 0.866667
0.870588 0.996078 0.901961
1.000000 1.000000 0.952941
0.909804 1.000000 0.819608
0.968627 0.988235 0.776471
1.000000 0.996078 1.000000
0.772549 0.992157 0.807843
0.996078 1.000000 1.000000
0.831373 0.996078 0.847059
0.678431 0.968627 0.737255
0.858824 0.980392 0.854902
1.000000 1.000000 0.984314
0.941176 1.000000 0.886275
0.878431 0.992157 0.780392
0.000000 0.003922 0.125490
0.000000 0.082353 0.254902
0.094118 0.129412 0.290196
0.145098 0.090196 0.156863
0.309804 0.003922 0.098039
0.600000 0.003922 0.156863
0.858824 0.223529 0.164706
0.780392 0.003922 0.000000
0.960784 0.000000 0.000000
0.000000 0.384314 0.435294
0.000000 0.231373 0.250980
0.003922 0.219608 0.298039
0.141176 0.219608 0.247059
0.443137 0.196078 0.239216
0.529412 0.098039 0.101961
0.796078 0.286275 0.090196
0.964706 0.392157 0.003922
0.996078 0.305882 0.007843
0.000000 0.517647 0.462745
0.000000 0.541176 0.490196
0.000000 0.396078 0.352941
0.188235 0.427451 0.407843
0.494118 0.435294 0.345098
0.666667 0.439216 0.282353
0.807843 0.458824 0.184314
0.949020 0.525490 0.000000
0.933333 0.290196 0.007843
0.007843 0.603922 0.454902
0.000000 0.643137 0.498039
0.000000 0.654902 0.517647
0.000000 0.592157 0.494118
0.552941 0.807843 0.674510
0.576471 0.639216 0.454902
0.674510 0.584314 0.321569
1.000000 0.768627 0.313725
0.925490 0.568627 0.007843
0.003922 0.835294 0.639216
0.007843 0.768627 0.564706
0.003922 0.882353 0.686275
0.321569 0.905882 0.749020
0.372549 0.768627 0.635294
0.552941 0.764706 0.568627
0.690196 0.709804 0.450980
0.996078 0.929412 0.607843
0.866667 0.666667 0.000000
0.007843 0.866667 0.647059
0.003922 0.941176 0.717647
0.003922 0.858824 0.654902
0.305882 0.905882 0.725490
0.325490 0.796078 0.615686
0.576471 0.878431 0.698039
0.607843 0.729412 0.505882
0.894118 0.882353 0.619608
1.000000 0.976471 0.643137
0.180392 0.929412 0.729412
0.149020 0.870588 0.666667
0.427451 0.960784 0.764706
0.564706 0.960784 0.796078
0.568627 0.925490 0.752941
0.686275 0.964706 0.807843
0.552941 0.745098 0.560784
0.874510 0.956863 0.737255
0.976471 0.945098 0.701961
0.462745 0.839216 0.658824
0.647059 0.972549 0.807843
0.713725 1.000000 0.854902
0.713725 0.976471 0.807843
1.000000 1.000000 0.984314
0.929412 1.000000 0.937255
0.956863 1.000000 0.925490
0.854902 0.952941 0.796078
0.827451 0.921569 0.694118
1.000000 1.000000 1.000000
0.996078 1.000000 1.000000
0.800000 0.988235 0.831373
0.925490 1.000000 0.921569
0.827451 0.992157 0.850980
0.964706 0.996078 0.937255
0.819608 0.980392 0.815686
1.000000 1.000000 0.952941
0.909804 0.980392 0.823529
0.003922 0.376471 0.603922
0.000000 0.372549 0.611765
0.000000 0.274510 0.556863
0.231373 0.325490 0.560784
0.423529 0.356863 0.529412
0.603922 0.392157 0.525490
0.756863 0.070588 0.333333
0.886275 0.000000 0.211765
0.996078 0.000000 0.007843
0.000000 0.352941 0.474510
0.007843 0.552941 0.674510
0.007843 0.431373 0.580392
0.000000 0.325490 0.498039
0.509804 0.525490 0.662745
0.654902 0.541176 0.627451
0.717647 0.164706 0.333333
0.854902 0.000000 0.196078
0.956863 0.113725 0.003922
0.000000 0.474510 0.517647
0.000000 0.800000 0.827451
0.000000 0.607843 0.643137
0.007843 0.407843 0.498039
0.537255 0.678431 0.733333
0.615686 0.505882 0.560784
0.541176 0.074510 0.184314
0.925490 0.325490 0.262745
1.000000 0.380392 0.011765
0.000000 0.737255 0.678431
0.000000 1.000000 0.968627
0.007843 0.658824 0.619608
0.000000 0.643137 0.607843
0.447059 0.741176 0.721569
0.556863 0.600000 0.576471
0.670588 0.541176 0.466667
0.874510 0.596078 0.423529
1.000000 0.701961 0.278431
0.000000 0.776471 0.670588
0.000000 0.694118 0.580392
0.003922 0.843137 0.733333
0.188235 0.898039 0.776471
0.317647 0.674510 0.603922
0.619608 0.803922 0.725490
0.709804 0.752941 0.619608
0.960784 0.874510 0.713725
1.000000 0.984314 0.694118
0.003922 0.839216 0.658824
0.015686 0.866667 0.698039
0.000000 0.980392 0.803922
0.101961 0.784314 0.639216
0.552941 0.894118 0.760784
0.439216 0.690196 0.584314
0.839216 0.952941 0.835294
0.996078 1.000000 0.921569
0.945098 0.874510 0.678431
0.466667 0.996078 0.866667
0.411765 0.960784 0.807843
0.431373 0.909804 0.756863
0.525490 0.898039 0.733333
0.847059 0.996078 0.937255
0.784314 0.996078 0.870588
0.752941 0.917647 0.776471
0.901961 0.964706 0.819608
0.917647 0.901961 0.725490
0.741176 0.996078 0.878431
0.698039 0.996078 0.847059
0.705882 0.984314 0.850980
0.890196 1.000000 0.945098
0.662745 0.882353 0.737255
0.996078 1.000000 1.000000
0.882353 1.000000 0.870588
0.858824 0.964706 0.803922
0.992157 0.996078 0.870588
0.901961 1.000000 0.917647
1.000000 1.000000 1.000000
0.862745 0.992157 0.886275
0.713725 0.984314 0.768627
0.749020 0.976471 0.780392
0.819608 0.984314 0.835294
0.713725 0.960784 0.752941
0.996078 1.000000 0.952941
1.000000 1.000000 0.972549
0.000000 0.556863 0.764706
0.000000 0.470588 0.694118
0.007843 0.733333 0.984314
0.000000 0.454902 0.729412
0.564706 0.596078 0.788235
0.760784 0.654902 0.854902
0.686275 0.525490 0.643137
0.749020 0.211765 0.478431
0.901961 0.003922 0.235294
0.003922 0.596078 0.709804
0.007843 0.458824 0.580392
0.000000 0.674510 0.807843
0.000000 0.592157 0.768627
0.588235 0.701961 0.835294
0.721569 0.678431 0.811765
0.717647 0.600000 0.694118
0.901961 0.470588 0.647059
0.835294 0.011765 0.203922
0.003922 0.737255 0.772549
0.000000 0.639216 0.662745
0.000000 0.831373 0.886275
0.003922 0.670588 0.760784
0.694118 0.890196 0.980392
0.658824 0.678431 0.756863
0.741176 0.701961 0.737255
0.827451 0.368627 0.545098
0.980392 0.003922 0.270588
0.000000 0.760784 0.713725
0.000000 0.827451 0.792157
0.000000 0.835294 0.811765
0.325490 0.941176 0.913725
0.431373 0.737255 0.737255
0.670588 0.772549 0.768627
0.847059 0.862745 0.858824
1.000000 0.678431 0.768627
0.956863 0.313725 0.305882
0.000000 0.941176 0.843137
0.000000 1.000000 0.905882
0.000000 0.713725 0.635294
0.247059 0.905882 0.839216
0.501961 0.886275 0.827451
0.639216 0.819608 0.780392
0.850980 0.839216 0.811765
0.898039 0.733333 0.670588
0.901961 0.607843 0.443137
0.000000 0.921569 0.800000
0.000000 0.905882 0.772549
0.290196 0.988235 0.862745
0.447059 0.956863 0.847059
0.435294 0.800000 0.694118
0.686275 0.874510 0.788235
0.850980 0.952941 0.854902
0.956863 0.949020 0.858824
0.992157 0.929412 0.788235
0.882353 1.000000 0.992157
0.505882 1.000000 0.854902
0.607843 1.000000 0.890196
0.498039 0.862745 0.741176
0.682353 0.945098 0.807843
0.623529 0.792157 0.674510
0.811765 0.925490 0.807843
0.780392 0.843137 0.729412
0.839216 0.827451 0.690196
0.615686 0.976471 0.815686
0.623529 0.960784 0.807843
0.996078 1.000000 0.992157
0.509804 0.874510 0.666667
0.796078 0.972549 0.843137
0.843137 0.980392 0.862745
0.937255 1.000000 0.929412
0.788235 0.890196 0.752941
0.901961 0.964706 0.811765
0.807843 1.000000 0.874510
0.619608 0.988235 0.752941
0.698039 0.988235 0.788235
1.000000 1.000000 0.992157
0.803922 0.992157 0.835294
0.909804 0.992157 0.917647
1.000000 1.000000 1.000000
0.874510 0.976471 0.839216
1.000000 1.000000 1.000000
0.000000 0.729412 0.878431
0.003922 0.725490 0.866667
0.000000 0.537255 0.717647
0.000000 0.580392 0.788235
0.490196 0.631373 0.819608
0.729412 0.701961 0.835294
0.709804 0.588235 0.713725
0.941176 0.788235 0.862745
1.000000 0.690196 0.835294
0.003922 0.737255 0.811765
0.000000 0.650980 0.737255
0.000000 0.588235 0.682353
0.235294 0.749020 0.866667
0.580392 0.776471 0.905882
0.701961 0.709804 0.807843
0.898039 0.827451 0.921569
0.925490 0.800000 0.850980
1.000000 0.819608 0.913725
0.007843 0.772549 0.796078
0.000000 0.694118 0.725490
0.003922 0.741176 0.784314
0.278431 0.788235 0.850980
0.388235 0.670588 0.764706
0.788235 0.854902 0.917647
0.815686 0.760784 0.827451
0.878431 0.788235 0.811765
0.921569 0.596078 0.705882
0.000000 0.823529 0.800000
0.015686 0.905882 0.878431
0.000000 0.886275 0.870588
0.007843 0.709804 0.694118
0.768627 0.996078 1.000000
0.784314 0.933333 0.937255
0.894118 0.917647 0.917647
0.874510 0.854902 0.839216
0.996078 0.898039 0.972549
0.000000 1.000000 0.937255
0.003922 0.898039 0.831373
0.203922 0.996078 0.941176
0.364706 0.941176 0.878431
0.474510 0.850980 0.807843
0.674510 0.854902 0.815686
0.745098 0.823529 0.780392
1.000000 0.964706 0.960784
0.874510 0.368627 0.517647
0.000000 0.917647 0.819608
0.000000 0.941176 0.835294
0.207843 0.929412 0.835294
0.474510 0.976471 0.886275
0.525490 0.890196 0.815686
0.623529 0.835294 0.772549
0.980392 1.000000 0.996078
0.992157 0.937255 0.901961
0.964706 0.745098 0.686275
0.450980 0.937255 0.835294
0.603922 1.000000 0.929412
0.576471 0.988235 0.866667
0.549020 0.898039 0.788235
1.000000 0.996078 0.984314
0.607843 0.784314 0.694118
0.800000 0.894118 0.807843
0.807843 0.854902 0.776471
0.972549 0.952941 0.866667
0.831373 1.000000 0.972549
0.607843 0.968627 0.807843
0.862745 1.000000 0.984314
0.811765 0.996078 0.917647
0.576471 0.898039 0.709804
0.678431 0.901961 0.733333
0.831373 0.933333 0.835294
0.890196 0.949020 0.858824
1.000000 0.996078 1.000000
0.866667 1.000000 0.925490
0.784314 1.000000 0.874510
0.890196 1.000000 0.941176
0.643137 1.000000 0.768627
1.000000 1.000000 0.992157
1.000000 0.996078 1.000000
0.733333 0.972549 0.749020
1.000000 1.000000 1.000000
0.937255 0.996078 0.874510
0.000000 0.658824 0.741176
0.015686 0.725490 0.831373
0.301961 0.913725 1.000000
0.184314 0.686275 0.823529
0.580392 0.792157 0.933333
0.725490 0.752941 0.866667
0.815686 0.756863 0.839216
0.925490 0.811765 0.882353
0.945098 0.807843 0.831373
0.011765 0.882353 0.933333
0.133333 0.843137 0.886275
0.113725 0.749020 0.800000
0.501961 0.874510 0.960784
0.505882 0.729412 0.835294
0.870588 0.941176 0.996078
0.843137 0.831373 0.874510
0.850980 0.756863 0.807843
1.000000 0.996078 1.000000
0.000000 0.694118 0.713725
0.172549 0.929412 0.949020
0.403922 0.925490 0.945098
0.454902 0.850980 0.898039
0.529412 0.768627 0.839216
0.600000 0.670588 0.749020
0.996078 0.996078 0.988235
0.866667 0.800000 0.839216
0.996078 0.925490 0.925490
0.000000 0.784314 0.760784
0.003922 0.870588 0.850980
0.450980 0.992157 0.992157
0.729412 1.000000 0.988235
0.784314 1.000000 1.000000
0.776471 0.905882 0.933333
0.984314 1.000000 1.000000
0.996078 0.992157 1.000000
0.964706 0.913725 0.890196
0.000000 0.800000 0.752941
0.333333 0.996078 0.968627
0.172549 0.858824 0.807843
0.411765 0.898039 0.858824
0.603922 0.917647 0.882353
0.741176 0.901961 0.870588
0.909804 0.968627 0.956863
0.796078 0.792157 0.772549
1.000000 1.000000 0.968627
0.352941 1.000000 0.917647
0.376471 0.992157 0.925490
0.494118 1.000000 0.952941
0.517647 0.960784 0.890196
0.513725 0.858824 0.803922
0.760784 0.972549 0.921569
0.756863 0.835294 0.792157
0.831373 0.835294 0.803922
0.949020 0.819608 0.800000
0.450980 0.921569 0.823529
0.760784 1.000000 1.000000
0.447059 0.850980 0.776471
0.670588 0.996078 0.917647
0.698039 0.968627 0.894118
0.745098 0.925490 0.874510
0.992157 0.996078 1.000000
0.929412 0.945098 0.890196
0.921569 0.847059 0.788235
0.858824 1.000000 1.000000
0.537255 0.929412 0.788235
0.729412 0.996078 0.905882
0.960784 1.000000 0.988235
1.000000 1.000000 0.992157
0.996078 1.000000 0.992157
0.988235 1.000000 0.980392
1.000000 0.996078 1.000000
0.956863 0.952941 0.870588
0.784314 1.000000 0.905882
1.000000 0.996078 1.000000
0.800000 0.996078 0.890196
1.000000 1.000000 0.992157
0.988235 1.000000 1.000000
0.803922 1.000000 0.882353
1.000000 1.000000 1.000000
0.941176 0.996078 0.937255
0.972549 0.996078 0.949020
0.345098 0.827451 0.886275
0.588235 0.988235 0.996078
0.627451 0.968627 1.000000
0.411765 0.709804 0.800000
0.552941 0.733333 0.835294
0.803922 0.886275 0.968627
0.850980 0.843137 0.898039
0.811765 0.764706 0.811765
0.823529 0.721569 0.772549
0.576471 0.972549 1.000000
0.615686 0.968627 1.000000
0.501961 0.831373 0.870588
0.658824 0.909804 0.956863
0.756863 0.933333 1.000000
0.909804 0.992157 1.000000
0.925490 0.933333 0.980392
0.839216 0.800000 0.835294
0.972549 0.898039 0.921569
0.466667 0.878431 0.894118
0.435294 0.803922 0.835294
0.760784 1.000000 1.000000
0.580392 0.843137 0.878431
0.725490 0.909804 0.949020
0.733333 0.823529 0.886275
1.000000 0.996078 1.000000
0.886275 0.866667 0.882353
1.000000 1.000000 1.000000
0.407843 0.858824 0.847059
0.423529 0.839216 0.831373
0.423529 0.760784 0.764706
0.843137 1.000000 0.996078
0.627451 0.803922 0.815686
0.784314 0.905882 0.925490
0.800000 0.839216 0.874510
0.909804 0.901961 0.905882
0.992157 0.956863 0.960784
0.298039 0.835294 0.807843
0.368627 0.874510 0.854902
0.407843 0.858824 0.839216
0.615686 0.929412 0.917647
0.776471 0.972549 0.968627
0.717647 0.831373 0.847059
0.776471 0.831373 0.831373
0.901961 0.898039 0.890196
0.964706 0.933333 0.925490
0.470588 0.901961 0.858824
0.576471 0.988235 0.960784
0.607843 0.984314 0.941176
0.631373 0.968627 0.933333
0.627451 0.894118 0.850980
0.839216 0.984314 0.956863
1.000000 1.000000 1.000000
0.921569 0.949020 0.921569
0.858824 0.823529 0.796078
0.611765 0.968627 0.898039
0.960784 1.000000 1.000000
0.878431 1.000000 0.992157
0.752941 0.992157 0.960784
0.847059 1.000000 1.000000
0.952941 0.996078 1.000000
0.913725 0.996078 0.976471
0.937255 0.960784 0.945098
0.882353 0.890196 0.796078
0.980392 1.000000 0.996078
0.647059 0.984314 0.886275
0.905882 1.000000 1.000000
0.819608 1.000000 0.980392
0.725490 0.972549 0.890196
0.792157 0.976471 0.905882
0.525490 0.894118 0.698039
0.968627 0.988235 0.960784
0.980392 0.980392 0.933333
0.831373 1.000000 0.929412
0.717647 1.000000 0.890196
0.925490 1.000000 0.984314
0.752941 0.996078 0.898039
0.996078 0.996078 0.988235
0.894118 1.000000 0.949020
0.992157 1.000000 0.996078
0.886275 0.984314 0.898039
0.976471 0.988235 0.960784
0.611765 0.819608 0.882353
0.901961 0.996078 1.000000
0.674510 0.850980 0.925490
0.960784 1.000000 0.996078
0.913725 0.996078 1.000000
0.858824 0.929412 0.984314
0.968627 0.980392 1.000000
0.972549 0.964706 0.976471
0.984314 0.976471 0.988235
0.678431 0.882353 0.933333
0.803922 0.980392 1.000000
0.533333 0.729412 0.827451
0.733333 0.890196 0.929412
0.952941 1.000000 0.984314
0.768627 0.850980 0.917647
0.862745 0.894118 0.945098
0.941176 0.929412 0.956863
0.952941 0.913725 0.949020
0.831373 1.000000 1.000000
0.701961 0.874510 0.925490
0.968627 1.000000 0.992157
0.745098 0.874510 0.933333
0.749020 0.862745 0.925490
0.917647 0.976471 0.996078
0.831373 0.878431 0.925490
1.000000 0.996078 1.000000
0.898039 0.843137 0.901961
0.764706 0.956863 0.972549
0.784314 0.956863 0.968627
0.839216 0.996078 0.992157
0.996078 1.000000 1.000000
0.784314 0.890196 0.933333
0.886275 0.952941 0.984314
0.854902 0.905882 0.941176
1.000000 0.996078 1.000000
0.890196 0.843137 0.882353
0.768627 0.996078 1.000000
0.737255 0.952941 0.964706
0.925490 0.996078 1.000000
0.996078 1.000000 0.992157
0.811765 0.925490 0.956863
0.862745 0.945098 0.964706
0.905882 0.949020 0.972549
0.921569 0.933333 0.960784
0.980392 0.984314 0.992157
0.784314 0.988235 0.972549
0.811765 0.992157 0.984314
0.694118 0.945098 0.945098
0.780392 0.960784 0.960784
0.784314 0.945098 0.952941
0.988235 0.992157 1.000000
1.000000 1.000000 0.992157
0.976471 0.980392 0.996078
0.984314 0.984314 0.984314
0.866667 1.000000 0.988235
0.992157 1.000000 0.996078
0.925490 1.000000 0.996078
0.843137 0.992157 0.996078
0.858824 0.980392 0.988235
0.905882 0.988235 1.000000
0.760784 0.941176 0.933333
0.984314 0.988235 1.000000
0.929412 0.952941 0.945098
0.909804 0.996078 0.988235
0.682353 1.000000 0.972549
0.956863 0.996078 0.992157
0.733333 1.000000 0.956863
1.000000 1.000000 1.000000
0.925490 1.000000 0.984314
1.000000 0.996078 1.000000
0.992157 1.000000 0.996078
0.968627 0.984314 0.980392
0.996078 1.000000 0.992157
0.866667 1.000000 0.980392
1.000000 1.000000 1.000000
0.937255 0.996078 0.984314
0.984314 1.000000 1.000000
0.835294 0.996078 0.964706
0.909804 0.996078 0.988235
0.992157 0.996078 1.000000
0.996078 1.000000 1.000000
