other luts/Cinestill 50D 35mm original.cube
#Generated with IWLTBAP LUT Generator
#Website: http://luts.iwltbap.com
TITLE "ORI"
#LUT size
LUT_3D_SIZE 25
#LUT data points
0.278431 0.207843 0.270588
0.094118 0.054902 0.090196
0.125490 0.074510 0.113725
0.043137 0.007843 0.027451
0.000000 0.000000 0.000000
0.309804 0.200000 0.247059
0.000000 0.003922 0.000000
0.305882 0.101961 0.152941
0.356863 0.098039 0.137255
0.294118 0.000000 0.027451
0.345098 0.003922 0.035294
0.498039 0.000000 0.094118
0.360784 0.000000 0.011765
0.600000 0.000000 0.078431
0.721569 0.000000 0.133333
0.337255 0.000000 0.011765
0.776471 0.003922 0.070588
0.890196 0.086275 0.145098
0.784314 0.000000 0.007843
1.000000 0.215686 0.188235
0.737255 0.000000 0.000000
1.000000 0.278431 0.207843
0.843137 0.000000 0.000000
1.000000 0.145098 0.047059
1.000000 0.207843 0.082353
0.000000 0.000000 0.000000
0.000000 0.000000 0.007843
0.039216 0.000000 0.031373
0.117647 0.070588 0.086275
0.000000 0.007843 0.003922
0.011765 0.000000 0.000000
0.211765 0.074510 0.090196
0.282353 0.090196 0.105882
0.196078 0.000000 0.000000
0.384314 0.058824 0.098039
0.141176 0.000000 0.000000
0.584314 0.129412 0.180392
0.486275 0.000000 0.007843
0.600000 0.000000 0.070588
0.713725 0.035294 0.113725
0.619608 0.000000 0.000000
0.662745 0.000000 0.000000
0.807843 0.000000 0.039216
0.913725 0.086275 0.109804
0.643137 0.000000 0.003922
1.000000 0.200000 0.133333
0.815686 0.000000 0.000000
0.831373 0.000000 0.011765
1.000000 0.333333 0.203922
1.000000 0.188235 0.031373
0.133333 0.113725 0.137255
0.180392 0.160784 0.184314
0.000000 0.000000 0.000000
0.098039 0.058824 0.090196
0.015686 0.000000 0.003922
0.207843 0.121569 0.129412
0.231373 0.090196 0.098039
0.325490 0.137255 0.137255
0.101961 0.000000 0.011765
0.396078 0.078431 0.101961
0.403922 0.003922 0.058824
0.662745 0.247059 0.247059
0.403922 0.000000 0.003922
0.694118 0.133333 0.141176
0.631373 0.000000 0.023529
0.760784 0.058824 0.082353
0.717647 0.003922 0.000000
0.811765 0.000000 0.039216
0.850980 0.000000 0.031373
0.682353 0.000000 0.000000
0.964706 0.160784 0.078431
0.819608 0.000000 0.000000
1.000000 0.219608 0.098039
0.996078 0.192157 0.023529
0.988235 0.333333 0.156863
0.007843 0.000000 0.003922
0.039216 0.015686 0.031373
0.000000 0.000000 0.007843
0.200000 0.176471 0.184314
0.105882 0.074510 0.066667
0.247059 0.172549 0.145098
0.176471 0.062745 0.047059
0.305882 0.145098 0.121569
0.376471 0.145098 0.129412
0.298039 0.000000 0.007843
0.447059 0.101961 0.086275
0.454902 0.031373 0.031373
0.600000 0.137255 0.098039
0.701961 0.203922 0.137255
0.611765 0.000000 0.015686
0.713725 0.078431 0.027451
0.800000 0.125490 0.070588
0.701961 0.000000 0.000000
0.964706 0.243137 0.149020
0.843137 0.000000 0.000000
0.972549 0.200000 0.074510
0.854902 0.000000 0.003922
0.901961 0.007843 0.003922
1.000000 0.349020 0.184314
0.956863 0.141176 0.000000
0.137255 0.145098 0.141176
0.062745 0.070588 0.066667
0.317647 0.325490 0.313725
0.070588 0.066667 0.058824
0.074510 0.074510 0.043137
0.247059 0.203922 0.188235
0.117647 0.066667 0.000000
0.286275 0.176471 0.094118
0.313725 0.149020 0.062745
0.235294 0.000000 0.000000
0.372549 0.070588 0.000000
0.352941 0.000000 0.015686
0.552941 0.156863 0.039216
0.458824 0.000000 0.000000
0.631373 0.105882 0.000000
0.721569 0.156863 0.011765
0.776471 0.149020 0.007843
0.639216 0.003922 0.000000
0.796078 0.109804 0.000000
0.827451 0.070588 0.000000
0.890196 0.145098 0.003922
0.992157 0.356863 0.164706
0.984314 0.247059 0.000000
1.000000 0.317647 0.101961
0.898039 0.117647 0.000000
0.043137 0.066667 0.050980
0.098039 0.117647 0.101961
0.160784 0.184314 0.176471
0.164706 0.184314 0.168627
0.019608 0.023529 0.000000
0.082353 0.086275 0.031373
0.215686 0.196078 0.121569
0.058824 0.023529 0.003922
0.294118 0.203922 0.043137
0.364706 0.200000 0.043137
0.498039 0.270588 0.113725
0.372549 0.062745 0.003922
0.670588 0.301961 0.160784
0.654902 0.239216 0.050980
0.674510 0.203922 0.007843
0.749020 0.215686 0.019608
1.000000 0.411765 0.250980
0.745098 0.113725 0.003922
0.721569 0.003922 0.000000
0.752941 0.000000 0.000000
0.984314 0.298039 0.074510
0.968627 0.254902 0.000000
0.992157 0.341176 0.113725
1.000000 0.360784 0.129412
0.905882 0.125490 0.011765
0.145098 0.235294 0.172549
0.184314 0.266667 0.200000
0.125490 0.207843 0.149020
0.050980 0.117647 0.047059
0.207843 0.274510 0.203922
0.125490 0.180392 0.090196
0.098039 0.156863 0.043137
0.219608 0.223529 0.098039
0.329412 0.305882 0.117647
0.321569 0.223529 0.000000
0.576471 0.419608 0.176471
0.470588 0.243137 0.000000
0.619608 0.317647 0.050980
0.631373 0.258824 0.000000
0.682353 0.274510 0.000000
0.666667 0.207843 0.000000
0.796078 0.282353 0.007843
0.827451 0.274510 0.003922
0.952941 0.356863 0.094118
0.882353 0.266667 0.000000
1.000000 0.396078 0.145098
1.000000 0.423529 0.152941
0.960784 0.294118 0.000000
0.878431 0.188235 0.000000
1.000000 0.321569 0.003922
0.000000 0.149020 0.027451
0.000000 0.003922 0.000000
0.262745 0.400000 0.274510
0.086275 0.227451 0.117647
0.231373 0.352941 0.227451
0.011765 0.152941 0.011765
0.145098 0.247059 0.094118
0.164706 0.250980 0.066667
0.227451 0.270588 0.043137
0.329412 0.317647 0.047059
0.298039 0.243137 0.003922
0.498039 0.352941 0.003922
0.709804 0.486275 0.168627
0.607843 0.325490 0.003922
0.780392 0.407843 0.078431
0.670588 0.266667 0.003922
0.756863 0.294118 0.011765
0.886275 0.384314 0.043137
0.901961 0.352941 0.011765
0.882353 0.325490 0.000000
0.996078 0.427451 0.101961
0.847059 0.243137 0.000000
1.000000 0.447059 0.125490
0.960784 0.325490 0.000000
1.000000 0.364706 0.007843
0.000000 0.274510 0.109804
0.082353 0.313725 0.133333
0.219608 0.419608 0.250980
0.000000 0.200000 0.031373
0.000000 0.160784 0.000000
0.078431 0.262745 0.098039
0.047059 0.231373 0.027451
0.215686 0.352941 0.141176
0.086275 0.196078 0.000000
0.266667 0.333333 0.019608
0.376471 0.384314 0.058824
0.529412 0.458824 0.066667
0.572549 0.443137 0.000000
0.596078 0.392157 0.000000
0.572549 0.309804 0.003922
0.694118 0.360784 0.007843
0.858824 0.454902 0.058824
0.831373 0.392157 0.000000
0.721569 0.254902 0.000000
0.917647 0.419608 0.000000
0.866667 0.341176 0.007843
0.941176 0.400000 0.003922
1.000000 0.513725 0.160784
0.956863 0.376471 0.000000
0.858824 0.258824 0.000000
0.156863 0.419608 0.219608
0.000000 0.227451 0.000000
0.137255 0.400000 0.188235
0.000000 0.164706 0.007843
0.152941 0.376471 0.176471
0.160784 0.376471 0.160784
0.105882 0.317647 0.090196
0.243137 0.431373 0.188235
0.219608 0.388235 0.117647
0.321569 0.443137 0.145098
0.525490 0.600000 0.290196
0.588235 0.596078 0.266667
0.474510 0.427451 0.000000
0.686275 0.564706 0.105882
0.662745 0.462745 0.003922
0.835294 0.576471 0.094118
0.788235 0.470588 0.007843
0.890196 0.521569 0.035294
0.827451 0.427451 0.003922
0.792157 0.364706 0.000000
0.996078 0.709804 0.337255
0.705882 0.223529 0.000000
0.976471 0.462745 0.007843
0.933333 0.400000 0.011765
0.996078 0.592157 0.219608
0.152941 0.447059 0.227451
0.000000 0.258824 0.007843
0.094118 0.403922 0.149020
0.152941 0.423529 0.200000
0.000000 0.211765 0.000000
0.117647 0.384314 0.145098
0.180392 0.407843 0.176471
0.250980 0.470588 0.215686
0.239216 0.435294 0.164706
0.231373 0.396078 0.074510
0.368627 0.478431 0.149020
0.329412 0.400000 0.011765
0.466667 0.470588 0.011765
0.580392 0.513725 0.000000
0.447059 0.317647 0.007843
0.717647 0.533333 0.000000
0.729412 0.478431 0.000000
0.874510 0.556863 0.003922
0.854902 0.494118 0.000000
1.000000 0.615686 0.168627
0.949020 0.513725 0.000000
0.760784 0.329412 0.000000
0.949020 0.486275 0.000000
0.929412 0.435294 0.000000
0.984314 0.474510 0.000000
0.000000 0.384314 0.098039
0.031373 0.407843 0.156863
0.164706 0.486275 0.227451
0.247059 0.537255 0.298039
0.015686 0.298039 0.007843
0.262745 0.537255 0.262745
0.031373 0.345098 0.074510
0.254902 0.494118 0.223529
0.098039 0.360784 0.050980
0.274510 0.482353 0.160784
0.309804 0.478431 0.129412
0.113725 0.270588 0.000000
0.345098 0.411765 0.003922
0.533333 0.541176 0.109804
0.592157 0.529412 0.000000
0.721569 0.588235 0.000000
0.780392 0.600000 0.000000
0.701961 0.474510 0.000000
0.792157 0.517647 0.000000
0.909804 0.576471 0.015686
0.807843 0.458824 0.000000
0.733333 0.349020 0.007843
1.000000 0.662745 0.211765
0.894118 0.458824 0.007843
0.901961 0.450980 0.000000
0.278431 0.603922 0.321569
0.125490 0.482353 0.207843
0.105882 0.482353 0.200000
0.211765 0.525490 0.254902
0.019608 0.403922 0.117647
0.152941 0.474510 0.192157
0.164706 0.462745 0.172549
0.243137 0.498039 0.239216
0.384314 0.631373 0.352941
0.125490 0.388235 0.015686
0.411765 0.607843 0.274510
0.341176 0.498039 0.149020
0.486275 0.588235 0.207843
0.462745 0.525490 0.098039
0.474510 0.494118 0.000000
0.588235 0.537255 0.000000
0.862745 0.741176 0.243137
0.784314 0.615686 0.003922
0.784314 0.572549 0.000000
0.827451 0.572549 0.000000
0.886275 0.592157 0.000000
0.933333 0.588235 0.000000
0.929412 0.556863 0.000000
1.000000 0.603922 0.090196
0.996078 0.596078 0.070588
0.203922 0.560784 0.286275
0.266667 0.600000 0.333333
0.156863 0.525490 0.227451
0.207843 0.552941 0.254902
0.329412 0.647059 0.376471
0.137255 0.482353 0.176471
0.003922 0.341176 0.000000
0.309804 0.588235 0.313725
0.364706 0.623529 0.333333
0.470588 0.705882 0.415686
0.380392 0.600000 0.258824
0.305882 0.498039 0.149020
0.466667 0.619608 0.254902
0.631373 0.737255 0.372549
0.384314 0.439216 0.000000
0.745098 0.741176 0.317647
0.647059 0.584314 0.047059
0.682353 0.572549 0.000000
0.980392 0.827451 0.313725
0.654902 0.474510 0.000000
0.960784 0.721569 0.172549
0.921569 0.639216 0.003922
0.925490 0.627451 0.000000
0.968627 0.611765 0.050980
1.000000 0.811765 0.345098
0.000000 0.470588 0.160784
0.372549 0.690196 0.419608
0.000000 0.450980 0.145098
0.231373 0.568627 0.282353
0.368627 0.682353 0.403922
0.247059 0.568627 0.270588
0.278431 0.576471 0.286275
0.007843 0.341176 0.007843
0.376471 0.623529 0.345098
0.341176 0.603922 0.301961
0.250980 0.501961 0.172549
0.337255 0.556863 0.207843
0.380392 0.552941 0.211765
0.552941 0.694118 0.317647
0.419608 0.517647 0.109804
0.745098 0.792157 0.400000
0.600000 0.592157 0.164706
0.749020 0.698039 0.250980
0.835294 0.733333 0.258824
0.796078 0.666667 0.113725
0.792157 0.619608 0.000000
0.996078 0.827451 0.325490
1.000000 0.831373 0.329412
0.972549 0.698039 0.188235
0.725490 0.439216 0.000000
0.172549 0.552941 0.250980
0.317647 0.674510 0.372549
0.207843 0.576471 0.278431
0.250980 0.603922 0.313725
0.239216 0.584314 0.286275
0.274510 0.596078 0.305882
0.329412 0.647059 0.349020
0.247059 0.545098 0.254902
0.313725 0.588235 0.301961
0.352941 0.631373 0.317647
0.286275 0.537255 0.200000
0.384314 0.619608 0.282353
0.498039 0.705882 0.360784
0.474510 0.635294 0.266667
0.529412 0.635294 0.254902
0.623529 0.694118 0.301961
0.686275 0.709804 0.317647
0.431373 0.431373 0.000000
0.745098 0.686275 0.219608
0.729412 0.654902 0.109804
0.823529 0.694118 0.141176
0.866667 0.690196 0.129412
0.968627 0.764706 0.231373
0.992157 0.752941 0.203922
1.000000 0.815686 0.321569
0.309804 0.650980 0.372549
0.164706 0.541176 0.250980
0.435294 0.752941 0.490196
0.000000 0.447059 0.129412
0.415686 0.737255 0.454902
0.333333 0.647059 0.360784
0.450980 0.737255 0.466667
0.309804 0.600000 0.305882
0.541176 0.800000 0.517647
0.333333 0.592157 0.301961
0.423529 0.666667 0.372549
0.505882 0.717647 0.419608
0.600000 0.807843 0.501961
0.505882 0.682353 0.349020
0.407843 0.552941 0.188235
0.709804 0.803922 0.458824
0.592157 0.662745 0.270588
0.619608 0.647059 0.243137
0.784314 0.772549 0.360784
0.752941 0.705882 0.274510
1.000000 0.898039 0.462745
0.882353 0.768627 0.266667
0.858824 0.713725 0.192157
1.000000 0.800000 0.298039
1.000000 0.803922 0.301961
0.235294 0.568627 0.313725
0.443137 0.756863 0.478431
0.329412 0.650980 0.368627
0.372549 0.682353 0.423529
0.403922 0.705882 0.423529
0.337255 0.623529 0.352941
0.321569 0.603922 0.317647
0.294118 0.564706 0.301961
0.403922 0.662745 0.384314
0.552941 0.788235 0.513725
0.545098 0.796078 0.505882
0.419608 0.647059 0.349020
0.435294 0.643137 0.337255
0.458824 0.643137 0.329412
0.686275 0.823529 0.501961
0.521569 0.647059 0.321569
0.607843 0.682353 0.333333
0.607843 0.674510 0.298039
0.690196 0.713725 0.337255
0.729412 0.709804 0.341176
0.796078 0.749020 0.349020
0.858824 0.776471 0.356863
0.945098 0.839216 0.388235
0.858824 0.733333 0.258824
0.941176 0.784314 0.309804
0.411765 0.694118 0.447059
0.254902 0.556863 0.290196
0.439216 0.737255 0.482353
0.423529 0.701961 0.443137
0.478431 0.749020 0.486275
0.474510 0.733333 0.482353
0.482353 0.737255 0.478431
0.431373 0.686275 0.419608
0.458824 0.690196 0.431373
0.352941 0.588235 0.337255
0.454902 0.678431 0.411765
0.443137 0.662745 0.376471
0.560784 0.745098 0.470588
0.454902 0.623529 0.341176
0.678431 0.835294 0.556863
0.607843 0.733333 0.435294
0.674510 0.788235 0.474510
0.611765 0.690196 0.356863
0.650980 0.713725 0.368627
0.792157 0.811765 0.458824
0.756863 0.752941 0.388235
0.854902 0.823529 0.439216
0.717647 0.666667 0.258824
0.996078 0.956863 0.521569
0.784314 0.670588 0.211765
0.549020 0.807843 0.564706
0.321569 0.588235 0.356863
0.545098 0.815686 0.568627
0.337255 0.596078 0.352941
0.584314 0.835294 0.596078
0.392157 0.643137 0.403922
0.615686 0.858824 0.611765
0.721569 0.941176 0.701961
0.466667 0.686275 0.439216
0.478431 0.678431 0.447059
0.564706 0.760784 0.529412
0.658824 0.835294 0.603922
0.596078 0.788235 0.529412
0.501961 0.658824 0.411765
0.670588 0.831373 0.564706
0.556863 0.694118 0.427451
0.733333 0.850980 0.568627
0.474510 0.576471 0.286275
0.745098 0.815686 0.517647
0.721569 0.780392 0.462745
0.741176 0.768627 0.462745
0.784314 0.796078 0.454902
0.647059 0.631373 0.274510
0.909804 0.858824 0.490196
0.960784 0.882353 0.501961
0.470588 0.729412 0.486275
0.572549 0.843137 0.596078
0.431373 0.701961 0.454902
0.419608 0.678431 0.435294
0.596078 0.847059 0.611765
0.596078 0.835294 0.600000
0.470588 0.698039 0.458824
0.521569 0.749020 0.509804
0.549020 0.760784 0.525490
0.474510 0.686275 0.458824
0.639216 0.835294 0.596078
0.603922 0.792157 0.556863
0.454902 0.643137 0.407843
0.537255 0.717647 0.462745
0.600000 0.764706 0.513725
0.737255 0.882353 0.611765
0.745098 0.874510 0.596078
0.701961 0.811765 0.521569
0.752941 0.847059 0.556863
0.850980 0.921569 0.623529
0.807843 0.862745 0.552941
0.843137 0.854902 0.552941
0.803922 0.800000 0.486275
0.886275 0.878431 0.537255
0.811765 0.768627 0.419608
0.549020 0.788235 0.552941
0.560784 0.788235 0.560784
0.533333 0.749020 0.525490
0.600000 0.815686 0.588235
0.423529 0.639216 0.423529
0.568627 0.776471 0.556863
0.541176 0.768627 0.529412
0.494118 0.709804 0.494118
0.615686 0.815686 0.592157
0.533333 0.725490 0.505882
0.792157 0.968627 0.752941
0.466667 0.650980 0.435294
0.529412 0.705882 0.482353
0.572549 0.733333 0.505882
0.670588 0.827451 0.592157
0.713725 0.870588 0.627451
0.698039 0.835294 0.584314
0.886275 1.000000 0.760784
0.564706 0.686275 0.411765
0.866667 0.956863 0.682353
0.619608 0.686275 0.411765
0.792157 0.854902 0.568627
0.847059 0.878431 0.584314
0.737255 0.764706 0.458824
0.992157 1.000000 0.701961
0.447059 0.658824 0.454902
0.588235 0.800000 0.596078
0.650980 0.858824 0.647059
0.666667 0.878431 0.674510
0.611765 0.807843 0.600000
0.694118 0.901961 0.698039
0.717647 0.925490 0.721569
0.768627 0.964706 0.756863
0.556863 0.745098 0.541176
0.647059 0.819608 0.611765
0.501961 0.682353 0.490196
0.509804 0.682353 0.474510
0.662745 0.827451 0.631373
0.717647 0.894118 0.678431
0.631373 0.788235 0.580392
0.694118 0.843137 0.611765
0.725490 0.878431 0.654902
0.678431 0.811765 0.572549
0.847059 0.964706 0.729412
0.756863 0.870588 0.619608
0.823529 0.921569 0.662745
0.768627 0.850980 0.580392
0.780392 0.839216 0.576471
0.917647 0.964706 0.674510
0.866667 0.878431 0.607843
0.670588 0.878431 0.674510
0.705882 0.921569 0.705882
0.580392 0.784314 0.592157
0.541176 0.737255 0.537255
0.698039 0.894118 0.701961
0.662745 0.858824 0.666667
0.780392 0.988235 0.784314
0.643137 0.831373 0.643137
0.756863 0.937255 0.745098
0.749020 0.921569 0.729412
0.678431 0.850980 0.658824
0.603922 0.784314 0.600000
0.690196 0.854902 0.658824
0.721569 0.898039 0.682353
0.674510 0.831373 0.635294
0.835294 0.984314 0.784314
0.552941 0.705882 0.482353
0.839216 0.976471 0.764706
0.721569 0.850980 0.635294
0.533333 0.654902 0.423529
0.847059 0.956863 0.729412
0.756863 0.850980 0.615686
0.690196 0.768627 0.529412
0.933333 0.996078 0.749020
0.792157 0.835294 0.576471
0.752941 0.937255 0.756863
0.741176 0.925490 0.752941
0.698039 0.890196 0.713725
0.713725 0.909804 0.717647
0.792157 0.976471 0.796078
0.607843 0.800000 0.615686
0.580392 0.764706 0.584314
0.674510 0.854902 0.670588
0.690196 0.874510 0.694118
0.713725 0.901961 0.713725
0.686275 0.862745 0.694118
0.580392 0.745098 0.564706
0.827451 0.988235 0.815686
0.654902 0.807843 0.623529
0.686275 0.854902 0.674510
0.780392 0.925490 0.725490
0.909804 1.000000 0.862745
0.756863 0.890196 0.694118
0.819608 0.929412 0.737255
0.815686 0.933333 0.737255
0.800000 0.901961 0.713725
0.878431 0.972549 0.768627
0.764706 0.835294 0.647059
0.925490 0.996078 0.807843
0.803922 0.850980 0.662745
0.035294 0.031373 0.054902
0.196078 0.141176 0.207843
0.129412 0.090196 0.121569
0.015686 0.000000 0.003922
0.145098 0.066667 0.109804
0.133333 0.031373 0.074510
0.188235 0.058824 0.086275
0.180392 0.000000 0.039216
0.274510 0.003922 0.078431
0.286275 0.000000 0.043137
0.384314 0.000000 0.074510
0.380392 0.003922 0.011765
0.603922 0.000000 0.137255
0.752941 0.137255 0.211765
0.674510 0.000000 0.094118
0.603922 0.007843 0.003922
0.600000 0.000000 0.007843
0.866667 0.027451 0.129412
0.764706 0.000000 0.000000
0.827451 0.007843 0.000000
0.796078 0.000000 0.000000
0.847059 0.003922 0.000000
0.996078 0.309804 0.203922
0.968627 0.054902 0.000000
1.000000 0.117647 0.000000
0.152941 0.105882 0.160784
0.070588 0.058824 0.086275
0.062745 0.035294 0.066667
0.000000 0.003922 0.007843
0.223529 0.145098 0.188235
0.215686 0.109804 0.145098
0.200000 0.027451 0.078431
0.447059 0.227451 0.278431
0.149020 0.000000 0.000000
0.498039 0.152941 0.207843
0.243137 0.000000 0.011765
0.658824 0.200000 0.235294
0.698039 0.172549 0.207843
0.564706 0.000000 0.035294
0.611765 0.000000 0.015686
0.458824 0.007843 0.000000
0.854902 0.101961 0.145098
0.725490 0.000000 0.007843
0.909804 0.109804 0.105882
0.831373 0.000000 0.000000
1.000000 0.235294 0.164706
0.945098 0.078431 0.007843
1.000000 0.223529 0.121569
0.937255 0.003922 0.000000
0.968627 0.086275 0.007843
0.125490 0.105882 0.129412
0.192157 0.152941 0.184314
0.000000 0.000000 0.000000
0.023529 0.000000 0.015686
0.050980 0.000000 0.000000
0.215686 0.109804 0.129412
0.129412 0.000000 0.000000
0.196078 0.003922 0.019608
0.411765 0.137255 0.168627
0.321569 0.000000 0.047059
0.549020 0.152941 0.184314
0.564706 0.109804 0.145098
0.329412 0.000000 0.000000
0.745098 0.172549 0.176471
0.447059 0.000000 0.000000
0.596078 0.000000 0.000000
0.823529 0.101961 0.109804
0.749020 0.003922 0.003922
0.913725 0.145098 0.098039
0.772549 0.007843 0.000000
0.976471 0.152941 0.086275
0.937255 0.133333 0.019608
0.988235 0.282353 0.152941
0.968627 0.125490 0.003922
0.996078 0.203922 0.007843
0.066667 0.066667 0.074510
0.125490 0.098039 0.125490
0.050980 0.023529 0.054902
0.164706 0.141176 0.156863
0.000000 0.003922 0.007843
0.149020 0.070588 0.074510
0.278431 0.156863 0.145098
0.117647 0.000000 0.000000
0.313725 0.062745 0.062745
0.376471 0.086275 0.082353
0.423529 0.047059 0.050980
0.474510 0.027451 0.027451
0.564706 0.082353 0.054902
0.686275 0.164706 0.129412
0.674510 0.058824 0.031373
0.678431 0.000000 0.007843
0.729412 0.003922 0.000000
0.701961 0.003922 0.003922
0.886275 0.145098 0.066667
1.000000 0.352941 0.250980
0.984314 0.239216 0.098039
1.000000 0.254902 0.113725
0.996078 0.223529 0.047059
0.992157 0.321569 0.149020
1.000000 0.380392 0.200000
0.000000 0.019608 0.011765
0.090196 0.098039 0.086275
0.149020 0.156863 0.145098
0.098039 0.090196 0.094118
0.003922 0.000000 0.000000
0.168627 0.133333 0.105882
0.360784 0.298039 0.235294
0.168627 0.062745 0.000000
0.278431 0.090196 0.011765
0.564706 0.298039 0.207843
0.345098 0.047059 0.000000
0.568627 0.200000 0.098039
0.541176 0.109804 0.003922
0.698039 0.235294 0.133333
0.807843 0.286275 0.164706
0.662745 0.070588 0.000000
0.690196 0.003922 0.000000
0.905882 0.262745 0.113725
0.788235 0.078431 0.003922
0.980392 0.286275 0.121569
0.894118 0.188235 0.000000
0.996078 0.337255 0.145098
0.984314 0.352941 0.141176
0.819608 0.003922 0.000000
0.996078 0.372549 0.152941
0.200000 0.219608 0.203922
0.015686 0.000000 0.003922
0.149020 0.156863 0.152941
0.180392 0.188235 0.176471
0.211765 0.223529 0.196078
0.039216 0.047059 0.003922
0.215686 0.192157 0.137255
0.262745 0.200000 0.098039
0.254902 0.145098 0.000000
0.392157 0.219608 0.066667
0.349020 0.117647 0.000000
0.494118 0.184314 0.031373
0.529412 0.164706 0.000000
0.568627 0.145098 0.000000
0.650980 0.160784 0.000000
0.788235 0.254902 0.090196
0.862745 0.294118 0.121569
0.784314 0.160784 0.003922
0.909804 0.274510 0.082353
0.843137 0.152941 0.000000
0.996078 0.486275 0.294118
0.800000 0.000000 0.003922
0.972549 0.262745 0.000000
0.921569 0.184314 0.007843
1.000000 0.431373 0.196078
0.000000 0.054902 0.000000
0.141176 0.231373 0.160784
0.117647 0.200000 0.133333
0.243137 0.313725 0.250980
0.000000 0.015686 0.000000
0.196078 0.250980 0.152941
0.113725 0.172549 0.058824
0.172549 0.172549 0.023529
0.262745 0.239216 0.035294
0.376471 0.294118 0.039216
0.462745 0.309804 0.039216
0.368627 0.168627 0.000000
0.564706 0.262745 0.000000
0.662745 0.278431 0.023529
0.741176 0.325490 0.082353
0.674510 0.203922 0.000000
0.960784 0.431373 0.215686
0.819608 0.282353 0.000000
0.847059 0.262745 0.003922
0.823529 0.215686 0.000000
0.956863 0.337255 0.050980
1.000000 0.392157 0.129412
0.917647 0.258824 0.003922
1.000000 0.384314 0.098039
0.996078 0.466667 0.200000
0.000000 0.160784 0.035294
0.003922 0.090196 0.000000
0.098039 0.254902 0.121569
0.094118 0.258824 0.109804
0.121569 0.254902 0.125490
0.200000 0.305882 0.176471
0.066667 0.196078 0.027451
0.129412 0.227451 0.003922
0.231373 0.270588 0.035294
0.290196 0.298039 0.011765
0.423529 0.360784 0.000000
0.564706 0.431373 0.090196
0.533333 0.317647 0.003922
0.619608 0.325490 0.000000
0.694118 0.333333 0.007843
0.964706 0.529412 0.247059
0.670588 0.219608 0.003922
0.956863 0.454902 0.168627
0.831373 0.309804 0.007843
0.925490 0.380392 0.023529
0.925490 0.356863 0.000000
0.933333 0.341176 0.000000
0.921569 0.309804 0.007843
0.929412 0.294118 0.007843
1.000000 0.384314 0.019608
0.066667 0.309804 0.125490
0.003922 0.152941 0.000000
0.250980 0.435294 0.270588
0.000000 0.172549 0.000000
0.278431 0.447059 0.266667
0.101961 0.266667 0.086275
0.129412 0.305882 0.090196
0.317647 0.447059 0.231373
0.188235 0.309804 0.043137
0.470588 0.517647 0.266667
0.321569 0.317647 0.003922
0.596078 0.529412 0.168627
0.521569 0.396078 0.000000
0.674510 0.466667 0.011765
0.768627 0.490196 0.074510
0.764706 0.423529 0.000000
0.749020 0.352941 0.000000
0.772549 0.321569 0.000000
1.000000 0.607843 0.270588
0.745098 0.243137 0.000000
0.952941 0.427451 0.039216
0.850980 0.313725 0.000000
1.000000 0.466667 0.098039
0.815686 0.243137 0.007843
1.000000 0.517647 0.164706
0.129412 0.400000 0.188235
0.062745 0.356863 0.133333
0.000000 0.227451 0.000000
0.109804 0.345098 0.133333
0.203922 0.427451 0.211765
0.247059 0.443137 0.235294
0.188235 0.372549 0.160784
0.227451 0.400000 0.168627
0.266667 0.427451 0.168627
0.384314 0.501961 0.219608
0.356863 0.435294 0.101961
0.458824 0.474510 0.133333
0.529412 0.474510 0.000000
0.603922 0.482353 0.000000
0.686275 0.490196 0.000000
0.733333 0.482353 0.000000
0.788235 0.478431 0.011765
0.800000 0.450980 0.000000
0.803922 0.396078 0.007843
0.964706 0.537255 0.133333
1.000000 0.564706 0.172549
0.898039 0.427451 0.000000
0.960784 0.454902 0.000000
1.000000 0.552941 0.176471
1.000000 0.537255 0.168627
0.000000 0.329412 0.086275
0.168627 0.447059 0.211765
0.000000 0.254902 0.011765
0.321569 0.560784 0.329412
0.192157 0.431373 0.200000
0.329412 0.549020 0.309804
0.262745 0.454902 0.235294
0.000000 0.254902 0.000000
0.298039 0.474510 0.203922
