other luts/Cinestill 400D 35mm 偏黄.cube
#Generated with IWLTBAP LUT Generator
#Website: http://luts.iwltbap.com
TITLE "Æ«»Æ"
#LUT size
LUT_3D_SIZE 9
#LUT data points
0.000000 0.003922 0.000000
0.141176 0.027451 0.035294
0.196078 0.000000 0.000000
0.470588 0.047059 0.000000
0.560784 0.003922 0.000000
0.701961 0.031373 0.003922
0.890196 0.180392 0.000000
0.862745 0.003922 0.000000
0.996078 0.047059 0.000000
0.458824 0.105882 0.011765
0.094118 0.058824 0.000000
0.203922 0.015686 0.000000
0.603922 0.262745 0.086275
0.607843 0.172549 0.000000
0.870588 0.329412 0.082353
0.780392 0.098039 0.000000
1.000000 0.266667 0.000000
1.000000 0.152941 0.000000
0.596078 0.298039 0.003922
0.125490 0.215686 0.011765
0.258824 0.223529 0.007843
0.458824 0.305882 0.011765
0.588235 0.274510 0.000000
0.647059 0.231373 0.003922
0.890196 0.349020 0.003922
0.839216 0.188235 0.000000
0.996078 0.262745 0.000000
0.333333 0.345098 0.000000
0.211765 0.419608 0.000000
0.254902 0.352941 0.000000
0.380392 0.352941 0.000000
0.513725 0.372549 0.003922
0.792157 0.486275 0.000000
0.890196 0.454902 0.000000
1.000000 0.474510 0.000000
1.000000 0.431373 0.000000
0.435294 0.466667 0.000000
0.192157 0.549020 0.000000
0.337255 0.584314 0.074510
0.419608 0.541176 0.043137
0.494118 0.498039 0.000000
0.670588 0.541176 0.035294
0.898039 0.631373 0.007843
0.913725 0.509804 0.000000
1.000000 0.450980 0.000000
0.207843 0.768627 0.203922
0.141176 0.705882 0.090196
0.286275 0.701961 0.113725
0.333333 0.611765 0.000000
0.615686 0.760784 0.254902
0.576471 0.588235 0.003922
0.843137 0.741176 0.274510
0.772549 0.549020 0.003922
1.000000 0.580392 0.000000
0.450980 0.764706 0.149020
0.254902 0.843137 0.219608
0.000000 0.647059 0.003922
0.317647 0.705882 0.000000
0.513725 0.784314 0.192157
0.658824 0.780392 0.231373
0.666667 0.686275 0.090196
0.874510 0.792157 0.290196
1.000000 0.737255 0.000000
0.537255 0.843137 0.262745
0.411765 0.972549 0.368627
0.301961 0.843137 0.231373
0.384314 0.839216 0.247059
0.537255 0.882353 0.301961
0.588235 0.831373 0.262745
0.792157 0.917647 0.396078
0.847059 0.858824 0.352941
0.925490 0.803922 0.313725
0.545098 0.996078 0.482353
0.356863 0.956863 0.400000
0.556863 1.000000 0.529412
0.447059 0.925490 0.400000
0.607843 1.000000 0.474510
0.596078 0.878431 0.376471
0.819608 0.976471 0.529412
0.925490 0.988235 0.560784
0.952941 0.921569 0.533333
0.258824 0.000000 0.188235
0.215686 0.000000 0.101961
0.380392 0.003922 0.109804
0.525490 0.062745 0.164706
0.639216 0.121569 0.164706
0.635294 0.000000 0.000000
0.827451 0.129412 0.090196
0.992157 0.423529 0.309804
0.992157 0.149020 0.078431
0.423529 0.023529 0.105882
0.203922 0.094118 0.090196
0.364706 0.168627 0.133333
0.498039 0.164706 0.137255
0.666667 0.231373 0.152941
0.886275 0.345098 0.235294
0.874510 0.231373 0.094118
0.992157 0.447059 0.286275
1.000000 0.364706 0.215686
0.607843 0.305882 0.133333
0.196078 0.290196 0.094118
0.254902 0.219608 0.050980
0.435294 0.294118 0.050980
0.549020 0.254902 0.000000
0.717647 0.301961 0.003922
0.909804 0.376471 0.086275
0.937255 0.305882 0.000000
1.000000 0.423529 0.180392
0.439216 0.466667 0.203922
0.211765 0.435294 0.117647
0.145098 0.258824 0.000000
0.419608 0.403922 0.113725
0.580392 0.439216 0.094118
0.854902 0.556863 0.180392
0.952941 0.525490 0.129412
0.937255 0.407843 0.000000
1.000000 0.392157 0.000000
0.482353 0.509804 0.133333
0.235294 0.596078 0.160784
0.309804 0.568627 0.145098
0.439216 0.568627 0.156863
0.478431 0.490196 0.086275
0.537255 0.427451 0.007843
0.745098 0.494118 0.007843
0.878431 0.505882 0.003922
1.000000 0.513725 0.000000
0.000000 0.611765 0.000000
0.000000 0.580392 0.000000
0.341176 0.776471 0.266667
0.325490 0.631373 0.098039
0.403922 0.564706 0.011765
0.627451 0.658824 0.192157
0.698039 0.623529 0.149020
0.858824 0.650980 0.000000
0.996078 0.647059 0.003922
0.486275 0.811765 0.247059
0.003922 0.737255 0.090196
0.172549 0.737255 0.117647
0.415686 0.811765 0.254902
0.580392 0.847059 0.301961
0.678431 0.823529 0.305882
0.733333 0.776471 0.262745
0.827451 0.756863 0.262745
0.980392 0.745098 0.062745
0.596078 0.901961 0.333333
0.243137 0.870588 0.282353
0.282353 0.843137 0.254902
0.223529 0.725490 0.109804
0.643137 0.984314 0.431373
0.733333 0.976471 0.447059
0.745098 0.866667 0.356863
0.866667 0.890196 0.403922
1.000000 0.980392 0.521569
0.400000 0.898039 0.384314
0.313725 0.945098 0.396078
0.521569 1.000000 0.525490
0.501961 0.988235 0.470588
0.603922 1.000000 0.490196
0.717647 0.996078 0.525490
0.733333 0.917647 0.462745
0.870588 0.941176 0.517647
0.972549 0.949020 0.564706
0.407843 0.007843 0.400000
0.298039 0.003922 0.235294
0.333333 0.000000 0.164706
0.541176 0.070588 0.211765
0.733333 0.192157 0.294118
0.713725 0.090196 0.215686
0.807843 0.149020 0.215686
0.980392 0.274510 0.270588
0.996078 0.352941 0.349020
0.427451 0.000000 0.152941
0.290196 0.129412 0.254902
0.466667 0.286275 0.337255
0.498039 0.180392 0.239216
0.584314 0.160784 0.223529
0.643137 0.109804 0.149020
0.803922 0.203922 0.184314
0.960784 0.278431 0.243137
0.992157 0.160784 0.156863
0.580392 0.305882 0.274510
0.141176 0.223529 0.149020
0.309804 0.282353 0.219608
0.435294 0.270588 0.184314
0.631373 0.352941 0.235294
0.690196 0.298039 0.164706
0.819608 0.313725 0.188235
0.992157 0.388235 0.239216
1.000000 0.360784 0.243137
0.392157 0.427451 0.250980
0.066667 0.317647 0.082353
0.400000 0.501961 0.313725
0.403922 0.388235 0.211765
0.580392 0.443137 0.215686
0.643137 0.368627 0.094118
0.847059 0.447059 0.164706
1.000000 0.568627 0.321569
1.000000 0.435294 0.196078
0.466667 0.513725 0.223529
0.298039 0.647059 0.325490
0.298039 0.564706 0.239216
0.494118 0.627451 0.325490
0.572549 0.572549 0.290196
0.866667 0.764706 0.474510
0.705882 0.470588 0.000000
0.956863 0.580392 0.188235
0.960784 0.450980 0.066667
0.101961 0.713725 0.282353
0.207843 0.725490 0.298039
0.274510 0.690196 0.266667
0.396078 0.674510 0.266667
0.560784 0.701961 0.309804
0.541176 0.564706 0.172549
0.752941 0.662745 0.286275
0.996078 0.827451 0.384314
1.000000 0.674510 0.235294
0.392157 0.713725 0.227451
0.000000 0.721569 0.176471
0.439216 0.921569 0.435294
0.458824 0.850980 0.364706
0.337255 0.619608 0.094118
0.686275 0.831373 0.384314
0.772549 0.811765 0.368627
0.752941 0.678431 0.215686
0.968627 0.721569 0.176471
0.498039 0.800000 0.290196
0.270588 0.862745 0.325490
0.325490 0.858824 0.333333
0.490196 0.941176 0.427451
0.639216 0.984314 0.501961
0.721569 0.956863 0.470588
0.807843 0.929412 0.458824
0.796078 0.827451 0.360784
0.972549 0.866667 0.423529
0.615686 1.000000 0.588235
0.301961 0.909804 0.400000
0.498039 1.000000 0.533333
0.376471 0.866667 0.372549
0.580392 0.960784 0.505882
0.658824 0.933333 0.486275
0.878431 0.996078 0.619608
0.870588 0.937255 0.537255
0.882353 0.862745 0.501961
0.294118 0.000000 0.372549
0.321569 0.000000 0.349020
0.494118 0.003922 0.411765
0.686275 0.258824 0.482353
0.611765 0.043137 0.274510
0.745098 0.105882 0.290196
0.839216 0.145098 0.309804
0.992157 0.333333 0.435294
1.000000 0.341176 0.439216
0.501961 0.086275 0.345098
0.380392 0.141176 0.443137
0.474510 0.133333 0.403922
0.647059 0.333333 0.478431
0.756863 0.317647 0.411765
0.811765 0.274510 0.376471
0.784314 0.196078 0.294118
0.917647 0.286275 0.356863
1.000000 0.309804 0.388235
0.454902 0.149020 0.211765
0.207843 0.313725 0.388235
0.411765 0.376471 0.458824
0.529412 0.384314 0.411765
0.529412 0.254902 0.286275
0.682353 0.290196 0.321569
0.803922 0.325490 0.321569
0.996078 0.415686 0.400000
1.000000 0.301961 0.301961
0.505882 0.513725 0.458824
0.227451 0.443137 0.360784
0.337255 0.431373 0.345098
0.466667 0.458824 0.376471
0.525490 0.388235 0.270588
0.627451 0.356863 0.235294
0.780392 0.407843 0.290196
0.905882 0.415686 0.305882
1.000000 0.447059 0.329412
0.427451 0.494118 0.321569
0.250980 0.564706 0.356863
0.372549 0.607843 0.396078
0.498039 0.615686 0.419608
0.490196 0.482353 0.321569
0.674510 0.556863 0.352941
0.698039 0.462745 0.219608
1.000000 0.631373 0.392157
1.000000 0.529412 0.333333
0.172549 0.717647 0.392157
0.282353 0.749020 0.435294
0.254902 0.654902 0.329412
0.501961 0.768627 0.466667
0.588235 0.729412 0.439216
0.650980 0.662745 0.384314
0.807843 0.721569 0.435294
0.909804 0.686275 0.333333
1.000000 0.639216 0.333333
0.427451 0.780392 0.403922
0.423529 0.937255 0.537255
0.203922 0.721569 0.294118
0.360784 0.752941 0.368627
0.529412 0.784314 0.415686
0.631373 0.768627 0.400000
0.682353 0.737255 0.356863
0.886275 0.819608 0.458824
1.000000 0.796078 0.364706
0.533333 0.858824 0.435294
0.509804 1.000000 0.584314
0.482353 0.960784 0.525490
0.368627 0.796078 0.368627
0.517647 0.843137 0.427451
0.525490 0.768627 0.341176
0.682353 0.800000 0.407843
0.901961 0.925490 0.533333
0.913725 0.784314 0.411765
0.513725 0.984314 0.568627
0.247059 0.850980 0.403922
0.509804 1.000000 0.580392
0.458824 0.921569 0.482353
0.572549 0.952941 0.549020
0.627451 0.894118 0.498039
1.000000 1.000000 0.756863
0.901961 0.976471 0.623529
0.968627 0.941176 0.623529
0.666667 0.129412 0.776471
0.490196 0.003922 0.576471
0.576471 0.003922 0.572549
0.717647 0.054902 0.560784
0.819608 0.321569 0.592157
0.800000 0.203922 0.427451
0.850980 0.168627 0.360784
1.000000 0.349020 0.490196
1.000000 0.337255 0.466667
0.666667 0.000000 0.600000
0.486275 0.152941 0.611765
0.674510 0.254902 0.670588
0.811765 0.341176 0.682353
0.647059 0.227451 0.431373
0.729412 0.207843 0.376471
0.729412 0.101961 0.274510
0.952941 0.321569 0.443137
1.000000 0.364706 0.470588
0.603922 0.282353 0.462745
0.227451 0.282353 0.521569
0.494118 0.380392 0.600000
0.752941 0.478431 0.674510
0.580392 0.313725 0.411765
0.756863 0.356863 0.443137
0.839216 0.372549 0.447059
0.835294 0.313725 0.388235
1.000000 0.466667 0.545098
0.415686 0.490196 0.556863
0.266667 0.498039 0.552941
0.380392 0.498039 0.541176
0.462745 0.407843 0.458824
0.623529 0.486275 0.501961
0.741176 0.498039 0.517647
0.839216 0.494118 0.490196
0.949020 0.505882 0.513725
1.000000 0.670588 0.670588
0.474510 0.533333 0.458824
0.309804 0.631373 0.545098
0.321569 0.564706 0.482353
0.545098 0.654902 0.564706
0.568627 0.564706 0.486275
0.701961 0.576471 0.478431
0.831373 0.576471 0.466667
0.854902 0.501961 0.400000
0.996078 0.568627 0.486275
0.309804 0.749020 0.552941
0.313725 0.729412 0.541176
0.439216 0.764706 0.560784
0.478431 0.721569 0.529412
0.505882 0.639216 0.443137
0.647059 0.658824 0.482353
0.756863 0.654902 0.454902
0.937255 0.705882 0.486275
0.996078 0.705882 0.521569
0.384314 0.752941 0.454902
0.000000 0.619608 0.305882
0.349020 0.807843 0.498039
0.462745 0.823529 0.521569
0.607843 0.854902 0.580392
0.592157 0.741176 0.454902
0.800000 0.827451 0.560784
0.937255 0.866667 0.584314
0.976471 0.733333 0.439216
0.607843 0.921569 0.588235
0.466667 0.980392 0.615686
0.376471 0.866667 0.505882
0.541176 0.952941 0.592157
0.552941 0.874510 0.541176
0.623529 0.839216 0.513725
0.619608 0.745098 0.419608
0.858824 0.890196 0.556863
1.000000 0.878431 0.556863
0.423529 0.890196 0.521569
0.658824 1.000000 0.729412
0.482353 0.984314 0.611765
0.533333 0.968627 0.607843
0.678431 1.000000 0.682353
0.725490 0.996078 0.647059
0.921569 1.000000 0.741176
0.815686 0.878431 0.584314
0.980392 0.964706 0.678431
0.545098 0.003922 0.725490
0.647059 0.000000 0.788235
0.654902 0.007843 0.721569
0.847059 0.050980 0.788235
0.831373 0.239216 0.658824
0.823529 0.270588 0.568627
0.917647 0.321569 0.545098
1.000000 0.352941 0.521569
0.996078 0.400000 0.549020
0.658824 0.000000 0.709804
0.482353 0.070588 0.678431
0.576471 0.007843 0.654902
0.886275 0.321569 0.835294
0.925490 0.443137 0.760784
0.807843 0.341176 0.568627
0.858824 0.309804 0.501961
0.894118 0.262745 0.435294
1.000000 0.376471 0.501961
0.768627 0.333333 0.737255
0.411765 0.321569 0.678431
0.576471 0.376471 0.737255
0.662745 0.333333 0.670588
0.854902 0.498039 0.729412
0.827451 0.490196 0.627451
0.886275 0.443137 0.560784
0.984314 0.458824 0.556863
0.996078 0.439216 0.525490
0.317647 0.388235 0.631373
0.196078 0.454902 0.658824
0.419608 0.537255 0.741176
0.690196 0.600000 0.780392
0.670588 0.490196 0.603922
0.698039 0.466667 0.537255
0.847059 0.501961 0.549020
0.901961 0.490196 0.556863
0.980392 0.521569 0.592157
0.337255 0.427451 0.498039
0.188235 0.564706 0.619608
0.223529 0.505882 0.552941
0.435294 0.580392 0.611765
0.478431 0.454902 0.494118
0.807843 0.694118 0.701961
0.933333 0.737255 0.749020
0.839216 0.556863 0.572549
1.000000 0.627451 0.643137
0.000000 0.611765 0.529412
0.137255 0.666667 0.549020
0.384314 0.745098 0.654902
0.435294 0.678431 0.588235
0.623529 0.733333 0.647059
0.662745 0.678431 0.611765
0.890196 0.772549 0.678431
0.847059 0.619608 0.541176
0.913725 0.572549 0.505882
0.501961 0.827451 0.654902
0.478431 0.898039 0.717647
0.215686 0.647059 0.462745
0.443137 0.741176 0.549020
0.572549 0.815686 0.623529
0.623529 0.752941 0.584314
0.701961 0.729412 0.556863
0.807843 0.725490 0.541176
1.000000 0.772549 0.607843
0.647059 0.968627 0.717647
0.501961 0.905882 0.686275
0.533333 0.925490 0.682353
0.494118 0.882353 0.627451
0.529412 0.847059 0.588235
0.572549 0.792157 0.552941
0.788235 0.898039 0.666667
0.909804 0.913725 0.686275
0.968627 0.847059 0.623529
0.447059 0.909804 0.611765
0.427451 0.905882 0.619608
0.458824 0.937255 0.643137
0.541176 0.945098 0.666667
0.603922 0.937255 0.670588
0.729412 0.968627 0.737255
0.811765 0.972549 0.737255
0.835294 0.894118 0.662745
0.894118 0.870588 0.666667
0.572549 0.003922 0.792157
0.627451 0.003922 0.815686
0.874510 0.227451 0.976471
0.964706 0.286275 0.992157
0.992157 0.309804 0.901961
0.964706 0.447059 0.776471
0.913725 0.388235 0.658824
1.000000 0.462745 0.666667
0.992157 0.431373 0.603922
0.647059 0.000000 0.776471
0.584314 0.101961 0.803922
0.776471 0.270588 0.909804
0.709804 0.098039 0.760784
0.921569 0.329412 0.843137
0.964706 0.517647 0.792157
0.996078 0.517647 0.741176
0.988235 0.529412 0.705882
0.988235 0.380392 0.545098
0.682353 0.266667 0.760784
0.517647 0.345098 0.827451
0.690196 0.427451 0.882353
0.705882 0.333333 0.796078
0.823529 0.392157 0.780392
0.894118 0.552941 0.768627
0.858824 0.494118 0.666667
1.000000 0.592157 0.729412
0.929412 0.384314 0.505882
0.552941 0.541176 0.890196
0.262745 0.400000 0.760784
0.380392 0.376471 0.690196
0.607843 0.458824 0.745098
0.784314 0.525490 0.768627
0.882353 0.674510 0.792157
0.921569 0.647059 0.741176
0.866667 0.501961 0.576471
0.996078 0.678431 0.745098
0.388235 0.505882 0.709804
0.227451 0.603922 0.792157
0.301961 0.588235 0.756863
0.321569 0.470588 0.654902
0.603922 0.537255 0.701961
0.850980 0.717647 0.811765
0.866667 0.701961 0.756863
0.956863 0.694118 0.721569
0.992157 0.752941 0.784314
0.086275 0.721569 0.764706
0.219608 0.752941 0.800000
0.196078 0.643137 0.682353
0.415686 0.690196 0.737255
0.462745 0.611765 0.654902
0.678431 0.678431 0.717647
0.772549 0.686275 0.698039
0.937255 0.772549 0.780392
1.000000 0.760784 0.780392
0.427451 0.831373 0.756863
0.392157 0.874510 0.796078
0.321569 0.776471 0.694118
0.498039 0.835294 0.737255
0.701961 0.917647 0.835294
0.721569 0.815686 0.752941
0.721569 0.756863 0.690196
0.780392 0.674510 0.607843
0.945098 0.752941 0.698039
0.435294 0.733333 0.592157
0.537255 0.964706 0.803922
0.498039 0.890196 0.741176
0.627451 0.941176 0.788235
0.631373 0.870588 0.741176
0.737255 0.921569 0.780392
0.788235 0.894118 0.764706
0.862745 0.878431 0.749020
0.933333 0.831373 0.701961
0.580392 0.945098 0.768627
0.603922 0.980392 0.800000
0.643137 1.000000 0.819608
0.654902 0.956863 0.784314
0.631373 0.894118 0.733333
0.819608 1.000000 0.858824
0.745098 0.882353 0.725490
0.866667 0.913725 0.764706
0.972549 0.949020 0.823529
0.678431 0.000000 0.909804
0.721569 0.031373 0.937255
0.709804 0.003922 0.878431
0.843137 0.152941 0.917647
1.000000 0.403922 0.992157
1.000000 0.458824 0.917647
1.000000 0.666667 0.921569
0.972549 0.552941 0.764706
0.952941 0.435294 0.627451
0.749020 0.164706 0.901961
0.576471 0.023529 0.819608
0.764706 0.250980 0.933333
0.788235 0.219608 0.866667
0.937255 0.360784 0.921569
1.000000 0.501961 0.913725
1.000000 0.670588 0.886275
0.960784 0.560784 0.749020
0.996078 0.596078 0.752941
0.662745 0.219608 0.784314
0.529412 0.282353 0.835294
0.662745 0.372549 0.909804
0.800000 0.427451 0.921569
0.945098 0.552941 1.000000
0.925490 0.509804 0.854902
0.992157 0.788235 0.941176
0.952941 0.631373 0.788235
1.000000 0.639216 0.760784
0.556863 0.443137 0.858824
0.517647 0.486275 0.890196
0.670588 0.549020 0.952941
0.745098 0.564706 0.909804
0.925490 0.670588 0.984314
0.976471 0.682353 0.913725
0.968627 0.752941 0.878431
0.858824 0.600000 0.709804
1.000000 0.733333 0.831373
0.509804 0.498039 0.807843
0.329412 0.635294 0.956863
0.415686 0.596078 0.933333
0.537255 0.545098 0.835294
0.823529 0.713725 0.945098
0.788235 0.619608 0.788235
0.913725 0.764706 0.854902
1.000000 0.847059 0.917647
1.000000 0.749020 0.815686
0.003922 0.658824 0.835294
0.223529 0.764706 0.945098
0.007843 0.584314 0.756863
0.423529 0.729412 0.917647
0.380392 0.552941 0.729412
0.741176 0.717647 0.827451
0.796078 0.698039 0.772549
0.996078 0.890196 0.917647
0.976471 0.768627 0.807843
0.317647 0.792157 0.835294
0.345098 0.898039 0.937255
0.325490 0.831373 0.850980
0.513725 0.874510 0.933333
0.498039 0.764706 0.807843
0.682353 0.831373 0.866667
0.870588 0.890196 0.913725
0.847059 0.792157 0.792157
0.941176 0.839216 0.843137
0.529412 0.866667 0.815686
0.560784 1.000000 0.988235
0.537255 0.992157 0.917647
0.501961 0.890196 0.819608
0.627451 0.913725 0.835294
0.776471 0.945098 0.905882
0.835294 0.913725 0.870588
0.945098 0.956863 0.921569
0.992157 0.937255 0.901961
0.482353 0.870588 0.756863
0.564706 0.976471 0.854902
0.568627 0.945098 0.835294
0.509804 0.843137 0.729412
0.670588 0.917647 0.811765
0.803922 0.972549 0.898039
0.831373 0.925490 0.862745
0.882353 0.937255 0.878431
0.964706 0.968627 0.913725
0.803922 0.250980 0.996078
0.662745 0.000000 0.894118
0.745098 0.137255 0.929412
0.815686 0.219608 0.937255
0.823529 0.200000 0.847059
1.000000 0.517647 1.000000
1.000000 0.623529 0.941176
0.980392 0.670588 0.847059
1.000000 0.760784 0.921569
0.858824 0.325490 1.000000
0.729412 0.258824 0.984314
0.698039 0.215686 0.909804
0.823529 0.321569 0.945098
0.839216 0.321569 0.890196
0.960784 0.474510 0.921569
0.968627 0.572549 0.870588
0.929412 0.650980 0.807843
0.980392 0.666667 0.811765
0.768627 0.360784 0.905882
0.760784 0.482353 1.000000
0.792157 0.474510 1.000000
0.886275 0.537255 0.992157
0.823529 0.450980 0.905882
0.913725 0.517647 0.894118
0.996078 0.721569 0.968627
0.839216 0.623529 0.745098
0.933333 0.647059 0.764706
0.572549 0.415686 0.854902
0.600000 0.494118 0.937255
0.588235 0.423529 0.847059
0.733333 0.529412 0.921569
0.827451 0.588235 0.901961
0.960784 0.678431 0.964706
0.980392 0.741176 0.913725
0.909804 0.733333 0.823529
0.890196 0.686275 0.772549
0.572549 0.513725 0.831373
0.211765 0.384314 0.811765
0.694118 0.709804 0.996078
0.600000 0.556863 0.854902
0.698039 0.592157 0.854902
0.839216 0.670588 0.882353
0.984314 0.811765 0.949020
0.996078 0.874510 0.937255
0.917647 0.776471 0.823529
0.000000 0.690196 0.988235
0.000000 0.615686 0.917647
0.000000 0.549020 0.850980
0.447059 0.721569 0.996078
0.596078 0.670588 0.929412
0.803922 0.768627 0.937255
0.870588 0.792157 0.898039
0.901961 0.839216 0.878431
0.988235 0.898039 0.921569
0.278431 0.764706 0.913725
0.000000 0.705882 0.858824
0.282353 0.807843 0.952941
0.380392 0.788235 0.933333
0.407843 0.694118 0.831373
0.588235 0.725490 0.890196
0.890196 0.886275 0.941176
0.882353 0.839216 0.870588
0.854902 0.819608 0.839216
0.549020 0.941176 1.000000
0.309804 0.913725 0.952941
0.364706 0.890196 0.925490
0.494118 0.929412 0.972549
0.443137 0.788235 0.827451
0.572549 0.792157 0.843137
0.850980 0.956863 1.000000
0.811765 0.831373 0.854902
0.792157 0.776471 0.772549
0.564706 1.000000 0.972549
0.525490 1.000000 0.972549
0.584314 0.996078 0.968627
0.474510 0.874510 0.819608
0.788235 1.000000 1.000000
0.694118 0.890196 0.854902
0.850980 0.949020 0.925490
0.949020 0.984314 0.964706
0.898039 0.917647 0.901961
