other luts/Cinestill 50D 35mm 偏黄.cube
#Generated with IWLTBAP LUT Generator
#Website: http://luts.iwltbap.com
TITLE "Æ«»Æ"
#LUT size
LUT_3D_SIZE 9
#LUT data points
0.019608 0.019608 0.019608
0.082353 0.070588 0.043137
0.168627 0.050980 0.011765
0.400000 0.054902 0.000000
0.568627 0.023529 0.003922
0.752941 0.145098 0.023529
0.882353 0.278431 0.074510
0.984314 0.368627 0.160784
0.968627 0.435294 0.247059
0.188235 0.074510 0.003922
0.003922 0.050980 0.003922
0.070588 0.078431 0.000000
0.392157 0.164706 0.015686
0.576471 0.200000 0.000000
0.792157 0.294118 0.078431
0.921569 0.372549 0.141176
1.000000 0.450980 0.219608
0.964706 0.494118 0.247059
0.274510 0.243137 0.000000
0.000000 0.188235 0.062745
0.109804 0.258824 0.105882
0.411765 0.333333 0.000000
0.698039 0.368627 0.023529
0.819608 0.403922 0.066667
0.913725 0.435294 0.101961
1.000000 0.541176 0.227451
1.000000 0.619608 0.325490
0.137255 0.345098 0.133333
0.129412 0.349020 0.211765
0.117647 0.356863 0.196078
0.215686 0.349020 0.152941
0.549020 0.501961 0.180392
0.850980 0.600000 0.168627
0.898039 0.529412 0.082353
1.000000 0.584314 0.200000
1.000000 0.627451 0.298039
0.188235 0.458824 0.235294
0.231373 0.450980 0.298039
0.286275 0.490196 0.337255
0.258824 0.482353 0.266667
0.364706 0.486275 0.254902
0.600000 0.572549 0.227451
0.819608 0.639216 0.160784
1.000000 0.721569 0.258824
0.980392 0.698039 0.298039
0.341176 0.611765 0.427451
0.317647 0.580392 0.407843
0.250980 0.509804 0.329412
0.298039 0.533333 0.333333
0.364706 0.596078 0.345098
0.513725 0.639216 0.376471
0.619608 0.647059 0.333333
0.858824 0.768627 0.321569
0.921569 0.843137 0.462745
0.262745 0.658824 0.345098
0.392157 0.674510 0.494118
0.439216 0.705882 0.513725
0.407843 0.658824 0.454902
0.435294 0.709804 0.462745
0.407843 0.643137 0.368627
0.658824 0.792157 0.501961
0.792157 0.835294 0.525490
0.760784 0.847059 0.592157
0.619608 0.768627 0.568627
0.647059 0.780392 0.643137
0.568627 0.701961 0.572549
0.654902 0.792157 0.635294
0.533333 0.678431 0.509804
0.768627 0.858824 0.686275
0.776471 0.827451 0.647059
0.854902 0.854902 0.650980
0.854902 0.862745 0.709804
0.756863 0.850980 0.717647
0.788235 0.858824 0.772549
0.784314 0.870588 0.788235
0.807843 0.882353 0.796078
0.752941 0.831373 0.733333
0.854902 0.917647 0.815686
0.839216 0.878431 0.780392
0.909804 0.921569 0.839216
0.941176 0.937255 0.866667
0.031373 0.058824 0.031373
0.000000 0.000000 0.000000
0.027451 0.090196 0.039216
0.227451 0.235294 0.039216
0.486275 0.301961 0.000000
0.784314 0.411765 0.058824
0.839216 0.392157 0.003922
1.000000 0.521569 0.129412
0.941176 0.615686 0.105882
0.125490 0.188235 0.074510
0.007843 0.125490 0.023529
0.003922 0.180392 0.058824
0.003922 0.192157 0.000000
0.243137 0.349020 0.078431
0.525490 0.415686 0.000000
0.788235 0.462745 0.000000
0.882353 0.466667 0.000000
0.741176 0.623529 0.011765
0.333333 0.250980 0.003922
0.101961 0.227451 0.145098
0.203922 0.298039 0.172549
0.364706 0.250980 0.023529
0.666667 0.384314 0.152941
0.800000 0.415686 0.176471
0.921569 0.458824 0.215686
0.949020 0.458824 0.207843
1.000000 0.607843 0.376471
0.215686 0.352941 0.196078
0.219608 0.372549 0.250980
0.270588 0.415686 0.294118
0.345098 0.443137 0.286275
0.541176 0.490196 0.223529
0.796078 0.564706 0.203922
0.886275 0.537255 0.168627
0.988235 0.572549 0.235294
1.000000 0.611765 0.313725
0.152941 0.403922 0.200000
0.313725 0.509804 0.360784
0.325490 0.505882 0.360784
0.301961 0.505882 0.313725
0.368627 0.478431 0.278431
0.615686 0.607843 0.305882
0.827451 0.662745 0.223529
0.956863 0.654902 0.200000
0.960784 0.694118 0.298039
0.380392 0.611765 0.439216
0.301961 0.541176 0.376471
0.380392 0.603922 0.435294
0.411765 0.635294 0.435294
0.341176 0.552941 0.317647
0.454902 0.572549 0.329412
0.682353 0.694118 0.384314
0.909804 0.807843 0.364706
0.843137 0.800000 0.447059
0.262745 0.647059 0.345098
0.431373 0.690196 0.509804
0.396078 0.670588 0.474510
0.403922 0.654902 0.450980
0.400000 0.674510 0.439216
0.517647 0.733333 0.470588
0.603922 0.737255 0.447059
0.701961 0.745098 0.435294
0.698039 0.776471 0.537255
0.721569 0.819608 0.654902
0.666667 0.745098 0.639216
0.666667 0.756863 0.647059
0.643137 0.737255 0.611765
0.709804 0.788235 0.643137
0.756863 0.803922 0.647059
0.733333 0.737255 0.572549
0.925490 0.874510 0.670588
0.905882 0.898039 0.745098
0.811765 0.866667 0.768627
0.788235 0.831373 0.764706
0.811765 0.862745 0.784314
0.839216 0.886275 0.800000
0.847059 0.894118 0.807843
0.870588 0.901961 0.819608
0.901961 0.921569 0.831373
0.894118 0.886275 0.827451
0.952941 0.925490 0.854902
0.000000 0.031373 0.043137
0.000000 0.043137 0.050980
0.113725 0.090196 0.090196
0.325490 0.172549 0.152941
0.576471 0.294118 0.239216
0.694118 0.309804 0.211765
0.894118 0.411765 0.290196
0.937255 0.423529 0.258824
0.952941 0.631373 0.301961
0.101961 0.156863 0.027451
0.062745 0.196078 0.133333
0.074510 0.200000 0.117647
0.164706 0.239216 0.113725
0.482353 0.368627 0.133333
0.674510 0.364706 0.133333
0.823529 0.423529 0.172549
1.000000 0.556863 0.282353
0.850980 0.678431 0.305882
0.450980 0.294118 0.156863
0.219608 0.298039 0.262745
0.270588 0.278431 0.235294
0.501961 0.372549 0.313725
0.635294 0.380392 0.309804
0.752941 0.380392 0.294118
0.847059 0.403922 0.286275
1.000000 0.509804 0.360784
0.933333 0.545098 0.419608
0.239216 0.364706 0.203922
0.329412 0.415686 0.333333
0.333333 0.407843 0.321569
0.407843 0.447059 0.349020
0.584314 0.478431 0.262745
0.729412 0.474510 0.223529
0.890196 0.541176 0.305882
0.984314 0.592157 0.360784
0.996078 0.607843 0.384314
0.262745 0.450980 0.262745
0.396078 0.533333 0.415686
0.400000 0.517647 0.407843
0.388235 0.505882 0.364706
0.450980 0.509804 0.341176
0.619608 0.568627 0.294118
0.866667 0.670588 0.329412
1.000000 0.690196 0.368627
0.980392 0.701961 0.450980
0.372549 0.576471 0.423529
0.407843 0.603922 0.454902
0.466667 0.647059 0.494118
0.400000 0.576471 0.407843
0.462745 0.631373 0.419608
0.533333 0.627451 0.400000
0.713725 0.713725 0.431373
0.878431 0.768627 0.388235
0.941176 0.827451 0.521569
0.333333 0.623529 0.376471
0.470588 0.694118 0.525490
0.494118 0.709804 0.545098
0.431373 0.639216 0.458824
0.501961 0.713725 0.517647
0.501961 0.690196 0.447059
0.658824 0.760784 0.521569
0.839216 0.862745 0.572549
0.796078 0.854902 0.631373
0.678431 0.800000 0.627451
0.729412 0.827451 0.713725
0.666667 0.760784 0.658824
0.694118 0.772549 0.662745
0.674510 0.768627 0.627451
0.764706 0.831373 0.690196
0.737255 0.776471 0.631373
0.909804 0.894118 0.709804
0.874510 0.870588 0.749020
0.815686 0.909804 0.784314
0.811765 0.882353 0.796078
0.796078 0.839216 0.776471
0.843137 0.890196 0.811765
0.835294 0.905882 0.803922
0.823529 0.878431 0.788235
0.882353 0.909804 0.839216
0.960784 0.980392 0.901961
0.984314 0.976471 0.917647
0.003922 0.137255 0.176471
0.000000 0.176471 0.200000
0.000000 0.090196 0.121569
0.376471 0.321569 0.321569
0.400000 0.207843 0.192157
0.662745 0.356863 0.317647
0.823529 0.411765 0.325490
0.933333 0.470588 0.368627
0.941176 0.603922 0.419608
0.125490 0.215686 0.105882
0.003922 0.203922 0.129412
0.105882 0.282353 0.200000
0.227451 0.301961 0.223529
0.392157 0.380392 0.250980
0.666667 0.466667 0.258824
0.815686 0.494118 0.266667
1.000000 0.588235 0.345098
0.878431 0.643137 0.356863
0.411765 0.270588 0.309804
0.278431 0.352941 0.407843
0.356863 0.349020 0.403922
0.556863 0.439216 0.470588
0.580392 0.341176 0.400000
0.741176 0.400000 0.423529
0.886275 0.470588 0.470588
0.976471 0.556863 0.525490
0.988235 0.701961 0.674510
0.435294 0.396078 0.349020
0.313725 0.439216 0.396078
0.407843 0.470588 0.431373
0.521569 0.482353 0.435294
0.678431 0.509804 0.447059
0.780392 0.533333 0.462745
0.894118 0.564706 0.470588
0.945098 0.588235 0.482353
0.996078 0.749020 0.627451
0.407843 0.470588 0.356863
0.450980 0.560784 0.474510
0.466667 0.541176 0.454902
0.509804 0.541176 0.450980
0.556863 0.568627 0.454902
0.701961 0.611765 0.415686
0.886275 0.647059 0.435294
0.952941 0.654902 0.450980
0.992157 0.721569 0.556863
0.490196 0.631373 0.521569
0.560784 0.698039 0.580392
0.545098 0.647059 0.541176
0.549020 0.639216 0.525490
0.529412 0.627451 0.474510
0.670588 0.713725 0.545098
0.796078 0.764706 0.521569
0.913725 0.780392 0.498039
0.894118 0.792157 0.552941
0.470588 0.678431 0.474510
0.596078 0.752941 0.615686
0.600000 0.756863 0.619608
0.615686 0.756863 0.615686
0.533333 0.674510 0.525490
0.560784 0.705882 0.505882
0.717647 0.788235 0.592157
0.768627 0.784314 0.545098
0.815686 0.850980 0.666667
0.705882 0.745098 0.639216
0.803922 0.827451 0.772549
0.792157 0.807843 0.741176
0.800000 0.811765 0.745098
0.745098 0.760784 0.694118
0.819608 0.827451 0.733333
0.862745 0.835294 0.721569
0.894118 0.827451 0.709804
0.913725 0.878431 0.764706
0.874510 0.890196 0.823529
0.878431 0.894118 0.839216
0.894118 0.905882 0.862745
0.811765 0.827451 0.772549
0.835294 0.858824 0.811765
0.874510 0.890196 0.831373
0.941176 0.949020 0.898039
0.956863 0.949020 0.898039
0.960784 0.937255 0.882353
0.000000 0.192157 0.400000
0.007843 0.192157 0.403922
0.266667 0.274510 0.462745
0.439216 0.294118 0.454902
0.627451 0.388235 0.521569
0.819608 0.478431 0.611765
0.858824 0.423529 0.549020
1.000000 0.537255 0.611765
0.878431 0.600000 0.584314
0.278431 0.223529 0.211765
0.082353 0.301961 0.400000
0.188235 0.333333 0.407843
0.396078 0.368627 0.431373
0.525490 0.384314 0.423529
0.701961 0.443137 0.490196
0.819608 0.454902 0.494118
0.898039 0.490196 0.486275
0.839216 0.619608 0.568627
0.501961 0.321569 0.423529
0.333333 0.368627 0.537255
0.400000 0.368627 0.529412
0.600000 0.450980 0.596078
0.694118 0.454902 0.576471
0.760784 0.450980 0.572549
0.882353 0.509804 0.603922
0.937255 0.525490 0.580392
0.960784 0.658824 0.698039
0.439216 0.411765 0.388235
0.301961 0.443137 0.498039
0.352941 0.427451 0.486275
0.549020 0.498039 0.564706
0.694118 0.545098 0.588235
0.780392 0.560784 0.596078
0.890196 0.596078 0.615686
0.945098 0.615686 0.607843
0.964706 0.647059 0.631373
0.494118 0.486275 0.427451
0.439216 0.584314 0.552941
0.533333 0.639216 0.603922
0.541176 0.568627 0.541176
0.717647 0.650980 0.611765
0.788235 0.639216 0.603922
0.909804 0.690196 0.631373
0.937255 0.674510 0.600000
0.894118 0.690196 0.639216
0.549020 0.705882 0.611765
0.564706 0.721569 0.627451
0.611765 0.721569 0.631373
0.658824 0.709804 0.639216
0.709804 0.717647 0.635294
0.647059 0.647059 0.552941
0.862745 0.788235 0.623529
0.964706 0.772549 0.611765
0.921569 0.752941 0.615686
0.584314 0.678431 0.545098
0.647059 0.756863 0.658824
0.709804 0.819608 0.721569
0.733333 0.807843 0.721569
0.701961 0.792157 0.682353
0.678431 0.756863 0.619608
0.784314 0.815686 0.662745
0.921569 0.898039 0.694118
0.819608 0.835294 0.705882
0.741176 0.768627 0.698039
0.764706 0.800000 0.733333
0.827451 0.870588 0.803922
0.847059 0.862745 0.807843
0.850980 0.866667 0.807843
0.831373 0.850980 0.772549
0.839216 0.827451 0.752941
0.921569 0.878431 0.768627
0.937255 0.925490 0.850980
0.792157 0.823529 0.764706
0.925490 0.937255 0.909804
0.886275 0.898039 0.854902
0.956863 0.968627 0.925490
0.956863 0.972549 0.917647
0.898039 0.913725 0.858824
0.917647 0.925490 0.870588
0.909804 0.901961 0.850980
0.917647 0.921569 0.866667
0.003922 0.235294 0.470588
0.007843 0.247059 0.501961
0.200000 0.321569 0.537255
0.443137 0.376471 0.588235
0.596078 0.388235 0.568627
0.701961 0.435294 0.580392
0.784314 0.443137 0.580392
0.960784 0.568627 0.678431
0.980392 0.721569 0.768627
0.333333 0.286275 0.380392
0.000000 0.380392 0.478431
0.152941 0.411765 0.513725
0.258824 0.360784 0.450980
0.525490 0.450980 0.537255
0.666667 0.494118 0.560784
0.796078 0.509804 0.576471
0.972549 0.627451 0.674510
0.886275 0.682353 0.690196
0.643137 0.400000 0.647059
0.443137 0.423529 0.682353
0.478431 0.431373 0.690196
0.658824 0.509804 0.733333
0.725490 0.513725 0.705882
0.796078 0.537255 0.686275
0.886275 0.572549 0.717647
0.913725 0.564706 0.674510
0.933333 0.690196 0.780392
0.631373 0.505882 0.658824
0.376471 0.486275 0.639216
0.447059 0.498039 0.662745
0.603922 0.556863 0.698039
0.733333 0.592157 0.694118
0.800000 0.623529 0.701961
0.843137 0.600000 0.682353
0.992157 0.705882 0.772549
1.000000 0.713725 0.756863
0.517647 0.537255 0.560784
0.423529 0.607843 0.647059
0.431373 0.564706 0.611765
0.556863 0.619608 0.670588
0.682353 0.619608 0.662745
0.807843 0.694118 0.713725
0.862745 0.698039 0.713725
0.898039 0.678431 0.690196
0.937255 0.764706 0.752941
0.505882 0.690196 0.650980
0.545098 0.725490 0.686275
0.556863 0.701961 0.670588
0.639216 0.713725 0.690196
0.698039 0.721569 0.682353
0.807843 0.760784 0.713725
0.858824 0.749020 0.701961
0.960784 0.807843 0.749020
0.960784 0.831373 0.772549
0.694118 0.721569 0.650980
0.721569 0.835294 0.756863
0.678431 0.803922 0.721569
0.698039 0.788235 0.709804
0.733333 0.776471 0.709804
0.772549 0.788235 0.721569
0.784314 0.784314 0.690196
0.905882 0.850980 0.698039
0.945098 0.921569 0.835294
0.878431 0.858824 0.847059
0.854902 0.890196 0.870588
0.803922 0.847059 0.815686
0.807843 0.815686 0.803922
0.870588 0.870588 0.839216
0.937255 0.909804 0.886275
0.913725 0.854902 0.835294
0.925490 0.870588 0.835294
0.882353 0.847059 0.819608
0.964706 0.952941 0.925490
0.901961 0.909804 0.890196
0.850980 0.858824 0.839216
0.925490 0.929412 0.905882
0.929412 0.929412 0.898039
0.952941 0.941176 0.921569
0.901961 0.890196 0.862745
0.964706 0.937255 0.905882
1.000000 1.000000 0.972549
0.266667 0.325490 0.698039
0.349020 0.388235 0.768627
0.486275 0.435294 0.796078
0.580392 0.423529 0.768627
0.709804 0.482353 0.772549
0.843137 0.588235 0.807843
0.792157 0.529412 0.698039
0.960784 0.643137 0.803922
0.976471 0.780392 0.878431
0.576471 0.415686 0.682353
0.278431 0.384314 0.686275
0.396078 0.447059 0.752941
0.498039 0.439216 0.709804
0.682353 0.525490 0.772549
0.811765 0.607843 0.788235
0.827451 0.592157 0.725490
0.933333 0.631373 0.764706
0.949020 0.831373 0.878431
0.733333 0.509804 0.788235
0.525490 0.478431 0.800000
0.607843 0.537255 0.827451
0.631373 0.509804 0.784314
0.780392 0.592157 0.827451
0.835294 0.635294 0.803922
0.937255 0.713725 0.850980
0.894118 0.619608 0.752941
0.933333 0.741176 0.827451
0.615686 0.525490 0.729412
0.458824 0.517647 0.749020
0.466667 0.478431 0.694118
0.658824 0.619608 0.815686
0.737255 0.615686 0.780392
0.866667 0.713725 0.835294
0.921569 0.749020 0.839216
0.941176 0.721569 0.819608
1.000000 0.796078 0.870588
0.643137 0.643137 0.752941
0.396078 0.549020 0.701961
0.490196 0.607843 0.756863
0.611765 0.635294 0.776471
0.725490 0.670588 0.772549
0.866667 0.776471 0.847059
0.921569 0.803922 0.850980
0.956863 0.792157 0.839216
0.921569 0.792157 0.819608
0.533333 0.725490 0.784314
0.521569 0.709804 0.764706
0.564706 0.721569 0.768627
0.666667 0.776471 0.823529
0.745098 0.784314 0.831373
0.792157 0.745098 0.784314
0.945098 0.866667 0.874510
0.968627 0.854902 0.862745
0.933333 0.835294 0.847059
0.752941 0.815686 0.776471
0.670588 0.815686 0.788235
0.639216 0.784314 0.756863
0.733333 0.847059 0.827451
0.823529 0.890196 0.866667
0.780392 0.792157 0.764706
0.905882 0.870588 0.843137
0.945098 0.874510 0.827451
0.870588 0.819608 0.788235
0.858824 0.835294 0.835294
0.803922 0.858824 0.858824
0.792157 0.847059 0.850980
0.847059 0.886275 0.882353
0.800000 0.815686 0.819608
0.898039 0.882353 0.886275
0.937255 0.905882 0.894118
1.000000 0.964706 0.956863
0.909804 0.874510 0.854902
0.952941 0.956863 0.933333
0.901961 0.929412 0.901961
0.886275 0.913725 0.886275
0.847059 0.854902 0.835294
0.870588 0.874510 0.850980
0.909804 0.905882 0.890196
0.917647 0.905882 0.878431
0.945098 0.925490 0.901961
0.956863 0.937255 0.913725
0.403922 0.462745 0.835294
0.454902 0.505882 0.866667
0.545098 0.545098 0.890196
0.615686 0.541176 0.858824
0.741176 0.600000 0.874510
0.760784 0.592157 0.803922
0.952941 0.780392 0.921569
0.905882 0.713725 0.827451
0.968627 0.831373 0.909804
0.623529 0.509804 0.831373
0.341176 0.490196 0.807843
0.411765 0.509804 0.823529
0.556863 0.568627 0.847059
0.647059 0.576471 0.819608
0.827451 0.701961 0.894118
0.866667 0.713725 0.835294
0.937255 0.749020 0.850980
0.882353 0.788235 0.839216
0.709804 0.549020 0.854902
0.607843 0.564706 0.874510
0.607843 0.545098 0.831373
0.694118 0.588235 0.850980
0.776471 0.647059 0.870588
0.878431 0.725490 0.898039
0.984314 0.843137 0.952941
1.000000 0.827451 0.925490
0.996078 0.901961 0.956863
0.725490 0.627451 0.843137
0.701961 0.701961 0.937255
0.647059 0.643137 0.870588
0.756863 0.705882 0.917647
0.831373 0.749020 0.917647
0.843137 0.725490 0.858824
0.925490 0.811765 0.898039
0.949020 0.827451 0.890196
0.949020 0.780392 0.858824
0.713725 0.705882 0.862745
0.631373 0.701961 0.898039
0.600000 0.666667 0.847059
0.694118 0.705882 0.866667
0.784314 0.729412 0.866667
0.843137 0.772549 0.866667
0.917647 0.827451 0.890196
0.976471 0.874510 0.917647
0.913725 0.831373 0.850980
0.568627 0.745098 0.866667
0.549020 0.725490 0.839216
0.647059 0.807843 0.917647
0.674510 0.780392 0.894118
0.721569 0.749020 0.850980
0.835294 0.807843 0.878431
0.890196 0.827451 0.866667
0.945098 0.870588 0.894118
0.917647 0.866667 0.894118
0.745098 0.811765 0.843137
0.705882 0.854902 0.898039
0.662745 0.807843 0.843137
0.686275 0.803922 0.843137
0.733333 0.807843 0.831373
0.780392 0.807843 0.839216
0.847059 0.823529 0.839216
0.917647 0.874510 0.866667
0.996078 0.960784 0.964706
0.901961 0.878431 0.894118
0.819608 0.870588 0.905882
0.815686 0.847059 0.890196
0.890196 0.905882 0.941176
0.901961 0.898039 0.929412
0.929412 0.909804 0.925490
0.917647 0.882353 0.894118
1.000000 0.980392 0.968627
0.937255 0.901961 0.905882
0.874510 0.894118 0.878431
0.976471 0.992157 1.000000
0.929412 0.945098 0.949020
0.909804 0.925490 0.929412
0.901961 0.901961 0.909804
0.858824 0.858824 0.850980
0.901961 0.886275 0.882353
0.898039 0.882353 0.870588
0.972549 0.956863 0.945098
0.611765 0.584314 0.858824
0.725490 0.686275 0.956863
0.666667 0.619608 0.870588
0.752941 0.694118 0.917647
0.780392 0.694118 0.886275
0.874510 0.768627 0.929412
0.905882 0.792157 0.901961
0.933333 0.819608 0.890196
0.929412 0.847059 0.905882
0.729412 0.647059 0.901961
0.698039 0.674510 0.925490
0.705882 0.682353 0.925490
0.780392 0.729412 0.949020
0.823529 0.752941 0.941176
0.862745 0.776471 0.925490
0.905882 0.811765 0.913725
0.925490 0.831373 0.882353
0.917647 0.850980 0.913725
0.815686 0.725490 0.937255
0.721569 0.678431 0.905882
0.796078 0.745098 0.952941
0.823529 0.760784 0.952941
0.780392 0.709804 0.866667
0.890196 0.796078 0.929412
0.952941 0.858824 0.945098
0.901961 0.811765 0.874510
0.925490 0.858824 0.890196
0.764706 0.713725 0.894118
0.733333 0.721569 0.905882
0.811765 0.788235 0.968627
0.776471 0.745098 0.905882
0.843137 0.788235 0.917647
0.913725 0.839216 0.949020
0.890196 0.807843 0.882353
0.968627 0.890196 0.937255
1.000000 0.917647 0.952941
0.788235 0.768627 0.925490
0.796078 0.815686 0.972549
0.741176 0.756863 0.894118
0.823529 0.819608 0.945098
0.823529 0.800000 0.901961
0.901961 0.854902 0.949020
0.886275 0.831373 0.890196
0.972549 0.913725 0.941176
0.968627 0.917647 0.945098
0.721569 0.815686 0.949020
0.670588 0.760784 0.894118
0.725490 0.803922 0.933333
0.741176 0.784314 0.901961
0.803922 0.803922 0.898039
0.827451 0.800000 0.870588
0.949020 0.909804 0.945098
0.933333 0.886275 0.901961
0.984314 0.949020 0.960784
0.796078 0.850980 0.901961
0.721569 0.811765 0.882353
0.788235 0.878431 0.949020
0.819608 0.890196 0.968627
0.729412 0.792157 0.854902
0.858824 0.882353 0.929412
0.913725 0.894118 0.921569
0.952941 0.929412 0.937255
0.909804 0.886275 0.894118
0.862745 0.878431 0.913725
0.847059 0.905882 0.925490
0.811765 0.862745 0.894118
0.796078 0.850980 0.862745
0.847059 0.882353 0.909804
0.901961 0.921569 0.945098
0.862745 0.850980 0.878431
0.917647 0.894118 0.894118
0.929412 0.905882 0.905882
0.905882 0.929412 0.929412
0.839216 0.898039 0.878431
0.870588 0.905882 0.901961
0.882353 0.917647 0.905882
0.909804 0.925490 0.921569
0.890196 0.905882 0.901961
0.933333 0.933333 0.925490
0.921569 0.917647 0.909804
0.945098 0.929412 0.917647
