other luts/Cinestill 50D 35mm original.cube
#Generated with IWLTBAP LUT Generator
#Website: http://luts.iwltbap.com
TITLE "ORI"
#LUT size
LUT_3D_SIZE 5
#LUT data points
0.278431 0.207843 0.270588
0.000000 0.003922 0.000000
0.360784 0.000000 0.011765
0.784314 0.000000 0.007843
1.000000 0.207843 0.082353
0.145098 0.235294 0.172549
0.098039 0.156863 0.043137
0.619608 0.317647 0.050980
0.952941 0.356863 0.094118
1.000000 0.321569 0.003922
0.278431 0.603922 0.321569
0.164706 0.462745 0.172549
0.486275 0.588235 0.207843
0.784314 0.572549 0.000000
0.996078 0.596078 0.070588
0.411765 0.694118 0.447059
0.482353 0.737255 0.478431
0.560784 0.745098 0.470588
0.650980 0.713725 0.368627
0.784314 0.670588 0.211765
0.752941 0.937255 0.756863
0.580392 0.764706 0.584314
0.827451 0.988235 0.815686
0.819608 0.929412 0.737255
0.803922 0.850980 0.662745
0.098039 0.062745 0.184314
0.325490 0.062745 0.270588
0.635294 0.235294 0.317647
0.913725 0.309804 0.349020
0.941176 0.235294 0.231373
0.000000 0.227451 0.180392
0.145098 0.192157 0.137255
0.635294 0.372549 0.298039
0.858824 0.384314 0.278431
1.000000 0.454902 0.325490
0.352941 0.627451 0.431373
0.333333 0.478431 0.305882
0.513725 0.564706 0.356863
0.796078 0.615686 0.313725
0.996078 0.701961 0.439216
0.615686 0.784314 0.615686
0.576471 0.741176 0.560784
0.749020 0.854902 0.678431
0.800000 0.843137 0.615686
0.972549 0.870588 0.576471
0.756863 0.941176 0.768627
0.792157 0.952941 0.788235
0.945098 1.000000 0.898039
0.917647 0.996078 0.850980
0.976471 1.000000 0.843137
0.141176 0.145098 0.600000
0.349020 0.152941 0.603922
0.698039 0.329412 0.619608
0.827451 0.494118 0.615686
0.901961 0.533333 0.588235
0.000000 0.400000 0.592157
0.290196 0.411765 0.596078
0.529412 0.352941 0.482353
0.917647 0.690196 0.737255
0.980392 0.639216 0.670588
0.129412 0.556863 0.533333
0.552941 0.788235 0.756863
0.635294 0.635294 0.603922
0.862745 0.717647 0.682353
0.976471 0.705882 0.643137
0.560784 0.752941 0.635294
0.764706 0.909804 0.788235
0.796078 0.831373 0.749020
0.756863 0.768627 0.654902
0.917647 0.823529 0.650980
0.745098 0.905882 0.780392
0.666667 0.803922 0.686275
0.796078 0.917647 0.796078
0.815686 0.913725 0.796078
0.874510 0.913725 0.776471
0.113725 0.180392 0.737255
0.223529 0.129412 0.662745
0.713725 0.423529 0.796078
0.901961 0.662745 0.835294
0.972549 0.721569 0.827451
0.305882 0.537255 0.905882
0.247059 0.341176 0.694118
0.705882 0.545098 0.803922
0.905882 0.713725 0.831373
0.952941 0.745098 0.815686
0.000000 0.505882 0.647059
0.047059 0.533333 0.682353
0.603922 0.615686 0.745098
0.698039 0.611765 0.658824
0.847059 0.725490 0.745098
0.431373 0.709804 0.678431
0.541176 0.776471 0.745098
0.584314 0.705882 0.682353
0.984314 0.988235 0.964706
0.996078 0.890196 0.854902
0.639216 0.882353 0.792157
0.803922 0.996078 0.909804
0.705882 0.854902 0.772549
0.745098 0.827451 0.752941
0.882353 0.901961 0.815686
0.337255 0.278431 0.784314
0.635294 0.498039 0.960784
0.796078 0.603922 0.960784
0.988235 0.839216 0.984314
0.925490 0.792157 0.898039
0.400000 0.427451 0.847059
0.760784 0.698039 0.992157
0.788235 0.662745 0.960784
0.749020 0.600000 0.792157
0.933333 0.807843 0.898039
0.000000 0.529412 0.850980
0.247059 0.486275 0.800000
0.721569 0.698039 0.949020
0.823529 0.725490 0.882353
0.933333 0.843137 0.913725
0.356863 0.847059 0.972549
0.415686 0.827451 0.952941
0.556863 0.847059 1.000000
0.819608 0.831373 0.952941
0.933333 0.894118 0.925490
0.580392 0.854902 0.847059
0.756863 1.000000 0.996078
0.733333 0.964706 0.956863
0.756863 0.882353 0.878431
1.000000 1.000000 1.000000
