other luts/Cinestill 400D 35mm original.cube
#Generated with IWLTBAP LUT Generator
#Website: http://luts.iwltbap.com
TITLE "ORI"
#LUT size
LUT_3D_SIZE 9
#LUT data points
0.039216 0.043137 0.058824
0.074510 0.054902 0.043137
0.235294 0.121569 0.066667
0.250980 0.039216 0.000000
0.490196 0.184314 0.003922
0.698039 0.278431 0.000000
0.886275 0.384314 0.003922
0.996078 0.423529 0.000000
1.000000 0.396078 0.003922
0.403922 0.211765 0.086275
0.109804 0.129412 0.050980
0.145098 0.074510 0.000000
0.333333 0.145098 0.000000
0.572549 0.282353 0.000000
0.678431 0.298039 0.000000
0.800000 0.333333 0.003922
0.960784 0.403922 0.003922
0.992157 0.549020 0.000000
0.494118 0.301961 0.000000
0.054902 0.250980 0.011765
0.309804 0.345098 0.137255
0.396078 0.305882 0.000000
0.592157 0.372549 0.000000
0.768627 0.431373 0.000000
0.894118 0.478431 0.000000
0.968627 0.458824 0.011765
0.996078 0.513725 0.003922
0.239216 0.313725 0.000000
0.000000 0.254902 0.003922
0.219608 0.388235 0.027451
0.345098 0.364706 0.003922
0.705882 0.580392 0.152941
0.764706 0.521569 0.000000
0.937255 0.564706 0.000000
0.996078 0.552941 0.000000
1.000000 0.525490 0.000000
0.443137 0.498039 0.023529
0.152941 0.592157 0.152941
0.219608 0.541176 0.054902
0.372549 0.533333 0.062745
0.478431 0.505882 0.000000
0.721569 0.619608 0.003922
0.843137 0.631373 0.003922
1.000000 0.690196 0.000000
0.984314 0.517647 0.007843
0.000000 0.623529 0.000000
0.000000 0.576471 0.003922
0.223529 0.713725 0.164706
0.290196 0.635294 0.000000
0.447059 0.619608 0.003922
0.513725 0.560784 0.000000
0.694118 0.611765 0.003922
0.905882 0.713725 0.003922
1.000000 0.835294 0.015686
0.478431 0.819608 0.207843
0.007843 0.737255 0.000000
0.000000 0.705882 0.000000
0.364706 0.800000 0.152941
0.356863 0.678431 0.000000
0.682353 0.843137 0.231373
0.737255 0.768627 0.129412
0.949020 0.854902 0.219608
1.000000 0.827451 0.007843
0.521569 0.850980 0.172549
0.000000 0.815686 0.050980
0.403922 0.996078 0.341176
0.384314 0.894118 0.223529
0.552941 0.941176 0.282353
0.529412 0.800000 0.066667
0.733333 0.882353 0.235294
0.972549 0.992157 0.388235
1.000000 1.000000 0.388235
0.352941 0.964706 0.290196
0.000000 0.909804 0.196078
0.290196 1.000000 0.321569
0.388235 0.980392 0.325490
0.423529 0.917647 0.243137
0.619608 0.964706 0.329412
0.635294 0.878431 0.247059
0.780392 0.894118 0.305882
0.956863 0.960784 0.427451
0.023529 0.019608 0.145098
0.164706 0.062745 0.200000
0.301961 0.078431 0.215686
0.305882 0.003922 0.035294
0.552941 0.196078 0.121569
0.721569 0.282353 0.133333
0.803922 0.290196 0.015686
0.792157 0.200000 0.000000
0.996078 0.450980 0.000000
0.219608 0.000000 0.003922
0.211765 0.188235 0.196078
0.180392 0.082353 0.062745
0.298039 0.109804 0.023529
0.384314 0.074510 0.007843
0.792157 0.376471 0.180392
0.729412 0.266667 0.000000
0.972549 0.419608 0.000000
1.000000 0.427451 0.000000
0.478431 0.282353 0.074510
0.156863 0.317647 0.184314
0.231373 0.270588 0.137255
0.380392 0.298039 0.082353
0.552941 0.333333 0.007843
0.760784 0.435294 0.066667
0.827451 0.415686 0.000000
0.929412 0.443137 0.000000
0.996078 0.568627 0.007843
0.305882 0.388235 0.133333
0.062745 0.396078 0.133333
0.250980 0.411765 0.145098
0.384314 0.403922 0.141176
0.584314 0.490196 0.113725
0.811765 0.576471 0.090196
0.749020 0.407843 0.000000
0.870588 0.439216 0.000000
0.972549 0.458824 0.011765
0.486275 0.549020 0.200000
0.007843 0.517647 0.125490
0.164706 0.490196 0.082353
0.286275 0.466667 0.043137
0.415686 0.443137 0.003922
0.847059 0.760784 0.333333
0.878431 0.666667 0.039216
0.827451 0.517647 0.003922
1.000000 0.650980 0.000000
0.000000 0.674510 0.172549
0.007843 0.580392 0.003922
0.117647 0.662745 0.156863
0.298039 0.654902 0.149020
0.498039 0.694118 0.211765
0.666667 0.709804 0.231373
0.847059 0.768627 0.247059
0.941176 0.752941 0.015686
1.000000 0.831373 0.003922
0.462745 0.835294 0.270588
0.003922 0.749020 0.121569
0.000000 0.694118 0.000000
0.341176 0.788235 0.200000
0.494118 0.803922 0.203922
0.486275 0.670588 0.011765
0.792157 0.827451 0.266667
0.854902 0.780392 0.176471
0.980392 0.796078 0.000000
0.541176 0.894118 0.266667
0.196078 0.913725 0.262745
0.160784 0.850980 0.188235
0.407843 0.925490 0.294118
0.490196 0.890196 0.258824
0.607843 0.882353 0.258824
0.831373 0.988235 0.403922
0.815686 0.850980 0.250980
1.000000 0.925490 0.309804
0.341176 0.976471 0.305882
0.149020 1.000000 0.337255
0.180392 0.964706 0.294118
0.160784 0.874510 0.168627
0.478431 0.988235 0.329412
0.447059 0.815686 0.133333
0.749020 0.968627 0.368627
0.890196 0.988235 0.427451
0.901961 0.917647 0.384314
0.000000 0.003922 0.180392
0.168627 0.062745 0.333333
0.156863 0.000000 0.203922
0.337255 0.000000 0.239216
0.529412 0.000000 0.231373
0.784314 0.282353 0.286275
0.956863 0.423529 0.337255
0.901961 0.298039 0.156863
0.992157 0.349020 0.101961
0.352941 0.039216 0.270588
0.164706 0.164706 0.305882
0.188235 0.082353 0.211765
0.415686 0.125490 0.262745
0.552941 0.196078 0.215686
0.733333 0.317647 0.262745
0.733333 0.247059 0.113725
0.956863 0.392157 0.196078
0.996078 0.345098 0.047059
0.411765 0.203922 0.172549
0.200000 0.301961 0.290196
0.254902 0.278431 0.262745
0.309804 0.207843 0.141176
0.572549 0.352941 0.223529
0.694118 0.368627 0.196078
0.776471 0.360784 0.117647
0.835294 0.341176 0.007843
0.996078 0.509804 0.172549
0.447059 0.509804 0.368627
0.000000 0.321569 0.172549
0.294118 0.435294 0.294118
0.380392 0.380392 0.231373
0.552941 0.458824 0.223529
0.788235 0.545098 0.258824
0.768627 0.419608 0.019608
0.960784 0.533333 0.129412
1.000000 0.537255 0.082353
0.462745 0.509804 0.258824
0.003922 0.501961 0.223529
0.274510 0.560784 0.290196
0.301961 0.458824 0.180392
0.556863 0.588235 0.301961
0.752941 0.658824 0.305882
0.835294 0.631373 0.203922
0.984314 0.662745 0.160784
1.000000 0.662745 0.117647
0.003922 0.627451 0.223529
0.003922 0.596078 0.184314
0.227451 0.694118 0.301961
0.286275 0.607843 0.215686
0.498039 0.674510 0.278431
0.682353 0.713725 0.325490
0.835294 0.749020 0.313725
0.870588 0.694118 0.125490
0.996078 0.729412 0.003922
0.431373 0.784314 0.301961
0.262745 0.890196 0.396078
0.211765 0.780392 0.282353
0.396078 0.811765 0.317647
0.521569 0.803922 0.313725
0.615686 0.780392 0.278431
0.752941 0.792157 0.301961
0.878431 0.807843 0.305882
0.992157 0.835294 0.207843
0.596078 0.917647 0.392157
0.223529 0.886275 0.333333
0.388235 0.960784 0.400000
0.486275 0.980392 0.419608
0.603922 0.964706 0.427451
0.635294 0.898039 0.352941
0.780392 0.921569 0.388235
0.894118 0.921569 0.411765
0.956863 0.870588 0.301961
0.321569 0.921569 0.333333
0.247059 1.000000 0.419608
0.478431 1.000000 0.482353
0.600000 0.996078 0.517647
0.517647 1.000000 0.407843
0.670588 1.000000 0.423529
0.674510 0.894118 0.309804
0.827451 0.937255 0.368627
0.952941 0.945098 0.415686
0.000000 0.058824 0.454902
0.003922 0.000000 0.305882
0.211765 0.000000 0.403922
0.388235 0.011765 0.403922
0.521569 0.062745 0.411765
0.654902 0.007843 0.380392
0.788235 0.000000 0.286275
0.925490 0.211765 0.309804
1.000000 0.392157 0.345098
0.462745 0.188235 0.525490
0.164706 0.180392 0.466667
0.192157 0.062745 0.333333
0.423529 0.164706 0.415686
0.533333 0.156863 0.407843
0.482353 0.003922 0.203922
0.925490 0.294118 0.415686
0.870588 0.258824 0.262745
1.000000 0.329412 0.250980
0.611765 0.349020 0.517647
0.000000 0.211765 0.305882
0.352941 0.356863 0.474510
0.454902 0.329412 0.423529
0.533333 0.227451 0.313725
0.572549 0.184314 0.196078
0.741176 0.309804 0.250980
0.921569 0.415686 0.301961
0.988235 0.505882 0.345098
0.415686 0.443137 0.411765
0.203922 0.368627 0.321569
0.231373 0.325490 0.274510
0.415686 0.400000 0.352941
0.639216 0.490196 0.400000
0.713725 0.466667 0.329412
0.862745 0.513725 0.341176
0.925490 0.486275 0.290196
0.992157 0.560784 0.329412
0.443137 0.498039 0.356863
0.137255 0.470588 0.305882
0.345098 0.584314 0.411765
0.552941 0.674510 0.513725
0.572549 0.576471 0.403922
0.662745 0.564706 0.341176
0.901961 0.678431 0.415686
0.992157 0.666667 0.368627
1.000000 0.717647 0.423529
0.000000 0.572549 0.286275
0.313725 0.768627 0.482353
0.274510 0.670588 0.396078
0.313725 0.576471 0.298039
0.611765 0.749020 0.482353
0.662745 0.686275 0.403922
0.835294 0.749020 0.415686
0.972549 0.760784 0.384314
1.000000 0.776471 0.356863
0.470588 0.803922 0.435294
0.137255 0.764706 0.372549
0.262745 0.772549 0.388235
0.541176 0.913725 0.545098
0.423529 0.698039 0.309804
0.615686 0.756863 0.372549
0.717647 0.745098 0.368627
0.949020 0.862745 0.466667
0.996078 0.878431 0.400000
0.490196 0.819608 0.380392
0.396078 0.960784 0.513725
0.227451 0.811765 0.356863
0.282353 0.764706 0.305882
0.560784 0.905882 0.462745
0.592157 0.839216 0.388235
0.678431 0.811765 0.368627
0.800000 0.831373 0.403922
0.988235 0.890196 0.427451
0.486275 1.000000 0.545098
0.298039 0.992157 0.482353
0.364706 0.996078 0.486275
0.423529 0.972549 0.458824
0.486275 0.925490 0.431373
0.564706 0.898039 0.392157
0.670588 0.882353 0.396078
0.847059 0.941176 0.462745
0.964706 0.949020 0.466667
0.000000 0.035294 0.560784
0.007843 0.000000 0.533333
0.341176 0.137255 0.635294
0.411765 0.043137 0.576471
0.635294 0.168627 0.631373
0.717647 0.141176 0.588235
0.913725 0.250980 0.639216
0.972549 0.113725 0.521569
1.000000 0.000000 0.364706
0.411765 0.176471 0.623529
0.011765 0.141176 0.552941
0.274510 0.168627 0.572549
0.388235 0.133333 0.541176
0.537255 0.145098 0.533333
0.686275 0.180392 0.541176
0.835294 0.223529 0.552941
1.000000 0.250980 0.525490
1.000000 0.047059 0.360784
0.435294 0.207843 0.505882
0.000000 0.180392 0.411765
0.172549 0.227451 0.482353
0.423529 0.305882 0.549020
0.521569 0.254902 0.494118
0.741176 0.352941 0.564706
0.752941 0.200000 0.403922
0.933333 0.266667 0.407843
0.996078 0.341176 0.372549
0.305882 0.345098 0.450980
0.188235 0.427451 0.509804
0.325490 0.427451 0.517647
0.372549 0.317647 0.407843
0.709804 0.556863 0.631373
0.803922 0.494118 0.517647
0.874510 0.490196 0.478431
0.956863 0.501961 0.450980
1.000000 0.639216 0.541176
0.607843 0.627451 0.600000
0.352941 0.576471 0.517647
0.392157 0.533333 0.486275
0.552941 0.623529 0.576471
0.545098 0.513725 0.462745
0.698039 0.572549 0.474510
0.792157 0.545098 0.423529
0.945098 0.611765 0.466667
1.000000 0.607843 0.443137
0.321569 0.615686 0.454902
0.364706 0.643137 0.509804
0.415686 0.678431 0.517647
0.584314 0.792157 0.627451
0.580392 0.686275 0.517647
0.674510 0.658824 0.509804
0.988235 0.870588 0.674510
0.862745 0.666667 0.419608
1.000000 0.670588 0.431373
0.419608 0.752941 0.490196
0.392157 0.827451 0.560784
0.345098 0.745098 0.486275
0.529412 0.854902 0.588235
0.639216 0.854902 0.592157
0.662745 0.776471 0.513725
0.729412 0.737255 0.482353
0.831373 0.741176 0.443137
0.996078 0.894118 0.560784
0.568627 0.862745 0.529412
0.278431 0.823529 0.466667
0.419608 0.882353 0.545098
0.486275 0.890196 0.541176
0.505882 0.800000 0.474510
0.639216 0.850980 0.513725
0.784314 0.882353 0.564706
0.945098 0.949020 0.635294
0.996078 0.976471 0.615686
0.505882 1.000000 0.607843
0.325490 0.941176 0.537255
0.596078 1.000000 0.670588
0.447059 0.941176 0.549020
0.623529 1.000000 0.619608
0.631373 0.933333 0.525490
0.725490 0.901961 0.529412
0.917647 1.000000 0.627451
0.972549 0.960784 0.596078
0.003922 0.117647 0.752941
0.003922 0.023529 0.666667
0.043137 0.000000 0.611765
0.396078 0.058824 0.682353
0.525490 0.054902 0.678431
0.541176 0.000000 0.568627
0.674510 0.000000 0.549020
0.835294 0.000000 0.588235
0.996078 0.117647 0.639216
0.239216 0.082353 0.666667
0.007843 0.086275 0.607843
0.254902 0.184314 0.717647
0.215686 0.000000 0.537255
0.498039 0.117647 0.631373
0.725490 0.219608 0.713725
0.756863 0.149020 0.619608
0.964706 0.258824 0.690196
1.000000 0.250980 0.658824
0.431373 0.243137 0.670588
0.000000 0.200000 0.576471
0.172549 0.258824 0.647059
0.341176 0.239216 0.627451
0.572549 0.309804 0.674510
0.741176 0.368627 0.721569
0.780392 0.294118 0.623529
0.917647 0.325490 0.643137
1.000000 0.250980 0.556863
0.278431 0.396078 0.639216
0.188235 0.454902 0.694118
0.423529 0.537255 0.764706
0.419608 0.415686 0.643137
0.623529 0.470588 0.686275
0.560784 0.274510 0.490196
0.788235 0.403922 0.588235
0.945098 0.431373 0.603922
0.996078 0.415686 0.549020
0.423529 0.466667 0.584314
0.345098 0.623529 0.694118
0.298039 0.498039 0.572549
0.564706 0.635294 0.713725
0.615686 0.564706 0.643137
0.752941 0.603922 0.662745
0.898039 0.596078 0.635294
0.996078 0.678431 0.674510
1.000000 0.611765 0.603922
0.333333 0.650980 0.592157
0.396078 0.674510 0.619608
0.537255 0.760784 0.686275
0.568627 0.698039 0.654902
0.619608 0.674510 0.615686
0.756863 0.717647 0.670588
0.839216 0.709804 0.643137
0.968627 0.733333 0.639216
1.000000 0.776471 0.682353
0.490196 0.709804 0.564706
0.576471 0.811765 0.678431
0.572549 0.796078 0.658824
0.505882 0.721569 0.568627
0.623529 0.780392 0.643137
0.784314 0.870588 0.717647
0.729412 0.721569 0.568627
1.000000 0.905882 0.717647
0.968627 0.764706 0.568627
0.560784 0.831373 0.607843
0.549020 0.882353 0.658824
0.580392 0.905882 0.686275
0.619608 0.929412 0.705882
0.592157 0.858824 0.627451
0.733333 0.905882 0.674510
0.866667 0.933333 0.721569
0.890196 0.886275 0.674510
0.996078 0.909804 0.674510
0.482353 0.921569 0.623529
0.403922 0.866667 0.560784
0.556863 0.992157 0.690196
0.658824 0.996078 0.756863
0.686275 1.000000 0.745098
0.827451 0.996078 0.776471
0.835294 0.992157 0.717647
0.917647 0.984314 0.709804
0.996078 0.984314 0.721569
0.007843 0.125490 0.847059
0.000000 0.105882 0.843137
0.003922 0.003922 0.756863
0.294118 0.000000 0.756863
0.592157 0.172549 0.870588
0.701961 0.160784 0.839216
0.862745 0.215686 0.850980
0.901961 0.129412 0.776471
0.992157 0.000000 0.717647
0.254902 0.188235 0.878431
0.007843 0.145098 0.788235
0.149020 0.160784 0.807843
0.333333 0.145098 0.780392
0.549020 0.192157 0.831373
0.792157 0.325490 0.921569
0.831373 0.231373 0.819608
0.866667 0.133333 0.733333
1.000000 0.188235 0.721569
0.258824 0.168627 0.717647
0.066667 0.392157 0.901961
0.003922 0.254902 0.749020
0.450980 0.372549 0.886275
0.509804 0.278431 0.780392
0.592157 0.231373 0.721569
0.752941 0.270588 0.729412
0.937255 0.364706 0.800000
0.992157 0.380392 0.776471
0.000000 0.333333 0.705882
0.000000 0.396078 0.741176
0.247059 0.439216 0.803922
0.376471 0.396078 0.764706
0.545098 0.407843 0.768627
0.729412 0.462745 0.803922
0.796078 0.411765 0.737255
0.929412 0.454902 0.756863
0.992157 0.447059 0.713725
0.376471 0.490196 0.709804
0.427451 0.721569 0.937255
0.290196 0.525490 0.737255
0.498039 0.596078 0.819608
0.611765 0.580392 0.803922
0.752941 0.592157 0.811765
0.749020 0.474510 0.670588
0.988235 0.741176 0.909804
1.000000 0.552941 0.721569
0.450980 0.823529 0.901961
0.243137 0.635294 0.698039
0.227451 0.552941 0.615686
0.435294 0.635294 0.709804
0.568627 0.650980 0.725490
0.733333 0.682353 0.760784
0.764706 0.619608 0.686275
0.847059 0.580392 0.639216
1.000000 0.662745 0.709804
0.690196 0.917647 0.862745
0.498039 0.788235 0.729412
0.556863 0.819608 0.749020
0.549020 0.729412 0.678431
0.619608 0.729412 0.670588
0.796078 0.843137 0.796078
0.776471 0.741176 0.682353
0.909804 0.796078 0.733333
0.992157 0.901961 0.831373
0.784314 0.933333 0.835294
0.701961 0.925490 0.800000
0.682353 0.878431 0.764706
0.796078 0.952941 0.847059
0.721569 0.854902 0.756863
0.760784 0.882353 0.756863
0.874510 0.933333 0.819608
0.980392 0.952941 0.839216
0.976471 0.890196 0.745098
0.780392 0.976471 0.831373
0.760784 0.945098 0.819608
0.768627 0.980392 0.839216
0.662745 0.866667 0.717647
0.847059 1.000000 0.886275
0.701961 0.894118 0.717647
0.831373 0.972549 0.792157
1.000000 1.000000 0.882353
0.996078 0.988235 0.827451
0.000000 0.054902 0.890196
0.000000 0.000000 0.831373
0.000000 0.000000 0.815686
0.388235 0.156863 0.964706
0.333333 0.003922 0.784314
0.537255 0.000000 0.831373
0.658824 0.007843 0.807843
0.956863 0.274510 0.960784
0.988235 0.125490 0.862745
0.000000 0.003922 0.823529
0.000000 0.125490 0.870588
0.227451 0.223529 0.968627
0.243137 0.098039 0.858824
0.470588 0.149020 0.886275
0.537255 0.015686 0.819608
0.784314 0.219608 0.898039
0.980392 0.333333 0.968627
1.000000 0.215686 0.874510
0.360784 0.286275 0.941176
0.000000 0.298039 0.929412
0.105882 0.321569 0.929412
0.254902 0.258824 0.858824
0.470588 0.274510 0.890196
0.623529 0.294118 0.882353
0.709804 0.258824 0.835294
0.968627 0.415686 0.956863
0.988235 0.274510 0.839216
0.007843 0.321569 0.803922
0.003922 0.431373 0.905882
0.188235 0.423529 0.909804
0.501961 0.525490 1.000000
0.533333 0.435294 0.905882
0.698039 0.458824 0.925490
0.800000 0.450980 0.874510
0.996078 0.541176 0.968627
0.945098 0.392157 0.800000
0.411765 0.549020 0.917647
0.184314 0.556863 0.886275
0.372549 0.596078 0.937255
0.376471 0.533333 0.866667
0.486275 0.494118 0.835294
0.690196 0.564706 0.890196
0.803922 0.564706 0.878431
0.819608 0.490196 0.792157
1.000000 0.615686 0.901961
0.372549 0.784314 0.972549
0.349020 0.741176 0.937255
0.427451 0.749020 0.945098
0.392157 0.639216 0.839216
0.560784 0.670588 0.866667
0.686275 0.686275 0.890196
0.831373 0.713725 0.909804
0.925490 0.705882 0.882353
0.992157 0.752941 0.917647
0.537255 0.823529 0.898039
0.545098 0.894118 0.949020
0.501961 0.819608 0.886275
0.431373 0.686275 0.756863
0.674510 0.839216 0.901961
0.752941 0.827451 0.886275
0.737255 0.701961 0.776471
0.898039 0.788235 0.835294
1.000000 0.874510 0.925490
0.694118 0.878431 0.847059
0.619608 0.901961 0.854902
0.705882 0.972549 0.921569
0.643137 0.862745 0.827451
0.768627 0.933333 0.886275
0.796078 0.878431 0.850980
0.937255 0.956863 0.933333
0.882353 0.854902 0.823529
0.988235 0.909804 0.882353
0.780392 0.976471 0.878431
0.819608 1.000000 0.933333
0.760784 0.949020 0.862745
0.823529 0.972549 0.890196
0.835294 0.941176 0.874510
0.917647 0.988235 0.941176
0.952941 0.992157 0.949020
0.929412 0.960784 0.909804
1.000000 0.980392 0.941176
0.003922 0.000000 0.886275
0.000000 0.086275 0.968627
0.000000 0.098039 0.980392
0.356863 0.192157 0.992157
0.407843 0.101961 0.976471
0.584314 0.152941 0.988235
0.713725 0.176471 0.976471
0.898039 0.294118 1.000000
0.976471 0.223529 0.945098
0.235294 0.227451 1.000000
0.082353 0.270588 1.000000
0.000000 0.152941 0.972549
0.262745 0.180392 0.976471
0.435294 0.180392 0.988235
0.666667 0.294118 1.000000
0.831373 0.352941 0.992157
0.909804 0.341176 0.996078
0.854902 0.141176 0.847059
0.352941 0.313725 1.000000
0.003922 0.188235 0.886275
0.007843 0.329412 1.000000
0.254902 0.301961 0.984314
0.349020 0.239216 0.913725
0.572549 0.298039 0.980392
0.721569 0.349020 0.992157
0.764706 0.278431 0.890196
0.929412 0.321569 0.921569
0.000000 0.376471 0.952941
0.000000 0.349020 0.929412
0.000000 0.368627 0.933333
0.325490 0.431373 0.992157
0.486275 0.435294 0.992157
0.635294 0.454902 0.984314
0.760784 0.458824 0.968627
0.878431 0.470588 0.960784
0.992157 0.545098 0.992157
0.282353 0.478431 0.921569
0.090196 0.529412 0.952941
0.309804 0.572549 0.992157
0.337255 0.517647 0.956863
0.525490 0.564706 1.000000
0.607843 0.537255 0.960784
0.713725 0.533333 0.921569
0.933333 0.666667 1.000000
1.000000 0.643137 1.000000
0.164706 0.658824 0.956863
0.176471 0.650980 0.937255
0.219608 0.615686 0.898039
0.372549 0.631373 0.921569
0.403922 0.552941 0.847059
0.686275 0.709804 1.000000
0.784314 0.705882 0.976471
0.858824 0.694118 0.945098
0.960784 0.678431 0.929412
0.380392 0.701961 0.858824
0.447059 0.807843 0.960784
0.454902 0.776471 0.933333
0.564706 0.811765 0.972549
0.682353 0.862745 0.996078
0.780392 0.866667 1.000000
0.745098 0.741176 0.898039
0.870588 0.784314 0.933333
0.941176 0.780392 0.898039
0.682353 0.917647 0.960784
0.505882 0.827451 0.882353
0.603922 0.901961 0.952941
0.686275 0.937255 0.984314
0.760784 0.949020 1.000000
0.658824 0.792157 0.839216
0.956863 0.996078 1.000000
0.976471 0.952941 1.000000
0.933333 0.866667 0.905882
0.745098 0.968627 0.941176
0.776471 1.000000 0.964706
0.658824 0.874510 0.850980
0.835294 1.000000 0.984314
0.800000 0.956863 0.925490
0.909804 1.000000 0.976471
0.894118 0.929412 0.917647
0.941176 0.937255 0.929412
0.835294 0.827451 0.831373
