other luts/Cinestill 800T 35mm 偏绿.cube
#Generated with IWLTBAP LUT Generator
#Website: http://luts.iwltbap.com
TITLE "ф╚бл"
#LUT size
LUT_3D_SIZE 5
#LUT data points
0.125490 0.015686 0.062745
0.231373 0.000000 0.086275
0.360784 0.000000 0.058824
0.588235 0.003922 0.011765
0.752941 0.000000 0.000000
0.000000 0.215686 0.000000
0.015686 0.337255 0.149020
0.392157 0.372549 0.003922
0.717647 0.313725 0.003922
0.992157 0.000000 0.007843
0.000000 0.925490 0.592157
0.000000 0.694118 0.364706
0.227451 0.686275 0.341176
0.870588 0.847059 0.266667
0.996078 0.776471 0.003922
0.007843 0.933333 0.674510
0.309804 0.988235 0.737255
0.368627 0.858824 0.631373
0.764706 0.968627 0.717647
1.000000 1.000000 0.780392
0.800000 1.000000 0.831373
0.866667 0.996078 0.874510
0.807843 0.984314 0.815686
0.890196 0.988235 0.862745
1.000000 1.000000 0.921569
0.000000 0.003922 0.125490
0.094118 0.129412 0.290196
0.309804 0.003922 0.098039
0.858824 0.223529 0.164706
0.960784 0.000000 0.000000
0.000000 0.517647 0.462745
0.000000 0.396078 0.352941
0.494118 0.435294 0.345098
0.807843 0.458824 0.184314
0.933333 0.290196 0.007843
0.003922 0.835294 0.639216
0.003922 0.882353 0.686275
0.372549 0.768627 0.635294
0.690196 0.709804 0.450980
0.866667 0.666667 0.000000
0.180392 0.929412 0.729412
0.427451 0.960784 0.764706
0.568627 0.925490 0.752941
0.552941 0.745098 0.560784
0.976471 0.945098 0.701961
1.000000 1.000000 1.000000
0.800000 0.988235 0.831373
0.827451 0.992157 0.850980
0.819608 0.980392 0.815686
0.909804 0.980392 0.823529
0.000000 0.556863 0.764706
0.007843 0.733333 0.984314
0.564706 0.596078 0.788235
0.686275 0.525490 0.643137
0.901961 0.003922 0.235294
0.003922 0.737255 0.772549
0.000000 0.831373 0.886275
0.694118 0.890196 0.980392
0.741176 0.701961 0.737255
0.980392 0.003922 0.270588
0.000000 0.941176 0.843137
0.000000 0.713725 0.635294
0.501961 0.886275 0.827451
0.850980 0.839216 0.811765
0.901961 0.607843 0.443137
0.882353 1.000000 0.992157
0.607843 1.000000 0.890196
0.682353 0.945098 0.807843
0.811765 0.925490 0.807843
0.839216 0.827451 0.690196
0.807843 1.000000 0.874510
0.698039 0.988235 0.788235
0.803922 0.992157 0.835294
1.000000 1.000000 1.000000
1.000000 1.000000 1.000000
0.000000 0.658824 0.741176
0.301961 0.913725 1.000000
0.580392 0.792157 0.933333
0.815686 0.756863 0.839216
0.945098 0.807843 0.831373
0.000000 0.694118 0.713725
0.403922 0.925490 0.945098
0.529412 0.768627 0.839216
0.996078 0.996078 0.988235
0.996078 0.925490 0.925490
0.000000 0.800000 0.752941
0.172549 0.858824 0.807843
0.603922 0.917647 0.882353
0.909804 0.968627 0.956863
1.000000 1.000000 0.968627
0.450980 0.921569 0.823529
0.447059 0.850980 0.776471
0.698039 0.968627 0.894118
0.992157 0.996078 1.000000
0.921569 0.847059 0.788235
0.784314 1.000000 0.905882
0.800000 0.996078 0.890196
0.988235 1.000000 1.000000
1.000000 1.000000 1.000000
0.972549 0.996078 0.949020
0.611765 0.819608 0.882353
0.674510 0.850980 0.925490
0.913725 0.996078 1.000000
0.968627 0.980392 1.000000
0.984314 0.976471 0.988235
0.831373 1.000000 1.000000
0.968627 1.000000 0.992157
0.749020 0.862745 0.925490
0.831373 0.878431 0.925490
0.898039 0.843137 0.901961
0.768627 0.996078 1.000000
0.925490 0.996078 1.000000
0.811765 0.925490 0.956863
0.905882 0.949020 0.972549
0.980392 0.984314 0.992157
0.866667 1.000000 0.988235
0.925490 1.000000 0.996078
0.858824 0.980392 0.988235
0.760784 0.941176 0.933333
0.929412 0.952941 0.945098
0.996078 1.000000 0.992157
1.000000 1.000000 1.000000
0.984314 1.000000 1.000000
0.909804 0.996078 0.988235
0.996078 1.000000 1.000000
