other luts/Cinestill 400D 35mm 偏绿.cube
#Generated with IWLTBAP LUT Generator
#Website: http://luts.iwltbap.com
TITLE "ф╚бл"
#LUT size
LUT_3D_SIZE 5
#LUT data points
0.000000 0.003922 0.000000
0.058824 0.000000 0.000000
0.470588 0.000000 0.007843
0.733333 0.003922 0.007843
0.996078 0.074510 0.000000
0.325490 0.070588 0.000000
0.200000 0.235294 0.027451
0.470588 0.196078 0.000000
0.866667 0.325490 0.039216
1.000000 0.266667 0.000000
0.427451 0.529412 0.047059
0.003922 0.627451 0.023529
0.372549 0.443137 0.011765
0.733333 0.529412 0.000000
0.858824 0.392157 0.000000
0.113725 0.694118 0.000000
0.000000 0.701961 0.000000
0.262745 0.678431 0.007843
0.639216 0.709804 0.000000
1.000000 0.819608 0.007843
0.000000 0.984314 0.188235
0.000000 0.843137 0.000000
0.290196 0.949020 0.168627
0.615686 0.921569 0.247059
0.823529 0.913725 0.364706
0.098039 0.000000 0.215686
0.254902 0.000000 0.239216
0.584314 0.141176 0.309804
0.666667 0.003922 0.172549
1.000000 0.247059 0.278431
0.435294 0.203922 0.211765
0.239216 0.239216 0.200000
0.556863 0.298039 0.243137
0.745098 0.254902 0.168627
1.000000 0.321569 0.164706
0.454902 0.556863 0.266667
0.003922 0.568627 0.223529
0.352941 0.431373 0.098039
0.686275 0.490196 0.039216
0.921569 0.470588 0.003922
0.180392 0.725490 0.164706
0.007843 0.800000 0.235294
0.282353 0.717647 0.164706
0.658824 0.733333 0.243137
0.827451 0.678431 0.000000
0.262745 1.000000 0.458824
0.000000 0.949020 0.305882
0.294118 0.956863 0.317647
0.623529 0.937255 0.352941
1.000000 0.996078 0.733333
0.156863 0.000000 0.517647
0.368627 0.062745 0.596078
0.572549 0.000000 0.568627
0.756863 0.043137 0.517647
0.933333 0.247059 0.501961
0.447059 0.156863 0.498039
0.243137 0.192157 0.462745
0.631373 0.333333 0.588235
0.756863 0.309804 0.513725
0.898039 0.356863 0.490196
0.443137 0.462745 0.474510
0.372549 0.505882 0.513725
0.603922 0.600000 0.580392
0.709804 0.478431 0.447059
1.000000 0.600000 0.545098
0.380392 0.686275 0.533333
0.380392 0.701961 0.560784
0.380392 0.690196 0.466667
0.772549 0.823529 0.611765
0.905882 0.725490 0.388235
0.168627 0.901961 0.545098
0.596078 1.000000 0.792157
0.384314 0.937255 0.560784
0.701961 0.984314 0.596078
0.850980 0.901961 0.556863
0.325490 0.003922 0.784314
0.352941 0.003922 0.749020
0.470588 0.003922 0.662745
0.858824 0.231373 0.827451
1.000000 0.349020 0.803922
0.513725 0.219608 0.784314
0.274510 0.113725 0.662745
0.564706 0.211765 0.737255
0.925490 0.470588 0.890196
0.980392 0.431373 0.772549
0.423529 0.443137 0.709804
0.227451 0.392157 0.682353
0.517647 0.454902 0.701961
0.870588 0.658824 0.854902
0.901961 0.552941 0.725490
0.521569 0.713725 0.772549
0.325490 0.568627 0.627451
0.454902 0.580392 0.623529
0.858824 0.862745 0.870588
1.000000 0.831373 0.827451
0.545098 0.937255 0.843137
0.407843 0.815686 0.725490
0.619608 0.909804 0.803922
0.682353 0.925490 0.733333
0.901961 0.937255 0.752941
0.537255 0.003922 0.984314
0.556863 0.000000 0.945098
0.643137 0.000000 0.917647
0.811765 0.200000 0.937255
0.996078 0.509804 0.996078
0.454902 0.000000 0.823529
0.533333 0.192157 0.949020
0.705882 0.301961 1.000000
0.827451 0.364706 0.949020
0.996078 0.666667 1.000000
0.486275 0.400000 0.894118
0.431373 0.419608 0.925490
0.556863 0.419608 0.890196
0.713725 0.470588 0.858824
0.921569 0.623529 0.917647
0.094118 0.576471 0.878431
0.031373 0.592157 0.898039
0.462745 0.690196 0.980392
0.788235 0.776471 1.000000
1.000000 0.949020 1.000000
0.592157 0.960784 1.000000
0.568627 0.945098 1.000000
0.647059 0.949020 0.988235
0.776471 0.960784 0.992157
0.996078 0.996078 0.996078
