other luts/Cinestill 400D 35mm original.cube
#Generated with IWLTBAP LUT Generator
#Website: http://luts.iwltbap.com
TITLE "ORI"
#LUT size
LUT_3D_SIZE 25
#LUT data points
0.039216 0.043137 0.058824
0.000000 0.000000 0.000000
0.015686 0.015686 0.015686
0.074510 0.054902 0.043137
0.117647 0.058824 0.047059
0.203922 0.109804 0.070588
0.235294 0.121569 0.066667
0.160784 0.007843 0.011765
0.376471 0.196078 0.101961
0.250980 0.039216 0.000000
0.325490 0.086275 0.003922
0.411765 0.141176 0.000000
0.490196 0.184314 0.003922
0.525490 0.180392 0.000000
0.607843 0.231373 0.000000
0.698039 0.278431 0.000000
0.749020 0.313725 0.003922
0.745098 0.290196 0.000000
0.886275 0.384314 0.003922
0.725490 0.211765 0.007843
0.921569 0.380392 0.000000
0.996078 0.423529 0.000000
0.996078 0.415686 0.000000
1.000000 0.431373 0.003922
1.000000 0.396078 0.003922
0.305882 0.047059 0.000000
0.047059 0.109804 0.105882
0.137255 0.133333 0.125490
0.074510 0.054902 0.039216
0.101961 0.035294 0.000000
0.192157 0.101961 0.039216
0.247059 0.125490 0.047059
0.270588 0.125490 0.019608
0.301961 0.125490 0.000000
0.286275 0.082353 0.000000
0.435294 0.200000 0.000000
0.458824 0.180392 0.000000
0.376471 0.066667 0.000000
0.439216 0.098039 0.000000
0.592157 0.219608 0.000000
0.705882 0.290196 0.000000
0.737255 0.298039 0.000000
0.741176 0.282353 0.007843
0.788235 0.294118 0.000000
0.952941 0.443137 0.000000
0.831373 0.290196 0.000000
0.968627 0.396078 0.000000
0.898039 0.321569 0.007843
0.956863 0.349020 0.000000
1.000000 0.341176 0.000000
0.447059 0.207843 0.125490
0.000000 0.039216 0.007843
0.000000 0.015686 0.000000
0.070588 0.074510 0.019608
0.113725 0.090196 0.003922
0.207843 0.121569 0.027451
0.313725 0.207843 0.101961
0.117647 0.000000 0.000000
0.266667 0.121569 0.007843
0.443137 0.239216 0.054902
0.482353 0.250980 0.023529
0.400000 0.141176 0.007843
0.498039 0.192157 0.003922
0.639216 0.298039 0.000000
0.568627 0.200000 0.000000
0.741176 0.349020 0.003922
0.619608 0.196078 0.003922
0.862745 0.396078 0.000000
0.705882 0.235294 0.000000
0.843137 0.337255 0.007843
0.949020 0.419608 0.000000
0.823529 0.262745 0.003922
1.000000 0.427451 0.000000
0.996078 0.419608 0.003922
1.000000 0.478431 0.003922
0.403922 0.211765 0.086275
0.011765 0.164706 0.090196
0.156863 0.200000 0.133333
0.109804 0.129412 0.050980
0.101961 0.101961 0.000000
0.301961 0.258824 0.141176
0.145098 0.074510 0.000000
0.262745 0.149020 0.000000
0.423529 0.266667 0.074510
0.333333 0.145098 0.000000
0.474510 0.250980 0.000000
0.494118 0.243137 0.003922
0.572549 0.282353 0.000000
0.541176 0.215686 0.003922
0.556863 0.207843 0.000000
0.678431 0.298039 0.000000
0.858824 0.435294 0.007843
0.776471 0.325490 0.000000
0.800000 0.333333 0.003922
0.776471 0.282353 0.000000
0.866667 0.352941 0.000000
0.960784 0.403922 0.003922
0.862745 0.301961 0.000000
1.000000 0.431373 0.015686
0.992157 0.549020 0.000000
0.227451 0.149020 0.003922
0.039216 0.207843 0.101961
0.137255 0.227451 0.125490
0.156863 0.223529 0.090196
0.243137 0.270588 0.149020
0.149020 0.137255 0.000000
0.356863 0.305882 0.129412
0.325490 0.239216 0.011765
0.368627 0.247059 0.000000
0.411765 0.231373 0.000000
0.392157 0.188235 0.000000
0.576471 0.321569 0.007843
0.513725 0.239216 0.000000
0.607843 0.286275 0.000000
0.745098 0.403922 0.000000
0.745098 0.372549 0.011765
0.737255 0.305882 0.000000
0.823529 0.396078 0.000000
0.878431 0.415686 0.000000
0.835294 0.341176 0.007843
0.956863 0.439216 0.003922
0.933333 0.380392 0.019608
0.984314 0.407843 0.000000
1.000000 0.454902 0.003922
0.996078 0.419608 0.003922
0.003922 0.235294 0.054902
0.000000 0.223529 0.062745
0.054902 0.235294 0.082353
0.125490 0.247059 0.082353
0.000000 0.101961 0.003922
0.129412 0.192157 0.007843
0.180392 0.188235 0.000000
0.317647 0.282353 0.050980
0.231373 0.160784 0.011765
0.517647 0.392157 0.105882
0.403922 0.239216 0.011765
0.486275 0.278431 0.011765
0.494118 0.258824 0.011765
0.627451 0.337255 0.000000
0.650980 0.337255 0.000000
0.611765 0.282353 0.000000
0.870588 0.486275 0.000000
0.643137 0.243137 0.000000
0.792157 0.356863 0.003922
0.886275 0.431373 0.003922
0.921569 0.435294 0.000000
0.941176 0.407843 0.007843
0.980392 0.427451 0.011765
0.874510 0.313725 0.007843
1.000000 0.407843 0.000000
0.494118 0.301961 0.000000
0.003922 0.211765 0.000000
0.066667 0.294118 0.062745
0.054902 0.250980 0.011765
0.152941 0.282353 0.058824
0.160784 0.235294 0.015686
0.309804 0.345098 0.137255
0.286275 0.278431 0.039216
0.200000 0.152941 0.003922
0.396078 0.305882 0.000000
0.454902 0.313725 0.007843
0.580392 0.411765 0.003922
0.592157 0.372549 0.000000
0.568627 0.301961 0.007843
0.882353 0.576471 0.141176
0.768627 0.431373 0.000000
0.745098 0.380392 0.003922
0.682353 0.301961 0.000000
0.894118 0.478431 0.000000
0.745098 0.309804 0.000000
0.905882 0.435294 0.003922
0.968627 0.458824 0.011765
0.941176 0.411765 0.000000
0.980392 0.443137 0.000000
0.996078 0.513725 0.003922
0.423529 0.317647 0.007843
0.000000 0.360784 0.105882
0.062745 0.325490 0.062745
0.101961 0.325490 0.054902
0.211765 0.368627 0.125490
0.149020 0.282353 0.000000
0.180392 0.262745 0.007843
0.270588 0.317647 0.035294
0.254902 0.247059 0.015686
0.333333 0.286275 0.003922
0.498039 0.400000 0.007843
0.600000 0.458824 0.027451
0.564706 0.392157 0.003922
0.549020 0.329412 0.000000
0.694118 0.427451 0.000000
0.713725 0.403922 0.000000
0.780392 0.443137 0.000000
0.811765 0.435294 0.000000
0.921569 0.521569 0.000000
0.898039 0.462745 0.000000
0.937255 0.486275 0.000000
0.921569 0.431373 0.000000
0.937255 0.439216 0.000000
0.909804 0.384314 0.003922
1.000000 0.529412 0.000000
0.380392 0.341176 0.000000
0.007843 0.329412 0.000000
0.000000 0.274510 0.000000
0.023529 0.325490 0.003922
0.227451 0.431373 0.149020
0.082353 0.266667 0.000000
0.235294 0.349020 0.035294
0.192157 0.266667 0.007843
0.305882 0.341176 0.015686
0.298039 0.290196 0.000000
0.407843 0.345098 0.003922
0.517647 0.423529 0.000000
0.545098 0.407843 0.015686
0.670588 0.494118 0.003922
0.654902 0.427451 0.000000
0.737255 0.478431 0.000000
0.843137 0.541176 0.000000
0.776471 0.431373 0.007843
0.878431 0.494118 0.000000
0.941176 0.537255 0.000000
0.960784 0.509804 0.003922
1.000000 0.596078 0.003922
1.000000 0.533333 0.000000
0.996078 0.494118 0.003922
1.000000 0.486275 0.000000
0.239216 0.313725 0.000000
0.000000 0.364706 0.000000
0.000000 0.317647 0.000000
0.000000 0.254902 0.003922
0.133333 0.380392 0.023529
0.203922 0.411765 0.066667
0.219608 0.388235 0.027451
0.270588 0.376471 0.011765
0.317647 0.384314 0.015686
0.345098 0.364706 0.003922
0.368627 0.337255 0.003922
0.505882 0.458824 0.000000
0.705882 0.580392 0.152941
0.545098 0.411765 0.000000
0.709804 0.521569 0.000000
0.764706 0.521569 0.000000
0.666667 0.400000 0.003922
0.870588 0.549020 0.007843
0.937255 0.564706 0.000000
0.925490 0.533333 0.000000
1.000000 0.596078 0.000000
0.996078 0.552941 0.000000
0.933333 0.458824 0.007843
0.996078 0.552941 0.000000
1.000000 0.525490 0.000000
0.000000 0.474510 0.086275
0.000000 0.509804 0.141176
0.000000 0.337255 0.000000
0.000000 0.435294 0.023529
0.000000 0.372549 0.003922
0.098039 0.415686 0.011765
0.101961 0.360784 0.007843
0.231373 0.435294 0.003922
0.376471 0.505882 0.149020
0.329412 0.431373 0.000000
0.376471 0.423529 0.000000
0.431373 0.419608 0.000000
0.541176 0.490196 0.043137
0.564706 0.478431 0.007843
0.674510 0.545098 0.000000
0.560784 0.407843 0.000000
0.792157 0.568627 0.007843
0.780392 0.541176 0.000000
0.831373 0.533333 0.000000
0.913725 0.576471 0.000000
0.968627 0.596078 0.000000
0.878431 0.474510 0.007843
0.996078 0.607843 0.000000
1.000000 0.564706 0.000000
0.996078 0.623529 0.011765
0.525490 0.513725 0.109804
0.000000 0.576471 0.160784
0.047059 0.521569 0.105882
0.000000 0.466667 0.000000
0.000000 0.411765 0.000000
0.000000 0.368627 0.000000
0.184314 0.458824 0.003922
0.274510 0.501961 0.062745
0.317647 0.478431 0.015686
0.458824 0.576471 0.184314
0.376471 0.454902 0.003922
0.415686 0.450980 0.000000
0.447059 0.439216 0.003922
0.694118 0.635294 0.184314
0.494118 0.411765 0.000000
0.733333 0.615686 0.000000
0.682353 0.513725 0.000000
0.752941 0.533333 0.003922
0.941176 0.674510 0.000000
0.925490 0.623529 0.003922
0.921569 0.576471 0.000000
0.996078 0.631373 0.000000
0.937255 0.549020 0.000000
1.000000 0.639216 0.000000
0.996078 0.600000 0.003922
0.443137 0.498039 0.023529
0.003922 0.498039 0.003922
0.000000 0.478431 0.000000
0.152941 0.592157 0.152941
0.011765 0.435294 0.000000
0.066667 0.482353 0.003922
0.219608 0.541176 0.054902
0.364706 0.615686 0.176471
0.266667 0.482353 0.000000
0.372549 0.533333 0.062745
0.407843 0.529412 0.031373
0.470588 0.549020 0.066667
0.478431 0.505882 0.000000
0.517647 0.517647 0.007843
0.741176 0.682353 0.223529
0.721569 0.619608 0.003922
0.823529 0.686275 0.082353
0.760784 0.588235 0.000000
0.843137 0.631373 0.003922
0.811765 0.576471 0.003922
0.992157 0.698039 0.003922
1.000000 0.690196 0.000000
1.000000 0.772549 0.003922
1.000000 0.737255 0.003922
0.984314 0.517647 0.007843
0.454902 0.603922 0.129412
0.000000 0.572549 0.023529
0.007843 0.607843 0.121569
0.133333 0.639216 0.145098
0.007843 0.498039 0.003922
0.121569 0.564706 0.015686
0.286275 0.623529 0.133333
0.298039 0.588235 0.098039
0.349020 0.603922 0.109804
0.494118 0.682353 0.211765
0.498039 0.650980 0.184314
0.458824 0.588235 0.066667
0.552941 0.627451 0.137255
0.560784 0.584314 0.090196
0.552941 0.545098 0.007843
0.678431 0.615686 0.070588
0.705882 0.615686 0.007843
0.741176 0.600000 0.000000
0.764706 0.592157 0.007843
0.905882 0.690196 0.000000
0.913725 0.678431 0.003922
0.823529 0.552941 0.003922
0.933333 0.607843 0.003922
1.000000 0.650980 0.000000
0.996078 0.647059 0.000000
0.274510 0.552941 0.000000
0.023529 0.694118 0.176471
0.003922 0.564706 0.007843
0.301961 0.756863 0.266667
0.000000 0.517647 0.000000
0.101961 0.592157 0.000000
0.003922 0.498039 0.003922
0.258824 0.596078 0.003922
0.403922 0.682353 0.172549
0.329412 0.572549 0.003922
0.525490 0.717647 0.223529
0.427451 0.584314 0.003922
0.439216 0.564706 0.000000
0.615686 0.658824 0.149020
0.560784 0.576471 0.000000
0.654902 0.627451 0.070588
0.725490 0.647059 0.023529
0.862745 0.752941 0.129412
0.741176 0.596078 0.003922
0.878431 0.709804 0.015686
0.862745 0.650980 0.000000
0.992157 0.811765 0.000000
0.960784 0.666667 0.000000
1.000000 0.815686 0.003922
1.000000 0.678431 0.007843
0.000000 0.623529 0.000000
0.000000 0.623529 0.003922
0.000000 0.639216 0.000000
0.000000 0.576471 0.003922
0.117647 0.733333 0.180392
0.215686 0.752941 0.203922
0.223529 0.713725 0.164706
0.180392 0.647059 0.000000
0.000000 0.513725 0.000000
0.290196 0.635294 0.000000
0.321569 0.600000 0.000000
0.423529 0.650980 0.023529
0.447059 0.619608 0.003922
0.556863 0.690196 0.117647
0.576471 0.666667 0.078431
0.513725 0.560784 0.000000
0.654902 0.647059 0.011765
0.823529 0.752941 0.211765
0.694118 0.611765 0.003922
0.964706 0.835294 0.196078
0.992157 0.811765 0.101961
0.905882 0.713725 0.003922
0.968627 0.737255 0.000000
0.972549 0.713725 0.000000
1.000000 0.835294 0.015686
0.447059 0.635294 0.000000
0.007843 0.678431 0.000000
0.000000 0.737255 0.133333
0.050980 0.745098 0.145098
0.196078 0.768627 0.192157
0.156863 0.717647 0.113725
0.239216 0.741176 0.133333
0.286275 0.737255 0.121569
0.223529 0.647059 0.003922
0.321569 0.682353 0.003922
0.411765 0.713725 0.101961
0.482353 0.733333 0.152941
0.427451 0.643137 0.000000
0.568627 0.741176 0.156863
0.631373 0.749020 0.176471
0.619608 0.690196 0.062745
0.749020 0.768627 0.203922
0.776471 0.756863 0.192157
0.784314 0.725490 0.117647
0.913725 0.819608 0.200000
0.862745 0.741176 0.000000
0.972549 0.819608 0.031373
0.992157 0.803922 0.003922
1.000000 0.768627 0.000000
1.000000 0.819608 0.000000
0.427451 0.705882 0.000000
0.000000 0.635294 0.000000
0.015686 0.745098 0.113725
0.000000 0.752941 0.105882
0.000000 0.631373 0.000000
0.101961 0.741176 0.078431
0.007843 0.682353 0.007843
0.145098 0.698039 0.011765
0.419608 0.827451 0.243137
0.454902 0.831373 0.239216
0.298039 0.662745 0.000000
0.466667 0.772549 0.141176
0.588235 0.835294 0.250980
0.470588 0.682353 0.000000
0.615686 0.776471 0.164706
0.647059 0.764706 0.145098
0.603922 0.682353 0.003922
0.670588 0.705882 0.011765
0.690196 0.686275 0.000000
0.815686 0.760784 0.129412
0.792157 0.701961 0.011765
0.917647 0.819608 0.078431
0.937255 0.784314 0.000000
0.886275 0.709804 0.000000
0.992157 0.792157 0.000000
0.478431 0.819608 0.207843
0.007843 0.725490 0.000000
0.000000 0.772549 0.078431
0.007843 0.737255 0.000000
0.090196 0.823529 0.176471
0.007843 0.662745 0.011765
0.000000 0.705882 0.000000
0.321569 0.839216 0.200000
0.188235 0.729412 0.015686
0.364706 0.800000 0.152941
0.423529 0.819608 0.176471
0.462745 0.803922 0.156863
0.356863 0.678431 0.000000
0.658824 0.913725 0.309804
0.572549 0.780392 0.129412
0.682353 0.843137 0.231373
0.552941 0.682353 0.000000
0.878431 0.941176 0.349020
0.737255 0.768627 0.129412
0.772549 0.768627 0.109804
0.784314 0.756863 0.066667
0.949020 0.854902 0.219608
1.000000 0.921569 0.243137
0.917647 0.768627 0.003922
1.000000 0.827451 0.007843
0.301961 0.803922 0.094118
0.000000 0.803922 0.094118
0.125490 0.894118 0.227451
0.003922 0.823529 0.129412
0.031373 0.827451 0.129412
0.003922 0.776471 0.015686
0.219608 0.835294 0.149020
0.388235 0.925490 0.278431
0.301961 0.827451 0.141176
0.345098 0.819608 0.109804
0.384314 0.811765 0.109804
0.435294 0.823529 0.125490
0.580392 0.901961 0.266667
0.592157 0.878431 0.223529
0.576471 0.811765 0.133333
0.729412 0.917647 0.286275
0.713725 0.850980 0.207843
0.709804 0.823529 0.156863
0.850980 0.898039 0.270588
0.839216 0.862745 0.227451
0.878431 0.847059 0.219608
0.933333 0.870588 0.254902
0.843137 0.752941 0.007843
1.000000 0.886275 0.172549
0.996078 0.905882 0.152941
0.007843 0.890196 0.239216
0.000000 0.807843 0.086275
0.000000 0.823529 0.129412
0.274510 0.949020 0.305882
0.184314 0.901961 0.250980
0.000000 0.792157 0.050980
0.317647 0.925490 0.274510
0.176471 0.811765 0.101961
0.356863 0.894118 0.247059
0.337255 0.854902 0.180392
0.337255 0.807843 0.117647
0.494118 0.898039 0.250980
0.517647 0.882353 0.231373
0.458824 0.776471 0.031373
0.631373 0.890196 0.262745
0.662745 0.898039 0.270588
0.674510 0.862745 0.219608
0.737255 0.878431 0.250980
0.749020 0.870588 0.227451
0.831373 0.890196 0.282353
0.843137 0.870588 0.250980
0.843137 0.819608 0.192157
0.905882 0.866667 0.243137
0.866667 0.792157 0.086275
1.000000 0.886275 0.133333
0.521569 0.850980 0.172549
0.000000 0.858824 0.160784
0.003922 0.854902 0.152941
0.000000 0.815686 0.050980
0.101961 0.850980 0.160784
0.000000 0.760784 0.003922
0.403922 0.996078 0.341176
0.305882 0.901961 0.223529
0.372549 0.921569 0.266667
0.384314 0.894118 0.223529
0.431373 0.898039 0.231373
0.458824 0.886275 0.223529
0.552941 0.941176 0.282353
0.454902 0.807843 0.086275
0.576471 0.886275 0.223529
0.529412 0.800000 0.066667
0.564706 0.800000 0.082353
0.678431 0.870588 0.203922
0.733333 0.882353 0.235294
0.752941 0.866667 0.215686
0.858824 0.913725 0.294118
0.972549 0.992157 0.388235
0.831373 0.819608 0.172549
1.000000 0.976471 0.396078
1.000000 1.000000 0.388235
0.482353 0.898039 0.227451
0.164706 0.972549 0.305882
0.039216 0.909804 0.200000
0.152941 0.925490 0.235294
0.392157 1.000000 0.396078
0.196078 0.917647 0.235294
0.098039 0.862745 0.149020
0.254902 0.909804 0.223529
0.341176 0.945098 0.262745
0.317647 0.894118 0.200000
0.478431 0.984314 0.337255
0.494118 0.960784 0.294118
0.447059 0.878431 0.184314
0.403922 0.811765 0.031373
0.568627 0.913725 0.247059
0.576471 0.886275 0.223529
0.627451 0.909804 0.235294
0.647059 0.874510 0.196078
0.733333 0.921569 0.286275
0.800000 0.941176 0.305882
0.780392 0.894118 0.235294
0.800000 0.862745 0.203922
0.929412 0.968627 0.345098
0.925490 0.929412 0.325490
0.949020 0.894118 0.270588
0.341176 0.866667 0.149020
0.003922 0.917647 0.211765
0.219608 1.000000 0.317647
0.000000 0.866667 0.125490
0.286275 1.000000 0.333333
0.007843 0.870588 0.133333
0.278431 0.996078 0.305882
0.235294 0.952941 0.262745
0.352941 0.972549 0.298039
0.372549 0.976471 0.294118
0.400000 0.960784 0.294118
0.415686 0.933333 0.258824
0.517647 0.984314 0.317647
0.427451 0.878431 0.160784
0.580392 0.968627 0.298039
0.482353 0.850980 0.129412
0.670588 0.968627 0.337255
0.749020 1.000000 0.368627
0.682353 0.909804 0.243137
0.929412 1.000000 0.450980
0.815686 0.952941 0.317647
0.823529 0.933333 0.294118
0.827451 0.894118 0.250980
0.941176 0.976471 0.368627
0.976471 0.929412 0.356863
0.352941 0.964706 0.290196
0.011765 0.972549 0.270588
0.000000 0.949020 0.243137
0.000000 0.909804 0.196078
0.003922 0.898039 0.180392
0.000000 0.878431 0.156863
0.290196 1.000000 0.321569
0.000000 0.811765 0.000000
0.313725 0.984314 0.294118
0.388235 0.980392 0.325490
0.215686 0.843137 0.113725
0.482353 0.996078 0.345098
0.423529 0.917647 0.243137
0.439216 0.898039 0.211765
0.509804 0.905882 0.254902
0.619608 0.964706 0.329412
0.584314 0.901961 0.262745
0.674510 0.937255 0.317647
0.635294 0.878431 0.247059
0.752941 0.933333 0.341176
0.784314 0.925490 0.329412
0.780392 0.894118 0.305882
0.815686 0.874510 0.305882
0.901961 0.933333 0.392157
0.956863 0.960784 0.427451
0.164706 0.117647 0.203922
0.176471 0.125490 0.196078
0.156863 0.090196 0.164706
0.000000 0.000000 0.000000
0.003922 0.000000 0.000000
0.203922 0.003922 0.070588
0.227451 0.027451 0.054902
0.368627 0.160784 0.145098
0.301961 0.074510 0.027451
0.231373 0.000000 0.000000
0.427451 0.145098 0.047059
0.447059 0.137255 0.007843
0.345098 0.000000 0.003922
0.580392 0.223529 0.007843
0.764706 0.352941 0.168627
0.717647 0.282353 0.003922
0.686275 0.239216 0.003922
0.615686 0.129412 0.000000
0.890196 0.368627 0.011765
0.815686 0.294118 0.000000
0.976471 0.423529 0.011765
0.878431 0.301961 0.000000
1.000000 0.423529 0.007843
1.000000 0.388235 0.007843
0.996078 0.321569 0.000000
0.486275 0.109804 0.117647
0.078431 0.113725 0.172549
0.074510 0.000000 0.039216
0.117647 0.023529 0.074510
0.129412 0.000000 0.035294
0.266667 0.117647 0.113725
0.184314 0.011765 0.000000
0.337255 0.141176 0.098039
0.294118 0.074510 0.023529
0.380392 0.137255 0.039216
0.525490 0.247059 0.121569
0.368627 0.047059 0.003922
0.470588 0.149020 0.000000
0.623529 0.270588 0.062745
0.635294 0.243137 0.000000
0.639216 0.207843 0.000000
0.835294 0.392157 0.117647
0.862745 0.384314 0.090196
0.831373 0.325490 0.000000
0.890196 0.368627 0.000000
0.866667 0.321569 0.003922
0.952941 0.376471 0.000000
0.937255 0.341176 0.003922
0.894118 0.282353 0.000000
1.000000 0.454902 0.003922
0.368627 0.090196 0.066667
0.113725 0.172549 0.184314
0.137255 0.121569 0.117647
0.117647 0.070588 0.070588
0.129412 0.047059 0.027451
0.098039 0.019608 0.000000
0.207843 0.066667 0.011765
0.317647 0.149020 0.074510
0.392157 0.188235 0.094118
0.498039 0.274510 0.160784
0.415686 0.160784 0.011765
0.486275 0.196078 0.011765
0.462745 0.149020 0.019608
0.568627 0.219608 0.000000
0.568627 0.200000 0.000000
0.764706 0.364706 0.082353
0.807843 0.368627 0.039216
0.823529 0.356863 0.003922
1.000000 0.509804 0.180392
0.831373 0.313725 0.000000
1.000000 0.447059 0.000000
0.960784 0.388235 0.000000
0.949020 0.364706 0.003922
0.984314 0.368627 0.003922
1.000000 0.431373 0.000000
0.333333 0.113725 0.054902
0.003922 0.054902 0.019608
0.090196 0.101961 0.066667
0.133333 0.125490 0.074510
0.207843 0.176471 0.094118
0.180392 0.098039 0.015686
0.274510 0.172549 0.082353
0.258824 0.125490 0.015686
0.396078 0.239216 0.098039
0.380392 0.188235 0.019608
0.337255 0.113725 0.000000
0.470588 0.207843 0.000000
0.533333 0.239216 0.011765
0.650980 0.325490 0.058824
0.733333 0.352941 0.082353
0.686275 0.286275 0.000000
0.698039 0.278431 0.003922
0.776471 0.341176 0.000000
0.886275 0.411765 0.000000
0.835294 0.329412 0.003922
0.905882 0.380392 0.000000
1.000000 0.431373 0.003922
0.992157 0.435294 0.003922
1.000000 0.525490 0.003922
1.000000 0.403922 0.007843
0.266667 0.160784 0.047059
0.000000 0.090196 0.011765
0.133333 0.207843 0.133333
0.231373 0.274510 0.207843
0.141176 0.149020 0.066667
0.231373 0.211765 0.098039
0.290196 0.231373 0.101961
0.360784 0.262745 0.101961
0.435294 0.282353 0.113725
0.349020 0.172549 0.011765
0.482353 0.262745 0.031373
0.447059 0.207843 0.000000
0.650980 0.360784 0.113725
0.580392 0.266667 0.000000
0.596078 0.243137 0.007843
0.705882 0.329412 0.000000
0.760784 0.345098 0.000000
0.827451 0.388235 0.003922
0.839216 0.364706 0.000000
1.000000 0.494118 0.062745
0.890196 0.368627 0.011765
0.894118 0.341176 0.000000
1.000000 0.447059 0.000000
1.000000 0.407843 0.000000
1.000000 0.419608 0.003922
0.007843 0.235294 0.086275
0.000000 0.184314 0.007843
0.050980 0.247059 0.098039
0.117647 0.266667 0.105882
0.200000 0.309804 0.152941
0.101961 0.149020 0.000000
0.223529 0.243137 0.082353
0.274510 0.243137 0.050980
0.321569 0.266667 0.011765
0.407843 0.290196 0.007843
0.341176 0.200000 0.000000
0.627451 0.411765 0.098039
0.533333 0.282353 0.000000
0.615686 0.352941 0.003922
0.596078 0.290196 0.007843
0.596078 0.262745 0.000000
0.882353 0.501961 0.058824
0.760784 0.356863 0.000000
0.796078 0.368627 0.003922
0.894118 0.423529 0.000000
0.890196 0.407843 0.000000
0.894118 0.372549 0.000000
0.964706 0.423529 0.000000
1.000000 0.486275 0.000000
1.000000 0.400000 0.007843
0.447059 0.258824 0.000000
0.000000 0.180392 0.000000
0.117647 0.329412 0.133333
0.180392 0.345098 0.149020
0.184314 0.298039 0.109804
0.207843 0.309804 0.121569
0.192157 0.231373 0.023529
0.341176 0.337255 0.149020
0.345098 0.313725 0.031373
0.380392 0.294118 0.007843
0.490196 0.376471 0.015686
0.521569 0.349020 0.000000
0.674510 0.462745 0.035294
0.647059 0.376471 0.003922
0.670588 0.368627 0.015686
0.823529 0.494118 0.007843
0.725490 0.360784 0.000000
0.674510 0.298039 0.000000
0.752941 0.337255 0.000000
0.839216 0.380392 0.007843
0.976471 0.501961 0.000000
0.996078 0.486275 0.000000
0.972549 0.447059 0.000000
0.996078 0.556863 0.000000
1.000000 0.388235 0.000000
0.376471 0.270588 0.000000
0.007843 0.262745 0.011765
0.000000 0.309804 0.050980
0.105882 0.325490 0.086275
0.168627 0.329412 0.094118
0.180392 0.313725 0.074510
0.266667 0.345098 0.105882
0.286275 0.325490 0.086275
0.325490 0.321569 0.058824
0.431373 0.384314 0.086275
0.396078 0.305882 0.000000
0.509804 0.376471 0.000000
0.682353 0.490196 0.086275
0.529412 0.313725 0.000000
0.733333 0.454902 0.000000
0.717647 0.415686 0.000000
0.792157 0.431373 0.003922
0.737255 0.372549 0.000000
0.800000 0.411765 0.011765
0.850980 0.427451 0.000000
0.960784 0.513725 0.000000
0.850980 0.376471 0.011765
0.980392 0.474510 0.003922
0.988235 0.466667 0.000000
1.000000 0.482353 0.015686
0.396078 0.356863 0.074510
0.105882 0.494118 0.231373
0.160784 0.439216 0.172549
0.121569 0.384314 0.113725
0.184314 0.407843 0.137255
0.152941 0.333333 0.047059
0.352941 0.458824 0.188235
0.211765 0.294118 0.000000
0.156863 0.196078 0.000000
0.411765 0.396078 0.109804
0.490196 0.427451 0.082353
0.611765 0.505882 0.149020
0.466667 0.345098 0.000000
0.588235 0.415686 0.000000
0.635294 0.423529 0.007843
0.745098 0.486275 0.007843
0.749020 0.447059 0.000000
0.862745 0.513725 0.003922
0.964706 0.588235 0.003922
0.913725 0.509804 0.003922
0.960784 0.517647 0.000000
0.917647 0.474510 0.003922
0.905882 0.427451 0.000000
0.964706 0.458824 0.000000
0.996078 0.478431 0.000000
0.262745 0.349020 0.027451
0.066667 0.474510 0.164706
0.000000 0.258824 0.000000
0.164706 0.454902 0.145098
0.141176 0.400000 0.058824
0.211765 0.423529 0.094118
0.133333 0.305882 0.011765
0.215686 0.329412 0.000000
0.341176 0.415686 0.094118
0.380392 0.392157 0.074510
0.454902 0.439216 0.090196
0.580392 0.517647 0.141176
0.533333 0.431373 0.000000
0.666667 0.513725 0.007843
0.686275 0.498039 0.003922
0.745098 0.517647 0.000000
0.823529 0.537255 0.000000
0.729412 0.419608 0.007843
0.796078 0.447059 0.000000
0.839216 0.447059 0.000000
0.960784 0.545098 0.003922
0.964706 0.517647 0.000000
0.996078 0.564706 0.000000
1.000000 0.509804 0.003922
1.000000 0.525490 0.003922
0.000000 0.466667 0.113725
0.007843 0.443137 0.070588
0.000000 0.337255 0.000000
0.047059 0.490196 0.145098
0.000000 0.380392 0.007843
0.160784 0.458824 0.101961
0.239216 0.494118 0.125490
0.243137 0.439216 0.058824
0.235294 0.380392 0.003922
