other luts/Cinestill 50D 35mm original.cube
#Generated with IWLTBAP LUT Generator
#Website: http://luts.iwltbap.com
TITLE "ORI"
#LUT size
LUT_3D_SIZE 9
#LUT data points
0.278431 0.207843 0.270588
0.043137 0.007843 0.027451
0.000000 0.003922 0.000000
0.294118 0.000000 0.027451
0.360784 0.000000 0.011765
0.337255 0.000000 0.011765
0.784314 0.000000 0.007843
1.000000 0.278431 0.207843
1.000000 0.207843 0.082353
0.007843 0.000000 0.003922
0.200000 0.176471 0.184314
0.176471 0.062745 0.047059
0.298039 0.000000 0.007843
0.600000 0.137255 0.098039
0.713725 0.078431 0.027451
0.964706 0.243137 0.149020
0.854902 0.000000 0.003922
0.956863 0.141176 0.000000
0.145098 0.235294 0.172549
0.050980 0.117647 0.047059
0.098039 0.156863 0.043137
0.321569 0.223529 0.000000
0.619608 0.317647 0.050980
0.666667 0.207843 0.000000
0.952941 0.356863 0.094118
1.000000 0.423529 0.152941
1.000000 0.321569 0.003922
0.156863 0.419608 0.219608
0.000000 0.164706 0.007843
0.105882 0.317647 0.090196
0.321569 0.443137 0.145098
0.474510 0.427451 0.000000
0.835294 0.576471 0.094118
0.827451 0.427451 0.003922
0.705882 0.223529 0.000000
0.996078 0.592157 0.219608
0.278431 0.603922 0.321569
0.211765 0.525490 0.254902
0.164706 0.462745 0.172549
0.125490 0.388235 0.015686
0.486275 0.588235 0.207843
0.588235 0.537255 0.000000
0.784314 0.572549 0.000000
0.933333 0.588235 0.000000
0.996078 0.596078 0.070588
0.172549 0.552941 0.250980
0.250980 0.603922 0.313725
0.329412 0.647059 0.349020
0.352941 0.631373 0.317647
0.498039 0.705882 0.360784
0.623529 0.694118 0.301961
0.745098 0.686275 0.219608
0.866667 0.690196 0.129412
1.000000 0.815686 0.321569
0.411765 0.694118 0.447059
0.423529 0.701961 0.443137
0.482353 0.737255 0.478431
0.352941 0.588235 0.337255
0.560784 0.745098 0.470588
0.607843 0.733333 0.435294
0.650980 0.713725 0.368627
0.854902 0.823529 0.439216
0.784314 0.670588 0.211765
0.549020 0.788235 0.552941
0.600000 0.815686 0.588235
0.541176 0.768627 0.529412
0.533333 0.725490 0.505882
0.529412 0.705882 0.482353
0.713725 0.870588 0.627451
0.564706 0.686275 0.411765
0.792157 0.854902 0.568627
0.992157 1.000000 0.701961
0.752941 0.937255 0.756863
0.713725 0.909804 0.717647
0.580392 0.764706 0.584314
0.713725 0.901961 0.713725
0.827451 0.988235 0.815686
0.780392 0.925490 0.725490
0.819608 0.929412 0.737255
0.878431 0.972549 0.768627
0.803922 0.850980 0.662745
0.023529 0.015686 0.058824
0.203922 0.133333 0.196078
0.207843 0.054902 0.125490
0.364706 0.000000 0.121569
0.631373 0.066667 0.196078
0.627451 0.000000 0.039216
0.894118 0.082353 0.152941
0.941176 0.121569 0.105882
1.000000 0.184314 0.098039
0.011765 0.039216 0.070588
0.109804 0.086275 0.101961
0.203922 0.062745 0.078431
0.376471 0.058824 0.086275
0.564706 0.109804 0.121569
0.752941 0.152941 0.133333
0.968627 0.290196 0.223529
0.870588 0.109804 0.003922
0.996078 0.360784 0.211765
0.066667 0.223529 0.129412
0.235294 0.321569 0.231373
0.207843 0.247059 0.141176
0.423529 0.337255 0.113725
0.564706 0.262745 0.050980
0.862745 0.400000 0.211765
0.725490 0.164706 0.000000
0.913725 0.309804 0.066667
0.945098 0.274510 0.000000
0.223529 0.454902 0.266667
0.027451 0.278431 0.074510
0.313725 0.470588 0.262745
0.427451 0.529412 0.274510
0.647059 0.592157 0.243137
0.713725 0.470588 0.027451
0.972549 0.580392 0.243137
0.898039 0.450980 0.074510
1.000000 0.549020 0.231373
0.058824 0.411765 0.160784
0.309804 0.576471 0.345098
0.349020 0.584314 0.341176
0.360784 0.552941 0.294118
0.466667 0.564706 0.239216
0.654902 0.600000 0.211765
0.909804 0.701961 0.262745
0.992157 0.670588 0.239216
1.000000 0.658824 0.258824
0.156863 0.498039 0.227451
0.419608 0.701961 0.443137
0.423529 0.678431 0.411765
0.474510 0.686275 0.443137
0.549020 0.709804 0.411765
0.662745 0.713725 0.392157
0.788235 0.733333 0.352941
0.890196 0.729412 0.282353
0.878431 0.635294 0.160784
0.447059 0.694118 0.470588
0.309804 0.549020 0.313725
0.498039 0.705882 0.494118
0.356863 0.549020 0.329412
0.709804 0.866667 0.631373
0.592157 0.713725 0.447059
0.694118 0.745098 0.462745
0.827451 0.796078 0.470588
0.803922 0.713725 0.313725
0.627451 0.835294 0.631373
0.721569 0.917647 0.709804
0.482353 0.678431 0.478431
0.505882 0.690196 0.478431
0.513725 0.670588 0.474510
0.662745 0.803922 0.564706
0.800000 0.921569 0.658824
0.764706 0.823529 0.552941
0.886275 0.858824 0.584314
0.819608 0.996078 0.835294
0.635294 0.819608 0.639216
0.792157 0.976471 0.796078
0.749020 0.917647 0.749020
0.627451 0.796078 0.619608
0.756863 0.901961 0.729412
0.784314 0.913725 0.737255
0.976471 1.000000 0.862745
0.898039 0.949020 0.768627
0.098039 0.062745 0.184314
0.121569 0.019608 0.172549
0.325490 0.062745 0.270588
0.423529 0.121569 0.254902
0.635294 0.235294 0.317647
0.800000 0.278431 0.345098
0.913725 0.309804 0.349020
0.941176 0.266667 0.266667
0.941176 0.235294 0.231373
0.078431 0.172549 0.266667
0.215686 0.219608 0.329412
0.145098 0.019608 0.109804
0.486275 0.286275 0.313725
0.650980 0.313725 0.349020
0.694118 0.243137 0.262745
0.909804 0.360784 0.356863
0.894118 0.270588 0.247059
0.960784 0.321569 0.262745
0.000000 0.227451 0.180392
0.200000 0.356863 0.313725
0.145098 0.192157 0.137255
0.482353 0.380392 0.313725
0.635294 0.372549 0.298039
0.513725 0.117647 0.039216
0.858824 0.384314 0.278431
1.000000 0.478431 0.372549
1.000000 0.454902 0.325490
0.200000 0.541176 0.372549
0.149020 0.427451 0.270588
0.447059 0.588235 0.439216
0.611765 0.643137 0.498039
0.596078 0.529412 0.317647
0.741176 0.509804 0.290196
0.941176 0.584314 0.407843
0.831373 0.439216 0.243137
0.929412 0.474510 0.274510
0.352941 0.627451 0.431373
0.352941 0.572549 0.388235
0.333333 0.478431 0.305882
0.411765 0.509804 0.345098
0.513725 0.564706 0.356863
0.592157 0.533333 0.270588
0.796078 0.615686 0.313725
0.870588 0.572549 0.278431
0.996078 0.701961 0.439216
0.486275 0.698039 0.505882
0.494118 0.698039 0.505882
0.529412 0.701961 0.509804
0.611765 0.756863 0.556863
0.690196 0.796078 0.588235
0.737255 0.784314 0.541176
0.729412 0.678431 0.403922
0.945098 0.796078 0.462745
0.909804 0.666667 0.333333
0.615686 0.784314 0.615686
0.549020 0.729412 0.545098
0.576471 0.741176 0.560784
0.682353 0.811765 0.643137
0.749020 0.854902 0.678431
0.772549 0.862745 0.658824
0.800000 0.843137 0.615686
0.847059 0.835294 0.556863
0.972549 0.870588 0.576471
0.615686 0.800000 0.619608
0.623529 0.807843 0.627451
0.666667 0.835294 0.654902
0.760784 0.913725 0.741176
0.760784 0.890196 0.713725
0.603922 0.729412 0.537255
0.803922 0.913725 0.721569
0.862745 0.913725 0.694118
0.901961 0.886275 0.635294
0.756863 0.941176 0.768627
0.784314 0.949020 0.792157
0.792157 0.952941 0.788235
0.690196 0.854902 0.698039
0.945098 1.000000 0.898039
0.803922 0.945098 0.772549
0.917647 0.996078 0.850980
0.807843 0.894118 0.709804
0.976471 1.000000 0.843137
0.152941 0.113725 0.400000
0.000000 0.003922 0.176471
0.164706 0.000000 0.266667
0.588235 0.254902 0.517647
0.572549 0.180392 0.384314
0.701961 0.305882 0.423529
0.756863 0.317647 0.411765
0.862745 0.380392 0.450980
1.000000 0.600000 0.643137
0.003922 0.164706 0.376471
0.003922 0.000000 0.223529
0.317647 0.227451 0.447059
0.721569 0.490196 0.670588
0.831373 0.529412 0.662745
0.741176 0.415686 0.494118
0.674510 0.305882 0.360784
1.000000 0.635294 0.666667
0.996078 0.541176 0.552941
0.000000 0.368627 0.439216
0.196078 0.427451 0.498039
0.317647 0.403922 0.486275
0.564706 0.474510 0.537255
0.760784 0.568627 0.592157
0.705882 0.443137 0.470588
0.843137 0.509804 0.521569
0.843137 0.439216 0.443137
0.992157 0.635294 0.615686
0.000000 0.439216 0.392157
0.000000 0.364706 0.321569
0.247059 0.458824 0.407843
0.435294 0.482353 0.435294
0.894118 0.815686 0.772549
0.725490 0.541176 0.501961
0.800000 0.552941 0.486275
0.937255 0.611765 0.549020
0.878431 0.498039 0.423529
0.329412 0.682353 0.545098
0.078431 0.447059 0.313725
0.388235 0.588235 0.458824
0.498039 0.576471 0.470588
0.717647 0.709804 0.619608
0.839216 0.772549 0.654902
0.823529 0.650980 0.505882
0.972549 0.721569 0.580392
0.960784 0.647059 0.509804
0.592157 0.811765 0.658824
0.411765 0.607843 0.458824
0.580392 0.725490 0.596078
0.607843 0.670588 0.556863
0.521569 0.556863 0.443137
0.721569 0.745098 0.603922
0.839216 0.784314 0.607843
0.886275 0.745098 0.541176
0.996078 0.760784 0.549020
0.505882 0.678431 0.537255
0.666667 0.788235 0.654902
0.654902 0.752941 0.627451
0.780392 0.862745 0.733333
0.768627 0.835294 0.701961
0.776471 0.831373 0.694118
0.666667 0.701961 0.533333
0.654902 0.639216 0.450980
0.788235 0.694118 0.450980
0.701961 0.850980 0.705882
0.427451 0.576471 0.415686
0.619608 0.760784 0.611765
0.717647 0.843137 0.698039
0.729412 0.839216 0.682353
0.678431 0.780392 0.627451
0.717647 0.792157 0.615686
0.803922 0.843137 0.647059
0.874510 0.870588 0.647059
0.788235 0.952941 0.811765
0.882353 0.992157 0.894118
0.764706 0.913725 0.752941
0.721569 0.870588 0.717647
0.737255 0.870588 0.733333
0.749020 0.850980 0.713725
0.870588 0.980392 0.831373
0.800000 0.878431 0.733333
0.866667 0.913725 0.756863
0.141176 0.145098 0.600000
0.203922 0.125490 0.576471
0.349020 0.152941 0.603922
0.580392 0.282353 0.666667
0.698039 0.329412 0.619608
0.831373 0.462745 0.670588
0.827451 0.494118 0.615686
0.800000 0.474510 0.545098
0.901961 0.533333 0.588235
0.003922 0.180392 0.537255
0.003922 0.121569 0.474510
0.313725 0.258824 0.600000
0.576471 0.376471 0.670588
0.925490 0.647059 0.874510
0.964706 0.666667 0.815686
0.756863 0.486275 0.568627
0.878431 0.580392 0.631373
0.968627 0.623529 0.686275
0.000000 0.400000 0.592157
0.109804 0.407843 0.600000
0.290196 0.411765 0.596078
0.490196 0.423529 0.600000
0.529412 0.352941 0.482353
0.792157 0.560784 0.647059
0.917647 0.690196 0.737255
0.847059 0.592157 0.615686
0.980392 0.639216 0.670588
0.000000 0.505882 0.564706
0.003922 0.486275 0.556863
0.274510 0.521569 0.580392
0.352941 0.462745 0.509804
0.701961 0.639216 0.678431
0.905882 0.788235 0.796078
0.898039 0.749020 0.745098
0.898039 0.682353 0.694118
0.972549 0.698039 0.690196
0.129412 0.556863 0.533333
0.313725 0.639216 0.600000
0.552941 0.788235 0.756863
0.454902 0.572549 0.533333
0.635294 0.635294 0.603922
0.752941 0.686275 0.654902
0.862745 0.717647 0.682353
0.933333 0.729412 0.674510
0.976471 0.705882 0.643137
0.400000 0.690196 0.584314
0.364706 0.615686 0.521569
0.560784 0.756863 0.650980
0.627451 0.737255 0.647059
0.639216 0.666667 0.596078
0.725490 0.705882 0.631373
0.749020 0.705882 0.596078
0.913725 0.776471 0.658824
0.862745 0.643137 0.537255
0.560784 0.752941 0.635294
0.498039 0.674510 0.552941
0.764706 0.909804 0.788235
0.709804 0.800000 0.698039
0.796078 0.831373 0.749020
0.635294 0.666667 0.572549
0.756863 0.768627 0.654902
0.807843 0.784314 0.643137
0.917647 0.823529 0.650980
0.733333 0.894118 0.760784
0.588235 0.768627 0.627451
0.811765 0.949020 0.819608
0.572549 0.686275 0.576471
0.729412 0.807843 0.698039
0.827451 0.905882 0.796078
0.831373 0.898039 0.764706
0.972549 1.000000 0.850980
0.866667 0.854902 0.678431
0.745098 0.905882 0.780392
0.858824 0.996078 0.870588
0.666667 0.803922 0.686275
0.709804 0.854902 0.721569
0.796078 0.917647 0.796078
0.858824 0.960784 0.847059
0.815686 0.913725 0.796078
0.909804 0.976471 0.850980
0.874510 0.913725 0.776471
0.003922 0.090196 0.631373
0.000000 0.058824 0.596078
0.231373 0.113725 0.600000
0.505882 0.262745 0.698039
0.639216 0.313725 0.658824
0.843137 0.525490 0.756863
0.909804 0.607843 0.780392
0.925490 0.650980 0.760784
0.835294 0.552941 0.631373
0.003922 0.129412 0.572549
0.184314 0.290196 0.709804
0.427451 0.384314 0.796078
0.725490 0.549020 0.905882
0.600000 0.364706 0.647059
0.674510 0.427451 0.603922
0.803922 0.552941 0.690196
0.796078 0.545098 0.647059
1.000000 0.843137 0.905882
0.000000 0.341176 0.650980
0.000000 0.223529 0.498039
0.239216 0.349020 0.635294
0.478431 0.435294 0.694118
0.576471 0.407843 0.619608
0.792157 0.588235 0.729412
0.854902 0.635294 0.733333
0.854902 0.647059 0.717647
0.894118 0.666667 0.721569
0.003922 0.466667 0.623529
0.000000 0.521569 0.670588
0.180392 0.501961 0.658824
0.388235 0.486275 0.643137
0.776471 0.717647 0.831373
0.756863 0.643137 0.713725
0.807843 0.666667 0.713725
0.772549 0.615686 0.650980
0.984314 0.800000 0.823529
0.003922 0.552941 0.619608
0.223529 0.627451 0.686275
0.266667 0.572549 0.623529
0.486275 0.643137 0.690196
0.513725 0.552941 0.588235
0.733333 0.666667 0.690196
0.760784 0.654902 0.674510
0.815686 0.698039 0.690196
0.917647 0.721569 0.733333
0.458824 0.768627 0.745098
0.501961 0.780392 0.756863
0.270588 0.509804 0.482353
0.529412 0.666667 0.639216
0.713725 0.780392 0.749020
0.874510 0.862745 0.827451
0.807843 0.752941 0.717647
0.850980 0.721569 0.686275
0.952941 0.756863 0.721569
0.450980 0.690196 0.627451
0.533333 0.741176 0.678431
0.564706 0.756863 0.674510
0.580392 0.725490 0.654902
0.823529 0.913725 0.843137
0.882353 0.917647 0.850980
0.807843 0.800000 0.741176
0.839216 0.815686 0.713725
0.945098 0.823529 0.713725
0.596078 0.811765 0.698039
0.694118 0.890196 0.784314
0.733333 0.913725 0.803922
0.807843 0.960784 0.847059
0.803922 0.898039 0.803922
0.694118 0.764706 0.670588
0.878431 0.925490 0.839216
0.784314 0.807843 0.698039
0.705882 0.682353 0.541176
0.768627 0.960784 0.843137
0.654902 0.839216 0.713725
0.623529 0.800000 0.686275
0.725490 0.858824 0.752941
0.874510 0.992157 0.890196
0.839216 0.941176 0.835294
0.776471 0.847059 0.752941
0.776471 0.835294 0.745098
0.956863 0.992157 0.878431
0.113725 0.180392 0.737255
0.298039 0.266667 0.807843
0.223529 0.129412 0.662745
0.494118 0.278431 0.745098
0.713725 0.423529 0.796078
0.854902 0.549020 0.843137
0.901961 0.662745 0.835294
0.925490 0.682353 0.827451
0.972549 0.721569 0.827451
0.086275 0.270588 0.733333
0.349020 0.384314 0.843137
0.364706 0.309804 0.756863
0.447059 0.301961 0.705882
0.509804 0.294118 0.619608
0.752941 0.517647 0.752941
0.678431 0.462745 0.615686
0.870588 0.654902 0.780392
0.819608 0.603922 0.694118
0.305882 0.537255 0.905882
0.000000 0.266667 0.631373
0.247059 0.341176 0.694118
0.501961 0.443137 0.760784
0.705882 0.545098 0.803922
0.705882 0.517647 0.713725
0.905882 0.713725 0.831373
0.996078 0.788235 0.890196
0.952941 0.745098 0.815686
0.000000 0.392157 0.635294
0.254902 0.603922 0.862745
0.180392 0.447059 0.686275
0.392157 0.458824 0.678431
0.564706 0.521569 0.690196
0.745098 0.627451 0.760784
0.792157 0.658824 0.752941
0.894118 0.760784 0.815686
0.941176 0.768627 0.827451
0.000000 0.505882 0.647059
0.000000 0.564706 0.701961
0.047059 0.533333 0.682353
0.192157 0.458824 0.603922
0.603922 0.615686 0.745098
0.745098 0.670588 0.756863
0.698039 0.611765 0.658824
0.815686 0.709804 0.729412
0.847059 0.725490 0.745098
0.168627 0.627451 0.694118
0.415686 0.784314 0.831373
0.286275 0.611765 0.674510
0.321569 0.545098 0.588235
0.639216 0.745098 0.788235
0.658824 0.666667 0.713725
0.815686 0.752941 0.764706
0.776471 0.694118 0.690196
0.921569 0.811765 0.800000
0.431373 0.709804 0.678431
0.482353 0.741176 0.725490
0.541176 0.776471 0.745098
0.592157 0.788235 0.752941
0.584314 0.705882 0.682353
0.603922 0.662745 0.635294
0.984314 0.988235 0.964706
0.933333 0.898039 0.862745
0.996078 0.890196 0.854902
0.607843 0.874510 0.792157
0.392157 0.643137 0.576471
0.662745 0.886275 0.819608
0.650980 0.843137 0.768627
0.596078 0.749020 0.678431
0.772549 0.862745 0.792157
0.729412 0.756863 0.694118
0.870588 0.886275 0.819608
0.843137 0.815686 0.705882
0.639216 0.882353 0.792157
0.713725 0.933333 0.827451
0.803922 0.996078 0.909804
0.607843 0.796078 0.701961
0.705882 0.854902 0.772549
0.886275 0.996078 0.909804
0.745098 0.827451 0.752941
0.815686 0.870588 0.780392
0.882353 0.901961 0.815686
0.466667 0.411765 0.980392
0.219608 0.192157 0.749020
0.470588 0.337255 0.870588
0.588235 0.396078 0.858824
0.619608 0.380392 0.784314
1.000000 0.737255 1.000000
0.843137 0.611765 0.831373
1.000000 0.803922 0.949020
0.968627 0.749020 0.894118
0.337255 0.368627 0.866667
0.207843 0.239216 0.729412
0.317647 0.247059 0.709804
0.470588 0.317647 0.737255
0.780392 0.584314 0.933333
0.682353 0.458824 0.725490
0.823529 0.619608 0.811765
1.000000 0.866667 0.996078
0.996078 0.803922 0.917647
0.184314 0.372549 0.796078
0.164706 0.317647 0.729412
0.274510 0.309804 0.721569
0.600000 0.517647 0.874510
0.811765 0.650980 0.960784
0.615686 0.439216 0.670588
0.760784 0.576471 0.749020
0.980392 0.811765 0.929412
1.000000 0.827451 0.917647
0.000000 0.407843 0.741176
0.172549 0.478431 0.803922
0.200000 0.380392 0.682353
0.513725 0.529412 0.819608
0.760784 0.682353 0.929412
0.803922 0.678431 0.874510
0.878431 0.745098 0.882353
0.843137 0.709804 0.807843
0.886275 0.752941 0.819608
0.003922 0.639216 0.890196
0.003922 0.607843 0.858824
0.203922 0.619608 0.862745
0.266667 0.462745 0.694118
0.745098 0.733333 0.941176
0.858824 0.788235 0.945098
0.811765 0.709804 0.823529
0.952941 0.847059 0.913725
1.000000 0.913725 0.964706
0.149020 0.788235 0.925490
0.000000 0.658824 0.811765
0.301961 0.780392 0.933333
0.454902 0.788235 0.949020
0.450980 0.647059 0.792157
0.686275 0.690196 0.811765
0.670588 0.596078 0.674510
0.980392 0.913725 0.945098
1.000000 0.921569 0.956863
0.105882 0.603922 0.662745
0.376471 0.756863 0.823529
0.552941 0.901961 0.933333
0.533333 0.807843 0.854902
0.596078 0.784314 0.839216
0.721569 0.831373 0.886275
0.662745 0.678431 0.713725
0.870588 0.835294 0.854902
0.760784 0.713725 0.729412
0.423529 0.733333 0.709804
0.498039 0.800000 0.776471
0.564706 0.839216 0.807843
0.709804 0.941176 0.917647
0.552941 0.752941 0.725490
0.654902 0.784314 0.749020
0.650980 0.733333 0.713725
0.898039 0.909804 0.882353
0.992157 0.949020 0.925490
0.807843 1.000000 1.000000
0.788235 1.000000 0.984314
0.592157 0.850980 0.803922
0.662745 0.898039 0.850980
0.811765 1.000000 0.937255
0.713725 0.874510 0.819608
0.792157 0.878431 0.827451
0.905882 0.937255 0.894118
0.811765 0.819608 0.776471
0.337255 0.278431 0.784314
0.545098 0.443137 0.941176
0.635294 0.498039 0.960784
0.517647 0.352941 0.776471
0.796078 0.603922 0.960784
0.796078 0.600000 0.886275
0.988235 0.839216 0.984314
0.960784 0.792157 0.960784
0.925490 0.792157 0.898039
0.545098 0.501961 0.972549
0.466667 0.407843 0.874510
0.639216 0.533333 0.976471
0.745098 0.603922 0.988235
0.733333 0.568627 0.905882
0.729412 0.549020 0.831373
0.843137 0.674510 0.886275
0.835294 0.674510 0.831373
0.996078 0.956863 1.000000
0.400000 0.427451 0.847059
0.501961 0.494118 0.913725
0.760784 0.698039 0.992157
0.847059 0.729412 1.000000
0.788235 0.662745 0.960784
0.913725 0.760784 1.000000
0.749020 0.600000 0.792157
1.000000 0.850980 0.996078
0.933333 0.807843 0.898039
0.454902 0.592157 0.960784
0.509804 0.607843 0.972549
0.474510 0.517647 0.866667
0.600000 0.572549 0.878431
0.611765 0.529412 0.792157
0.831373 0.721569 0.949020
0.839216 0.709804 0.886275
1.000000 0.992157 0.996078
1.000000 1.000000 1.000000
0.000000 0.529412 0.850980
0.200000 0.588235 0.913725
0.247059 0.486275 0.800000
0.513725 0.592157 0.870588
0.721569 0.698039 0.949020
0.768627 0.690196 0.898039
0.823529 0.725490 0.882353
0.894118 0.792157 0.898039
0.933333 0.843137 0.913725
0.000000 0.568627 0.815686
0.000000 0.635294 0.878431
0.000000 0.560784 0.796078
0.247059 0.615686 0.858824
0.505882 0.619608 0.847059
0.674510 0.670588 0.843137
0.823529 0.784314 0.917647
0.972549 0.898039 0.984314
0.972549 0.921569 0.960784
0.356863 0.847059 0.972549
0.172549 0.717647 0.847059
0.415686 0.827451 0.952941
0.411765 0.772549 0.917647
0.556863 0.847059 1.000000
0.545098 0.709804 0.874510
0.819608 0.831373 0.952941
0.937255 0.905882 0.964706
0.933333 0.894118 0.925490
0.541176 0.894118 0.937255
0.325490 0.701961 0.764706
0.380392 0.721569 0.788235
0.572549 0.870588 0.933333
0.549020 0.807843 0.870588
0.662745 0.870588 0.933333
0.631373 0.768627 0.843137
0.529412 0.564706 0.631373
0.850980 0.815686 0.827451
0.580392 0.854902 0.847059
0.627451 0.898039 0.878431
0.756863 1.000000 0.996078
0.619608 0.854902 0.854902
0.733333 0.964706 0.956863
0.698039 0.858824 0.866667
0.756863 0.882353 0.878431
0.803922 0.882353 0.874510
1.000000 1.000000 1.000000
