other luts/Cinestill 50D 35mm 偏黄.cube
#Generated with IWLTBAP LUT Generator
#Website: http://luts.iwltbap.com
TITLE "Æ«»Æ"
#LUT size
LUT_3D_SIZE 5
#LUT data points
0.019608 0.019608 0.019608
0.168627 0.050980 0.011765
0.568627 0.023529 0.003922
0.882353 0.278431 0.074510
0.968627 0.435294 0.247059
0.274510 0.243137 0.000000
0.109804 0.258824 0.105882
0.698039 0.368627 0.023529
0.913725 0.435294 0.101961
1.000000 0.619608 0.325490
0.188235 0.458824 0.235294
0.286275 0.490196 0.337255
0.364706 0.486275 0.254902
0.819608 0.639216 0.160784
0.980392 0.698039 0.298039
0.262745 0.658824 0.345098
0.439216 0.705882 0.513725
0.435294 0.709804 0.462745
0.658824 0.792157 0.501961
0.760784 0.847059 0.592157
0.756863 0.850980 0.717647
0.784314 0.870588 0.788235
0.752941 0.831373 0.733333
0.839216 0.878431 0.780392
0.941176 0.937255 0.866667
0.000000 0.031373 0.043137
0.113725 0.090196 0.090196
0.576471 0.294118 0.239216
0.894118 0.411765 0.290196
0.952941 0.631373 0.301961
0.450980 0.294118 0.156863
0.270588 0.278431 0.235294
0.635294 0.380392 0.309804
0.847059 0.403922 0.286275
0.933333 0.545098 0.419608
0.262745 0.450980 0.262745
0.400000 0.517647 0.407843
0.450980 0.509804 0.341176
0.866667 0.670588 0.329412
0.980392 0.701961 0.450980
0.333333 0.623529 0.376471
0.494118 0.709804 0.545098
0.501961 0.713725 0.517647
0.658824 0.760784 0.521569
0.796078 0.854902 0.631373
0.815686 0.909804 0.784314
0.796078 0.839216 0.776471
0.835294 0.905882 0.803922
0.882353 0.909804 0.839216
0.984314 0.976471 0.917647
0.000000 0.192157 0.400000
0.266667 0.274510 0.462745
0.627451 0.388235 0.521569
0.858824 0.423529 0.549020
0.878431 0.600000 0.584314
0.501961 0.321569 0.423529
0.400000 0.368627 0.529412
0.694118 0.454902 0.576471
0.882353 0.509804 0.603922
0.960784 0.658824 0.698039
0.494118 0.486275 0.427451
0.533333 0.639216 0.603922
0.717647 0.650980 0.611765
0.909804 0.690196 0.631373
0.894118 0.690196 0.639216
0.584314 0.678431 0.545098
0.709804 0.819608 0.721569
0.701961 0.792157 0.682353
0.784314 0.815686 0.662745
0.819608 0.835294 0.705882
0.792157 0.823529 0.764706
0.886275 0.898039 0.854902
0.956863 0.972549 0.917647
0.917647 0.925490 0.870588
0.917647 0.921569 0.866667
0.266667 0.325490 0.698039
0.486275 0.435294 0.796078
0.709804 0.482353 0.772549
0.792157 0.529412 0.698039
0.976471 0.780392 0.878431
0.733333 0.509804 0.788235
0.607843 0.537255 0.827451
0.780392 0.592157 0.827451
0.937255 0.713725 0.850980
0.933333 0.741176 0.827451
0.643137 0.643137 0.752941
0.490196 0.607843 0.756863
0.725490 0.670588 0.772549
0.921569 0.803922 0.850980
0.921569 0.792157 0.819608
0.752941 0.815686 0.776471
0.639216 0.784314 0.756863
0.823529 0.890196 0.866667
0.905882 0.870588 0.843137
0.870588 0.819608 0.788235
0.952941 0.956863 0.933333
0.886275 0.913725 0.886275
0.870588 0.874510 0.850980
0.917647 0.905882 0.878431
0.956863 0.937255 0.913725
0.611765 0.584314 0.858824
0.666667 0.619608 0.870588
0.780392 0.694118 0.886275
0.905882 0.792157 0.901961
0.929412 0.847059 0.905882
0.815686 0.725490 0.937255
0.796078 0.745098 0.952941
0.780392 0.709804 0.866667
0.952941 0.858824 0.945098
0.925490 0.858824 0.890196
0.788235 0.768627 0.925490
0.741176 0.756863 0.894118
0.823529 0.800000 0.901961
0.886275 0.831373 0.890196
0.968627 0.917647 0.945098
0.796078 0.850980 0.901961
0.788235 0.878431 0.949020
0.729412 0.792157 0.854902
0.913725 0.894118 0.921569
0.909804 0.886275 0.894118
0.905882 0.929412 0.929412
0.870588 0.905882 0.901961
0.909804 0.925490 0.921569
0.933333 0.933333 0.925490
0.945098 0.929412 0.917647
