other luts/Cinestill 50D 35mm 偏绿.cube
#Generated with IWLTBAP LUT Generator
#Website: http://luts.iwltbap.com
TITLE "ф╚бл"
#LUT size
LUT_3D_SIZE 25
#LUT data points
0.101961 0.011765 0.043137
0.070588 0.011765 0.023529
0.000000 0.003922 0.000000
0.082353 0.019608 0.031373
0.098039 0.015686 0.050980
0.011765 0.000000 0.007843
0.258824 0.000000 0.109804
0.254902 0.000000 0.086275
0.137255 0.000000 0.015686
0.184314 0.000000 0.031373
0.137255 0.003922 0.000000
0.345098 0.000000 0.074510
0.356863 0.000000 0.058824
0.415686 0.003922 0.058824
0.501961 0.011765 0.082353
0.345098 0.000000 0.000000
0.411765 0.003922 0.007843
0.627451 0.000000 0.054902
0.580392 0.000000 0.003922
0.494118 0.000000 0.003922
0.705882 0.000000 0.011765
0.717647 0.003922 0.000000
0.835294 0.000000 0.015686
0.737255 0.000000 0.003922
0.827451 0.007843 0.000000
0.211765 0.035294 0.125490
0.129412 0.019608 0.074510
0.007843 0.000000 0.011765
0.000000 0.003922 0.000000
0.141176 0.035294 0.070588
0.050980 0.003922 0.011765
0.137255 0.015686 0.039216
0.180392 0.019608 0.043137
0.180392 0.003922 0.023529
0.113725 0.000000 0.000000
0.407843 0.129412 0.105882
0.223529 0.000000 0.000000
0.188235 0.000000 0.000000
0.521569 0.125490 0.094118
0.231373 0.000000 0.003922
0.388235 0.003922 0.000000
0.600000 0.000000 0.043137
0.498039 0.000000 0.000000
0.666667 0.000000 0.035294
0.560784 0.000000 0.007843
0.772549 0.003922 0.019608
0.929412 0.000000 0.078431
0.819608 0.000000 0.000000
0.996078 0.000000 0.039216
0.698039 0.000000 0.007843
0.211765 0.125490 0.137255
0.050980 0.015686 0.019608
0.003922 0.000000 0.000000
0.188235 0.074510 0.094118
0.113725 0.050980 0.050980
0.003922 0.003922 0.000000
0.086275 0.027451 0.015686
0.262745 0.160784 0.094118
0.156863 0.015686 0.015686
0.215686 0.047059 0.023529
0.145098 0.000000 0.003922
0.443137 0.184314 0.090196
0.388235 0.082353 0.031373
0.400000 0.015686 0.019608
0.556863 0.137255 0.058824
0.431373 0.000000 0.000000
0.576471 0.003922 0.015686
0.545098 0.000000 0.000000
0.494118 0.003922 0.000000
0.713725 0.000000 0.011765
0.741176 0.003922 0.000000
0.713725 0.000000 0.003922
0.698039 0.000000 0.007843
0.890196 0.000000 0.000000
0.921569 0.000000 0.000000
0.098039 0.137255 0.101961
0.000000 0.003922 0.000000
0.172549 0.184314 0.156863
0.000000 0.000000 0.007843
0.180392 0.168627 0.109804
0.098039 0.082353 0.035294
0.196078 0.172549 0.070588
0.172549 0.133333 0.035294
0.117647 0.047059 0.000000
0.321569 0.207843 0.082353
0.184314 0.039216 0.003922
0.254902 0.070588 0.000000
0.349020 0.113725 0.003922
0.454902 0.149020 0.007843
0.619608 0.243137 0.078431
0.529412 0.105882 0.000000
0.498039 0.000000 0.007843
0.321569 0.003922 0.000000
0.505882 0.000000 0.003922
0.639216 0.003922 0.000000
0.600000 0.003922 0.000000
0.823529 0.000000 0.011765
0.850980 0.000000 0.000000
0.690196 0.003922 0.000000
0.901961 0.000000 0.007843
0.000000 0.160784 0.066667
0.054902 0.262745 0.152941
0.000000 0.090196 0.000000
0.129412 0.239216 0.152941
0.035294 0.145098 0.058824
0.003922 0.058824 0.000000
0.003922 0.031373 0.000000
0.109804 0.156863 0.000000
0.317647 0.329412 0.113725
0.156863 0.145098 0.007843
0.560784 0.494118 0.282353
0.282353 0.168627 0.011765
0.411765 0.239216 0.000000
0.329412 0.109804 0.003922
0.380392 0.109804 0.000000
0.474510 0.125490 0.000000
0.556863 0.156863 0.000000
0.674510 0.215686 0.003922
0.745098 0.215686 0.000000
0.635294 0.000000 0.007843
0.807843 0.133333 0.000000
0.568627 0.000000 0.007843
0.996078 0.215686 0.000000
0.909804 0.000000 0.000000
0.992157 0.000000 0.007843
0.000000 0.168627 0.058824
0.003922 0.121569 0.011765
0.000000 0.231373 0.109804
0.007843 0.223529 0.098039
0.003922 0.090196 0.000000
0.000000 0.129412 0.007843
0.039216 0.164706 0.011765
0.188235 0.290196 0.113725
0.211765 0.278431 0.062745
0.223529 0.266667 0.000000
0.317647 0.301961 0.023529
0.345098 0.278431 0.000000
0.419608 0.294118 0.007843
0.203922 0.047059 0.000000
0.443137 0.211765 0.000000
0.572549 0.262745 0.003922
0.639216 0.266667 0.000000
0.592157 0.152941 0.003922
0.807843 0.298039 0.000000
0.521569 0.003922 0.000000
0.800000 0.160784 0.000000
0.721569 0.000000 0.000000
0.780392 0.003922 0.007843
0.815686 0.000000 0.000000
1.000000 0.145098 0.007843
0.007843 0.282353 0.086275
0.000000 0.203922 0.000000
0.000000 0.235294 0.023529
0.007843 0.109804 0.000000
0.000000 0.341176 0.172549
0.007843 0.270588 0.098039
0.000000 0.270588 0.058824
0.000000 0.223529 0.015686
0.007843 0.235294 0.000000
0.094118 0.254902 0.000000
0.133333 0.227451 0.000000
0.235294 0.274510 0.003922
0.341176 0.313725 0.000000
0.415686 0.329412 0.003922
0.584314 0.427451 0.000000
0.454902 0.243137 0.007843
0.454902 0.188235 0.003922
0.580392 0.247059 0.000000
0.607843 0.192157 0.003922
0.780392 0.301961 0.000000
0.701961 0.137255 0.000000
0.819608 0.203922 0.000000
0.921569 0.200000 0.003922
0.996078 0.262745 0.000000
0.972549 0.000000 0.000000
0.003922 0.341176 0.094118
0.000000 0.274510 0.000000
0.000000 0.243137 0.000000
0.000000 0.356863 0.113725
0.000000 0.309804 0.078431
0.003922 0.368627 0.160784
0.000000 0.470588 0.262745
0.000000 0.278431 0.019608
0.109804 0.419608 0.164706
0.231373 0.454902 0.145098
0.192157 0.360784 0.007843
0.458824 0.556863 0.160784
0.431373 0.466667 0.000000
0.384314 0.364706 0.000000
0.588235 0.494118 0.000000
0.529412 0.403922 0.000000
0.627451 0.431373 0.000000
0.866667 0.592157 0.113725
0.800000 0.470588 0.000000
0.564706 0.184314 0.007843
0.839216 0.384314 0.000000
0.996078 0.478431 0.000000
0.698039 0.043137 0.007843
1.000000 0.341176 0.000000
0.960784 0.192157 0.000000
0.000000 0.388235 0.082353
0.003922 0.403922 0.117647
0.000000 0.419608 0.125490
0.003922 0.360784 0.086275
0.003922 0.462745 0.196078
0.000000 0.415686 0.156863
0.000000 0.407843 0.176471
0.000000 0.470588 0.231373
0.003922 0.380392 0.098039
0.000000 0.388235 0.058824
0.105882 0.400000 0.003922
0.239216 0.419608 0.000000
0.266667 0.384314 0.000000
0.423529 0.486275 0.007843
0.662745 0.643137 0.078431
0.439216 0.392157 0.000000
0.392157 0.309804 0.000000
0.831373 0.643137 0.023529
0.764706 0.537255 0.003922
0.749020 0.447059 0.000000
0.878431 0.498039 0.000000
0.752941 0.337255 0.000000
0.949020 0.450980 0.007843
0.870588 0.298039 0.003922
0.996078 0.498039 0.000000
0.003922 0.509804 0.196078
0.000000 0.458824 0.149020
0.000000 0.560784 0.247059
0.000000 0.592157 0.313725
0.003922 0.631373 0.356863
0.000000 0.607843 0.329412
0.000000 0.529412 0.262745
0.000000 0.470588 0.227451
0.003922 0.313725 0.000000
0.074510 0.576471 0.286275
0.000000 0.454902 0.109804
0.223529 0.525490 0.125490
0.333333 0.533333 0.019608
0.576471 0.690196 0.223529
0.384314 0.450980 0.000000
0.498039 0.505882 0.007843
0.737255 0.694118 0.000000
0.729412 0.643137 0.003922
0.654902 0.521569 0.000000
0.909804 0.705882 0.000000
0.725490 0.470588 0.000000
0.909804 0.588235 0.007843
0.811765 0.443137 0.000000
1.000000 0.607843 0.000000
0.952941 0.454902 0.000000
0.000000 0.509804 0.172549
0.000000 0.556863 0.211765
0.003922 0.521569 0.196078
0.000000 0.478431 0.152941
0.000000 0.607843 0.290196
0.000000 0.454902 0.137255
0.003922 0.470588 0.156863
0.000000 0.521569 0.235294
0.000000 0.478431 0.192157
0.000000 0.447059 0.129412
0.000000 0.427451 0.054902
0.282353 0.631373 0.278431
0.168627 0.462745 0.000000
0.494118 0.666667 0.184314
0.501961 0.607843 0.000000
0.392157 0.462745 0.000000
0.694118 0.682353 0.003922
0.662745 0.607843 0.000000
0.780392 0.654902 0.015686
0.870588 0.717647 0.000000
0.870588 0.647059 0.000000
0.862745 0.588235 0.000000
0.988235 0.643137 0.007843
0.996078 0.639216 0.000000
1.000000 0.627451 0.011765
0.000000 0.592157 0.250980
0.000000 0.717647 0.388235
0.000000 0.713725 0.388235
0.007843 0.654902 0.345098
0.000000 0.552941 0.254902
0.000000 0.772549 0.462745
0.003922 0.635294 0.329412
0.000000 0.713725 0.415686
0.000000 0.513725 0.215686
0.133333 0.760784 0.478431
0.003922 0.584314 0.278431
0.294118 0.725490 0.388235
0.274510 0.643137 0.262745
0.129412 0.443137 0.007843
0.411765 0.611765 0.058824
0.580392 0.694118 0.129412
0.658824 0.717647 0.125490
0.682353 0.666667 0.000000
0.701961 0.647059 0.000000
1.000000 0.882353 0.152941
0.894118 0.721569 0.000000
0.968627 0.760784 0.007843
0.866667 0.615686 0.000000
0.870588 0.572549 0.003922
1.000000 0.647059 0.007843
0.000000 0.729412 0.411765
0.000000 0.854902 0.525490
0.000000 0.760784 0.419608
0.000000 0.729412 0.411765
0.000000 0.803922 0.509804
0.007843 0.678431 0.372549
0.007843 0.647059 0.329412
0.000000 0.643137 0.345098
0.000000 0.639216 0.341176
0.000000 0.482353 0.200000
0.003922 0.635294 0.337255
0.000000 0.643137 0.321569
0.247059 0.690196 0.345098
0.329412 0.705882 0.313725
0.396078 0.650980 0.243137
0.537255 0.725490 0.254902
0.705882 0.803922 0.294118
0.600000 0.643137 0.000000
0.843137 0.823529 0.227451
0.843137 0.772549 0.000000
0.839216 0.721569 0.000000
0.992157 1.000000 0.337255
0.874510 0.698039 0.000000
0.901961 0.678431 0.000000
0.992157 0.831373 0.141176
0.000000 0.803922 0.490196
0.007843 0.803922 0.486275
0.000000 0.772549 0.458824
0.003922 0.898039 0.588235
0.003922 0.756863 0.454902
0.000000 0.874510 0.560784
0.000000 0.749020 0.439216
0.000000 0.694118 0.388235
0.000000 0.811765 0.505882
0.000000 0.772549 0.494118
0.000000 0.525490 0.254902
0.247059 0.827451 0.537255
0.188235 0.717647 0.415686
0.223529 0.666667 0.313725
0.482353 0.807843 0.447059
0.537255 0.792157 0.400000
0.556863 0.717647 0.254902
0.639216 0.729412 0.203922
0.733333 0.760784 0.211765
0.811765 0.796078 0.211765
0.894118 0.827451 0.180392
1.000000 0.956863 0.250980
0.929412 0.776471 0.000000
1.000000 0.815686 0.180392
0.866667 0.666667 0.000000
0.000000 0.741176 0.435294
0.011765 0.905882 0.611765
0.000000 0.886275 0.588235
0.000000 0.764706 0.482353
0.000000 0.874510 0.596078
0.003922 0.792157 0.494118
0.000000 0.760784 0.474510
0.011765 0.694118 0.411765
0.000000 0.819608 0.517647
0.011765 0.596078 0.329412
0.000000 0.784314 0.517647
0.000000 0.721569 0.454902
0.000000 0.611765 0.321569
0.215686 0.709804 0.419608
0.521569 0.894118 0.572549
0.486275 0.796078 0.447059
0.537255 0.760784 0.388235
0.666667 0.811765 0.400000
0.733333 0.807843 0.345098
0.760784 0.796078 0.298039
0.960784 0.933333 0.415686
0.780392 0.725490 0.000000
0.968627 0.870588 0.160784
1.000000 0.874510 0.235294
1.000000 0.870588 0.325490
0.011765 0.819608 0.529412
0.000000 0.929412 0.623529
0.000000 0.854902 0.564706
0.003922 0.772549 0.482353
0.000000 0.898039 0.603922
0.000000 0.800000 0.513725
0.000000 0.890196 0.588235
0.003922 0.827451 0.533333
0.000000 0.749020 0.462745
0.003922 0.831373 0.552941
0.007843 0.768627 0.494118
0.098039 0.819608 0.545098
0.313725 0.878431 0.603922
0.278431 0.792157 0.486275
0.392157 0.811765 0.498039
0.482353 0.827451 0.486275
0.584314 0.847059 0.482353
0.517647 0.717647 0.321569
0.580392 0.690196 0.258824
0.913725 0.949020 0.498039
1.000000 1.000000 0.556863
0.811765 0.764706 0.231373
0.960784 0.886275 0.333333
1.000000 0.890196 0.290196
1.000000 0.894118 0.349020
0.000000 0.984314 0.690196
0.000000 0.807843 0.525490
0.011765 0.909804 0.639216
0.000000 0.984314 0.713725
0.003922 1.000000 0.745098
0.000000 0.772549 0.501961
0.000000 0.874510 0.611765
0.003922 0.913725 0.627451
0.000000 0.921569 0.650980
0.000000 0.890196 0.619608
0.066667 0.870588 0.600000
0.007843 0.725490 0.466667
0.329412 0.905882 0.631373
0.247059 0.776471 0.513725
0.486275 0.905882 0.631373
0.478431 0.843137 0.529412
0.450980 0.752941 0.431373
0.670588 0.894118 0.576471
0.662745 0.831373 0.478431
0.941176 0.996078 0.650980
0.913725 0.945098 0.541176
0.882353 0.866667 0.447059
0.894118 0.858824 0.400000
0.988235 0.929412 0.439216
0.996078 1.000000 0.482353
0.003922 0.788235 0.541176
0.000000 0.956863 0.686275
0.003922 0.901961 0.647059
0.007843 0.850980 0.588235
0.000000 0.894118 0.639216
0.301961 1.000000 0.811765
0.003922 0.901961 0.639216
0.003922 0.776471 0.505882
0.000000 0.870588 0.615686
0.337255 1.000000 0.745098
0.290196 0.937255 0.678431
0.000000 0.760784 0.525490
0.235294 0.815686 0.572549
0.396078 0.874510 0.643137
0.321569 0.772549 0.509804
0.435294 0.807843 0.541176
0.560784 0.874510 0.588235
0.552941 0.803922 0.505882
0.725490 0.933333 0.619608
0.956863 1.000000 0.741176
0.909804 0.988235 0.639216
0.878431 0.898039 0.529412
0.894118 0.870588 0.486275
0.780392 0.745098 0.333333
1.000000 0.956863 0.501961
0.000000 0.968627 0.717647
0.235294 1.000000 0.772549
0.000000 0.796078 0.549020
0.000000 0.843137 0.611765
0.282353 0.980392 0.745098
0.341176 0.996078 0.776471
0.219608 0.941176 0.690196
0.309804 0.984314 0.749020
0.560784 1.000000 0.843137
0.400000 0.980392 0.745098
0.384314 0.941176 0.713725
0.490196 1.000000 0.764706
0.533333 0.996078 0.760784
0.450980 0.898039 0.666667
0.541176 0.929412 0.705882
0.568627 0.921569 0.678431
0.435294 0.752941 0.494118
0.945098 0.996078 0.878431
0.701961 0.901961 0.631373
0.737255 0.894118 0.615686
0.854902 0.972549 0.682353
0.839216 0.894118 0.584314
0.941176 0.972549 0.635294
0.996078 1.000000 0.772549
0.945098 0.905882 0.533333
0.423529 1.000000 0.807843
0.180392 0.854902 0.627451
0.380392 0.964706 0.737255
0.345098 0.921569 0.705882
0.407843 0.945098 0.733333
0.290196 0.874510 0.654902
0.384314 0.941176 0.721569
0.356863 0.898039 0.666667
0.568627 1.000000 0.827451
0.462745 0.941176 0.741176
0.415686 0.894118 0.670588
0.521569 0.941176 0.721569
0.568627 0.972549 0.764706
0.556863 0.925490 0.729412
0.647059 0.988235 0.780392
0.529412 0.839216 0.623529
0.827451 1.000000 0.858824
0.682353 0.913725 0.686275
0.984314 1.000000 0.901961
0.752941 0.925490 0.678431
0.815686 0.937255 0.701961
0.847059 0.945098 0.686275
0.976471 1.000000 0.749020
0.933333 0.949020 0.658824
1.000000 1.000000 0.768627
0.537255 1.000000 0.796078
0.321569 0.843137 0.635294
0.498039 0.976471 0.752941
0.368627 0.866667 0.650980
0.329412 0.847059 0.623529
0.647059 1.000000 0.862745
0.439216 0.925490 0.690196
0.580392 1.000000 0.819608
0.227451 0.745098 0.521569
0.517647 0.952941 0.745098
0.486275 0.909804 0.682353
0.650980 1.000000 0.819608
0.552941 0.917647 0.709804
0.525490 0.886275 0.686275
0.784314 1.000000 0.878431
0.600000 0.901961 0.698039
0.639216 0.913725 0.701961
0.870588 0.992157 0.858824
0.992157 1.000000 0.921569
0.768627 0.945098 0.721569
0.827451 0.968627 0.725490
0.858824 0.952941 0.717647
0.909804 0.984314 0.733333
0.941176 0.960784 0.701961
1.000000 0.996078 0.745098
0.517647 0.917647 0.721569
0.635294 1.000000 0.823529
0.380392 0.796078 0.603922
0.549020 0.933333 0.741176
0.501961 0.886275 0.686275
0.631373 1.000000 0.803922
0.443137 0.831373 0.647059
0.533333 0.894118 0.701961
0.643137 0.996078 0.796078
0.639216 0.984314 0.788235
0.729412 0.996078 0.850980
0.650980 0.980392 0.776471
0.588235 0.882353 0.713725
0.670588 0.960784 0.768627
0.584314 0.874510 0.674510
0.690196 0.949020 0.768627
0.733333 0.956863 0.780392
0.945098 1.000000 0.909804
0.780392 0.960784 0.768627
0.780392 0.937255 0.741176
0.831373 0.964706 0.764706
0.792157 0.905882 0.678431
0.882353 0.964706 0.745098
1.000000 0.996078 0.835294
1.000000 1.000000 0.913725
0.623529 0.949020 0.768627
0.556863 0.905882 0.694118
0.615686 0.937255 0.745098
0.662745 0.972549 0.788235
0.568627 0.909804 0.709804
0.607843 0.937255 0.741176
0.694118 0.992157 0.811765
0.611765 0.921569 0.737255
0.686275 0.972549 0.792157
0.717647 0.988235 0.811765
0.643137 0.925490 0.737255
0.639216 0.921569 0.725490
0.835294 0.996078 0.870588
0.803922 1.000000 0.862745
0.745098 0.968627 0.792157
0.780392 1.000000 0.823529
0.686275 0.890196 0.698039
0.756863 0.937255 0.756863
0.831373 0.984314 0.811765
0.709804 0.901961 0.686275
0.749020 0.917647 0.705882
0.709804 0.886275 0.654902
0.913725 0.988235 0.807843
0.831373 0.937255 0.721569
0.941176 0.980392 0.776471
0.890196 1.000000 0.925490
0.827451 0.996078 0.886275
0.909804 1.000000 0.929412
0.666667 0.964706 0.780392
0.996078 1.000000 0.984314
0.701961 0.968627 0.784314
0.737255 0.976471 0.811765
0.945098 1.000000 0.933333
0.623529 0.941176 0.709804
0.682353 0.949020 0.749020
0.752941 0.976471 0.807843
0.607843 0.917647 0.694118
0.674510 0.945098 0.729412
0.745098 0.964706 0.772549
0.964706 0.992157 0.929412
0.768627 0.972549 0.792157
0.862745 0.996078 0.866667
0.788235 0.964706 0.796078
0.909804 1.000000 0.878431
0.815686 0.964706 0.772549
0.949020 1.000000 0.890196
1.000000 1.000000 1.000000
0.898039 0.984314 0.803922
0.952941 0.984314 0.839216
1.000000 1.000000 0.941176
0.792157 0.992157 0.831373
0.913725 1.000000 0.933333
0.584314 0.956863 0.690196
0.788235 0.996078 0.823529
0.733333 0.984314 0.788235
0.996078 0.996078 0.996078
0.819608 0.992157 0.850980
0.741176 0.984314 0.800000
0.992157 1.000000 0.956863
0.827451 0.992157 0.843137
0.741176 0.984314 0.784314
0.811765 0.988235 0.835294
0.752941 0.972549 0.788235
0.690196 0.972549 0.725490
0.850980 0.992157 0.850980
0.733333 0.968627 0.768627
0.901961 1.000000 0.874510
0.996078 1.000000 0.952941
1.000000 0.992157 0.956863
0.866667 0.984314 0.835294
0.854902 0.996078 0.823529
0.949020 0.992157 0.874510
0.996078 1.000000 0.945098
0.890196 0.988235 0.823529
0.937255 0.992157 0.850980
0.129412 0.027451 0.070588
0.058824 0.015686 0.039216
0.113725 0.019608 0.070588
0.023529 0.000000 0.007843
0.200000 0.007843 0.094118
0.231373 0.007843 0.074510
0.156863 0.011765 0.043137
0.098039 0.000000 0.011765
0.160784 0.000000 0.015686
0.043137 0.003922 0.000000
0.258824 0.003922 0.035294
0.227451 0.000000 0.000000
0.266667 0.000000 0.000000
0.388235 0.000000 0.011765
0.458824 0.000000 0.031373
0.682353 0.164706 0.105882
0.588235 0.003922 0.027451
0.643137 0.000000 0.023529
0.505882 0.003922 0.000000
0.623529 0.000000 0.000000
0.698039 0.000000 0.000000
0.725490 0.000000 0.000000
0.803922 0.007843 0.000000
0.882353 0.003922 0.007843
0.952941 0.000000 0.000000
0.200000 0.050980 0.141176
0.000000 0.000000 0.000000
0.109804 0.031373 0.074510
0.000000 0.000000 0.000000
0.094118 0.031373 0.043137
0.101961 0.023529 0.031373
0.141176 0.047059 0.031373
0.278431 0.164706 0.101961
0.301961 0.137255 0.082353
0.309804 0.129412 0.070588
0.117647 0.000000 0.007843
0.341176 0.054902 0.031373
0.443137 0.125490 0.058824
0.317647 0.000000 0.000000
0.482353 0.000000 0.019608
0.478431 0.000000 0.000000
0.596078 0.000000 0.003922
0.403922 0.000000 0.011765
0.643137 0.000000 0.003922
0.752941 0.000000 0.000000
0.631373 0.007843 0.000000
0.521569 0.000000 0.003922
0.890196 0.000000 0.000000
0.764706 0.003922 0.000000
0.839216 0.000000 0.000000
0.043137 0.023529 0.039216
0.011765 0.019608 0.015686
0.074510 0.050980 0.058824
0.094118 0.050980 0.066667
0.141176 0.105882 0.086275
0.062745 0.019608 0.011765
0.223529 0.164706 0.090196
0.031373 0.000000 0.000000
0.094118 0.011765 0.007843
0.192157 0.058824 0.011765
0.231373 0.070588 0.000000
0.266667 0.031373 0.000000
0.278431 0.000000 0.000000
0.576471 0.231373 0.090196
0.435294 0.003922 0.007843
0.407843 0.000000 0.000000
0.666667 0.125490 0.015686
0.654902 0.019608 0.007843
0.654902 0.003922 0.003922
0.717647 0.000000 0.000000
0.745098 0.000000 0.000000
0.807843 0.000000 0.000000
0.741176 0.003922 0.000000
0.909804 0.000000 0.000000
1.000000 0.027451 0.090196
0.000000 0.003922 0.000000
0.011765 0.066667 0.007843
0.003922 0.000000 0.000000
0.054902 0.094118 0.062745
0.086275 0.105882 0.078431
0.203922 0.231373 0.168627
0.074510 0.070588 0.000000
0.129412 0.125490 0.007843
0.290196 0.239216 0.101961
0.364706 0.282353 0.105882
0.239216 0.137255 0.000000
0.345098 0.180392 0.000000
0.207843 0.000000 0.000000
0.364706 0.086275 0.000000
0.584314 0.231373 0.023529
0.513725 0.105882 0.000000
0.611765 0.129412 0.000000
0.713725 0.180392 0.000000
0.545098 0.003922 0.000000
0.925490 0.278431 0.058824
0.776471 0.000000 0.000000
0.615686 0.000000 0.000000
0.890196 0.000000 0.000000
0.921569 0.003922 0.000000
0.976471 0.000000 0.003922
0.000000 0.262745 0.149020
0.000000 0.101961 0.000000
0.160784 0.388235 0.290196
0.000000 0.164706 0.078431
0.000000 0.152941 0.078431
0.003922 0.070588 0.000000
0.062745 0.156863 0.015686
0.019608 0.098039 0.000000
0.219608 0.262745 0.043137
0.258824 0.262745 0.003922
0.356863 0.325490 0.043137
0.411765 0.325490 0.039216
0.219608 0.082353 0.007843
0.462745 0.250980 0.000000
0.552941 0.266667 0.000000
0.623529 0.286275 0.000000
0.584314 0.188235 0.007843
0.807843 0.333333 0.007843
0.568627 0.000000 0.000000
0.858824 0.278431 0.003922
0.811765 0.145098 0.003922
0.909804 0.156863 0.003922
0.780392 0.003922 0.000000
1.000000 0.011765 0.000000
0.937255 0.003922 0.003922
0.000000 0.203922 0.062745
0.003922 0.356863 0.219608
0.007843 0.200000 0.074510
0.003922 0.188235 0.054902
0.000000 0.129412 0.015686
0.007843 0.203922 0.090196
0.007843 0.180392 0.039216
0.023529 0.168627 0.007843
0.235294 0.305882 0.101961
0.149020 0.203922 0.003922
0.309804 0.313725 0.039216
0.211765 0.180392 0.000000
0.403922 0.305882 0.000000
0.576471 0.411765 0.090196
0.478431 0.243137 0.000000
0.517647 0.223529 0.000000
0.666667 0.305882 0.003922
0.635294 0.223529 0.000000
0.854902 0.360784 0.031373
0.752941 0.188235 0.000000
0.607843 0.003922 0.003922
0.819608 0.031373 0.003922
0.768627 0.000000 0.007843
0.937255 0.000000 0.000000
0.992157 0.003922 0.000000
0.003922 0.294118 0.086275
0.000000 0.286275 0.078431
0.003922 0.352941 0.164706
0.000000 0.231373 0.031373
0.000000 0.325490 0.133333
0.003922 0.231373 0.074510
0.000000 0.254902 0.066667
0.019608 0.329412 0.113725
0.003922 0.168627 0.011765
0.309804 0.443137 0.141176
0.000000 0.113725 0.000000
0.309804 0.325490 0.000000
0.396078 0.372549 0.000000
0.603922 0.517647 0.090196
0.419608 0.286275 0.003922
0.733333 0.513725 0.078431
0.537255 0.286275 0.000000
0.627451 0.301961 0.003922
0.717647 0.313725 0.003922
0.745098 0.290196 0.000000
0.890196 0.321569 0.003922
0.890196 0.258824 0.000000
0.843137 0.137255 0.000000
1.000000 0.270588 0.007843
1.000000 0.164706 0.000000
0.000000 0.478431 0.223529
0.007843 0.556863 0.317647
0.000000 0.231373 0.003922
0.011765 0.286275 0.043137
0.000000 0.450980 0.243137
0.000000 0.435294 0.215686
0.000000 0.337255 0.145098
0.000000 0.388235 0.168627
0.101961 0.431373 0.188235
0.200000 0.450980 0.160784
0.301961 0.462745 0.086275
0.360784 0.466667 0.062745
0.490196 0.521569 0.094118
0.356863 0.352941 0.000000
0.545098 0.470588 0.000000
0.521569 0.400000 0.000000
0.635294 0.458824 0.000000
0.666667 0.423529 0.000000
0.611765 0.309804 0.003922
0.925490 0.533333 0.000000
1.000000 0.552941 0.000000
0.972549 0.447059 0.011765
0.886275 0.290196 0.003922
0.992157 0.435294 0.000000
1.000000 0.313725 0.015686
0.000000 0.458824 0.168627
0.000000 0.388235 0.105882
0.000000 0.588235 0.317647
0.000000 0.643137 0.384314
0.011765 0.309804 0.054902
0.003922 0.435294 0.188235
0.000000 0.443137 0.207843
0.000000 0.364706 0.141176
0.003922 0.419608 0.160784
0.145098 0.529412 0.227451
0.215686 0.486275 0.172549
0.305882 0.494118 0.066667
0.470588 0.580392 0.145098
0.443137 0.501961 0.003922
0.286275 0.301961 0.000000
0.686275 0.623529 0.003922
0.686275 0.584314 0.000000
0.639216 0.486275 0.000000
0.839216 0.607843 0.003922
0.882353 0.596078 0.000000
0.788235 0.435294 0.003922
0.882353 0.474510 0.000000
0.996078 0.537255 0.000000
0.847059 0.301961 0.000000
1.000000 0.635294 0.000000
0.007843 0.505882 0.203922
0.003922 0.694118 0.407843
0.000000 0.552941 0.254902
0.003922 0.400000 0.101961
0.000000 0.580392 0.313725
0.000000 0.619608 0.360784
0.000000 0.466667 0.207843
0.000000 0.407843 0.156863
0.023529 0.654902 0.392157
0.000000 0.490196 0.203922
0.078431 0.521569 0.200000
0.235294 0.525490 0.192157
0.321569 0.537255 0.078431
0.596078 0.713725 0.266667
0.525490 0.596078 0.023529
0.639216 0.654902 0.070588
0.698039 0.647059 0.000000
0.776471 0.686275 0.003922
0.623529 0.501961 0.003922
0.898039 0.698039 0.000000
0.831373 0.592157 0.000000
0.988235 0.674510 0.003922
0.858824 0.490196 0.003922
0.854902 0.439216 0.000000
1.000000 0.513725 0.011765
0.000000 0.623529 0.301961
0.000000 0.494118 0.168627
0.000000 0.517647 0.200000
0.000000 0.800000 0.498039
0.000000 0.568627 0.282353
0.003922 0.623529 0.321569
0.000000 0.525490 0.247059
0.000000 0.694118 0.419608
0.003922 0.576471 0.321569
