other luts/Cinestill 400D 35mm 偏黄.cube
#Generated with IWLTBAP LUT Generator
#Website: http://luts.iwltbap.com
TITLE "Æ«»Æ"
#LUT size
LUT_3D_SIZE 5
#LUT data points
0.000000 0.003922 0.000000
0.196078 0.000000 0.000000
0.560784 0.003922 0.000000
0.890196 0.180392 0.000000
0.996078 0.047059 0.000000
0.596078 0.298039 0.003922
0.258824 0.223529 0.007843
0.588235 0.274510 0.000000
0.890196 0.349020 0.003922
0.996078 0.262745 0.000000
0.435294 0.466667 0.000000
0.337255 0.584314 0.074510
0.494118 0.498039 0.000000
0.898039 0.631373 0.007843
1.000000 0.450980 0.000000
0.450980 0.764706 0.149020
0.000000 0.647059 0.003922
0.513725 0.784314 0.192157
0.666667 0.686275 0.090196
1.000000 0.737255 0.000000
0.545098 0.996078 0.482353
0.556863 1.000000 0.529412
0.607843 1.000000 0.474510
0.819608 0.976471 0.529412
0.952941 0.921569 0.533333
0.407843 0.007843 0.400000
0.333333 0.000000 0.164706
0.733333 0.192157 0.294118
0.807843 0.149020 0.215686
0.996078 0.352941 0.349020
0.580392 0.305882 0.274510
0.309804 0.282353 0.219608
0.631373 0.352941 0.235294
0.819608 0.313725 0.188235
1.000000 0.360784 0.243137
0.466667 0.513725 0.223529
0.298039 0.564706 0.239216
0.572549 0.572549 0.290196
0.705882 0.470588 0.000000
0.960784 0.450980 0.066667
0.392157 0.713725 0.227451
0.439216 0.921569 0.435294
0.337255 0.619608 0.094118
0.772549 0.811765 0.368627
0.968627 0.721569 0.176471
0.615686 1.000000 0.588235
0.498039 1.000000 0.533333
0.580392 0.960784 0.505882
0.878431 0.996078 0.619608
0.882353 0.862745 0.501961
0.666667 0.129412 0.776471
0.576471 0.003922 0.572549
0.819608 0.321569 0.592157
0.850980 0.168627 0.360784
1.000000 0.337255 0.466667
0.603922 0.282353 0.462745
0.494118 0.380392 0.600000
0.580392 0.313725 0.411765
0.839216 0.372549 0.447059
1.000000 0.466667 0.545098
0.474510 0.533333 0.458824
0.321569 0.564706 0.482353
0.568627 0.564706 0.486275
0.831373 0.576471 0.466667
0.996078 0.568627 0.486275
0.384314 0.752941 0.454902
0.349020 0.807843 0.498039
0.607843 0.854902 0.580392
0.800000 0.827451 0.560784
0.976471 0.733333 0.439216
0.423529 0.890196 0.521569
0.482353 0.984314 0.611765
0.678431 1.000000 0.682353
0.921569 1.000000 0.741176
0.980392 0.964706 0.678431
0.572549 0.003922 0.792157
0.874510 0.227451 0.976471
0.992157 0.309804 0.901961
0.913725 0.388235 0.658824
0.992157 0.431373 0.603922
0.682353 0.266667 0.760784
0.690196 0.427451 0.882353
0.823529 0.392157 0.780392
0.858824 0.494118 0.666667
0.929412 0.384314 0.505882
0.388235 0.505882 0.709804
0.301961 0.588235 0.756863
0.603922 0.537255 0.701961
0.866667 0.701961 0.756863
0.992157 0.752941 0.784314
0.427451 0.831373 0.756863
0.321569 0.776471 0.694118
0.701961 0.917647 0.835294
0.721569 0.756863 0.690196
0.945098 0.752941 0.698039
0.580392 0.945098 0.768627
0.643137 1.000000 0.819608
0.631373 0.894118 0.733333
0.745098 0.882353 0.725490
0.972549 0.949020 0.823529
0.803922 0.250980 0.996078
0.745098 0.137255 0.929412
0.823529 0.200000 0.847059
1.000000 0.623529 0.941176
1.000000 0.760784 0.921569
0.768627 0.360784 0.905882
0.792157 0.474510 1.000000
0.823529 0.450980 0.905882
0.996078 0.721569 0.968627
0.933333 0.647059 0.764706
0.572549 0.513725 0.831373
0.694118 0.709804 0.996078
0.698039 0.592157 0.854902
0.984314 0.811765 0.949020
0.917647 0.776471 0.823529
0.278431 0.764706 0.913725
0.282353 0.807843 0.952941
0.407843 0.694118 0.831373
0.890196 0.886275 0.941176
0.854902 0.819608 0.839216
0.564706 1.000000 0.972549
0.584314 0.996078 0.968627
0.788235 1.000000 1.000000
0.850980 0.949020 0.925490
0.898039 0.917647 0.901961
