other luts/Cinestill 50D 35mm 偏黄.cube
#Generated with IWLTBAP LUT Generator
#Website: http://luts.iwltbap.com
TITLE "Æ«»Æ"
#LUT size
LUT_3D_SIZE 25
#LUT data points
0.019608 0.019608 0.019608
0.043137 0.050980 0.031373
0.015686 0.019608 0.000000
0.082353 0.070588 0.043137
0.015686 0.000000 0.000000
0.223529 0.129412 0.027451
0.168627 0.050980 0.011765
0.298039 0.098039 0.015686
0.407843 0.133333 0.035294
0.400000 0.054902 0.000000
0.498039 0.098039 0.011765
0.482353 0.000000 0.000000
0.568627 0.023529 0.003922
0.650980 0.074510 0.000000
0.760784 0.172549 0.074510
0.752941 0.145098 0.023529
0.827451 0.215686 0.066667
0.925490 0.301961 0.145098
0.882353 0.278431 0.074510
0.929412 0.309804 0.125490
1.000000 0.384314 0.184314
0.984314 0.368627 0.160784
1.000000 0.400000 0.176471
1.000000 0.505882 0.309804
0.968627 0.435294 0.247059
0.196078 0.058824 0.043137
0.003922 0.011765 0.000000
0.031373 0.039216 0.027451
0.031373 0.027451 0.011765
0.090196 0.066667 0.019608
0.145098 0.078431 0.000000
0.192157 0.082353 0.000000
0.294118 0.125490 0.000000
0.325490 0.090196 0.000000
0.443137 0.152941 0.015686
0.486275 0.121569 0.000000
0.509804 0.074510 0.000000
0.631373 0.156863 0.035294
0.662745 0.152941 0.019608
0.823529 0.278431 0.149020
0.733333 0.149020 0.000000
0.796078 0.203922 0.035294
0.941176 0.349020 0.180392
0.807843 0.196078 0.003922
1.000000 0.427451 0.243137
1.000000 0.384314 0.184314
0.952941 0.337255 0.129412
1.000000 0.439216 0.219608
0.996078 0.462745 0.266667
0.992157 0.494118 0.286275
0.078431 0.054902 0.007843
0.007843 0.015686 0.003922
0.043137 0.086275 0.031373
0.019608 0.023529 0.003922
0.035294 0.047059 0.011765
0.101961 0.082353 0.000000
0.235294 0.141176 0.000000
0.258824 0.121569 0.003922
0.309804 0.117647 0.000000
0.384314 0.137255 0.007843
0.439216 0.141176 0.000000
0.568627 0.211765 0.035294
0.564706 0.137255 0.007843
0.627451 0.168627 0.000000
0.705882 0.203922 0.019608
0.780392 0.239216 0.047059
0.894118 0.341176 0.164706
0.901961 0.325490 0.121569
0.909804 0.321569 0.113725
0.949020 0.360784 0.152941
0.972549 0.380392 0.156863
0.992157 0.388235 0.176471
1.000000 0.466667 0.231373
1.000000 0.521569 0.321569
1.000000 0.525490 0.317647
0.188235 0.074510 0.003922
0.000000 0.019608 0.000000
0.023529 0.078431 0.019608
0.003922 0.050980 0.003922
0.066667 0.109804 0.047059
0.086275 0.121569 0.047059
0.070588 0.078431 0.000000
0.247059 0.180392 0.000000
0.352941 0.200000 0.000000
0.392157 0.164706 0.015686
0.411765 0.137255 0.000000
0.501961 0.180392 0.000000
0.576471 0.200000 0.000000
0.607843 0.184314 0.000000
0.666667 0.203922 0.007843
0.792157 0.294118 0.078431
0.792157 0.270588 0.007843
0.878431 0.325490 0.105882
0.921569 0.372549 0.141176
0.937255 0.380392 0.137255
0.964706 0.384314 0.133333
1.000000 0.450980 0.219608
1.000000 0.466667 0.211765
1.000000 0.478431 0.254902
0.964706 0.494118 0.247059
0.121569 0.121569 0.011765
0.031373 0.117647 0.066667
0.000000 0.090196 0.015686
0.007843 0.062745 0.000000
0.011765 0.137255 0.043137
0.000000 0.023529 0.000000
0.145098 0.196078 0.078431
0.129412 0.156863 0.000000
0.341176 0.294118 0.003922
0.329412 0.200000 0.000000
0.517647 0.298039 0.003922
0.494118 0.215686 0.003922
0.584314 0.270588 0.000000
0.596078 0.223529 0.000000
0.733333 0.313725 0.039216
0.729412 0.270588 0.007843
0.835294 0.352941 0.086275
0.839216 0.337255 0.043137
0.890196 0.360784 0.094118
0.968627 0.423529 0.160784
0.909804 0.368627 0.082353
0.996078 0.466667 0.215686
1.000000 0.470588 0.211765
1.000000 0.470588 0.219608
1.000000 0.541176 0.298039
0.000000 0.172549 0.082353
0.000000 0.121569 0.031373
0.011765 0.188235 0.098039
0.015686 0.168627 0.094118
0.082353 0.243137 0.117647
0.003922 0.133333 0.011765
0.145098 0.223529 0.078431
0.266667 0.250980 0.000000
0.360784 0.250980 0.000000
0.443137 0.254902 0.003922
0.537255 0.266667 0.000000
0.654902 0.341176 0.062745
0.643137 0.286275 0.000000
0.764706 0.352941 0.086275
0.792157 0.352941 0.062745
0.800000 0.360784 0.039216
0.886275 0.407843 0.113725
0.866667 0.388235 0.062745
0.913725 0.411765 0.070588
0.929412 0.423529 0.094118
1.000000 0.517647 0.203922
1.000000 0.486275 0.164706
0.996078 0.517647 0.215686
1.000000 0.513725 0.250980
1.000000 0.525490 0.262745
0.274510 0.243137 0.000000
0.023529 0.231373 0.129412
0.054902 0.235294 0.133333
0.000000 0.188235 0.062745
0.070588 0.274510 0.133333
0.027451 0.231373 0.082353
0.109804 0.258824 0.105882
0.113725 0.203922 0.023529
0.333333 0.341176 0.082353
0.411765 0.333333 0.000000
0.482353 0.294118 0.003922
0.658824 0.384314 0.039216
0.698039 0.368627 0.023529
0.725490 0.360784 0.000000
0.694118 0.301961 0.007843
0.819608 0.403922 0.066667
0.854902 0.407843 0.058824
0.941176 0.466667 0.156863
0.913725 0.435294 0.101961
0.890196 0.411765 0.023529
1.000000 0.505882 0.176471
1.000000 0.541176 0.227451
0.996078 0.529412 0.215686
0.996078 0.560784 0.282353
1.000000 0.619608 0.325490
0.043137 0.192157 0.007843
0.000000 0.235294 0.125490
0.007843 0.231373 0.101961
0.058824 0.282353 0.156863
0.027451 0.286275 0.145098
0.019608 0.254902 0.105882
0.066667 0.266667 0.105882
0.125490 0.278431 0.101961
0.262745 0.356863 0.168627
0.329412 0.349020 0.090196
0.435294 0.356863 0.007843
0.545098 0.392157 0.000000
0.611765 0.376471 0.000000
0.721569 0.411765 0.000000
0.756863 0.407843 0.000000
0.847059 0.454902 0.086275
0.784314 0.396078 0.000000
0.886275 0.454902 0.070588
0.980392 0.529412 0.172549
0.909804 0.458824 0.039216
0.972549 0.498039 0.133333
0.988235 0.505882 0.141176
1.000000 0.568627 0.250980
1.000000 0.533333 0.219608
1.000000 0.592157 0.286275
0.243137 0.305882 0.027451
0.086275 0.325490 0.192157
0.015686 0.270588 0.145098
0.180392 0.396078 0.270588
0.058824 0.298039 0.164706
0.003922 0.270588 0.117647
0.133333 0.356863 0.196078
0.164706 0.349020 0.176471
0.203922 0.352941 0.168627
0.254902 0.360784 0.160784
0.396078 0.423529 0.156863
0.501961 0.435294 0.090196
0.643137 0.498039 0.141176
0.721569 0.505882 0.109804
0.721569 0.443137 0.000000
0.800000 0.466667 0.007843
0.890196 0.525490 0.109804
0.882353 0.501961 0.058824
0.941176 0.525490 0.133333
0.972549 0.549020 0.152941
1.000000 0.572549 0.211765
0.976471 0.521569 0.133333
0.992157 0.541176 0.184314
1.000000 0.556863 0.231373
0.996078 0.635294 0.294118
0.137255 0.345098 0.133333
0.019608 0.282353 0.145098
0.082353 0.317647 0.184314
0.129412 0.349020 0.211765
0.192157 0.419608 0.262745
0.133333 0.360784 0.211765
0.117647 0.356863 0.196078
0.196078 0.396078 0.235294
0.196078 0.376471 0.192157
0.215686 0.349020 0.152941
0.298039 0.380392 0.160784
0.427451 0.478431 0.207843
0.549020 0.501961 0.180392
0.627451 0.517647 0.129412
0.713725 0.529412 0.113725
0.850980 0.600000 0.168627
0.800000 0.498039 0.000000
0.949020 0.592157 0.172549
0.898039 0.529412 0.082353
0.960784 0.576471 0.156863
0.964706 0.545098 0.137255
1.000000 0.584314 0.200000
1.000000 0.588235 0.211765
1.000000 0.560784 0.192157
1.000000 0.627451 0.298039
0.180392 0.403922 0.274510
0.137255 0.368627 0.243137
0.141176 0.376471 0.235294
0.215686 0.439216 0.301961
0.172549 0.400000 0.250980
0.239216 0.439216 0.309804
0.219608 0.435294 0.278431
0.211765 0.435294 0.258824
0.211765 0.423529 0.231373
0.286275 0.454902 0.247059
0.345098 0.462745 0.266667
0.321569 0.388235 0.176471
0.498039 0.509804 0.231373
0.541176 0.494118 0.156863
0.686275 0.572549 0.180392
0.694118 0.521569 0.047059
0.800000 0.576471 0.125490
0.870588 0.600000 0.141176
0.909804 0.576471 0.109804
0.941176 0.592157 0.129412
0.968627 0.627451 0.176471
0.988235 0.611765 0.180392
1.000000 0.654902 0.223529
0.992157 0.580392 0.160784
0.996078 0.733333 0.376471
0.219608 0.392157 0.160784
0.211765 0.450980 0.290196
0.152941 0.403922 0.258824
0.192157 0.419608 0.258824
0.219608 0.439216 0.294118
0.227451 0.431373 0.282353
0.262745 0.466667 0.317647
0.223529 0.443137 0.258824
0.105882 0.337255 0.156863
0.266667 0.474510 0.270588
0.313725 0.482353 0.274510
0.298039 0.415686 0.203922
0.400000 0.478431 0.247059
0.521569 0.568627 0.286275
0.611765 0.564706 0.227451
0.701961 0.596078 0.184314
0.725490 0.580392 0.121569
0.827451 0.619608 0.164706
0.878431 0.611765 0.129412
0.968627 0.658824 0.192157
0.952941 0.607843 0.121569
0.968627 0.615686 0.176471
1.000000 0.682353 0.231373
1.000000 0.635294 0.180392
0.996078 0.749020 0.345098
0.188235 0.458824 0.235294
0.172549 0.427451 0.258824
0.223529 0.474510 0.329412
0.231373 0.450980 0.298039
0.227451 0.466667 0.294118
0.270588 0.486275 0.329412
0.286275 0.490196 0.337255
0.231373 0.450980 0.266667
0.203922 0.431373 0.235294
0.258824 0.482353 0.266667
0.317647 0.501961 0.298039
0.372549 0.533333 0.313725
0.364706 0.486275 0.254902
0.517647 0.588235 0.352941
0.462745 0.486275 0.203922
0.600000 0.572549 0.227451
0.705882 0.631373 0.227451
0.768627 0.627451 0.180392
0.819608 0.639216 0.160784
0.937255 0.705882 0.243137
0.976471 0.725490 0.243137
1.000000 0.721569 0.258824
1.000000 0.674510 0.164706
1.000000 0.686275 0.262745
0.980392 0.698039 0.298039
0.270588 0.470588 0.239216
0.278431 0.505882 0.349020
0.274510 0.529412 0.360784
0.172549 0.411765 0.250980
0.262745 0.494118 0.313725
0.325490 0.541176 0.384314
0.278431 0.494118 0.329412
0.262745 0.478431 0.313725
0.282353 0.509804 0.313725
0.305882 0.529412 0.321569
0.298039 0.513725 0.298039
0.294118 0.490196 0.258824
0.423529 0.552941 0.329412
0.392157 0.509804 0.274510
0.466667 0.541176 0.282353
0.552941 0.576471 0.286275
0.623529 0.607843 0.266667
0.749020 0.682353 0.274510
0.792157 0.674510 0.203922
0.913725 0.737255 0.270588
0.882353 0.666667 0.160784
0.996078 0.741176 0.247059
0.996078 0.729412 0.231373
0.968627 0.666667 0.149020
0.929412 0.800000 0.396078
0.247059 0.541176 0.309804
0.250980 0.517647 0.356863
0.305882 0.568627 0.396078
0.317647 0.572549 0.403922
0.254902 0.494118 0.329412
0.352941 0.580392 0.419608
0.266667 0.513725 0.345098
0.313725 0.541176 0.352941
0.266667 0.501961 0.301961
0.270588 0.525490 0.305882
0.337255 0.572549 0.329412
0.333333 0.545098 0.301961
0.352941 0.545098 0.290196
0.388235 0.545098 0.298039
0.470588 0.592157 0.329412
0.474510 0.556863 0.286275
0.556863 0.600000 0.301961
0.643137 0.654902 0.305882
0.749020 0.701961 0.309804
0.815686 0.717647 0.262745
0.894118 0.768627 0.294118
0.913725 0.749020 0.278431
0.921569 0.721569 0.231373
0.988235 0.737255 0.254902
1.000000 0.788235 0.360784
0.341176 0.611765 0.427451
0.309804 0.592157 0.403922
0.368627 0.631373 0.462745
0.317647 0.580392 0.407843
0.321569 0.584314 0.411765
0.333333 0.607843 0.411765
0.250980 0.509804 0.329412
0.337255 0.576471 0.403922
0.337255 0.580392 0.388235
0.298039 0.533333 0.333333
0.309804 0.564706 0.337255
0.364706 0.619608 0.392157
0.364706 0.596078 0.345098
0.435294 0.643137 0.376471
0.388235 0.564706 0.301961
0.513725 0.639216 0.376471
0.486275 0.596078 0.305882
0.662745 0.725490 0.439216
0.619608 0.647059 0.333333
0.729412 0.725490 0.360784
0.839216 0.784314 0.372549
0.858824 0.768627 0.321569
0.992157 0.854902 0.392157
0.968627 0.784314 0.337255
0.921569 0.843137 0.462745
0.141176 0.521569 0.219608
0.341176 0.670588 0.466667
0.341176 0.623529 0.443137
0.345098 0.627451 0.439216
0.352941 0.611765 0.431373
0.290196 0.572549 0.384314
0.407843 0.670588 0.470588
0.360784 0.619608 0.439216
0.396078 0.639216 0.447059
0.349020 0.592157 0.400000
0.384314 0.650980 0.427451
0.431373 0.701961 0.454902
0.352941 0.607843 0.349020
0.407843 0.639216 0.388235
0.415686 0.623529 0.349020
0.466667 0.635294 0.356863
0.521569 0.666667 0.392157
0.596078 0.701961 0.423529
0.631373 0.686275 0.384314
0.749020 0.764706 0.423529
0.733333 0.721569 0.349020
0.870588 0.803922 0.396078
0.901961 0.815686 0.376471
0.964706 0.835294 0.384314
0.737255 0.780392 0.482353
0.203922 0.619608 0.337255
0.388235 0.698039 0.509804
0.403922 0.705882 0.494118
0.372549 0.674510 0.462745
0.341176 0.623529 0.435294
0.447059 0.717647 0.505882
0.392157 0.662745 0.478431
0.349020 0.623529 0.427451
0.400000 0.662745 0.462745
0.419608 0.682353 0.474510
0.372549 0.650980 0.431373
0.337255 0.627451 0.380392
0.349020 0.631373 0.372549
0.345098 0.603922 0.352941
0.450980 0.690196 0.415686
0.486275 0.690196 0.407843
0.545098 0.713725 0.431373
0.572549 0.713725 0.439216
0.635294 0.756863 0.458824
0.568627 0.650980 0.349020
0.729412 0.780392 0.470588
0.780392 0.792157 0.435294
0.792157 0.760784 0.372549
0.956863 0.882353 0.478431
0.807843 0.823529 0.521569
0.262745 0.658824 0.345098
0.427451 0.764706 0.572549
0.396078 0.698039 0.494118
0.392157 0.674510 0.494118
0.431373 0.705882 0.509804
0.431373 0.717647 0.509804
0.439216 0.705882 0.513725
0.403922 0.690196 0.482353
0.415686 0.682353 0.482353
0.407843 0.658824 0.454902
0.447059 0.717647 0.494118
0.419608 0.686275 0.462745
0.435294 0.709804 0.462745
0.443137 0.721569 0.454902
0.470588 0.725490 0.458824
0.407843 0.643137 0.368627
0.521569 0.725490 0.443137
0.549020 0.709804 0.435294
0.658824 0.792157 0.501961
0.623529 0.733333 0.443137
0.619608 0.709804 0.388235
0.792157 0.835294 0.525490
0.796078 0.815686 0.454902
0.937255 0.898039 0.525490
0.760784 0.847059 0.592157
0.278431 0.674510 0.407843
0.439216 0.737255 0.545098
0.411765 0.698039 0.490196
0.490196 0.780392 0.580392
0.454902 0.713725 0.533333
0.411765 0.698039 0.490196
0.439216 0.709804 0.498039
0.552941 0.815686 0.615686
0.427451 0.686275 0.498039
0.443137 0.709804 0.517647
0.490196 0.745098 0.525490
0.435294 0.709804 0.474510
0.588235 0.843137 0.623529
0.427451 0.705882 0.447059
0.505882 0.768627 0.498039
0.525490 0.760784 0.486275
0.545098 0.760784 0.494118
0.588235 0.784314 0.513725
0.592157 0.756863 0.466667
0.619608 0.768627 0.474510
0.658824 0.768627 0.478431
0.717647 0.803922 0.509804
0.796078 0.850980 0.549020
0.874510 0.890196 0.588235
0.870588 0.858824 0.556863
0.647059 0.796078 0.643137
0.627451 0.768627 0.627451
0.623529 0.768627 0.635294
0.623529 0.756863 0.619608
0.623529 0.772549 0.627451
0.643137 0.780392 0.650980
0.600000 0.749020 0.603922
0.619608 0.741176 0.615686
0.654902 0.792157 0.635294
0.643137 0.784314 0.635294
0.615686 0.764706 0.603922
0.580392 0.725490 0.552941
0.607843 0.749020 0.560784
0.678431 0.803922 0.611765
0.619608 0.729412 0.541176
0.690196 0.784314 0.588235
0.705882 0.784314 0.584314
0.709804 0.764706 0.564706
0.815686 0.847059 0.647059
0.749020 0.784314 0.560784
0.886275 0.890196 0.666667
0.827451 0.807843 0.556863
0.874510 0.803922 0.545098
0.898039 0.803922 0.560784
0.905882 0.878431 0.674510
0.619608 0.768627 0.568627
0.650980 0.788235 0.658824
0.600000 0.741176 0.600000
0.647059 0.780392 0.643137
0.737255 0.874510 0.745098
0.596078 0.729412 0.584314
0.568627 0.701961 0.572549
0.647059 0.788235 0.639216
0.690196 0.811765 0.686275
0.654902 0.792157 0.635294
0.588235 0.713725 0.568627
0.745098 0.870588 0.709804
0.533333 0.678431 0.509804
0.752941 0.878431 0.694118
0.701961 0.807843 0.639216
0.768627 0.858824 0.686275
0.690196 0.776471 0.596078
0.768627 0.831373 0.639216
0.776471 0.827451 0.647059
0.835294 0.862745 0.690196
0.831373 0.858824 0.658824
0.854902 0.854902 0.650980
0.909804 0.870588 0.662745
0.929412 0.850980 0.619608
0.854902 0.862745 0.709804
0.705882 0.827451 0.662745
0.686275 0.815686 0.694118
0.635294 0.768627 0.639216
0.674510 0.796078 0.662745
0.682353 0.800000 0.690196
0.721569 0.843137 0.721569
0.674510 0.792157 0.658824
0.717647 0.839216 0.713725
0.670588 0.792157 0.666667
0.662745 0.784314 0.650980
0.745098 0.862745 0.729412
0.717647 0.835294 0.701961
0.756863 0.878431 0.717647
0.701961 0.823529 0.658824
0.701961 0.811765 0.650980
0.725490 0.811765 0.662745
0.792157 0.878431 0.729412
0.725490 0.792157 0.619608
0.811765 0.870588 0.709804
0.862745 0.909804 0.752941
0.831373 0.862745 0.701961
0.882353 0.901961 0.745098
0.866667 0.870588 0.713725
0.941176 0.913725 0.733333
0.850980 0.866667 0.729412
0.713725 0.835294 0.662745
0.803922 0.901961 0.784314
0.756863 0.850980 0.749020
0.803922 0.925490 0.803922
0.733333 0.823529 0.713725
0.733333 0.835294 0.729412
0.694118 0.807843 0.698039
0.784314 0.882353 0.768627
0.752941 0.854902 0.749020
0.796078 0.909804 0.800000
0.776471 0.874510 0.756863
0.733333 0.831373 0.713725
0.749020 0.847059 0.721569
0.733333 0.831373 0.705882
0.843137 0.937255 0.796078
0.811765 0.894118 0.764706
0.819608 0.898039 0.760784
0.788235 0.847059 0.725490
0.847059 0.890196 0.756863
0.862745 0.898039 0.776471
0.843137 0.870588 0.749020
0.843137 0.866667 0.756863
0.913725 0.925490 0.803922
0.976471 0.952941 0.819608
0.827451 0.862745 0.756863
0.756863 0.850980 0.717647
0.847059 0.905882 0.815686
0.850980 0.925490 0.847059
0.788235 0.858824 0.772549
0.800000 0.870588 0.784314
0.850980 0.921569 0.819608
0.784314 0.870588 0.788235
0.819608 0.890196 0.803922
0.811765 0.882353 0.796078
0.807843 0.882353 0.796078
0.788235 0.858824 0.756863
0.850980 0.917647 0.843137
0.752941 0.831373 0.733333
0.815686 0.890196 0.780392
0.792157 0.862745 0.760784
0.854902 0.917647 0.815686
0.858824 0.913725 0.811765
0.823529 0.874510 0.772549
0.839216 0.878431 0.780392
0.858824 0.894118 0.811765
0.921569 0.933333 0.866667
0.909804 0.921569 0.839216
0.839216 0.843137 0.772549
0.972549 0.980392 0.898039
0.941176 0.937255 0.866667
0.019608 0.019608 0.019608
0.007843 0.031373 0.023529
0.027451 0.054902 0.023529
0.019608 0.113725 0.058824
0.000000 0.007843 0.000000
0.027451 0.054902 0.027451
0.015686 0.098039 0.031373
0.007843 0.062745 0.011765
0.043137 0.094118 0.015686
0.152941 0.176471 0.003922
0.274510 0.254902 0.000000
0.360784 0.266667 0.000000
0.462745 0.290196 0.003922
0.505882 0.250980 0.000000
0.588235 0.274510 0.003922
0.701961 0.352941 0.000000
0.749020 0.352941 0.007843
0.807843 0.376471 0.000000
0.733333 0.286275 0.000000
0.972549 0.494118 0.003922
0.898039 0.423529 0.011765
0.996078 0.486275 0.000000
0.988235 0.529412 0.117647
1.000000 0.576471 0.219608
0.894118 0.576471 0.011765
0.035294 0.047059 0.019608
0.003922 0.050980 0.011765
0.019608 0.082353 0.043137
0.015686 0.066667 0.031373
0.007843 0.047059 0.015686
0.015686 0.121569 0.062745
0.027451 0.164706 0.078431
0.039216 0.152941 0.043137
0.000000 0.078431 0.000000
0.090196 0.156863 0.023529
0.145098 0.200000 0.000000
0.250980 0.247059 0.000000
0.388235 0.313725 0.003922
0.501961 0.341176 0.000000
0.537255 0.305882 0.007843
0.678431 0.360784 0.003922
0.713725 0.372549 0.000000
0.745098 0.349020 0.003922
0.866667 0.435294 0.000000
0.874510 0.423529 0.003922
0.933333 0.447059 0.000000
0.996078 0.513725 0.003922
0.968627 0.494118 0.000000
1.000000 0.568627 0.086275
0.890196 0.658824 0.109804
0.000000 0.015686 0.011765
0.003922 0.137255 0.082353
0.007843 0.062745 0.011765
0.003922 0.137255 0.082353
0.000000 0.156863 0.094118
0.000000 0.105882 0.031373
0.003922 0.156863 0.074510
0.000000 0.129412 0.011765
0.019608 0.156863 0.031373
0.000000 0.152941 0.007843
0.047059 0.176471 0.000000
0.137255 0.219608 0.000000
0.301961 0.321569 0.000000
0.384314 0.325490 0.000000
0.505882 0.368627 0.000000
0.643137 0.415686 0.000000
0.654902 0.368627 0.000000
0.819608 0.462745 0.011765
0.788235 0.411765 0.000000
0.800000 0.415686 0.000000
0.929412 0.509804 0.000000
0.913725 0.462745 0.000000
0.996078 0.521569 0.000000
0.984314 0.494118 0.000000
0.839216 0.662745 0.023529
0.000000 0.070588 0.015686
0.007843 0.164706 0.062745
0.003922 0.133333 0.066667
0.000000 0.074510 0.007843
0.000000 0.149020 0.050980
0.000000 0.164706 0.054902
0.007843 0.176471 0.070588
0.000000 0.152941 0.031373
0.003922 0.152941 0.000000
0.000000 0.192157 0.003922
0.003922 0.235294 0.015686
0.090196 0.254902 0.000000
0.188235 0.294118 0.015686
0.266667 0.309804 0.003922
0.337255 0.309804 0.000000
0.525490 0.431373 0.000000
0.576471 0.388235 0.003922
0.725490 0.466667 0.000000
0.827451 0.509804 0.000000
0.823529 0.447059 0.003922
0.929412 0.529412 0.003922
0.941176 0.517647 0.000000
0.988235 0.545098 0.003922
1.000000 0.537255 0.003922
0.764706 0.639216 0.007843
0.000000 0.152941 0.058824
0.000000 0.192157 0.062745
0.003922 0.121569 0.011765
0.000000 0.243137 0.121569
0.003922 0.196078 0.078431
0.000000 0.219608 0.070588
0.007843 0.203922 0.066667
0.000000 0.239216 0.086275
0.003922 0.145098 0.000000
0.000000 0.313725 0.094118
0.003922 0.254902 0.015686
0.007843 0.250980 0.003922
0.145098 0.345098 0.074510
0.047059 0.223529 0.007843
0.266667 0.356863 0.000000
0.466667 0.454902 0.011765
0.486275 0.419608 0.003922
0.580392 0.431373 0.011765
0.800000 0.572549 0.011765
0.784314 0.498039 0.000000
0.956863 0.600000 0.000000
0.925490 0.541176 0.003922
1.000000 0.592157 0.000000
0.980392 0.545098 0.000000
1.000000 0.615686 0.003922
0.003922 0.129412 0.070588
0.121569 0.258824 0.172549
0.000000 0.145098 0.054902
0.066667 0.196078 0.129412
0.031373 0.180392 0.090196
0.141176 0.239216 0.125490
0.125490 0.184314 0.054902
0.325490 0.321569 0.109804
0.364706 0.266667 0.003922
0.435294 0.258824 0.000000
0.470588 0.227451 0.000000
0.525490 0.254902 0.000000
0.709804 0.376471 0.160784
0.647059 0.266667 0.000000
0.721569 0.305882 0.070588
0.764706 0.329412 0.058824
0.811765 0.352941 0.090196
0.909804 0.431373 0.184314
0.933333 0.447059 0.196078
0.890196 0.411765 0.125490
0.956863 0.454902 0.176471
1.000000 0.501961 0.243137
1.000000 0.486275 0.243137
1.000000 0.541176 0.290196
0.945098 0.474510 0.239216
0.325490 0.294118 0.007843
0.078431 0.227451 0.145098
0.121569 0.274510 0.192157
0.066667 0.239216 0.133333
0.003922 0.196078 0.082353
0.047059 0.219608 0.090196
0.133333 0.250980 0.101961
0.223529 0.290196 0.156863
0.294118 0.298039 0.070588
0.454902 0.388235 0.113725
0.486275 0.321569 0.023529
0.584314 0.337255 0.023529
0.717647 0.415686 0.141176
0.666667 0.325490 0.015686
0.741176 0.376471 0.074510
0.776471 0.376471 0.082353
0.803922 0.372549 0.062745
0.854902 0.423529 0.113725
0.941176 0.466667 0.188235
0.909804 0.439216 0.141176
1.000000 0.525490 0.254902
0.996078 0.509804 0.219608
1.000000 0.498039 0.211765
1.000000 0.529412 0.294118
1.000000 0.580392 0.325490
0.066667 0.215686 0.031373
0.172549 0.341176 0.231373
0.070588 0.270588 0.149020
0.078431 0.258824 0.149020
0.141176 0.317647 0.196078
0.141176 0.317647 0.188235
0.019608 0.207843 0.058824
0.149020 0.286275 0.121569
0.207843 0.278431 0.121569
0.368627 0.380392 0.164706
0.454902 0.392157 0.086275
0.556863 0.415686 0.109804
0.658824 0.454902 0.125490
0.647059 0.376471 0.011765
0.760784 0.447059 0.113725
0.768627 0.403922 0.031373
0.847059 0.470588 0.133333
0.807843 0.400000 0.019608
0.901961 0.466667 0.145098
1.000000 0.564706 0.254902
1.000000 0.552941 0.227451
0.992157 0.525490 0.196078
1.000000 0.564706 0.286275
1.000000 0.564706 0.329412
0.956863 0.521569 0.301961
0.266667 0.349020 0.086275
0.145098 0.301961 0.200000
0.121569 0.321569 0.192157
0.152941 0.321569 0.215686
0.156863 0.349020 0.223529
0.129412 0.321569 0.196078
0.113725 0.309804 0.164706
0.231373 0.396078 0.247059
0.207843 0.337255 0.168627
0.262745 0.337255 0.156863
0.372549 0.392157 0.164706
0.521569 0.474510 0.176471
0.603922 0.486275 0.149020
0.615686 0.431373 0.023529
0.741176 0.482353 0.101961
0.847059 0.533333 0.160784
0.831373 0.490196 0.109804
0.898039 0.525490 0.164706
0.882353 0.478431 0.105882
0.913725 0.494118 0.125490
1.000000 0.572549 0.231373
1.000000 0.592157 0.262745
1.000000 0.568627 0.227451
0.992157 0.596078 0.329412
1.000000 0.682353 0.415686
0.113725 0.305882 0.129412
0.250980 0.427451 0.305882
0.129412 0.329412 0.200000
0.090196 0.290196 0.160784
0.176471 0.360784 0.235294
0.215686 0.403922 0.254902
0.172549 0.368627 0.219608
0.176471 0.364706 0.215686
0.219608 0.388235 0.211765
0.305882 0.423529 0.219608
0.325490 0.400000 0.219608
0.360784 0.407843 0.164706
0.505882 0.482353 0.192157
0.639216 0.541176 0.180392
0.713725 0.549020 0.156863
0.772549 0.556863 0.152941
0.858824 0.572549 0.160784
0.870588 0.541176 0.101961
0.905882 0.549020 0.137255
0.968627 0.584314 0.188235
0.964706 0.545098 0.168627
0.972549 0.552941 0.184314
1.000000 0.592157 0.239216
1.000000 0.584314 0.247059
0.992157 0.603922 0.278431
0.227451 0.454902 0.305882
0.152941 0.372549 0.235294
0.180392 0.392157 0.258824
0.250980 0.447059 0.301961
0.231373 0.415686 0.282353
0.196078 0.380392 0.247059
0.231373 0.419608 0.254902
0.184314 0.384314 0.215686
0.286275 0.466667 0.286275
