other luts/Cinestill 400D 35mm 偏绿.cube
#Generated with IWLTBAP LUT Generator
#Website: http://luts.iwltbap.com
TITLE "ф╚бл"
#LUT size
LUT_3D_SIZE 25
#LUT data points
0.000000 0.003922 0.000000
0.031373 0.007843 0.015686
0.066667 0.011765 0.011765
0.000000 0.000000 0.007843
0.129412 0.011765 0.003922
0.266667 0.031373 0.039216
0.058824 0.000000 0.000000
0.164706 0.000000 0.007843
0.341176 0.035294 0.019608
0.156863 0.000000 0.000000
0.415686 0.003922 0.031373
0.427451 0.000000 0.007843
0.470588 0.000000 0.007843
0.525490 0.000000 0.003922
0.466667 0.003922 0.003922
0.470588 0.000000 0.003922
0.592157 0.003922 0.000000
0.686275 0.000000 0.003922
0.733333 0.003922 0.007843
0.756863 0.000000 0.000000
0.882353 0.050980 0.003922
0.882353 0.003922 0.003922
0.882353 0.000000 0.000000
0.835294 0.003922 0.000000
0.996078 0.074510 0.000000
0.337255 0.000000 0.027451
0.011765 0.050980 0.019608
0.149020 0.050980 0.023529
0.207843 0.074510 0.035294
0.149020 0.035294 0.011765
0.231373 0.047059 0.015686
0.196078 0.000000 0.011765
0.211765 0.000000 0.000000
0.282353 0.000000 0.015686
0.290196 0.000000 0.000000
0.349020 0.000000 0.000000
0.474510 0.000000 0.019608
0.458824 0.000000 0.000000
0.505882 0.000000 0.000000
0.600000 0.000000 0.007843
0.564706 0.000000 0.000000
0.545098 0.003922 0.000000
0.643137 0.000000 0.000000
0.686275 0.000000 0.000000
0.796078 0.003922 0.000000
0.870588 0.031373 0.000000
0.819608 0.000000 0.007843
0.839216 0.000000 0.000000
0.909804 0.000000 0.000000
0.976471 0.000000 0.000000
0.196078 0.000000 0.000000
0.000000 0.133333 0.027451
0.007843 0.000000 0.011765
0.000000 0.000000 0.000000
0.180392 0.098039 0.031373
0.239216 0.090196 0.015686
0.270588 0.086275 0.015686
0.180392 0.003922 0.000000
0.286275 0.000000 0.007843
0.278431 0.000000 0.000000
0.388235 0.003922 0.007843
0.494118 0.058824 0.015686
0.478431 0.000000 0.003922
0.552941 0.003922 0.000000
0.662745 0.101961 0.039216
0.662745 0.000000 0.000000
0.682353 0.003922 0.000000
0.686275 0.003922 0.007843
0.764706 0.000000 0.000000
0.760784 0.000000 0.003922
0.913725 0.168627 0.027451
0.807843 0.000000 0.000000
0.933333 0.141176 0.000000
0.886275 0.003922 0.000000
0.996078 0.180392 0.000000
0.176471 0.003922 0.000000
0.000000 0.090196 0.003922
0.082353 0.101961 0.015686
0.094118 0.082353 0.023529
0.109804 0.062745 0.007843
0.239216 0.141176 0.023529
0.274510 0.129412 0.023529
0.286275 0.086275 0.003922
0.313725 0.066667 0.000000
0.352941 0.054902 0.003922
0.419608 0.070588 0.015686
0.443137 0.043137 0.000000
0.490196 0.043137 0.003922
0.529412 0.023529 0.000000
0.556863 0.000000 0.003922
0.600000 0.000000 0.007843
0.615686 0.000000 0.000000
0.596078 0.000000 0.000000
0.827451 0.160784 0.019608
0.796078 0.043137 0.000000
0.721569 0.000000 0.000000
0.870588 0.121569 0.007843
0.905882 0.117647 0.000000
0.890196 0.082353 0.000000
0.854902 0.000000 0.011765
0.329412 0.172549 0.035294
0.000000 0.007843 0.000000
0.031373 0.129412 0.011765
0.054902 0.101961 0.007843
0.133333 0.145098 0.031373
0.235294 0.196078 0.058824
0.321569 0.211765 0.054902
0.298039 0.160784 0.000000
0.384314 0.180392 0.027451
0.356863 0.105882 0.000000
0.490196 0.184314 0.043137
0.313725 0.000000 0.003922
0.588235 0.188235 0.039216
0.521569 0.050980 0.000000
0.427451 0.003922 0.000000
0.662745 0.117647 0.000000
0.658824 0.019608 0.000000
0.678431 0.000000 0.000000
0.850980 0.203922 0.015686
0.866667 0.172549 0.000000
0.890196 0.160784 0.000000
0.968627 0.239216 0.000000
0.992157 0.239216 0.000000
0.898039 0.050980 0.000000
1.000000 0.290196 0.003922
0.000000 0.121569 0.000000
0.007843 0.188235 0.003922
0.000000 0.196078 0.000000
0.000000 0.184314 0.003922
0.133333 0.239216 0.039216
0.078431 0.121569 0.003922
0.200000 0.184314 0.039216
0.168627 0.125490 0.000000
0.215686 0.109804 0.003922
0.447059 0.282353 0.047059
0.352941 0.149020 0.000000
0.407843 0.141176 0.003922
0.313725 0.000000 0.003922
0.513725 0.125490 0.000000
0.572549 0.156863 0.003922
0.686275 0.215686 0.011765
0.619608 0.105882 0.000000
0.643137 0.047059 0.000000
0.729412 0.129412 0.000000
0.741176 0.098039 0.000000
0.831373 0.176471 0.000000
0.819608 0.121569 0.003922
0.886275 0.196078 0.003922
0.964706 0.250980 0.000000
1.000000 0.239216 0.000000
0.325490 0.070588 0.000000
0.000000 0.137255 0.007843
0.000000 0.262745 0.000000
0.000000 0.219608 0.003922
0.027451 0.211765 0.000000
0.062745 0.168627 0.000000
0.200000 0.235294 0.027451
0.133333 0.133333 0.000000
0.211765 0.160784 0.000000
0.372549 0.258824 0.000000
0.494118 0.325490 0.054902
0.447059 0.223529 0.007843
0.470588 0.196078 0.000000
0.474510 0.137255 0.007843
0.529412 0.145098 0.000000
0.556863 0.141176 0.000000
0.866667 0.403922 0.164706
0.545098 0.000000 0.019608
0.866667 0.325490 0.039216
0.882353 0.305882 0.003922
0.917647 0.317647 0.003922
0.913725 0.282353 0.007843
0.964706 0.309804 0.000000
0.925490 0.243137 0.007843
1.000000 0.266667 0.000000
0.403922 0.258824 0.000000
0.003922 0.219608 0.003922
0.000000 0.352941 0.043137
0.000000 0.254902 0.000000
0.000000 0.219608 0.003922
0.160784 0.333333 0.039216
0.145098 0.239216 0.011765
0.101961 0.164706 0.011765
0.333333 0.333333 0.082353
0.360784 0.317647 0.003922
0.392157 0.301961 0.000000
0.450980 0.298039 0.003922
0.549020 0.337255 0.000000
0.443137 0.172549 0.007843
0.443137 0.129412 0.000000
0.619608 0.250980 0.000000
0.639216 0.207843 0.000000
0.784314 0.329412 0.003922
0.862745 0.364706 0.000000
0.701961 0.160784 0.007843
0.827451 0.266667 0.007843
0.815686 0.247059 0.000000
0.850980 0.254902 0.000000
0.905882 0.274510 0.000000
1.000000 0.423529 0.007843
0.266667 0.231373 0.007843
0.003922 0.356863 0.015686
0.000000 0.329412 0.000000
0.003922 0.349020 0.011765
0.011765 0.321569 0.003922
0.000000 0.270588 0.000000
0.109804 0.309804 0.015686
0.207843 0.321569 0.000000
0.254902 0.321569 0.007843
0.294118 0.305882 0.003922
0.349020 0.325490 0.000000
0.396078 0.305882 0.000000
0.439216 0.298039 0.000000
0.615686 0.407843 0.007843
0.611765 0.356863 0.000000
0.596078 0.282353 0.000000
0.694118 0.333333 0.000000
0.764706 0.356863 0.007843
0.698039 0.258824 0.000000
0.901961 0.443137 0.000000
0.843137 0.337255 0.007843
0.827451 0.294118 0.000000
0.886275 0.329412 0.000000
0.984314 0.407843 0.003922
0.992157 0.501961 0.000000
0.015686 0.200000 0.000000
0.000000 0.486275 0.015686
0.000000 0.419608 0.000000
0.003922 0.278431 0.003922
0.007843 0.392157 0.000000
0.000000 0.329412 0.000000
0.098039 0.388235 0.015686
0.149020 0.356863 0.011765
0.192157 0.313725 0.000000
0.298039 0.349020 0.000000
0.321569 0.329412 0.000000
0.368627 0.329412 0.000000
0.423529 0.317647 0.000000
0.627451 0.458824 0.007843
0.549020 0.349020 0.000000
0.717647 0.435294 0.000000
0.768627 0.431373 0.000000
0.725490 0.341176 0.000000
0.780392 0.352941 0.000000
0.611765 0.156863 0.000000
0.796078 0.313725 0.000000
0.866667 0.352941 0.000000
0.847059 0.298039 0.003922
1.000000 0.498039 0.000000
1.000000 0.435294 0.007843
0.000000 0.513725 0.000000
0.000000 0.333333 0.000000
0.000000 0.537255 0.027451
0.007843 0.392157 0.003922
0.000000 0.556863 0.058824
0.003922 0.376471 0.007843
0.007843 0.411765 0.000000
0.160784 0.505882 0.023529
0.286275 0.529412 0.101961
0.129412 0.321569 0.000000
0.282353 0.392157 0.000000
0.486275 0.521569 0.164706
0.345098 0.345098 0.000000
0.537255 0.454902 0.000000
0.521569 0.407843 0.000000
0.580392 0.407843 0.000000
0.772549 0.529412 0.000000
0.658824 0.372549 0.003922
0.733333 0.415686 0.000000
0.737255 0.364706 0.003922
0.780392 0.356863 0.011765
0.874510 0.423529 0.003922
0.952941 0.486275 0.000000
0.980392 0.486275 0.011765
0.925490 0.356863 0.000000
0.580392 0.596078 0.227451
0.000000 0.443137 0.000000
0.000000 0.549020 0.000000
0.000000 0.580392 0.000000
0.007843 0.498039 0.003922
0.000000 0.501961 0.003922
0.121569 0.607843 0.098039
0.192157 0.560784 0.027451
0.101961 0.419608 0.015686
0.305882 0.513725 0.000000
0.294118 0.447059 0.000000
0.309804 0.380392 0.000000
0.352941 0.380392 0.007843
0.529412 0.494118 0.000000
0.635294 0.556863 0.035294
0.454902 0.329412 0.003922
0.623529 0.447059 0.000000
0.815686 0.572549 0.003922
0.658824 0.388235 0.000000
0.745098 0.427451 0.003922
0.764706 0.427451 0.000000
0.886275 0.478431 0.003922
0.956863 0.513725 0.000000
0.929412 0.474510 0.000000
0.933333 0.419608 0.000000
0.427451 0.529412 0.047059
0.000000 0.396078 0.003922
0.000000 0.482353 0.000000
0.000000 0.568627 0.007843
0.007843 0.552941 0.000000
0.007843 0.560784 0.007843
0.003922 0.627451 0.023529
0.000000 0.466667 0.000000
0.007843 0.458824 0.000000
0.333333 0.603922 0.047059
0.333333 0.537255 0.000000
0.341176 0.482353 0.003922
0.372549 0.443137 0.011765
0.439216 0.470588 0.003922
0.454902 0.427451 0.007843
0.596078 0.517647 0.000000
0.627451 0.505882 0.007843
0.737255 0.568627 0.015686
0.733333 0.529412 0.000000
0.811765 0.556863 0.000000
0.694118 0.415686 0.000000
0.800000 0.466667 0.007843
0.898039 0.537255 0.000000
0.886275 0.486275 0.000000
0.858824 0.392157 0.000000
0.329412 0.560784 0.000000
0.000000 0.576471 0.000000
0.000000 0.666667 0.000000
0.000000 0.505882 0.003922
0.000000 0.498039 0.000000
0.000000 0.670588 0.011765
0.000000 0.576471 0.000000
0.000000 0.529412 0.011765
0.227451 0.650980 0.007843
0.137255 0.521569 0.000000
0.203922 0.494118 0.003922
0.184314 0.400000 0.000000
0.509804 0.627451 0.101961
0.341176 0.415686 0.003922
0.584314 0.592157 0.101961
0.435294 0.427451 0.000000
0.545098 0.482353 0.007843
0.654902 0.525490 0.003922
0.670588 0.494118 0.000000
0.709804 0.517647 0.003922
0.878431 0.627451 0.007843
0.850980 0.576471 0.000000
0.847059 0.541176 0.007843
0.898039 0.560784 0.000000
0.945098 0.509804 0.000000
0.007843 0.490196 0.003922
0.000000 0.611765 0.003922
0.011765 0.705882 0.003922
0.000000 0.690196 0.000000
0.007843 0.498039 0.003922
0.003922 0.721569 0.000000
0.000000 0.529412 0.003922
0.007843 0.537255 0.000000
0.070588 0.619608 0.003922
0.192157 0.603922 0.007843
0.247059 0.556863 0.000000
0.435294 0.639216 0.000000
0.501961 0.654902 0.054902
0.454902 0.564706 0.000000
0.572549 0.603922 0.027451
0.439216 0.431373 0.003922
0.576471 0.521569 0.007843
0.682353 0.588235 0.007843
0.631373 0.501961 0.000000
0.796078 0.623529 0.000000
0.823529 0.607843 0.007843
0.952941 0.686275 0.007843
0.819608 0.537255 0.000000
0.901961 0.568627 0.000000
0.905882 0.549020 0.000000
0.000000 0.749020 0.007843
0.007843 0.600000 0.000000
0.000000 0.760784 0.003922
0.003922 0.611765 0.000000
0.011765 0.650980 0.000000
0.000000 0.596078 0.000000
0.000000 0.733333 0.000000
0.003922 0.611765 0.000000
0.003922 0.623529 0.000000
0.117647 0.713725 0.003922
0.098039 0.603922 0.003922
0.262745 0.600000 0.007843
0.431373 0.682353 0.000000
0.470588 0.654902 0.011765
0.470588 0.588235 0.007843
0.466667 0.529412 0.000000
0.572549 0.588235 0.003922
0.545098 0.517647 0.007843
0.639216 0.556863 0.000000
0.815686 0.701961 0.000000
0.658824 0.513725 0.000000
0.788235 0.611765 0.003922
0.835294 0.615686 0.000000
0.886275 0.631373 0.000000
0.913725 0.576471 0.007843
0.305882 0.560784 0.003922
0.000000 0.674510 0.000000
0.011765 0.647059 0.007843
0.003922 0.686275 0.000000
0.000000 0.588235 0.000000
0.000000 0.674510 0.007843
0.000000 0.670588 0.003922
0.000000 0.741176 0.003922
0.000000 0.709804 0.000000
0.156863 0.729412 0.003922
0.137255 0.631373 0.000000
0.286275 0.662745 0.003922
0.305882 0.572549 0.000000
0.490196 0.690196 0.000000
0.556863 0.694118 0.000000
0.498039 0.588235 0.000000
0.615686 0.647059 0.007843
0.603922 0.619608 0.003922
0.745098 0.713725 0.145098
0.658824 0.592157 0.000000
0.815686 0.701961 0.000000
0.803922 0.658824 0.003922
0.796078 0.631373 0.000000
0.839216 0.647059 0.000000
0.984314 0.686275 0.003922
0.231373 0.603922 0.000000
0.000000 0.776471 0.003922
0.000000 0.792157 0.007843
0.000000 0.650980 0.000000
0.003922 0.819608 0.003922
0.000000 0.647059 0.000000
0.000000 0.721569 0.000000
0.000000 0.698039 0.003922
0.000000 0.713725 0.003922
0.003922 0.678431 0.000000
0.278431 0.776471 0.000000
0.149020 0.639216 0.000000
0.450980 0.764706 0.000000
0.447059 0.713725 0.000000
0.529412 0.725490 0.000000
0.407843 0.572549 0.007843
0.658824 0.745098 0.105882
0.615686 0.670588 0.000000
0.737255 0.752941 0.168627
0.698039 0.686275 0.000000
0.709804 0.658824 0.003922
0.866667 0.768627 0.070588
0.784314 0.662745 0.000000
0.945098 0.792157 0.000000
0.933333 0.701961 0.003922
0.113725 0.694118 0.000000
0.007843 0.709804 0.007843
0.000000 0.784314 0.000000
0.003922 0.745098 0.000000
0.000000 0.831373 0.011765
0.003922 0.839216 0.000000
0.000000 0.701961 0.000000
0.003922 0.827451 0.000000
0.003922 0.800000 0.000000
0.145098 0.862745 0.062745
0.007843 0.713725 0.000000
0.388235 0.847059 0.090196
0.262745 0.678431 0.007843
0.403922 0.721569 0.003922
0.501961 0.768627 0.000000
0.505882 0.717647 0.000000
0.627451 0.772549 0.082353
0.615686 0.729412 0.000000
0.639216 0.709804 0.000000
0.666667 0.694118 0.003922
0.733333 0.713725 0.062745
0.690196 0.654902 0.007843
0.709804 0.643137 0.000000
0.905882 0.800000 0.000000
1.000000 0.819608 0.007843
0.000000 0.831373 0.000000
0.000000 0.960784 0.168627
0.000000 0.713725 0.003922
0.003922 0.933333 0.133333
0.000000 0.721569 0.000000
0.000000 0.839216 0.007843
0.000000 0.909804 0.094118
0.007843 0.937255 0.176471
0.007843 0.823529 0.000000
0.003922 0.780392 0.000000
0.160784 0.780392 0.000000
0.411765 0.882353 0.113725
0.286275 0.717647 0.000000
0.454902 0.776471 0.007843
0.513725 0.792157 0.000000
0.623529 0.843137 0.125490
0.631373 0.796078 0.035294
0.670588 0.788235 0.066667
0.756863 0.827451 0.192157
0.705882 0.741176 0.000000
0.733333 0.717647 0.000000
0.713725 0.690196 0.000000
0.800000 0.749020 0.003922
0.941176 0.854902 0.141176
0.917647 0.788235 0.007843
0.011765 0.737255 0.000000
0.000000 0.866667 0.000000
0.000000 0.811765 0.000000
0.000000 0.850980 0.003922
0.003922 0.886275 0.031373
0.000000 0.796078 0.000000
0.000000 0.901961 0.101961
0.000000 0.823529 0.003922
0.000000 0.894118 0.082353
0.172549 0.933333 0.180392
0.227451 0.878431 0.101961
0.058824 0.737255 0.000000
0.435294 0.894118 0.149020
0.360784 0.760784 0.000000
0.466667 0.784314 0.003922
0.478431 0.760784 0.000000
0.584314 0.792157 0.023529
0.725490 0.894118 0.247059
0.803922 0.925490 0.313725
0.596078 0.686275 0.000000
0.752941 0.800000 0.164706
0.741176 0.752941 0.098039
0.800000 0.772549 0.172549
0.800000 0.749020 0.062745
0.952941 0.839216 0.062745
0.517647 0.905882 0.196078
0.003922 0.929412 0.117647
0.003922 0.905882 0.074510
0.000000 0.952941 0.164706
0.000000 0.894118 0.000000
0.011765 0.925490 0.117647
0.000000 0.968627 0.211765
0.000000 0.815686 0.000000
0.000000 0.788235 0.003922
0.003922 0.827451 0.000000
0.294118 0.929412 0.164706
0.333333 0.890196 0.113725
0.356863 0.854902 0.003922
0.498039 0.921569 0.207843
0.517647 0.878431 0.152941
0.490196 0.807843 0.011765
0.521569 0.784314 0.000000
0.717647 0.921569 0.254902
0.647059 0.831373 0.133333
0.678431 0.807843 0.113725
0.643137 0.729412 0.000000
0.709804 0.776471 0.094118
0.874510 0.898039 0.301961
0.921569 0.913725 0.345098
0.992157 0.941176 0.321569
0.490196 0.980392 0.274510
0.000000 0.854902 0.000000
0.000000 0.960784 0.168627
0.003922 0.819608 0.011765
0.003922 0.956863 0.156863
0.000000 0.949020 0.141176
0.000000 0.984314 0.203922
0.000000 0.843137 0.007843
0.011765 0.925490 0.121569
0.000000 0.937255 0.141176
0.000000 0.878431 0.011765
0.180392 0.870588 0.000000
0.360784 0.913725 0.156863
0.427451 0.917647 0.172549
0.439216 0.862745 0.082353
0.537255 0.913725 0.188235
0.505882 0.815686 0.007843
0.647059 0.917647 0.223529
0.596078 0.827451 0.098039
0.607843 0.792157 0.039216
0.737255 0.886275 0.239216
0.780392 0.898039 0.278431
0.713725 0.796078 0.141176
0.850980 0.909804 0.309804
0.925490 0.905882 0.341176
0.305882 0.960784 0.207843
0.000000 0.996078 0.200000
0.003922 0.882353 0.015686
0.000000 0.901961 0.000000
0.000000 0.909804 0.000000
0.000000 0.850980 0.000000
0.000000 0.937255 0.090196
0.000000 1.000000 0.262745
0.000000 0.929412 0.074510
0.000000 0.956863 0.137255
0.000000 0.870588 0.003922
0.078431 0.921569 0.129412
0.396078 1.000000 0.278431
0.388235 0.964706 0.211765
0.431373 0.937255 0.200000
0.407843 0.858824 0.023529
0.525490 0.933333 0.215686
0.537255 0.874510 0.141176
0.650980 0.941176 0.262745
0.639216 0.886275 0.200000
0.635294 0.850980 0.149020
0.796078 0.952941 0.329412
0.737255 0.878431 0.258824
0.792157 0.890196 0.286275
0.952941 0.980392 0.431373
0.000000 0.984314 0.188235
0.000000 0.949020 0.098039
0.000000 0.952941 0.098039
0.000000 1.000000 0.192157
0.000000 0.890196 0.000000
0.003922 0.972549 0.145098
0.000000 0.843137 0.000000
0.000000 0.945098 0.054902
0.000000 0.952941 0.121569
0.000000 0.901961 0.000000
0.000000 0.984314 0.184314
0.223529 0.968627 0.192157
0.290196 0.949020 0.168627
0.364706 0.945098 0.168627
0.454902 0.964706 0.235294
0.529412 0.964706 0.250980
0.486275 0.898039 0.149020
0.682353 1.000000 0.356863
0.615686 0.921569 0.247059
0.474510 0.733333 0.000000
0.882353 1.000000 0.466667
0.698039 0.878431 0.247059
0.823529 0.980392 0.400000
0.847059 0.956863 0.388235
0.823529 0.913725 0.364706
0.000000 0.000000 0.000000
0.137255 0.003922 0.109804
0.203922 0.000000 0.152941
0.074510 0.000000 0.007843
0.274510 0.023529 0.168627
0.137255 0.000000 0.023529
0.054902 0.000000 0.000000
0.274510 0.000000 0.066667
0.266667 0.003922 0.039216
0.247059 0.007843 0.003922
0.321569 0.000000 0.007843
0.478431 0.000000 0.098039
0.411765 0.003922 0.000000
0.552941 0.000000 0.082353
0.607843 0.000000 0.078431
0.611765 0.000000 0.043137
0.733333 0.031373 0.117647
0.835294 0.168627 0.180392
0.600000 0.000000 0.003922
0.858824 0.090196 0.098039
0.768627 0.003922 0.000000
0.933333 0.133333 0.090196
0.901961 0.007843 0.000000
0.909804 0.011765 0.000000
1.000000 0.211765 0.094118
0.384314 0.000000 0.074510
0.000000 0.000000 0.000000
0.003922 0.000000 0.000000
0.243137 0.078431 0.164706
0.086275 0.003922 0.000000
0.109804 0.000000 0.000000
0.368627 0.145098 0.172549
0.223529 0.000000 0.027451
0.341176 0.019608 0.074510
0.568627 0.211765 0.231373
0.349020 0.000000 0.007843
0.486275 0.000000 0.094118
0.403922 0.000000 0.003922
0.447059 0.007843 0.003922
0.682353 0.113725 0.141176
0.560784 0.000000 0.000000
0.721569 0.035294 0.094118
0.698039 0.000000 0.007843
0.690196 0.000000 0.000000
0.898039 0.156863 0.141176
0.705882 0.000000 0.011765
0.850980 0.007843 0.000000
1.000000 0.254902 0.152941
0.949020 0.125490 0.000000
0.843137 0.003922 0.011765
0.278431 0.000000 0.015686
0.027451 0.019608 0.031373
0.192157 0.117647 0.125490
0.160784 0.066667 0.066667
0.254902 0.129412 0.141176
0.164706 0.011765 0.015686
0.313725 0.098039 0.117647
0.298039 0.054902 0.066667
0.321569 0.027451 0.047059
0.341176 0.000000 0.043137
0.294118 0.003922 0.007843
0.470588 0.019608 0.047059
0.541176 0.054902 0.094118
0.560784 0.003922 0.058824
0.376471 0.000000 0.003922
0.776471 0.211765 0.180392
0.615686 0.007843 0.000000
0.717647 0.000000 0.011765
0.643137 0.000000 0.007843
0.780392 0.003922 0.000000
0.827451 0.027451 0.000000
0.976471 0.215686 0.105882
0.776471 0.000000 0.000000
0.992157 0.298039 0.133333
0.956863 0.000000 0.007843
0.235294 0.000000 0.000000
0.176471 0.184314 0.180392
0.086275 0.047059 0.011765
0.156863 0.090196 0.050980
0.278431 0.184314 0.137255
0.196078 0.058824 0.043137
0.196078 0.027451 0.003922
0.337255 0.129412 0.113725
0.380392 0.145098 0.105882
0.325490 0.011765 0.007843
0.447059 0.105882 0.070588
0.494118 0.113725 0.086275
0.490196 0.054902 0.027451
0.384314 0.000000 0.000000
0.607843 0.090196 0.043137
0.623529 0.027451 0.007843
0.717647 0.117647 0.054902
0.564706 0.000000 0.000000
0.800000 0.133333 0.043137
0.721569 0.007843 0.003922
0.878431 0.160784 0.035294
0.807843 0.000000 0.007843
0.960784 0.227451 0.027451
0.862745 0.000000 0.000000
0.898039 0.000000 0.000000
0.282353 0.109804 0.066667
0.000000 0.039216 0.003922
0.086275 0.121569 0.047059
0.152941 0.164706 0.082353
0.160784 0.133333 0.062745
0.286275 0.215686 0.137255
0.298039 0.176471 0.094118
0.231373 0.082353 0.000000
0.380392 0.176471 0.090196
0.317647 0.043137 0.003922
0.478431 0.180392 0.086275
0.482353 0.133333 0.062745
0.431373 0.003922 0.000000
0.478431 0.000000 0.003922
0.658824 0.168627 0.082353
0.556863 0.000000 0.003922
0.772549 0.203922 0.090196
0.717647 0.082353 0.000000
0.686275 0.000000 0.007843
0.890196 0.215686 0.066667
0.854902 0.117647 0.003922
1.000000 0.329412 0.156863
0.807843 0.000000 0.000000
0.941176 0.149020 0.000000
0.964706 0.149020 0.007843
0.000000 0.207843 0.074510
0.000000 0.137255 0.000000
0.000000 0.145098 0.011765
0.000000 0.168627 0.000000
0.000000 0.062745 0.011765
0.160784 0.215686 0.074510
0.160784 0.168627 0.023529
0.192157 0.156863 0.003922
0.243137 0.149020 0.007843
0.352941 0.211765 0.007843
0.368627 0.160784 0.000000
0.447059 0.188235 0.000000
0.525490 0.223529 0.043137
0.439216 0.101961 0.003922
0.564706 0.160784 0.000000
0.678431 0.231373 0.035294
0.584314 0.090196 0.003922
0.654902 0.109804 0.000000
0.717647 0.145098 0.000000
0.745098 0.141176 0.000000
0.972549 0.349020 0.129412
0.807843 0.145098 0.000000
0.976471 0.305882 0.000000
0.858824 0.137255 0.003922
0.996078 0.235294 0.000000
0.337255 0.094118 0.003922
0.003922 0.200000 0.000000
0.019608 0.360784 0.152941
0.000000 0.156863 0.000000
0.062745 0.250980 0.023529
0.141176 0.258824 0.047059
0.117647 0.164706 0.007843
0.235294 0.235294 0.023529
0.247059 0.192157 0.000000
0.168627 0.098039 0.011765
0.439216 0.282353 0.007843
0.411765 0.203922 0.000000
0.494118 0.215686 0.003922
0.411765 0.078431 0.000000
0.627451 0.254902 0.000000
0.686275 0.274510 0.007843
0.466667 0.003922 0.003922
0.713725 0.215686 0.007843
0.721569 0.168627 0.000000
0.815686 0.262745 0.000000
0.858824 0.262745 0.000000
0.862745 0.254902 0.003922
0.823529 0.168627 0.003922
1.000000 0.349020 0.011765
0.917647 0.160784 0.000000
0.435294 0.298039 0.031373
0.000000 0.305882 0.011765
0.000000 0.341176 0.015686
0.000000 0.231373 0.003922
0.003922 0.274510 0.011765
0.011765 0.239216 0.011765
0.133333 0.254902 0.000000
0.149020 0.215686 0.000000
0.133333 0.149020 0.003922
0.411765 0.372549 0.101961
0.364706 0.270588 0.000000
0.364706 0.227451 0.007843
0.568627 0.372549 0.039216
0.623529 0.349020 0.015686
0.631373 0.325490 0.000000
0.490196 0.137255 0.003922
0.792157 0.392157 0.070588
0.741176 0.294118 0.007843
0.698039 0.223529 0.000000
0.811765 0.301961 0.007843
0.862745 0.337255 0.003922
0.827451 0.274510 0.000000
0.854902 0.258824 0.000000
0.988235 0.403922 0.000000
0.996078 0.364706 0.007843
0.160784 0.156863 0.000000
0.000000 0.286275 0.000000
0.000000 0.329412 0.003922
0.007843 0.364706 0.000000
0.000000 0.266667 0.003922
0.011765 0.321569 0.003922
0.050980 0.286275 0.000000
0.141176 0.270588 0.000000
0.223529 0.286275 0.000000
0.341176 0.345098 0.047059
0.384314 0.352941 0.027451
0.352941 0.278431 0.007843
0.466667 0.341176 0.000000
0.611765 0.407843 0.007843
0.588235 0.337255 0.000000
0.686275 0.388235 0.003922
0.596078 0.262745 0.000000
0.729412 0.329412 0.000000
0.721569 0.301961 0.000000
0.792157 0.325490 0.000000
0.937255 0.435294 0.003922
0.776471 0.262745 0.000000
0.996078 0.447059 0.000000
0.815686 0.262745 0.000000
0.980392 0.349020 0.003922
0.254902 0.400000 0.035294
0.011765 0.470588 0.050980
0.007843 0.498039 0.090196
0.000000 0.427451 0.000000
0.000000 0.290196 0.000000
0.066667 0.466667 0.066667
0.031373 0.368627 0.000000
0.066667 0.313725 0.003922
0.258824 0.384314 0.003922
0.239216 0.305882 0.000000
0.360784 0.384314 0.007843
0.388235 0.341176 0.003922
0.439216 0.356863 0.000000
0.529412 0.380392 0.000000
0.545098 0.345098 0.000000
0.713725 0.450980 0.000000
0.682353 0.364706 0.007843
0.662745 0.294118 0.003922
0.737255 0.345098 0.000000
0.760784 0.321569 0.000000
0.866667 0.400000 0.000000
0.882353 0.376471 0.007843
0.913725 0.368627 0.003922
1.000000 0.490196 0.000000
0.937255 0.360784 0.000000
0.007843 0.411765 0.000000
0.000000 0.478431 0.000000
0.000000 0.494118 0.000000
0.000000 0.494118 0.003922
0.003922 0.427451 0.000000
0.003922 0.513725 0.000000
0.000000 0.513725 0.023529
0.000000 0.372549 0.003922
0.243137 0.505882 0.062745
