other luts/Cinestill 400D 35mm 偏绿.cube
#Generated with IWLTBAP LUT Generator
#Website: http://luts.iwltbap.com
TITLE "ф╚бл"
#LUT size
LUT_3D_SIZE 9
#LUT data points
0.000000 0.003922 0.000000
0.000000 0.000000 0.007843
0.058824 0.000000 0.000000
0.156863 0.000000 0.000000
0.470588 0.000000 0.007843
0.470588 0.000000 0.003922
0.733333 0.003922 0.007843
0.882353 0.003922 0.003922
0.996078 0.074510 0.000000
0.176471 0.003922 0.000000
0.094118 0.082353 0.023529
0.274510 0.129412 0.023529
0.352941 0.054902 0.003922
0.490196 0.043137 0.003922
0.600000 0.000000 0.007843
0.827451 0.160784 0.019608
0.870588 0.121569 0.007843
0.854902 0.000000 0.011765
0.325490 0.070588 0.000000
0.000000 0.219608 0.003922
0.200000 0.235294 0.027451
0.372549 0.258824 0.000000
0.470588 0.196078 0.000000
0.556863 0.141176 0.000000
0.866667 0.325490 0.039216
0.913725 0.282353 0.007843
1.000000 0.266667 0.000000
0.015686 0.200000 0.000000
0.003922 0.278431 0.003922
0.098039 0.388235 0.015686
0.298039 0.349020 0.000000
0.423529 0.317647 0.000000
0.717647 0.435294 0.000000
0.780392 0.352941 0.000000
0.866667 0.352941 0.000000
1.000000 0.435294 0.007843
0.427451 0.529412 0.047059
0.000000 0.568627 0.007843
0.003922 0.627451 0.023529
0.333333 0.603922 0.047059
0.372549 0.443137 0.011765
0.596078 0.517647 0.000000
0.733333 0.529412 0.000000
0.800000 0.466667 0.007843
0.858824 0.392157 0.000000
0.000000 0.749020 0.007843
0.003922 0.611765 0.000000
0.000000 0.733333 0.000000
0.117647 0.713725 0.003922
0.431373 0.682353 0.000000
0.466667 0.529412 0.000000
0.639216 0.556863 0.000000
0.788235 0.611765 0.003922
0.913725 0.576471 0.007843
0.113725 0.694118 0.000000
0.003922 0.745098 0.000000
0.000000 0.701961 0.000000
0.145098 0.862745 0.062745
0.262745 0.678431 0.007843
0.505882 0.717647 0.000000
0.639216 0.709804 0.000000
0.690196 0.654902 0.007843
1.000000 0.819608 0.007843
0.517647 0.905882 0.196078
0.000000 0.952941 0.164706
0.000000 0.968627 0.211765
0.003922 0.827451 0.000000
0.356863 0.854902 0.003922
0.490196 0.807843 0.011765
0.647059 0.831373 0.133333
0.709804 0.776471 0.094118
0.992157 0.941176 0.321569
0.000000 0.984314 0.188235
0.000000 1.000000 0.192157
0.000000 0.843137 0.000000
0.000000 0.901961 0.000000
0.290196 0.949020 0.168627
0.529412 0.964706 0.250980
0.615686 0.921569 0.247059
0.698039 0.878431 0.247059
0.823529 0.913725 0.364706
0.019608 0.003922 0.062745
0.156863 0.000000 0.133333
0.262745 0.007843 0.125490
0.262745 0.000000 0.035294
0.552941 0.090196 0.176471
0.580392 0.000000 0.070588
0.737255 0.000000 0.066667
0.862745 0.058824 0.086275
0.996078 0.294118 0.203922
0.294118 0.000000 0.082353
0.176471 0.101961 0.125490
0.172549 0.031373 0.039216
0.266667 0.000000 0.007843
0.368627 0.000000 0.000000
0.654902 0.133333 0.113725
0.733333 0.078431 0.043137
0.890196 0.203922 0.090196
1.000000 0.188235 0.000000
0.411765 0.180392 0.054902
0.121569 0.341176 0.164706
0.125490 0.168627 0.011765
0.443137 0.337255 0.152941
0.458824 0.184314 0.000000
0.505882 0.098039 0.000000
0.803922 0.282353 0.058824
0.890196 0.313725 0.011765
0.996078 0.403922 0.094118
0.176471 0.333333 0.000000
0.000000 0.427451 0.062745
0.003922 0.333333 0.000000
0.298039 0.368627 0.047059
0.419608 0.341176 0.000000
0.623529 0.376471 0.000000
0.658824 0.270588 0.003922
0.894118 0.407843 0.015686
0.968627 0.396078 0.000000
0.235294 0.380392 0.003922
0.003922 0.490196 0.019608
0.003922 0.501961 0.000000
0.196078 0.513725 0.007843
0.435294 0.541176 0.098039
0.592157 0.541176 0.094118
0.741176 0.549020 0.003922
0.815686 0.505882 0.000000
0.890196 0.435294 0.000000
0.000000 0.600000 0.000000
0.000000 0.698039 0.003922
0.000000 0.698039 0.000000
0.003922 0.658824 0.000000
0.317647 0.619608 0.007843
0.592157 0.658824 0.141176
0.721569 0.666667 0.176471
0.772549 0.615686 0.000000
0.905882 0.592157 0.000000
0.301961 0.843137 0.164706
0.000000 0.666667 0.000000
0.003922 0.780392 0.000000
0.000000 0.847059 0.152941
0.274510 0.741176 0.011765
0.529412 0.760784 0.094118
0.627451 0.717647 0.058824
0.847059 0.827451 0.262745
1.000000 0.894118 0.192157
0.447059 0.878431 0.184314
0.007843 0.858824 0.054902
0.000000 1.000000 0.298039
0.003922 0.847059 0.062745
0.498039 0.988235 0.337255
0.458824 0.800000 0.043137
0.627451 0.827451 0.180392
0.800000 0.878431 0.294118
0.921569 0.882353 0.305882
0.000000 0.976471 0.231373
0.003922 0.996078 0.294118
0.003922 1.000000 0.258824
0.003922 0.984314 0.223529
0.337255 1.000000 0.305882
0.533333 1.000000 0.341176
0.596078 0.913725 0.258824
0.760784 0.941176 0.352941
0.862745 0.949020 0.423529
0.098039 0.000000 0.215686
0.160784 0.003922 0.247059
0.254902 0.000000 0.239216
0.431373 0.050980 0.258824
0.584314 0.141176 0.309804
0.615686 0.098039 0.243137
0.666667 0.003922 0.172549
0.913725 0.223529 0.274510
1.000000 0.247059 0.278431
0.329412 0.000000 0.203922
0.192157 0.117647 0.235294
0.349020 0.188235 0.321569
0.490196 0.223529 0.321569
0.541176 0.192157 0.262745
0.627451 0.160784 0.239216
0.768627 0.196078 0.235294
0.827451 0.156863 0.188235
0.996078 0.235294 0.200000
0.435294 0.203922 0.211765
0.235294 0.294118 0.274510
0.239216 0.239216 0.200000
0.298039 0.172549 0.129412
0.556863 0.298039 0.243137
0.521569 0.141176 0.074510
0.745098 0.254902 0.168627
0.823529 0.243137 0.125490
1.000000 0.321569 0.164706
0.258824 0.364706 0.188235
0.035294 0.349020 0.196078
0.003922 0.321569 0.101961
0.309804 0.364706 0.156863
0.521569 0.435294 0.207843
0.623529 0.352941 0.121569
0.733333 0.364706 0.090196
0.909804 0.435294 0.164706
0.992157 0.454902 0.141176
0.454902 0.556863 0.266667
0.000000 0.533333 0.219608
0.003922 0.568627 0.223529
0.203922 0.498039 0.141176
0.352941 0.431373 0.098039
0.549020 0.490196 0.133333
0.686275 0.490196 0.039216
0.780392 0.462745 0.000000
0.921569 0.470588 0.003922
0.007843 0.749020 0.388235
0.000000 0.764706 0.364706
0.000000 0.525490 0.000000
0.113725 0.713725 0.227451
0.360784 0.623529 0.172549
0.517647 0.592157 0.180392
0.627451 0.576471 0.164706
0.815686 0.635294 0.094118
0.858824 0.529412 0.000000
0.180392 0.725490 0.164706
0.000000 0.752941 0.176471
0.007843 0.800000 0.235294
0.172549 0.882353 0.329412
0.282353 0.717647 0.164706
0.470588 0.698039 0.164706
0.658824 0.733333 0.243137
0.717647 0.686275 0.200000
0.827451 0.678431 0.000000
0.423529 0.827451 0.262745
0.000000 0.917647 0.333333
0.000000 0.913725 0.321569
0.003922 0.800000 0.196078
0.435294 0.913725 0.345098
0.411765 0.745098 0.145098
0.647059 0.819608 0.282353
0.615686 0.694118 0.117647
0.898039 0.835294 0.290196
0.262745 1.000000 0.458824
0.003922 0.945098 0.313725
0.000000 0.949020 0.305882
0.000000 0.968627 0.305882
0.294118 0.956863 0.317647
0.470588 0.921569 0.313725
0.623529 0.937255 0.352941
0.749020 0.921569 0.384314
1.000000 0.996078 0.733333
0.117647 0.003922 0.368627
0.262745 0.066667 0.454902
0.380392 0.098039 0.490196
0.364706 0.000000 0.356863
0.513725 0.000000 0.376471
0.701961 0.101961 0.423529
0.725490 0.078431 0.345098
0.925490 0.301961 0.458824
0.933333 0.262745 0.403922
0.313725 0.000000 0.349020
0.227451 0.129412 0.388235
0.313725 0.137255 0.407843
0.458824 0.133333 0.415686
0.505882 0.113725 0.356863
0.662745 0.156863 0.380392
0.776471 0.239216 0.411765
0.815686 0.254902 0.364706
0.952941 0.278431 0.380392
0.517647 0.239216 0.396078
0.262745 0.325490 0.427451
0.145098 0.125490 0.243137
0.380392 0.239216 0.349020
0.533333 0.278431 0.372549
0.760784 0.403922 0.474510
0.717647 0.298039 0.329412
0.854902 0.341176 0.364706
1.000000 0.466667 0.478431
0.364706 0.388235 0.372549
0.235294 0.368627 0.364706
0.278431 0.368627 0.345098
0.392157 0.407843 0.349020
0.537255 0.380392 0.333333
0.619608 0.356863 0.294118
0.796078 0.415686 0.349020
0.941176 0.478431 0.376471
0.921569 0.368627 0.262745
0.380392 0.478431 0.325490
0.117647 0.447059 0.345098
0.329412 0.560784 0.435294
0.333333 0.537255 0.356863
0.486275 0.513725 0.349020
0.525490 0.435294 0.239216
0.909804 0.678431 0.458824
0.964706 0.627451 0.396078
1.000000 0.584314 0.356863
0.180392 0.654902 0.486275
0.101961 0.584314 0.411765
0.223529 0.666667 0.454902
0.317647 0.733333 0.443137
0.517647 0.713725 0.443137
0.670588 0.713725 0.454902
0.713725 0.647059 0.341176
0.839216 0.643137 0.294118
0.996078 0.650980 0.258824
0.227451 0.741176 0.372549
0.003922 0.792157 0.478431
0.000000 0.694118 0.341176
0.113725 0.756863 0.368627
0.513725 0.854902 0.482353
0.552941 0.737255 0.368627
0.568627 0.635294 0.266667
0.756863 0.721569 0.364706
0.827451 0.674510 0.137255
0.329412 0.772549 0.349020
0.011765 0.925490 0.505882
0.003922 0.682353 0.231373
0.258824 0.894118 0.454902
0.450980 0.898039 0.454902
0.588235 0.874510 0.450980
0.662745 0.831373 0.411765
0.709804 0.776471 0.360784
0.886275 0.807843 0.364706
0.333333 1.000000 0.584314
0.007843 0.972549 0.490196
0.007843 0.992157 0.486275
0.113725 0.996078 0.478431
0.129412 0.850980 0.333333
0.611765 1.000000 0.545098
0.749020 1.000000 0.560784
0.792157 0.960784 0.509804
0.819608 0.890196 0.466667
0.156863 0.000000 0.517647
0.117647 0.000000 0.466667
0.368627 0.062745 0.596078
0.407843 0.003922 0.533333
0.572549 0.000000 0.568627
0.843137 0.243137 0.701961
0.756863 0.043137 0.517647
0.874510 0.188235 0.545098
0.933333 0.247059 0.501961
0.313725 0.000000 0.498039
0.141176 0.027451 0.458824
0.247059 0.023529 0.466667
0.458824 0.113725 0.552941
0.568627 0.031373 0.537255
0.662745 0.137255 0.525490
0.843137 0.282353 0.603922
0.764706 0.145098 0.447059
0.913725 0.290196 0.501961
0.447059 0.156863 0.498039
0.235294 0.266667 0.521569
0.243137 0.192157 0.462745
0.309804 0.141176 0.411765
0.631373 0.333333 0.588235
0.745098 0.376471 0.584314
0.756863 0.309804 0.513725
0.760784 0.262745 0.439216
0.898039 0.356863 0.490196
0.298039 0.349020 0.474510
0.133333 0.294118 0.419608
0.258824 0.349020 0.470588
0.317647 0.301961 0.407843
0.572549 0.415686 0.521569
0.647059 0.388235 0.494118
0.827451 0.482353 0.568627
0.803922 0.423529 0.501961
0.854902 0.376471 0.435294
0.443137 0.462745 0.474510
0.211765 0.419608 0.443137
0.372549 0.505882 0.513725
0.525490 0.580392 0.592157
0.603922 0.600000 0.580392
0.584314 0.450980 0.443137
0.709804 0.478431 0.447059
0.843137 0.529412 0.486275
1.000000 0.600000 0.545098
0.145098 0.580392 0.545098
0.121569 0.533333 0.474510
0.298039 0.588235 0.521569
0.407843 0.592157 0.521569
0.427451 0.584314 0.450980
0.627451 0.647059 0.529412
0.831373 0.721569 0.568627
0.996078 0.780392 0.619608
0.929412 0.572549 0.396078
0.380392 0.686275 0.533333
0.298039 0.670588 0.537255
0.380392 0.701961 0.560784
0.356863 0.674510 0.513725
0.380392 0.690196 0.466667
0.572549 0.749020 0.525490
0.772549 0.823529 0.611765
0.709804 0.666667 0.423529
0.905882 0.725490 0.388235
0.552941 0.921569 0.615686
0.290196 0.792157 0.552941
0.423529 0.894118 0.650980
0.388235 0.874510 0.588235
0.568627 0.952941 0.658824
0.509804 0.792157 0.494118
0.545098 0.694118 0.392157
0.749020 0.803922 0.509804
0.929412 0.850980 0.501961
0.168627 0.901961 0.545098
0.184314 0.917647 0.600000
0.596078 1.000000 0.792157
0.145098 0.894118 0.517647
0.384314 0.937255 0.560784
0.533333 0.949020 0.564706
0.701961 0.984314 0.596078
0.823529 0.984314 0.607843
0.850980 0.901961 0.556863
0.188235 0.000000 0.635294
0.000000 0.000000 0.505882
0.337255 0.000000 0.662745
0.384314 0.003922 0.619608
0.580392 0.000000 0.658824
0.713725 0.003922 0.698039
0.823529 0.133333 0.709804
0.952941 0.298039 0.745098
0.968627 0.243137 0.643137
0.411765 0.070588 0.686275
0.290196 0.113725 0.682353
0.352941 0.101961 0.674510
0.501961 0.117647 0.701961
0.666667 0.188235 0.749020
0.815686 0.278431 0.788235
0.764706 0.176471 0.658824
1.000000 0.431373 0.796078
0.996078 0.392157 0.729412
0.450980 0.180392 0.639216
0.282353 0.254902 0.662745
0.094118 0.043137 0.454902
0.505882 0.290196 0.690196
0.525490 0.215686 0.627451
0.772549 0.364706 0.737255
0.776471 0.329412 0.670588
0.831373 0.313725 0.639216
1.000000 0.443137 0.701961
0.258824 0.301961 0.560784
0.019608 0.254902 0.537255
0.223529 0.282353 0.545098
0.388235 0.329412 0.584314
0.411765 0.239216 0.486275
0.737255 0.470588 0.701961
0.796078 0.474510 0.662745
0.756863 0.368627 0.549020
0.886275 0.454902 0.600000
0.490196 0.517647 0.690196
0.129412 0.384314 0.533333
0.301961 0.454902 0.607843
0.301961 0.380392 0.525490
0.490196 0.435294 0.564706
0.662745 0.521569 0.631373
0.819608 0.623529 0.721569
0.866667 0.600000 0.682353
0.949020 0.600000 0.670588
0.309804 0.607843 0.670588
0.407843 0.674510 0.725490
0.356863 0.576471 0.627451
0.403922 0.529412 0.572549
0.501961 0.552941 0.584314
0.603922 0.588235 0.592157
0.764706 0.662745 0.658824
0.839216 0.643137 0.647059
0.988235 0.670588 0.666667
0.454902 0.698039 0.654902
0.345098 0.662745 0.635294
0.454902 0.733333 0.701961
0.572549 0.800000 0.745098
0.650980 0.800000 0.741176
0.615686 0.745098 0.639216
0.784314 0.803922 0.717647
0.749020 0.694118 0.556863
0.996078 0.780392 0.627451
0.600000 0.854902 0.721569
0.411765 0.756863 0.658824
0.498039 0.823529 0.713725
0.423529 0.701961 0.584314
0.490196 0.756863 0.603922
0.658824 0.890196 0.709804
0.701961 0.843137 0.654902
0.792157 0.823529 0.631373
1.000000 0.976471 0.733333
0.462745 0.909804 0.709804
0.364706 0.807843 0.635294
0.525490 0.956863 0.780392
0.435294 0.882353 0.682353
0.525490 0.960784 0.701961
0.643137 1.000000 0.749020
0.658824 0.905882 0.631373
0.721569 0.878431 0.600000
0.850980 0.894118 0.623529
0.325490 0.003922 0.784314
0.360784 0.000000 0.788235
0.352941 0.003922 0.749020
0.470588 0.000000 0.756863
0.470588 0.003922 0.662745
0.745098 0.058824 0.800000
0.858824 0.231373 0.827451
0.949020 0.313725 0.854902
1.000000 0.349020 0.803922
0.305882 0.003922 0.686275
0.168627 0.000000 0.654902
0.486275 0.176471 0.847059
0.509804 0.066667 0.764706
0.521569 0.000000 0.701961
0.760784 0.215686 0.815686
0.780392 0.211765 0.764706
0.854902 0.274510 0.760784
0.984314 0.372549 0.792157
0.513725 0.219608 0.784314
0.349020 0.254902 0.788235
0.274510 0.113725 0.662745
0.270588 0.000000 0.576471
0.564706 0.211765 0.737255
0.745098 0.337255 0.811765
0.925490 0.470588 0.890196
1.000000 0.568627 0.956863
0.980392 0.431373 0.772549
0.258824 0.274510 0.654902
0.254902 0.317647 0.701961
0.329412 0.309804 0.701961
0.462745 0.364706 0.733333
0.572549 0.376471 0.725490
0.611765 0.337255 0.682353
0.749020 0.427451 0.717647
0.952941 0.572549 0.850980
0.937255 0.505882 0.752941
0.423529 0.443137 0.709804
0.082353 0.384314 0.666667
0.227451 0.392157 0.682353
0.439216 0.466667 0.733333
0.517647 0.454902 0.701961
0.639216 0.482353 0.717647
0.870588 0.658824 0.854902
0.886275 0.627451 0.815686
0.901961 0.552941 0.725490
0.003922 0.439216 0.619608
0.109804 0.498039 0.662745
0.113725 0.419608 0.600000
0.337255 0.513725 0.678431
0.509804 0.584314 0.741176
0.654902 0.615686 0.752941
0.784314 0.682353 0.796078
0.768627 0.596078 0.694118
0.945098 0.678431 0.760784
0.521569 0.713725 0.772549
0.376471 0.639216 0.705882
0.325490 0.568627 0.627451
0.533333 0.713725 0.764706
0.454902 0.580392 0.623529
0.725490 0.776471 0.800000
0.858824 0.862745 0.870588
0.913725 0.843137 0.843137
1.000000 0.831373 0.827451
0.580392 0.815686 0.784314
0.513725 0.811765 0.803922
0.478431 0.772549 0.745098
0.623529 0.866667 0.847059
0.627451 0.827451 0.800000
0.721569 0.862745 0.815686
0.780392 0.890196 0.800000
0.780392 0.792157 0.709804
0.972549 0.850980 0.737255
0.545098 0.937255 0.843137
0.600000 1.000000 0.905882
0.407843 0.815686 0.725490
0.603922 0.949020 0.850980
0.619608 0.909804 0.803922
0.725490 1.000000 0.847059
0.682353 0.925490 0.733333
0.886275 1.000000 0.827451
0.901961 0.937255 0.752941
0.396078 0.000000 0.862745
0.411765 0.000000 0.850980
0.317647 0.000000 0.745098
0.443137 0.000000 0.760784
0.615686 0.000000 0.827451
0.835294 0.200000 0.964706
0.803922 0.145098 0.862745
0.984314 0.407843 0.968627
0.941176 0.286275 0.831373
0.658824 0.180392 1.000000
0.349020 0.007843 0.803922
0.466667 0.000000 0.831373
0.619608 0.121569 0.917647
0.694118 0.149020 0.898039
0.749020 0.152941 0.870588
0.776471 0.203922 0.827451
0.850980 0.298039 0.839216
1.000000 0.431373 0.905882
0.670588 0.309804 0.972549
0.313725 0.121569 0.784314
0.533333 0.278431 0.929412
0.533333 0.211765 0.839216
0.580392 0.180392 0.815686
0.643137 0.196078 0.784314
0.870588 0.427451 0.941176
0.945098 0.486275 0.933333
1.000000 0.494118 0.909804
0.545098 0.427451 0.937255
0.482353 0.439216 0.941176
0.317647 0.235294 0.741176
0.596078 0.423529 0.909804
0.533333 0.294118 0.768627
0.717647 0.411765 0.850980
0.811765 0.474510 0.854902
0.913725 0.541176 0.894118
0.968627 0.545098 0.878431
0.513725 0.470588 0.870588
0.435294 0.549020 0.956863
0.376471 0.431373 0.819608
0.501961 0.458824 0.858824
0.592157 0.478431 0.839216
0.682353 0.490196 0.839216
0.878431 0.658824 0.952941
0.843137 0.600000 0.854902
0.960784 0.631373 0.874510
0.000000 0.517647 0.827451
0.000000 0.427451 0.729412
0.000000 0.431373 0.741176
0.239216 0.462745 0.764706
0.380392 0.450980 0.733333
0.639216 0.564706 0.823529
0.717647 0.607843 0.807843
0.831373 0.670588 0.843137
0.996078 0.749020 0.917647
0.200000 0.529412 0.709804
0.290196 0.647059 0.831373
0.227451 0.576471 0.749020
0.388235 0.635294 0.807843
0.552941 0.713725 0.886275
0.556863 0.627451 0.784314
0.698039 0.674510 0.807843
0.886275 0.827451 0.917647
0.921569 0.784314 0.862745
0.337255 0.576471 0.658824
0.411765 0.729412 0.811765
0.439216 0.717647 0.796078
0.584314 0.811765 0.890196
0.647059 0.831373 0.894118
0.627451 0.752941 0.811765
0.623529 0.690196 0.717647
0.807843 0.811765 0.819608
0.976471 0.882353 0.874510
0.435294 0.811765 0.803922
0.568627 0.956863 0.945098
0.647059 1.000000 1.000000
0.447059 0.803922 0.784314
0.658824 0.960784 0.937255
0.654902 0.901961 0.866667
0.792157 0.960784 0.921569
0.901961 1.000000 0.925490
0.921569 0.952941 0.858824
0.537255 0.003922 0.984314
0.498039 0.000000 0.937255
0.556863 0.000000 0.945098
0.549020 0.000000 0.905882
0.643137 0.000000 0.917647
0.760784 0.078431 0.949020
0.811765 0.200000 0.937255
0.941176 0.368627 0.992157
0.996078 0.509804 0.996078
0.611765 0.000000 0.980392
0.643137 0.160784 0.996078
0.427451 0.000000 0.847059
0.686275 0.137255 0.996078
0.568627 0.000000 0.858824
0.784314 0.211765 0.976471
0.850980 0.286275 0.964706
0.937255 0.392157 0.984314
0.882353 0.368627 0.870588
0.454902 0.000000 0.823529
0.513725 0.211765 0.964706
0.533333 0.192157 0.949020
0.572549 0.203922 0.929412
0.705882 0.301961 1.000000
0.733333 0.290196 0.941176
0.827451 0.364706 0.949020
0.858824 0.396078 0.929412
0.996078 0.666667 1.000000
0.466667 0.305882 0.925490
0.372549 0.239216 0.862745
0.694118 0.486275 1.000000
0.501961 0.262745 0.862745
0.647059 0.356863 0.925490
0.596078 0.270588 0.796078
0.803922 0.450980 0.933333
0.874510 0.498039 0.917647
0.964706 0.572549 0.949020
0.486275 0.400000 0.894118
0.200000 0.294118 0.788235
0.431373 0.419608 0.925490
0.541176 0.470588 0.949020
0.556863 0.419608 0.890196
0.941176 0.705882 0.996078
0.713725 0.470588 0.858824
0.866667 0.607843 0.952941
0.921569 0.623529 0.917647
0.003922 0.517647 0.964706
0.129412 0.568627 1.000000
0.000000 0.466667 0.898039
0.294118 0.466667 0.894118
0.537255 0.564706 0.921569
0.584314 0.521569 0.866667
0.729412 0.603922 0.898039
0.952941 0.784314 1.000000
0.929412 0.698039 0.917647
0.094118 0.576471 0.878431
0.003922 0.603922 0.901961
0.031373 0.592157 0.898039
0.309804 0.647059 0.949020
0.462745 0.690196 0.980392
0.600000 0.686275 0.972549
0.788235 0.776471 1.000000
0.854902 0.768627 0.949020
1.000000 0.949020 1.000000
0.388235 0.725490 0.917647
0.439216 0.854902 1.000000
0.490196 0.870588 1.000000
0.450980 0.796078 0.984314
0.505882 0.796078 0.980392
0.670588 0.882353 0.992157
0.709804 0.847059 0.996078
0.674510 0.694118 0.811765
0.913725 0.847059 0.917647
0.592157 0.960784 1.000000
0.349020 0.784314 0.850980
0.568627 0.945098 1.000000
0.615686 0.956863 0.992157
0.647059 0.949020 0.988235
0.631373 0.882353 0.921569
0.776471 0.960784 0.992157
0.890196 0.988235 1.000000
0.996078 0.996078 0.996078
