other luts/Cinestill 400D 35mm original.cube
#Generated with IWLTBAP LUT Generator
#Website: http://luts.iwltbap.com
TITLE "ORI"
#LUT size
LUT_3D_SIZE 5
#LUT data points
0.039216 0.043137 0.058824
0.235294 0.121569 0.066667
0.490196 0.184314 0.003922
0.886275 0.384314 0.003922
1.000000 0.396078 0.003922
0.494118 0.301961 0.000000
0.309804 0.345098 0.137255
0.592157 0.372549 0.000000
0.894118 0.478431 0.000000
0.996078 0.513725 0.003922
0.443137 0.498039 0.023529
0.219608 0.541176 0.054902
0.478431 0.505882 0.000000
0.843137 0.631373 0.003922
0.984314 0.517647 0.007843
0.478431 0.819608 0.207843
0.000000 0.705882 0.000000
0.356863 0.678431 0.000000
0.737255 0.768627 0.129412
1.000000 0.827451 0.007843
0.352941 0.964706 0.290196
0.290196 1.000000 0.321569
0.423529 0.917647 0.243137
0.635294 0.878431 0.247059
0.956863 0.960784 0.427451
0.000000 0.003922 0.180392
0.156863 0.000000 0.203922
0.529412 0.000000 0.231373
0.956863 0.423529 0.337255
0.992157 0.349020 0.101961
0.411765 0.203922 0.172549
0.254902 0.278431 0.262745
0.572549 0.352941 0.223529
0.776471 0.360784 0.117647
0.996078 0.509804 0.172549
0.462745 0.509804 0.258824
0.274510 0.560784 0.290196
0.556863 0.588235 0.301961
0.835294 0.631373 0.203922
1.000000 0.662745 0.117647
0.431373 0.784314 0.301961
0.211765 0.780392 0.282353
0.521569 0.803922 0.313725
0.752941 0.792157 0.301961
0.992157 0.835294 0.207843
0.321569 0.921569 0.333333
0.478431 1.000000 0.482353
0.517647 1.000000 0.407843
0.674510 0.894118 0.309804
0.952941 0.945098 0.415686
0.000000 0.035294 0.560784
0.341176 0.137255 0.635294
0.635294 0.168627 0.631373
0.913725 0.250980 0.639216
1.000000 0.000000 0.364706
0.435294 0.207843 0.505882
0.172549 0.227451 0.482353
0.521569 0.254902 0.494118
0.752941 0.200000 0.403922
0.996078 0.341176 0.372549
0.607843 0.627451 0.600000
0.392157 0.533333 0.486275
0.545098 0.513725 0.462745
0.792157 0.545098 0.423529
1.000000 0.607843 0.443137
0.419608 0.752941 0.490196
0.345098 0.745098 0.486275
0.639216 0.854902 0.592157
0.729412 0.737255 0.482353
0.996078 0.894118 0.560784
0.505882 1.000000 0.607843
0.596078 1.000000 0.670588
0.623529 1.000000 0.619608
0.725490 0.901961 0.529412
0.972549 0.960784 0.596078
0.007843 0.125490 0.847059
0.003922 0.003922 0.756863
0.592157 0.172549 0.870588
0.862745 0.215686 0.850980
0.992157 0.000000 0.717647
0.258824 0.168627 0.717647
0.003922 0.254902 0.749020
0.509804 0.278431 0.780392
0.752941 0.270588 0.729412
0.992157 0.380392 0.776471
0.376471 0.490196 0.709804
0.290196 0.525490 0.737255
0.611765 0.580392 0.803922
0.749020 0.474510 0.670588
1.000000 0.552941 0.721569
0.690196 0.917647 0.862745
0.556863 0.819608 0.749020
0.619608 0.729412 0.670588
0.776471 0.741176 0.682353
0.992157 0.901961 0.831373
0.780392 0.976471 0.831373
0.768627 0.980392 0.839216
0.847059 1.000000 0.886275
0.831373 0.972549 0.792157
0.996078 0.988235 0.827451
0.003922 0.000000 0.886275
0.000000 0.098039 0.980392
0.407843 0.101961 0.976471
0.713725 0.176471 0.976471
0.976471 0.223529 0.945098
0.352941 0.313725 1.000000
0.007843 0.329412 1.000000
0.349020 0.239216 0.913725
0.721569 0.349020 0.992157
0.929412 0.321569 0.921569
0.282353 0.478431 0.921569
0.309804 0.572549 0.992157
0.525490 0.564706 1.000000
0.713725 0.533333 0.921569
1.000000 0.643137 1.000000
0.380392 0.701961 0.858824
0.454902 0.776471 0.933333
0.682353 0.862745 0.996078
0.745098 0.741176 0.898039
0.941176 0.780392 0.898039
0.745098 0.968627 0.941176
0.658824 0.874510 0.850980
0.800000 0.956863 0.925490
0.894118 0.929412 0.917647
0.835294 0.827451 0.831373
