other luts/Cinestill 50D 35mm 偏绿.cube
#Generated with IWLTBAP LUT Generator
#Website: http://luts.iwltbap.com
TITLE "ф╚бл"
#LUT size
LUT_3D_SIZE 9
#LUT data points
0.101961 0.011765 0.043137
0.082353 0.019608 0.031373
0.258824 0.000000 0.109804
0.184314 0.000000 0.031373
0.356863 0.000000 0.058824
0.345098 0.000000 0.000000
0.580392 0.000000 0.003922
0.717647 0.003922 0.000000
0.827451 0.007843 0.000000
0.098039 0.137255 0.101961
0.000000 0.000000 0.007843
0.196078 0.172549 0.070588
0.321569 0.207843 0.082353
0.349020 0.113725 0.003922
0.529412 0.105882 0.000000
0.505882 0.000000 0.003922
0.823529 0.000000 0.011765
0.901961 0.000000 0.007843
0.007843 0.282353 0.086275
0.007843 0.109804 0.000000
0.000000 0.270588 0.058824
0.094118 0.254902 0.000000
0.341176 0.313725 0.000000
0.454902 0.243137 0.007843
0.607843 0.192157 0.003922
0.819608 0.203922 0.000000
0.972549 0.000000 0.000000
0.003922 0.509804 0.196078
0.000000 0.592157 0.313725
0.000000 0.529412 0.262745
0.074510 0.576471 0.286275
0.333333 0.533333 0.019608
0.498039 0.505882 0.007843
0.654902 0.521569 0.000000
0.909804 0.588235 0.007843
0.952941 0.454902 0.000000
0.000000 0.729412 0.411765
0.000000 0.729412 0.411765
0.007843 0.647059 0.329412
0.000000 0.482353 0.200000
0.247059 0.690196 0.345098
0.537255 0.725490 0.254902
0.843137 0.823529 0.227451
0.992157 1.000000 0.337255
0.992157 0.831373 0.141176
0.011765 0.819608 0.529412
0.003922 0.772549 0.482353
0.000000 0.890196 0.588235
0.003922 0.831373 0.552941
0.313725 0.878431 0.603922
0.482353 0.827451 0.486275
0.580392 0.690196 0.258824
0.811765 0.764706 0.231373
1.000000 0.894118 0.349020
0.000000 0.968627 0.717647
0.000000 0.843137 0.611765
0.219608 0.941176 0.690196
0.400000 0.980392 0.745098
0.533333 0.996078 0.760784
0.568627 0.921569 0.678431
0.701961 0.901961 0.631373
0.839216 0.894118 0.584314
0.945098 0.905882 0.533333
0.517647 0.917647 0.721569
0.549020 0.933333 0.741176
0.443137 0.831373 0.647059
0.639216 0.984314 0.788235
0.588235 0.882353 0.713725
0.690196 0.949020 0.768627
0.780392 0.960784 0.768627
0.792157 0.905882 0.678431
1.000000 1.000000 0.913725
0.792157 0.992157 0.831373
0.788235 0.996078 0.823529
0.819608 0.992157 0.850980
0.827451 0.992157 0.843137
0.752941 0.972549 0.788235
0.733333 0.968627 0.768627
1.000000 0.992157 0.956863
0.949020 0.992157 0.874510
0.937255 0.992157 0.850980
0.141176 0.043137 0.156863
0.000000 0.003922 0.000000
0.152941 0.023529 0.090196
0.156863 0.000000 0.003922
0.415686 0.145098 0.023529
0.564706 0.098039 0.011765
0.776471 0.137255 0.007843
0.831373 0.000000 0.003922
0.803922 0.000000 0.003922
0.000000 0.266667 0.223529
0.003922 0.211765 0.188235
0.258824 0.254902 0.239216
0.337255 0.243137 0.149020
0.490196 0.282353 0.078431
0.439216 0.105882 0.000000
0.745098 0.235294 0.000000
0.843137 0.105882 0.000000
1.000000 0.247059 0.000000
0.000000 0.384314 0.200000
0.000000 0.415686 0.243137
0.000000 0.278431 0.133333
0.066667 0.262745 0.023529
0.345098 0.337255 0.011765
0.607843 0.423529 0.000000
0.717647 0.380392 0.000000
0.784314 0.243137 0.000000
0.956863 0.180392 0.003922
0.003922 0.517647 0.250980
0.000000 0.560784 0.317647
0.000000 0.458824 0.243137
0.000000 0.439216 0.227451
0.431373 0.654902 0.345098
0.486275 0.517647 0.050980
0.741176 0.623529 0.000000
0.858824 0.603922 0.000000
0.996078 0.627451 0.000000
0.003922 0.631373 0.341176
0.000000 0.752941 0.490196
0.000000 0.796078 0.556863
0.000000 0.745098 0.509804
0.184314 0.658824 0.388235
0.423529 0.631373 0.278431
0.725490 0.729412 0.262745
0.929412 0.792157 0.047059
1.000000 0.827451 0.196078
0.003922 0.807843 0.537255
0.000000 0.941176 0.686275
0.003922 0.843137 0.600000
0.003922 0.835294 0.596078
0.176471 0.772549 0.541176
0.509804 0.843137 0.576471
0.686275 0.815686 0.466667
0.698039 0.682353 0.262745
1.000000 0.917647 0.376471
0.184314 0.988235 0.764706
0.443137 1.000000 0.843137
0.407843 0.972549 0.772549
0.282353 0.843137 0.623529
0.403922 0.847059 0.635294
0.513725 0.843137 0.639216
0.760784 0.960784 0.737255
0.788235 0.874510 0.592157
0.952941 0.909804 0.588235
0.352941 0.756863 0.572549
0.650980 1.000000 0.819608
0.792157 1.000000 0.901961
0.686275 0.996078 0.811765
0.698039 0.968627 0.792157
0.686275 0.925490 0.752941
0.803922 0.972549 0.792157
0.874510 0.980392 0.780392
0.972549 0.988235 0.788235
0.784314 0.992157 0.819608
0.929412 0.996078 0.925490
0.831373 0.992157 0.874510
0.776471 0.984314 0.811765
0.956863 1.000000 0.937255
0.549020 0.933333 0.647059
0.725490 0.960784 0.749020
0.768627 0.976471 0.756863
0.996078 1.000000 1.000000
0.000000 0.200000 0.321569
0.000000 0.090196 0.262745
0.211765 0.223529 0.384314
0.196078 0.149020 0.227451
0.505882 0.152941 0.262745
0.415686 0.000000 0.000000
0.517647 0.000000 0.000000
0.913725 0.200000 0.003922
0.996078 0.000000 0.007843
0.000000 0.286275 0.321569
0.003922 0.439216 0.466667
0.141176 0.458824 0.541176
0.368627 0.447059 0.474510
0.482353 0.223529 0.262745
0.694118 0.266667 0.254902
0.780392 0.270588 0.078431
0.929412 0.349020 0.003922
0.996078 0.188235 0.003922
0.000000 0.639216 0.584314
0.003922 0.513725 0.466667
0.003922 0.400000 0.368627
0.149020 0.403922 0.372549
0.513725 0.447059 0.376471
0.619608 0.411765 0.247059
0.796078 0.439216 0.160784
0.984314 0.549020 0.000000
1.000000 0.360784 0.000000
0.000000 0.623529 0.474510
0.003922 0.686275 0.549020
0.000000 0.815686 0.674510
0.152941 0.678431 0.580392
0.298039 0.560784 0.439216
0.658824 0.741176 0.572549
0.713725 0.615686 0.352941
0.870588 0.647059 0.133333
0.964706 0.607843 0.007843
0.003922 0.686275 0.478431
0.007843 0.729412 0.533333
0.000000 0.823529 0.631373
0.003922 0.756863 0.596078
0.427451 0.827451 0.670588
0.435294 0.662745 0.474510
0.831373 0.854902 0.611765
0.690196 0.592157 0.262745
0.996078 0.909804 0.368627
0.003922 0.862745 0.643137
0.000000 0.874510 0.658824
0.000000 0.752941 0.545098
0.333333 0.913725 0.725490
0.439216 0.898039 0.725490
0.552941 0.854902 0.674510
0.662745 0.796078 0.560784
0.890196 0.890196 0.615686
1.000000 1.000000 0.705882
0.600000 1.000000 0.917647
0.356863 0.976471 0.776471
0.501961 1.000000 0.831373
0.639216 1.000000 0.854902
0.392157 0.764706 0.592157
0.439216 0.721569 0.564706
0.854902 1.000000 0.866667
1.000000 0.996078 0.913725
0.988235 0.964706 0.721569
0.635294 1.000000 0.823529
0.654902 0.988235 0.823529
0.690196 0.972549 0.815686
0.690196 0.952941 0.784314
0.658824 0.898039 0.737255
0.945098 1.000000 0.933333
0.901961 1.000000 0.886275
0.737255 0.862745 0.670588
0.780392 0.898039 0.654902
1.000000 1.000000 1.000000
0.933333 1.000000 0.929412
0.886275 1.000000 0.890196
0.517647 0.952941 0.650980
0.803922 0.984314 0.831373
0.721569 0.972549 0.776471
0.925490 0.996078 0.894118
0.847059 0.984314 0.819608
0.956863 0.996078 0.890196
0.000000 0.286275 0.501961
0.000000 0.345098 0.592157
0.000000 0.396078 0.690196
0.137255 0.258824 0.474510
0.329412 0.262745 0.435294
0.580392 0.368627 0.494118
0.713725 0.000000 0.290196
0.725490 0.000000 0.070588
0.996078 0.345098 0.054902
0.003922 0.313725 0.431373
0.000000 0.666667 0.776471
0.003922 0.576471 0.737255
0.231373 0.478431 0.650980
0.521569 0.545098 0.670588
0.541176 0.400000 0.501961
0.866667 0.333333 0.482353
0.603922 0.000000 0.000000
0.819608 0.003922 0.000000
0.000000 0.498039 0.525490
0.000000 0.627451 0.666667
0.000000 0.709804 0.741176
0.000000 0.517647 0.600000
0.415686 0.545098 0.603922
0.266667 0.156863 0.215686
0.741176 0.290196 0.356863
1.000000 0.431373 0.372549
0.933333 0.270588 0.007843
0.000000 0.862745 0.803922
0.007843 0.760784 0.701961
0.000000 0.760784 0.717647
0.000000 0.682353 0.643137
0.513725 0.780392 0.776471
0.549020 0.588235 0.556863
0.705882 0.576471 0.509804
0.996078 0.729412 0.545098
1.000000 0.737255 0.341176
0.000000 0.952941 0.827451
0.000000 0.870588 0.737255
0.003922 0.760784 0.647059
0.000000 0.662745 0.549020
0.450980 0.811765 0.729412
0.658824 0.854902 0.756863
0.780392 0.823529 0.705882
0.674510 0.588235 0.427451
1.000000 0.901961 0.623529
0.007843 0.996078 0.843137
0.003922 0.925490 0.756863
0.000000 0.952941 0.780392
0.450980 1.000000 0.854902
0.494118 0.843137 0.717647
0.541176 0.796078 0.670588
0.807843 0.941176 0.803922
0.996078 1.000000 0.835294
1.000000 0.960784 0.760784
0.172549 0.866667 0.686275
0.470588 1.000000 0.839216
0.560784 1.000000 0.858824
0.545098 0.917647 0.760784
0.698039 0.956863 0.815686
0.960784 0.996078 0.976471
0.796078 0.968627 0.827451
0.874510 0.945098 0.788235
0.807843 0.800000 0.607843
0.678431 1.000000 0.839216
0.717647 1.000000 0.870588
0.592157 0.917647 0.745098
0.784314 0.996078 0.862745
0.745098 0.941176 0.803922
0.815686 0.988235 0.850980
0.745098 0.878431 0.741176
0.949020 1.000000 0.890196
0.827451 0.917647 0.713725
0.996078 1.000000 1.000000
0.917647 1.000000 0.933333
0.796078 0.992157 0.843137
0.870588 1.000000 0.894118
1.000000 0.996078 1.000000
0.796078 0.980392 0.815686
0.760784 0.972549 0.780392
1.000000 1.000000 0.960784
0.988235 0.992157 0.921569
0.000000 0.533333 0.737255
0.007843 0.427451 0.647059
0.003922 0.415686 0.674510
0.211765 0.552941 0.823529
0.729412 0.752941 0.956863
0.662745 0.560784 0.749020
0.960784 0.807843 0.913725
0.972549 0.447059 0.678431
0.949020 0.000000 0.262745
0.000000 0.560784 0.666667
0.000000 0.639216 0.760784
0.003922 0.560784 0.701961
0.000000 0.572549 0.756863
0.607843 0.701961 0.850980
0.576471 0.533333 0.666667
0.878431 0.768627 0.854902
0.870588 0.439216 0.631373
0.996078 0.000000 0.352941
0.000000 0.811765 0.843137
0.000000 0.588235 0.623529
0.003922 0.803922 0.847059
0.239216 0.768627 0.847059
0.458824 0.654902 0.752941
0.647059 0.674510 0.749020
0.917647 0.866667 0.905882
1.000000 0.635294 0.807843
1.000000 0.000000 0.305882
0.000000 0.823529 0.788235
0.000000 0.749020 0.721569
0.003922 0.980392 0.949020
0.129412 0.835294 0.823529
0.352941 0.674510 0.658824
0.737255 0.839216 0.835294
0.752941 0.768627 0.772549
0.709804 0.360784 0.447059
0.996078 0.403922 0.376471
0.007843 0.992157 0.917647
0.003922 0.890196 0.796078
0.000000 0.949020 0.862745
0.003922 0.823529 0.749020
0.450980 0.847059 0.792157
0.525490 0.705882 0.662745
0.819608 0.823529 0.803922
0.980392 0.811765 0.745098
1.000000 0.741176 0.576471
0.000000 0.792157 0.654902
0.000000 0.925490 0.784314
0.247059 0.964706 0.843137
0.619608 1.000000 0.956863
0.615686 0.964706 0.854902
0.572549 0.760784 0.674510
0.733333 0.835294 0.729412
0.886275 0.898039 0.784314
0.831373 0.741176 0.615686
0.423529 0.976471 0.811765
0.843137 1.000000 1.000000
0.376471 0.843137 0.678431
1.000000 1.000000 1.000000
0.729412 0.992157 0.862745
0.847059 1.000000 0.909804
0.788235 0.905882 0.803922
0.929412 0.996078 0.870588
0.996078 0.980392 0.835294
0.780392 0.996078 0.913725
0.725490 1.000000 0.890196
0.564706 0.925490 0.733333
0.831373 1.000000 0.921569
0.729412 0.941176 0.807843
0.996078 0.996078 0.988235
1.000000 0.996078 0.976471
0.996078 1.000000 0.952941
0.968627 0.984314 0.878431
0.945098 0.996078 0.960784
0.827451 1.000000 0.870588
1.000000 1.000000 0.992157
0.823529 0.996078 0.866667
0.909804 1.000000 0.917647
0.945098 0.996078 0.929412
0.850980 0.980392 0.858824
0.972549 1.000000 0.937255
1.000000 1.000000 0.968627
0.000000 0.745098 0.886275
0.007843 0.788235 0.941176
0.000000 0.631373 0.815686
0.000000 0.635294 0.858824
0.533333 0.682353 0.866667
0.737255 0.698039 0.831373
0.956863 0.823529 0.960784
0.854902 0.690196 0.768627
0.882353 0.529412 0.666667
0.003922 0.803922 0.898039
0.000000 0.721569 0.803922
0.117647 0.898039 0.988235
0.058824 0.666667 0.788235
0.525490 0.721569 0.858824
0.662745 0.682353 0.768627
0.792157 0.713725 0.819608
0.792157 0.658824 0.721569
0.933333 0.650980 0.745098
0.000000 0.690196 0.729412
0.003922 0.835294 0.878431
0.003922 0.654902 0.701961
0.388235 0.882353 0.937255
0.482353 0.737255 0.854902
0.725490 0.792157 0.862745
0.843137 0.796078 0.843137
0.854902 0.764706 0.788235
0.996078 0.698039 0.800000
0.000000 0.909804 0.882353
0.007843 0.815686 0.800000
0.000000 0.764706 0.741176
0.321569 0.925490 0.894118
0.631373 0.905882 0.898039
0.658824 0.803922 0.827451
0.917647 0.952941 0.949020
1.000000 1.000000 0.992157
0.960784 0.690196 0.772549
0.003922 0.878431 0.807843
0.000000 0.803922 0.737255
0.058824 0.964706 0.894118
0.364706 0.937255 0.886275
0.545098 0.921569 0.874510
0.666667 0.835294 0.807843
0.564706 0.607843 0.584314
0.803922 0.749020 0.737255
0.803922 0.301961 0.439216
0.000000 0.890196 0.784314
0.239216 1.000000 0.937255
0.203922 0.917647 0.827451
0.541176 1.000000 0.941176
0.607843 0.964706 0.905882
0.729412 0.945098 0.870588
0.847059 0.929412 0.870588
0.917647 0.862745 0.827451
0.980392 0.780392 0.698039
0.403922 0.901961 0.788235
0.568627 0.996078 0.913725
0.419608 0.839216 0.737255
1.000000 1.000000 1.000000
0.686275 0.960784 0.850980
0.996078 1.000000 1.000000
0.725490 0.823529 0.741176
0.858824 0.890196 0.807843
0.988235 0.964706 0.862745
0.780392 1.000000 0.949020
0.631373 0.988235 0.850980
0.776471 1.000000 0.933333
0.670588 0.964706 0.811765
0.823529 1.000000 0.886275
0.843137 0.976471 0.870588
1.000000 1.000000 1.000000
0.929412 0.980392 0.909804
1.000000 0.996078 1.000000
0.784314 1.000000 0.878431
0.827451 1.000000 0.901961
0.847059 0.996078 0.913725
0.729412 1.000000 0.807843
0.913725 1.000000 0.925490
0.843137 0.988235 0.858824
0.909804 0.984314 0.898039
0.996078 0.992157 0.976471
0.925490 0.984314 0.831373
0.003922 0.756863 0.847059
0.003922 0.831373 0.937255
0.000000 0.682353 0.788235
0.349020 0.792157 0.925490
0.368627 0.588235 0.725490
0.686275 0.721569 0.835294
0.658824 0.592157 0.666667
0.917647 0.796078 0.866667
1.000000 0.941176 0.968627
0.341176 0.984314 0.992157
0.352941 0.968627 1.000000
0.309804 0.847059 0.909804
0.450980 0.811765 0.901961
0.701961 0.917647 1.000000
0.533333 0.603922 0.682353
0.996078 0.992157 1.000000
0.941176 0.854902 0.905882
0.901961 0.800000 0.811765
0.003922 0.874510 0.894118
0.000000 0.874510 0.894118
0.003922 0.658824 0.690196
0.317647 0.737255 0.776471
0.490196 0.752941 0.827451
0.631373 0.733333 0.792157
0.886275 0.874510 0.909804
0.929412 0.870588 0.898039
0.992157 0.905882 0.913725
0.600000 1.000000 0.992157
0.000000 0.780392 0.760784
0.000000 0.796078 0.760784
0.537255 0.921569 0.917647
0.643137 0.878431 0.878431
0.784314 0.921569 0.945098
0.882353 0.921569 0.925490
0.815686 0.792157 0.792157
0.917647 0.847059 0.847059
0.000000 0.839216 0.780392
0.333333 1.000000 0.988235
0.435294 1.000000 0.984314
0.635294 1.000000 1.000000
0.619608 0.921569 0.898039
0.564706 0.729412 0.725490
0.835294 0.878431 0.862745
0.941176 0.937255 0.921569
0.827451 0.788235 0.749020
0.152941 0.878431 0.807843
0.003922 0.823529 0.749020
0.337255 0.901961 0.811765
0.376471 0.843137 0.768627
0.635294 0.964706 0.901961
0.666667 0.886275 0.843137
0.784314 0.862745 0.827451
0.984314 1.000000 0.945098
0.850980 0.741176 0.737255
0.533333 0.976471 0.898039
0.713725 1.000000 1.000000
0.729412 0.996078 1.000000
0.847059 0.996078 1.000000
0.678431 0.937255 0.882353
0.792157 0.976471 0.913725
0.839216 0.949020 0.890196
0.898039 0.921569 0.866667
1.000000 1.000000 1.000000
0.850980 1.000000 1.000000
0.694118 1.000000 0.905882
0.968627 1.000000 1.000000
0.627451 0.937255 0.811765
0.913725 1.000000 0.988235
0.635294 0.917647 0.737255
0.956863 1.000000 0.956863
0.882353 0.941176 0.858824
0.937255 0.949020 0.835294
0.760784 1.000000 0.878431
0.788235 1.000000 0.898039
0.890196 0.992157 0.956863
0.847059 1.000000 0.925490
0.694118 1.000000 0.803922
0.862745 1.000000 0.894118
0.949020 0.996078 0.949020
0.827451 0.972549 0.772549
0.925490 0.988235 0.847059
0.439216 0.898039 0.968627
0.552941 0.952941 1.000000
0.423529 0.815686 0.878431
0.282353 0.603922 0.690196
0.839216 0.988235 1.000000
0.662745 0.725490 0.815686
0.749020 0.737255 0.811765
0.988235 0.960784 0.992157
0.980392 0.878431 0.921569
0.549020 0.929412 0.964706
0.517647 0.886275 0.917647
0.545098 0.866667 0.913725
0.505882 0.768627 0.835294
0.929412 1.000000 1.000000
0.698039 0.788235 0.843137
0.807843 0.823529 0.870588
0.968627 0.925490 0.956863
0.976471 0.909804 0.941176
0.627451 1.000000 0.996078
0.423529 0.803922 0.827451
0.725490 1.000000 1.000000
0.584314 0.850980 0.901961
0.839216 1.000000 1.000000
0.854902 0.949020 0.996078
0.901961 0.929412 0.968627
0.917647 0.898039 0.921569
0.996078 0.917647 0.960784
0.360784 0.831373 0.827451
0.556863 0.952941 0.937255
0.525490 0.858824 0.839216
0.678431 0.909804 0.925490
0.752941 0.913725 0.937255
0.756863 0.870588 0.894118
0.772549 0.815686 0.831373
0.980392 0.988235 0.984314
0.984314 0.952941 0.945098
0.450980 0.964706 0.933333
0.388235 0.886275 0.850980
0.498039 0.925490 0.905882
0.580392 0.905882 0.874510
0.733333 0.937255 0.929412
0.835294 0.952941 0.945098
0.776471 0.831373 0.835294
0.980392 0.980392 0.980392
0.823529 0.784314 0.780392
0.435294 0.890196 0.847059
0.517647 0.937255 0.905882
0.588235 0.964706 0.921569
0.541176 0.878431 0.843137
0.650980 0.913725 0.878431
0.921569 1.000000 1.000000
1.000000 0.996078 1.000000
0.788235 0.807843 0.792157
0.945098 0.925490 0.909804
0.615686 0.960784 0.898039
0.615686 0.956863 0.890196
0.643137 0.960784 0.901961
0.882353 1.000000 1.000000
0.752941 0.980392 0.933333
0.643137 0.843137 0.784314
0.996078 1.000000 1.000000
0.858824 0.921569 0.882353
0.996078 1.000000 1.000000
0.776471 1.000000 0.972549
0.309804 0.921569 0.733333
0.725490 0.996078 0.913725
0.905882 1.000000 0.992157
0.674510 0.964706 0.866667
0.776471 0.976471 0.909804
0.835294 0.960784 0.901961
0.694118 0.913725 0.760784
0.976471 0.976471 0.937255
0.701961 1.000000 0.870588
0.925490 1.000000 0.992157
0.686275 0.996078 0.874510
0.862745 0.996078 0.933333
0.925490 1.000000 0.976471
0.905882 1.000000 0.945098
0.866667 1.000000 0.917647
1.000000 1.000000 0.992157
0.976471 0.996078 0.968627
0.972549 0.996078 0.996078
0.741176 0.929412 0.976471
0.760784 0.925490 0.972549
0.882353 1.000000 1.000000
0.831373 0.941176 0.984314
0.980392 0.996078 1.000000
0.976471 0.992157 1.000000
1.000000 1.000000 0.992157
1.000000 1.000000 0.992157
0.756863 0.952941 0.988235
0.862745 0.996078 0.992157
0.745098 0.917647 0.968627
0.768627 0.909804 0.956863
0.776471 0.890196 0.945098
0.752941 0.839216 0.894118
1.000000 1.000000 1.000000
0.988235 1.000000 1.000000
0.925490 0.870588 0.921569
0.709804 0.882353 0.925490
0.807843 0.984314 0.996078
0.803922 0.964706 0.980392
0.737255 0.878431 0.933333
0.772549 0.882353 0.937255
0.937255 1.000000 0.996078
0.980392 0.996078 1.000000
0.968627 0.964706 0.984314
1.000000 1.000000 1.000000
0.831373 1.000000 1.000000
0.635294 0.827451 0.886275
0.627451 0.807843 0.870588
0.788235 0.917647 0.952941
0.749020 0.862745 0.925490
0.886275 0.960784 0.984314
0.898039 0.937255 0.972549
1.000000 1.000000 0.992157
1.000000 1.000000 1.000000
0.662745 0.901961 0.921569
0.650980 0.870588 0.921569
0.670588 0.866667 0.909804
0.878431 0.996078 0.988235
0.929412 1.000000 0.988235
0.725490 0.850980 0.901961
0.862745 0.921569 0.949020
0.956863 0.960784 0.968627
1.000000 1.000000 1.000000
0.788235 0.984314 0.972549
0.835294 0.996078 0.980392
0.960784 1.000000 1.000000
0.972549 1.000000 1.000000
0.666667 0.878431 0.917647
0.878431 0.956863 0.960784
0.937255 0.972549 0.992157
1.000000 0.992157 1.000000
1.000000 1.000000 1.000000
0.792157 0.984314 0.972549
0.874510 1.000000 0.988235
0.639216 0.952941 0.956863
0.807843 0.984314 0.972549
1.000000 1.000000 0.992157
0.992157 1.000000 0.988235
0.843137 0.956863 0.949020
0.850980 0.933333 0.945098
1.000000 1.000000 1.000000
0.866667 1.000000 0.980392
0.882353 0.992157 0.996078
0.866667 1.000000 0.988235
0.788235 0.996078 0.972549
0.945098 1.000000 0.984314
0.854902 0.996078 0.980392
0.862745 0.980392 0.980392
0.952941 0.992157 0.996078
0.960784 0.980392 0.964706
1.000000 0.992157 1.000000
0.996078 1.000000 1.000000
1.000000 0.992157 1.000000
1.000000 1.000000 1.000000
0.870588 0.996078 0.984314
0.898039 0.996078 0.972549
0.996078 0.996078 1.000000
1.000000 1.000000 0.992157
0.996078 0.996078 0.996078
