other luts/Cinestill 800T 35mm 偏绿.cube
#Generated with IWLTBAP LUT Generator
#Website: http://luts.iwltbap.com
TITLE "ф╚бл"
#LUT size
LUT_3D_SIZE 25
#LUT data points
0.125490 0.015686 0.062745
0.007843 0.000000 0.003922
0.219608 0.015686 0.105882
0.000000 0.000000 0.000000
0.172549 0.003922 0.070588
0.074510 0.007843 0.031373
0.231373 0.000000 0.086275
0.192157 0.000000 0.074510
0.290196 0.003922 0.082353
0.294118 0.000000 0.078431
0.180392 0.000000 0.011765
0.211765 0.000000 0.015686
0.360784 0.000000 0.058824
0.301961 0.000000 0.023529
0.509804 0.000000 0.066667
0.556863 0.003922 0.078431
0.274510 0.000000 0.000000
0.568627 0.000000 0.035294
0.588235 0.003922 0.011765
0.545098 0.000000 0.000000
0.764706 0.003922 0.047059
0.870588 0.000000 0.058824
0.898039 0.000000 0.047059
0.650980 0.003922 0.000000
0.752941 0.000000 0.000000
0.003922 0.003922 0.000000
0.098039 0.015686 0.043137
0.058824 0.011765 0.019608
0.129412 0.027451 0.062745
0.156863 0.035294 0.058824
0.094118 0.015686 0.023529
0.074510 0.011765 0.015686
0.243137 0.047059 0.082353
0.007843 0.003922 0.000000
0.176471 0.000000 0.011765
0.294118 0.031373 0.058824
0.380392 0.066667 0.070588
0.274510 0.000000 0.007843
0.486275 0.086275 0.070588
0.603922 0.149020 0.098039
0.494118 0.003922 0.027451
0.509804 0.000000 0.007843
0.443137 0.003922 0.000000
0.694118 0.003922 0.054902
0.658824 0.000000 0.000000
0.643137 0.000000 0.000000
0.470588 0.003922 0.000000
0.823529 0.000000 0.003922
0.815686 0.000000 0.007843
0.921569 0.000000 0.000000
0.196078 0.105882 0.145098
0.152941 0.070588 0.090196
0.078431 0.035294 0.050980
0.000000 0.003922 0.000000
0.121569 0.058824 0.062745
0.160784 0.094118 0.066667
0.062745 0.000000 0.000000
0.000000 0.000000 0.000000
0.290196 0.152941 0.078431
0.266667 0.094118 0.043137
0.070588 0.000000 0.003922
0.278431 0.011765 0.000000
0.313725 0.000000 0.011765
0.392157 0.019608 0.011765
0.474510 0.035294 0.027451
0.376471 0.003922 0.000000
0.521569 0.003922 0.000000
0.721569 0.117647 0.070588
0.388235 0.003922 0.000000
0.486275 0.000000 0.011765
0.796078 0.000000 0.011765
0.882353 0.000000 0.023529
0.709804 0.000000 0.000000
0.850980 0.007843 0.000000
0.862745 0.003922 0.000000
0.121569 0.172549 0.133333
0.003922 0.023529 0.000000
0.000000 0.000000 0.000000
0.000000 0.000000 0.000000
0.047059 0.043137 0.027451
0.003922 0.000000 0.000000
0.168627 0.149020 0.062745
0.223529 0.184314 0.078431
0.160784 0.098039 0.007843
0.282353 0.184314 0.066667
0.305882 0.152941 0.031373
0.215686 0.031373 0.000000
0.341176 0.098039 0.000000
0.400000 0.098039 0.000000
0.239216 0.000000 0.000000
0.462745 0.019608 0.000000
0.658824 0.180392 0.019608
0.384314 0.000000 0.007843
0.533333 0.003922 0.000000
0.627451 0.003922 0.000000
0.564706 0.000000 0.000000
0.890196 0.000000 0.000000
0.584314 0.003922 0.003922
0.745098 0.003922 0.000000
0.964706 0.003922 0.000000
0.003922 0.141176 0.047059
0.000000 0.188235 0.094118
0.000000 0.121569 0.027451
0.000000 0.129412 0.047059
0.007843 0.117647 0.019608
0.105882 0.176471 0.082353
0.117647 0.180392 0.039216
0.117647 0.168627 0.000000
0.254902 0.270588 0.070588
0.223529 0.200000 0.000000
0.231373 0.160784 0.003922
0.152941 0.062745 0.007843
0.439216 0.266667 0.019608
0.435294 0.211765 0.003922
0.486275 0.200000 0.000000
0.372549 0.015686 0.000000
0.666667 0.262745 0.000000
0.780392 0.301961 0.039216
0.611765 0.066667 0.000000
0.792157 0.196078 0.000000
0.780392 0.109804 0.007843
0.764706 0.003922 0.003922
0.976471 0.164706 0.007843
0.905882 0.000000 0.000000
0.941176 0.000000 0.000000
0.000000 0.027451 0.000000
0.000000 0.184314 0.058824
0.000000 0.262745 0.133333
0.000000 0.066667 0.003922
0.015686 0.196078 0.082353
0.000000 0.172549 0.050980
0.047059 0.164706 0.015686
0.007843 0.113725 0.000000
0.309804 0.384314 0.164706
0.137255 0.192157 0.000000
0.368627 0.356863 0.094118
0.388235 0.337255 0.062745
0.537255 0.415686 0.160784
0.360784 0.192157 0.000000
0.466667 0.219608 0.007843
0.513725 0.211765 0.007843
0.725490 0.345098 0.074510
0.470588 0.000000 0.007843
0.694118 0.200000 0.003922
0.839216 0.274510 0.000000
0.698039 0.000000 0.000000
0.839216 0.070588 0.007843
0.886275 0.000000 0.007843
0.992157 0.000000 0.000000
0.878431 0.000000 0.000000
0.000000 0.215686 0.000000
0.000000 0.254902 0.074510
0.007843 0.392157 0.200000
0.003922 0.125490 0.000000
0.000000 0.254902 0.086275
0.019608 0.141176 0.007843
0.015686 0.337255 0.149020
0.000000 0.207843 0.000000
0.149020 0.325490 0.054902
0.133333 0.278431 0.003922
0.254902 0.313725 0.000000
0.160784 0.200000 0.000000
0.392157 0.372549 0.003922
0.443137 0.349020 0.003922
0.517647 0.356863 0.003922
0.537255 0.313725 0.011765
0.658824 0.356863 0.000000
0.835294 0.470588 0.098039
0.717647 0.313725 0.003922
0.768627 0.290196 0.000000
0.741176 0.172549 0.000000
0.717647 0.000000 0.000000
0.839216 0.086275 0.003922
0.988235 0.325490 0.000000
0.992157 0.000000 0.007843
0.007843 0.368627 0.113725
0.000000 0.270588 0.007843
0.000000 0.352941 0.082353
0.003922 0.243137 0.007843
0.000000 0.427451 0.200000
0.000000 0.364706 0.156863
0.007843 0.254902 0.039216
0.215686 0.545098 0.313725
0.003922 0.172549 0.003922
0.015686 0.298039 0.000000
0.184314 0.349020 0.011765
0.294118 0.380392 0.000000
0.317647 0.356863 0.007843
0.423529 0.407843 0.000000
0.541176 0.450980 0.003922
0.756863 0.611765 0.152941
0.498039 0.305882 0.007843
0.729412 0.478431 0.000000
0.701961 0.372549 0.000000
0.635294 0.250980 0.003922
0.686275 0.219608 0.000000
0.972549 0.431373 0.003922
0.745098 0.121569 0.007843
0.941176 0.254902 0.007843
0.996078 0.235294 0.000000
0.003922 0.501961 0.223529
0.000000 0.560784 0.278431
0.011765 0.505882 0.227451
0.011765 0.447059 0.188235
0.000000 0.482353 0.215686
0.003922 0.403922 0.156863
0.003922 0.352941 0.101961
0.000000 0.333333 0.094118
0.074510 0.529412 0.250980
0.074510 0.458824 0.156863
0.109804 0.400000 0.027451
0.400000 0.568627 0.149020
0.333333 0.454902 0.000000
0.513725 0.564706 0.007843
0.423529 0.419608 0.000000
0.658824 0.576471 0.007843
0.529412 0.427451 0.000000
0.611765 0.443137 0.000000
0.568627 0.356863 0.003922
0.886275 0.564706 0.000000
0.847059 0.478431 0.000000
0.933333 0.490196 0.011765
0.976471 0.482353 0.007843
0.835294 0.254902 0.003922
0.952941 0.313725 0.011765
0.000000 0.400000 0.062745
0.000000 0.694118 0.388235
0.000000 0.494118 0.176471
0.000000 0.450980 0.156863
0.000000 0.415686 0.125490
0.007843 0.443137 0.145098
0.000000 0.529412 0.258824
0.007843 0.541176 0.282353
0.003922 0.490196 0.215686
0.000000 0.392157 0.086275
0.003922 0.423529 0.054902
0.337255 0.623529 0.262745
0.423529 0.619608 0.176471
0.325490 0.462745 0.000000
0.505882 0.584314 0.000000
0.403922 0.427451 0.011765
0.666667 0.635294 0.000000
0.717647 0.619608 0.011765
0.698039 0.560784 0.003922
0.835294 0.639216 0.015686
0.988235 0.701961 0.000000
0.996078 0.741176 0.000000
0.819608 0.443137 0.003922
0.894118 0.458824 0.003922
0.992157 0.650980 0.003922
0.000000 0.674510 0.345098
0.007843 0.545098 0.231373
0.007843 0.627451 0.298039
0.000000 0.494118 0.184314
0.000000 0.552941 0.243137
0.000000 0.627451 0.321569
0.000000 0.541176 0.247059
0.000000 0.568627 0.274510
0.000000 0.592157 0.321569
0.003922 0.545098 0.239216
0.086275 0.588235 0.254902
0.223529 0.592157 0.211765
0.301961 0.568627 0.133333
0.372549 0.564706 0.003922
0.450980 0.556863 0.000000
0.627451 0.674510 0.094118
0.619608 0.619608 0.007843
0.694118 0.635294 0.000000
0.686275 0.576471 0.003922
0.819608 0.647059 0.000000
0.713725 0.501961 0.007843
0.866667 0.596078 0.000000
0.988235 0.647059 0.000000
1.000000 0.611765 0.003922
0.996078 0.768627 0.000000
0.007843 0.627451 0.294118
0.007843 0.552941 0.203922
0.000000 0.670588 0.356863
0.000000 0.643137 0.333333
0.003922 0.741176 0.439216
0.000000 0.760784 0.450980
0.000000 0.686275 0.372549
0.000000 0.796078 0.494118
0.007843 0.545098 0.270588
0.011765 0.666667 0.392157
0.000000 0.607843 0.301961
0.062745 0.596078 0.262745
0.400000 0.752941 0.376471
0.364706 0.635294 0.215686
0.443137 0.639216 0.125490
0.611765 0.721569 0.184314
0.588235 0.647059 0.000000
0.756863 0.756863 0.137255
0.831373 0.760784 0.000000
1.000000 0.925490 0.239216
0.737255 0.580392 0.000000
0.952941 0.741176 0.003922
0.898039 0.650980 0.003922
0.905882 0.592157 0.007843
0.996078 0.760784 0.000000
0.000000 0.925490 0.592157
0.000000 0.847059 0.513725
0.000000 0.803922 0.482353
0.003922 0.831373 0.521569
0.000000 0.658824 0.356863
0.000000 0.784314 0.470588
0.000000 0.694118 0.364706
0.000000 0.709804 0.407843
0.000000 0.745098 0.458824
0.003922 0.709804 0.423529
0.247059 0.839216 0.537255
0.219608 0.752941 0.431373
0.227451 0.686275 0.341176
0.443137 0.776471 0.419608
0.505882 0.768627 0.356863
0.474510 0.658824 0.149020
0.380392 0.498039 0.011765
0.819608 0.870588 0.321569
0.870588 0.847059 0.266667
0.733333 0.658824 0.011765
0.960784 0.862745 0.023529
0.776471 0.639216 0.000000
0.992157 0.807843 0.058824
0.992157 0.843137 0.203922
0.996078 0.776471 0.003922
0.000000 0.796078 0.474510
0.003922 0.819608 0.490196
0.000000 0.807843 0.501961
0.000000 0.749020 0.435294
0.000000 0.839216 0.549020
0.000000 0.843137 0.549020
0.000000 0.741176 0.435294
0.000000 0.772549 0.458824
0.003922 0.725490 0.450980
0.000000 0.584314 0.294118
0.003922 0.690196 0.419608
0.003922 0.717647 0.423529
0.243137 0.756863 0.443137
0.301961 0.725490 0.388235
0.352941 0.686275 0.317647
0.439216 0.701961 0.286275
0.564706 0.733333 0.278431
0.760784 0.843137 0.345098
0.811765 0.843137 0.313725
0.635294 0.619608 0.000000
0.980392 0.917647 0.309804
0.745098 0.650980 0.000000
0.972549 0.827451 0.074510
0.996078 0.835294 0.184314
1.000000 0.854902 0.301961
0.003922 0.780392 0.478431
0.007843 0.854902 0.560784
0.000000 0.890196 0.580392
0.000000 0.811765 0.529412
0.000000 0.925490 0.631373
0.000000 0.917647 0.647059
0.000000 0.819608 0.533333
0.003922 0.952941 0.662745
0.000000 0.913725 0.627451
0.003922 0.729412 0.462745
0.121569 0.862745 0.596078
0.231373 0.854902 0.592157
0.003922 0.658824 0.384314
0.325490 0.800000 0.486275
0.345098 0.733333 0.407843
0.450980 0.764706 0.423529
0.615686 0.831373 0.466667
0.729412 0.874510 0.458824
0.666667 0.745098 0.270588
0.670588 0.694118 0.160784
0.905882 0.890196 0.364706
0.886275 0.827451 0.219608
0.909804 0.815686 0.000000
0.996078 0.882353 0.270588
1.000000 0.858824 0.290196
0.000000 0.913725 0.603922
0.003922 0.996078 0.772549
0.000000 0.749020 0.454902
0.007843 0.933333 0.650980
0.003922 0.811765 0.521569
0.000000 0.843137 0.541176
0.000000 0.788235 0.482353
0.007843 0.992157 0.713725
0.007843 0.839216 0.549020
0.000000 0.666667 0.380392
0.000000 0.733333 0.462745
0.000000 0.741176 0.466667
0.003922 0.733333 0.454902
0.282353 0.796078 0.498039
0.278431 0.705882 0.388235
0.388235 0.741176 0.400000
0.623529 0.878431 0.525490
0.592157 0.796078 0.400000
0.678431 0.803922 0.368627
0.698039 0.741176 0.262745
0.858824 0.839216 0.368627
0.925490 0.882353 0.380392
0.878431 0.796078 0.227451
0.988235 0.905882 0.298039
1.000000 0.921569 0.400000
0.003922 0.988235 0.709804
0.000000 0.913725 0.627451
0.007843 0.866667 0.600000
0.003922 0.803922 0.525490
0.000000 0.964706 0.690196
0.000000 0.862745 0.588235
0.003922 0.960784 0.686275
0.000000 0.909804 0.623529
0.000000 0.819608 0.533333
0.000000 0.792157 0.513725
0.003922 0.839216 0.580392
0.258824 0.898039 0.643137
0.372549 0.917647 0.654902
0.274510 0.796078 0.537255
0.360784 0.811765 0.509804
0.615686 0.976471 0.674510
0.478431 0.788235 0.470588
0.572549 0.807843 0.462745
0.568627 0.737255 0.376471
0.788235 0.870588 0.498039
0.992157 1.000000 0.694118
0.968627 0.956863 0.537255
0.894118 0.843137 0.392157
0.901961 0.827451 0.325490
0.960784 0.854902 0.333333
0.007843 0.741176 0.474510
0.000000 0.854902 0.603922
0.003922 0.784314 0.521569
0.000000 0.827451 0.588235
0.000000 0.905882 0.650980
0.000000 0.788235 0.537255
0.007843 0.905882 0.650980
0.000000 0.737255 0.478431
0.196078 0.964706 0.705882
0.007843 0.776471 0.525490
0.286275 0.933333 0.674510
0.525490 1.000000 0.811765
0.164706 0.776471 0.537255
0.254902 0.776471 0.529412
0.454902 0.890196 0.623529
0.521569 0.882353 0.619608
0.501961 0.803922 0.521569
0.705882 0.945098 0.670588
0.619608 0.827451 0.505882
0.780392 0.913725 0.584314
0.862745 0.937255 0.588235
0.796078 0.823529 0.450980
0.956863 0.941176 0.560784
1.000000 0.996078 0.631373
0.945098 0.862745 0.403922
0.007843 0.933333 0.674510
0.062745 0.964706 0.721569
0.145098 0.968627 0.729412
0.200000 0.952941 0.729412
0.290196 0.988235 0.745098
0.113725 0.898039 0.654902
0.309804 0.988235 0.737255
0.329412 0.996078 0.752941
0.000000 0.780392 0.533333
0.356863 0.960784 0.709804
0.454902 0.996078 0.760784
0.458824 0.964706 0.741176
0.368627 0.858824 0.631373
0.482353 0.925490 0.705882
0.568627 0.964706 0.737255
0.686275 0.996078 0.780392
0.568627 0.866667 0.615686
0.505882 0.764706 0.513725
0.764706 0.968627 0.717647
0.694118 0.858824 0.568627
0.780392 0.890196 0.588235
0.827451 0.886275 0.552941
1.000000 1.000000 0.678431
0.839216 0.839216 0.494118
1.000000 1.000000 0.780392
0.752941 1.000000 0.964706
0.274510 0.909804 0.678431
0.329412 0.913725 0.698039
0.427451 0.984314 0.756863
0.407843 0.952941 0.737255
0.380392 0.937255 0.709804
0.552941 0.996078 0.827451
0.435294 0.956863 0.733333
0.109804 0.745098 0.513725
0.360784 0.870588 0.635294
0.431373 0.909804 0.686275
0.521569 0.941176 0.729412
0.611765 1.000000 0.800000
0.486275 0.870588 0.670588
0.525490 0.862745 0.670588
0.576471 0.901961 0.690196
0.584314 0.862745 0.643137
0.756863 0.992157 0.780392
0.752941 0.949020 0.709804
0.772549 0.933333 0.705882
0.800000 0.937255 0.686275
0.698039 0.776471 0.529412
0.847059 0.886275 0.639216
0.862745 0.878431 0.580392
0.894118 0.886275 0.584314
0.443137 0.929412 0.717647
0.356863 0.862745 0.650980
0.541176 1.000000 0.807843
0.313725 0.843137 0.615686
0.392157 0.882353 0.654902
0.376471 0.874510 0.658824
0.419608 0.917647 0.701961
0.380392 0.854902 0.647059
0.427451 0.894118 0.666667
0.815686 1.000000 0.937255
0.576471 1.000000 0.796078
0.788235 1.000000 0.890196
0.443137 0.831373 0.619608
0.482353 0.847059 0.639216
0.678431 1.000000 0.811765
0.666667 0.960784 0.741176
0.623529 0.901961 0.674510
0.784314 1.000000 0.819608
0.737255 0.949020 0.721569
0.827451 0.996078 0.776471
0.733333 0.890196 0.647059
0.745098 0.839216 0.603922
0.823529 0.898039 0.639216
1.000000 1.000000 0.905882
1.000000 0.988235 0.741176
0.596078 0.980392 0.788235
0.498039 0.901961 0.694118
0.615686 0.996078 0.796078
0.549020 0.925490 0.745098
0.580392 0.964706 0.764706
0.372549 0.764706 0.568627
0.509804 0.890196 0.690196
0.580392 0.949020 0.752941
0.482353 0.850980 0.647059
0.615686 0.960784 0.764706
0.678431 1.000000 0.811765
0.647059 0.968627 0.776471
0.592157 0.898039 0.709804
0.698039 0.988235 0.796078
0.694118 0.956863 0.784314
0.752941 0.992157 0.827451
0.686275 0.913725 0.717647
0.749020 0.952941 0.764706
0.776471 0.964706 0.776471
0.705882 0.858824 0.650980
0.803922 0.929412 0.733333
0.925490 1.000000 0.823529
0.764706 0.866667 0.619608
0.968627 1.000000 0.800000
1.000000 1.000000 0.847059
0.545098 0.898039 0.698039
0.721569 1.000000 0.823529
0.882353 1.000000 0.952941
0.709804 0.988235 0.815686
0.737255 1.000000 0.835294
0.725490 0.992157 0.831373
0.792157 1.000000 0.882353
0.843137 0.992157 0.894118
0.776471 1.000000 0.862745
0.662745 0.949020 0.768627
0.643137 0.925490 0.737255
0.717647 0.976471 0.788235
0.623529 0.890196 0.698039
0.925490 1.000000 0.925490
1.000000 1.000000 0.992157
0.709804 0.917647 0.745098
0.996078 0.996078 0.949020
0.835294 1.000000 0.843137
0.800000 0.960784 0.788235
0.960784 0.996078 0.882353
0.972549 0.996078 0.886275
0.968627 0.996078 0.862745
0.941176 1.000000 0.831373
0.858824 0.949020 0.729412
0.878431 0.956863 0.725490
0.701961 0.968627 0.776471
0.733333 0.980392 0.811765
0.862745 1.000000 0.905882
0.843137 0.996078 0.874510
0.831373 1.000000 0.874510
0.956863 1.000000 0.964706
0.741176 0.980392 0.815686
0.854902 1.000000 0.878431
0.650980 0.952941 0.733333
0.878431 1.000000 0.909804
0.705882 0.952941 0.768627
0.913725 1.000000 0.921569
1.000000 0.996078 1.000000
0.815686 0.992157 0.839216
0.764706 0.964706 0.803922
0.847059 0.996078 0.843137
0.698039 0.921569 0.721569
0.984314 1.000000 0.933333
0.807843 0.960784 0.784314
1.000000 0.992157 0.956863
0.941176 1.000000 0.882353
0.968627 0.996078 0.874510
0.980392 0.992157 0.870588
0.925490 0.992157 0.827451
0.890196 0.968627 0.768627
0.800000 1.000000 0.831373
0.764706 0.988235 0.827451
0.815686 0.996078 0.850980
1.000000 1.000000 1.000000
0.666667 0.972549 0.745098
0.811765 0.992157 0.847059
0.866667 0.996078 0.874510
1.000000 0.996078 1.000000
0.976471 1.000000 0.952941
0.819608 0.992157 0.850980
0.831373 0.996078 0.854902
0.988235 0.992157 0.960784
0.807843 0.984314 0.815686
0.768627 0.980392 0.788235
1.000000 1.000000 1.000000
0.874510 0.992157 0.858824
0.760784 0.972549 0.768627
1.000000 1.000000 0.992157
0.890196 0.988235 0.862745
0.811765 0.984314 0.792157
0.803922 0.976471 0.768627
0.992157 1.000000 0.913725
0.729412 0.984314 0.725490
0.729412 0.980392 0.690196
1.000000 1.000000 0.921569
0.007843 0.003922 0.000000
0.000000 0.000000 0.019608
0.125490 0.015686 0.062745
0.000000 0.003922 0.000000
0.047059 0.000000 0.023529
0.247059 0.003922 0.094118
0.058824 0.003922 0.000000
0.180392 0.011765 0.047059
0.145098 0.003922 0.019608
0.168627 0.003922 0.019608
0.211765 0.000000 0.015686
0.239216 0.000000 0.007843
0.200000 0.000000 0.000000
0.447059 0.027451 0.050980
0.352941 0.000000 0.000000
0.572549 0.000000 0.043137
0.627451 0.000000 0.054902
0.556863 0.000000 0.000000
0.580392 0.000000 0.000000
0.721569 0.003922 0.019608
0.717647 0.003922 0.000000
0.929412 0.000000 0.078431
0.776471 0.000000 0.003922
0.941176 0.000000 0.011765
0.976471 0.003922 0.003922
0.003922 0.003922 0.003922
0.164706 0.043137 0.113725
0.133333 0.023529 0.078431
0.086275 0.023529 0.035294
0.003922 0.003922 0.003922
0.192157 0.074510 0.074510
0.129412 0.043137 0.050980
0.109804 0.000000 0.015686
0.196078 0.047059 0.035294
0.168627 0.000000 0.000000
0.215686 0.000000 0.000000
0.317647 0.039216 0.023529
0.403922 0.082353 0.035294
0.313725 0.000000 0.007843
0.635294 0.188235 0.086275
0.333333 0.003922 0.003922
0.298039 0.000000 0.000000
0.611765 0.000000 0.003922
0.627451 0.000000 0.000000
0.690196 0.000000 0.000000
0.796078 0.003922 0.000000
0.717647 0.003922 0.000000
0.894118 0.000000 0.003922
0.874510 0.000000 0.000000
0.803922 0.003922 0.000000
0.039216 0.031373 0.035294
0.231373 0.188235 0.219608
0.058824 0.043137 0.047059
0.152941 0.105882 0.105882
0.011765 0.000000 0.000000
0.317647 0.266667 0.192157
0.000000 0.000000 0.000000
0.027451 0.007843 0.000000
0.000000 0.003922 0.000000
0.047059 0.000000 0.000000
0.196078 0.007843 0.007843
0.478431 0.243137 0.098039
0.509804 0.223529 0.086275
0.545098 0.196078 0.062745
0.309804 0.003922 0.003922
0.403922 0.003922 0.000000
0.482353 0.003922 0.000000
0.862745 0.270588 0.101961
0.788235 0.129412 0.015686
0.701961 0.003922 0.003922
0.705882 0.000000 0.000000
0.756863 0.000000 0.000000
0.819608 0.000000 0.011765
0.972549 0.000000 0.000000
0.854902 0.000000 0.000000
0.117647 0.239216 0.180392
0.003922 0.050980 0.011765
0.156863 0.223529 0.184314
0.003922 0.031373 0.003922
0.184314 0.196078 0.168627
0.000000 0.003922 0.000000
0.074510 0.062745 0.000000
0.078431 0.074510 0.003922
0.003922 0.000000 0.000000
0.372549 0.278431 0.129412
0.305882 0.192157 0.019608
0.372549 0.211765 0.007843
0.368627 0.141176 0.000000
0.364706 0.070588 0.000000
0.435294 0.078431 0.000000
0.525490 0.133333 0.007843
0.505882 0.003922 0.007843
0.584314 0.000000 0.000000
0.568627 0.000000 0.000000
0.933333 0.278431 0.062745
0.564706 0.000000 0.000000
0.925490 0.074510 0.000000
0.886275 0.003922 0.000000
0.784314 0.000000 0.011765
0.882353 0.000000 0.000000
0.000000 0.160784 0.019608
0.000000 0.211765 0.098039
0.007843 0.035294 0.003922
0.000000 0.164706 0.058824
0.003922 0.156863 0.074510
0.129412 0.243137 0.133333
0.066667 0.172549 0.011765
0.133333 0.207843 0.031373
0.137255 0.160784 0.011765
0.200000 0.200000 0.003922
0.337255 0.298039 0.015686
0.239216 0.164706 0.000000
0.360784 0.215686 0.007843
0.450980 0.250980 0.000000
0.443137 0.176471 0.000000
0.392157 0.050980 0.011765
0.623529 0.215686 0.000000
0.592157 0.125490 0.000000
0.741176 0.231373 0.003922
0.756863 0.176471 0.000000
0.788235 0.105882 0.007843
0.760784 0.000000 0.000000
0.909804 0.000000 0.000000
0.992157 0.015686 0.000000
0.678431 0.003922 0.003922
0.000000 0.298039 0.156863
0.007843 0.027451 0.000000
0.000000 0.168627 0.039216
0.007843 0.129412 0.007843
0.000000 0.098039 0.000000
0.000000 0.137255 0.015686
0.164706 0.301961 0.172549
0.062745 0.192157 0.015686
0.325490 0.403922 0.203922
0.156863 0.207843 0.000000
0.239216 0.247059 0.000000
0.196078 0.168627 0.003922
0.466667 0.364706 0.035294
0.333333 0.184314 0.007843
0.450980 0.227451 0.011765
0.572549 0.290196 0.000000
0.525490 0.176471 0.003922
0.678431 0.266667 0.000000
0.541176 0.015686 0.003922
0.807843 0.262745 0.007843
0.686275 0.000000 0.000000
0.823529 0.082353 0.003922
0.945098 0.145098 0.000000
0.878431 0.000000 0.000000
0.996078 0.000000 0.011765
0.000000 0.270588 0.047059
0.000000 0.329412 0.125490
0.000000 0.125490 0.003922
0.000000 0.309804 0.121569
0.000000 0.156863 0.000000
0.003922 0.309804 0.152941
0.007843 0.113725 0.000000
0.109804 0.376471 0.176471
0.231373 0.407843 0.184314
0.062745 0.235294 0.003922
0.227451 0.309804 0.000000
0.298039 0.317647 0.003922
0.384314 0.356863 0.000000
0.431373 0.352941 0.003922
0.419608 0.290196 0.000000
0.576471 0.380392 0.000000
0.533333 0.270588 0.003922
0.713725 0.372549 0.000000
0.701961 0.309804 0.003922
0.819608 0.341176 0.003922
0.682353 0.149020 0.000000
0.996078 0.419608 0.011765
0.815686 0.086275 0.003922
1.000000 0.243137 0.003922
0.913725 0.007843 0.000000
0.000000 0.392157 0.133333
0.003922 0.317647 0.078431
0.000000 0.517647 0.282353
0.000000 0.203922 0.000000
0.000000 0.443137 0.223529
0.000000 0.254902 0.027451
0.000000 0.458824 0.254902
0.003922 0.450980 0.219608
0.250980 0.556863 0.321569
0.156863 0.400000 0.105882
0.352941 0.517647 0.180392
0.313725 0.411765 0.003922
0.231373 0.294118 0.000000
0.423529 0.392157 0.003922
0.411765 0.341176 0.003922
0.627451 0.509804 0.000000
0.709804 0.521569 0.000000
0.513725 0.290196 0.000000
0.639216 0.349020 0.007843
0.843137 0.466667 0.000000
0.996078 0.572549 0.000000
0.666667 0.160784 0.007843
1.000000 0.474510 0.011765
0.992157 0.329412 0.003922
1.000000 0.400000 0.003922
0.000000 0.474510 0.196078
0.000000 0.549020 0.262745
0.000000 0.427451 0.137255
0.000000 0.529412 0.266667
0.000000 0.274510 0.000000
0.003922 0.498039 0.250980
0.000000 0.494118 0.262745
0.000000 0.474510 0.239216
0.003922 0.392157 0.137255
0.043137 0.474510 0.188235
0.243137 0.509804 0.184314
0.294118 0.478431 0.039216
0.388235 0.505882 0.000000
0.498039 0.549020 0.000000
0.556863 0.552941 0.000000
0.454902 0.411765 0.000000
0.619608 0.525490 0.000000
0.717647 0.568627 0.007843
0.745098 0.525490 0.000000
0.749020 0.474510 0.000000
0.917647 0.564706 0.000000
0.952941 0.537255 0.003922
0.976471 0.490196 0.003922
0.952941 0.407843 0.000000
1.000000 0.411765 0.007843
0.000000 0.654902 0.349020
0.000000 0.450980 0.149020
0.011765 0.717647 0.427451
0.000000 0.627451 0.345098
0.000000 0.545098 0.278431
0.000000 0.494118 0.215686
0.003922 0.556863 0.290196
0.003922 0.552941 0.305882
0.000000 0.545098 0.298039
0.000000 0.525490 0.243137
0.035294 0.501961 0.180392
0.000000 0.368627 0.000000
0.337255 0.549020 0.109804
0.513725 0.639216 0.156863
0.490196 0.560784 0.000000
0.600000 0.615686 0.007843
0.745098 0.701961 0.003922
0.807843 0.709804 0.000000
0.780392 0.643137 0.000000
0.929412 0.725490 0.003922
0.729412 0.490196 0.000000
0.913725 0.603922 0.003922
0.949020 0.572549 0.000000
0.901961 0.478431 0.000000
0.960784 0.478431 0.003922
0.000000 0.572549 0.254902
0.000000 0.568627 0.235294
0.000000 0.529412 0.207843
0.003922 0.537255 0.239216
0.000000 0.619608 0.329412
0.000000 0.529412 0.231373
0.000000 0.447059 0.152941
0.003922 0.592157 0.313725
0.011765 0.411765 0.152941
