other luts/Cinestill 800T 35mm original.cube
#Generated with IWLTBAP LUT Generator
#Website: http://luts.iwltbap.com
TITLE "ÆØ¹â-1"
#LUT size
LUT_3D_SIZE 5
#LUT data points
0.058824 0.105882 0.152941
0.109804 0.000000 0.000000
0.580392 0.160784 0.000000
0.788235 0.219608 0.000000
0.992157 0.600000 0.466667
0.207843 0.160784 0.003922
0.000000 0.094118 0.000000
0.780392 0.541176 0.294118
0.819608 0.396078 0.152941
0.854902 0.474510 0.345098
0.007843 0.454902 0.109804
0.003922 0.603922 0.352941
0.541176 0.705882 0.376471
0.756863 0.611765 0.407843
0.992157 0.831373 0.705882
0.000000 0.835294 0.372549
0.000000 0.976471 0.796078
0.003922 0.839216 0.588235
0.901961 1.000000 0.819608
0.784314 0.862745 0.717647
0.600000 0.992157 0.960784
0.717647 0.996078 1.000000
0.878431 0.996078 1.000000
1.000000 0.996078 1.000000
0.811765 0.929412 0.929412
0.000000 0.215686 0.294118
0.200000 0.239216 0.337255
0.341176 0.094118 0.066667
0.682353 0.294118 0.203922
0.800000 0.560784 0.376471
0.286275 0.156863 0.137255
0.176471 0.309804 0.349020
0.725490 0.494118 0.470588
0.713725 0.321569 0.258824
0.964706 0.639216 0.607843
0.003922 0.431373 0.207843
0.011765 0.635294 0.525490
0.403922 0.592157 0.403922
0.839216 0.737255 0.639216
0.913725 0.768627 0.698039
0.000000 0.827451 0.486275
0.003922 0.701961 0.568627
0.000000 0.945098 0.737255
0.819608 0.968627 0.807843
0.749020 0.850980 0.752941
0.564706 0.992157 0.917647
1.000000 0.996078 1.000000
0.325490 1.000000 0.929412
0.807843 0.996078 0.996078
0.811765 0.933333 0.945098
0.000000 0.360784 0.686275
0.011765 0.270588 0.709804
0.133333 0.019608 0.270588
0.674510 0.349020 0.529412
0.992157 0.807843 0.847059
0.360784 0.278431 0.549020
0.003922 0.333333 0.615686
0.392157 0.333333 0.588235
0.756863 0.466667 0.658824
0.886275 0.658824 0.807843
0.419608 0.745098 0.768627
0.007843 0.709804 0.788235
0.537255 0.721569 0.784314
0.635294 0.584314 0.611765
0.854902 0.768627 0.819608
0.000000 0.749020 0.627451
0.000000 0.803922 0.764706
0.254902 0.831373 0.792157
0.654902 0.835294 0.784314
0.894118 0.996078 0.984314
0.580392 0.952941 0.960784
0.666667 1.000000 1.000000
0.917647 1.000000 1.000000
0.815686 0.996078 0.988235
0.823529 0.941176 0.980392
0.000000 0.345098 0.725490
0.003922 0.262745 0.639216
0.149020 0.270588 0.627451
0.517647 0.380392 0.701961
0.639216 0.564706 0.784314
0.239216 0.333333 0.686275
0.000000 0.439216 0.819608
0.243137 0.411765 0.772549
0.666667 0.552941 0.874510
0.729412 0.658824 0.901961
0.180392 0.674510 0.835294
0.000000 0.800000 0.972549
0.431373 0.752941 0.949020
0.545098 0.600000 0.776471
0.862745 0.866667 0.988235
0.913725 0.996078 1.000000
0.000000 0.721569 0.768627
0.466667 0.925490 0.960784
0.498039 0.725490 0.772549
0.756863 0.882353 0.933333
0.874510 1.000000 0.996078
0.996078 1.000000 1.000000
0.905882 1.000000 0.992157
0.905882 1.000000 1.000000
0.800000 0.929412 0.996078
0.000000 0.643137 0.992157
0.000000 0.411765 0.741176
0.188235 0.509804 0.831373
0.470588 0.521569 0.831373
0.701961 0.741176 0.980392
0.000000 0.337255 0.717647
0.003922 0.392157 0.725490
0.301961 0.627451 0.941176
0.403922 0.470588 0.776471
0.921569 0.913725 0.996078
0.450980 0.835294 1.000000
0.400000 0.866667 0.992157
0.349020 0.717647 0.917647
0.560784 0.717647 0.917647
0.627451 0.705882 0.952941
0.521569 0.890196 1.000000
0.439216 0.949020 1.000000
0.435294 0.843137 0.941176
0.682353 0.886275 0.968627
0.682353 0.854902 0.968627
0.772549 1.000000 1.000000
0.533333 0.960784 0.988235
0.533333 0.870588 0.921569
0.603922 0.811765 0.874510
0.768627 0.921569 0.941176
