other luts/Cinestill 400D 35mm 偏黄.cube
#Generated with IWLTBAP LUT Generator
#Website: http://luts.iwltbap.com
TITLE "Æ«»Æ"
#LUT size
LUT_3D_SIZE 25
#LUT data points
0.000000 0.003922 0.000000
0.196078 0.094118 0.098039
0.000000 0.000000 0.007843
0.141176 0.027451 0.035294
0.156863 0.000000 0.000000
0.392157 0.160784 0.098039
0.196078 0.000000 0.000000
0.372549 0.027451 0.019608
0.286275 0.000000 0.000000
0.470588 0.047059 0.000000
0.337255 0.000000 0.000000
0.662745 0.196078 0.078431
0.560784 0.003922 0.000000
0.654902 0.098039 0.011765
0.690196 0.101961 0.003922
0.701961 0.031373 0.003922
0.894118 0.247059 0.058824
0.772549 0.043137 0.000000
0.890196 0.180392 0.000000
0.917647 0.188235 0.003922
0.929412 0.160784 0.003922
0.862745 0.003922 0.000000
0.976471 0.137255 0.000000
0.996078 0.325490 0.050980
0.996078 0.047059 0.000000
0.403922 0.003922 0.000000
0.000000 0.000000 0.000000
0.192157 0.129412 0.078431
0.054902 0.000000 0.000000
0.341176 0.172549 0.098039
0.192157 0.000000 0.000000
0.435294 0.160784 0.062745
0.196078 0.000000 0.003922
0.396078 0.031373 0.000000
0.584314 0.192157 0.058824
0.509804 0.066667 0.000000
0.525490 0.027451 0.000000
0.450980 0.003922 0.003922
0.749020 0.219608 0.043137
0.592157 0.003922 0.000000
0.890196 0.282353 0.094118
0.650980 0.000000 0.000000
0.831373 0.160784 0.000000
0.952941 0.266667 0.019608
0.827451 0.043137 0.000000
1.000000 0.278431 0.003922
0.937255 0.156863 0.003922
0.972549 0.160784 0.000000
1.000000 0.258824 0.000000
1.000000 0.090196 0.000000
0.407843 0.000000 0.003922
0.000000 0.000000 0.000000
0.176471 0.133333 0.062745
0.184314 0.113725 0.035294
0.305882 0.168627 0.050980
0.203922 0.015686 0.000000
0.282353 0.047059 0.003922
0.388235 0.129412 0.003922
0.411765 0.090196 0.003922
0.376471 0.000000 0.003922
0.541176 0.152941 0.000000
0.584314 0.137255 0.003922
0.674510 0.196078 0.003922
0.650980 0.129412 0.007843
0.737255 0.188235 0.000000
0.713725 0.109804 0.007843
0.737255 0.113725 0.000000
0.858824 0.219608 0.000000
0.890196 0.223529 0.000000
0.941176 0.235294 0.003922
0.976471 0.250980 0.000000
1.000000 0.392157 0.152941
0.898039 0.050980 0.000000
0.925490 0.035294 0.007843
1.000000 0.380392 0.152941
0.458824 0.105882 0.011765
0.000000 0.011765 0.000000
0.152941 0.149020 0.031373
0.094118 0.058824 0.000000
0.152941 0.062745 0.000000
0.423529 0.270588 0.101961
0.203922 0.015686 0.000000
0.400000 0.156863 0.003922
0.278431 0.000000 0.000000
0.603922 0.262745 0.086275
0.541176 0.176471 0.003922
0.572549 0.168627 0.000000
0.607843 0.172549 0.000000
0.615686 0.125490 0.007843
0.729412 0.203922 0.003922
0.870588 0.329412 0.082353
0.737255 0.149020 0.003922
0.921569 0.317647 0.035294
0.780392 0.098039 0.000000
0.788235 0.074510 0.000000
0.921569 0.219608 0.000000
1.000000 0.266667 0.000000
0.941176 0.160784 0.000000
0.996078 0.286275 0.000000
1.000000 0.152941 0.000000
0.458824 0.258824 0.090196
0.000000 0.105882 0.000000
0.054902 0.105882 0.000000
0.231373 0.211765 0.054902
0.184314 0.149020 0.000000
0.278431 0.180392 0.019608
0.352941 0.196078 0.000000
0.282353 0.101961 0.000000
0.556863 0.309804 0.101961
0.537255 0.258824 0.015686
0.545098 0.207843 0.007843
0.541176 0.180392 0.000000
0.662745 0.247059 0.003922
0.658824 0.203922 0.003922
0.603922 0.094118 0.000000
0.878431 0.356863 0.086275
0.894118 0.333333 0.027451
0.847059 0.239216 0.000000
0.847059 0.200000 0.011765
0.850980 0.160784 0.000000
0.945098 0.258824 0.003922
0.945098 0.223529 0.000000
0.964706 0.188235 0.000000
0.988235 0.196078 0.000000
1.000000 0.305882 0.007843
0.000000 0.121569 0.000000
0.058824 0.227451 0.015686
0.192157 0.305882 0.086275
0.168627 0.239216 0.000000
0.129412 0.156863 0.000000
0.345098 0.321569 0.133333
0.282353 0.215686 0.003922
0.392157 0.270588 0.047059
0.286275 0.149020 0.000000
0.556863 0.333333 0.054902
0.478431 0.215686 0.000000
0.525490 0.207843 0.000000
0.552941 0.215686 0.000000
0.533333 0.152941 0.000000
0.662745 0.231373 0.000000
0.741176 0.262745 0.007843
0.713725 0.215686 0.000000
0.819608 0.282353 0.000000
0.854902 0.270588 0.003922
0.917647 0.305882 0.003922
0.909804 0.250980 0.000000
0.996078 0.384314 0.000000
0.972549 0.258824 0.003922
0.901961 0.141176 0.000000
1.000000 0.337255 0.003922
0.596078 0.298039 0.003922
0.007843 0.215686 0.000000
0.133333 0.278431 0.015686
0.125490 0.215686 0.011765
0.188235 0.231373 0.000000
0.356863 0.352941 0.129412
0.258824 0.223529 0.007843
0.372549 0.294118 0.054902
0.431373 0.313725 0.027451
0.458824 0.305882 0.011765
0.541176 0.321569 0.000000
0.537255 0.282353 0.015686
0.588235 0.274510 0.000000
0.603922 0.250980 0.003922
0.721569 0.317647 0.007843
0.647059 0.231373 0.003922
0.686275 0.211765 0.003922
0.831373 0.317647 0.003922
0.890196 0.349020 0.003922
0.878431 0.286275 0.000000
1.000000 0.384314 0.003922
0.839216 0.188235 0.000000
1.000000 0.352941 0.000000
0.937255 0.231373 0.000000
0.996078 0.262745 0.000000
0.400000 0.196078 0.007843
0.039216 0.352941 0.003922
0.203922 0.349020 0.035294
0.192157 0.325490 0.000000
0.200000 0.286275 0.000000
0.192157 0.239216 0.000000
0.219608 0.223529 0.000000
0.309804 0.266667 0.007843
0.419608 0.341176 0.062745
0.537255 0.427451 0.141176
0.403922 0.254902 0.007843
0.509804 0.321569 0.000000
0.603922 0.352941 0.000000
0.572549 0.278431 0.011765
0.694118 0.341176 0.003922
0.721569 0.333333 0.000000
0.894118 0.454902 0.015686
0.815686 0.349020 0.000000
0.752941 0.243137 0.015686
0.929412 0.380392 0.000000
0.788235 0.211765 0.000000
0.996078 0.403922 0.000000
0.937255 0.294118 0.011765
0.988235 0.423529 0.000000
1.000000 0.247059 0.003922
0.419608 0.313725 0.000000
0.000000 0.360784 0.003922
0.203922 0.407843 0.023529
0.176471 0.345098 0.000000
0.294118 0.427451 0.090196
0.176471 0.266667 0.000000
0.356863 0.411765 0.078431
0.274510 0.290196 0.000000
0.368627 0.337255 0.003922
0.392157 0.321569 0.000000
0.396078 0.294118 0.003922
0.552941 0.407843 0.000000
0.600000 0.388235 0.003922
0.603922 0.376471 0.000000
0.647059 0.360784 0.000000
0.635294 0.294118 0.000000
0.796078 0.396078 0.000000
0.745098 0.313725 0.003922
0.901961 0.439216 0.007843
0.917647 0.415686 0.000000
0.960784 0.415686 0.003922
0.890196 0.321569 0.000000
1.000000 0.458824 0.000000
1.000000 0.380392 0.000000
1.000000 0.349020 0.000000
0.333333 0.345098 0.000000
0.278431 0.549020 0.184314
0.035294 0.329412 0.007843
0.211765 0.419608 0.000000
0.164706 0.356863 0.007843
0.384314 0.517647 0.149020
0.254902 0.352941 0.000000
0.415686 0.454902 0.113725
0.376471 0.384314 0.003922
0.380392 0.352941 0.000000
0.611765 0.529412 0.219608
0.396078 0.305882 0.000000
0.513725 0.372549 0.003922
0.592157 0.400000 0.000000
0.756863 0.490196 0.000000
0.792157 0.486275 0.000000
0.619608 0.294118 0.000000
0.956863 0.545098 0.043137
0.890196 0.454902 0.000000
0.929412 0.454902 0.000000
0.882353 0.368627 0.011765
1.000000 0.474510 0.000000
0.960784 0.372549 0.000000
0.996078 0.533333 0.050980
1.000000 0.431373 0.000000
0.019608 0.466667 0.000000
0.129412 0.490196 0.003922
0.121569 0.478431 0.000000
0.168627 0.474510 0.003922
0.219608 0.470588 0.000000
0.239216 0.466667 0.000000
0.298039 0.466667 0.003922
0.250980 0.388235 0.000000
0.411765 0.501961 0.094118
0.294118 0.345098 0.000000
0.462745 0.462745 0.078431
0.556863 0.517647 0.176471
0.450980 0.376471 0.003922
0.729412 0.596078 0.211765
0.647059 0.482353 0.007843
0.764706 0.537255 0.011765
0.741176 0.462745 0.000000
0.807843 0.486275 0.000000
0.925490 0.564706 0.003922
0.913725 0.490196 0.000000
0.996078 0.596078 0.031373
1.000000 0.541176 0.000000
1.000000 0.501961 0.003922
0.941176 0.380392 0.003922
0.996078 0.470588 0.000000
0.517647 0.470588 0.086275
0.000000 0.423529 0.000000
0.227451 0.572549 0.090196
0.262745 0.568627 0.090196
0.250980 0.533333 0.031373
0.282353 0.513725 0.019608
0.305882 0.521569 0.023529
0.313725 0.474510 0.003922
0.333333 0.454902 0.000000
0.490196 0.560784 0.160784
0.431373 0.474510 0.003922
0.423529 0.435294 0.000000
0.611765 0.560784 0.184314
0.607843 0.529412 0.149020
0.831373 0.698039 0.278431
0.584314 0.423529 0.000000
0.760784 0.537255 0.000000
0.784314 0.513725 0.003922
0.819608 0.509804 0.000000
0.823529 0.470588 0.000000
0.921569 0.521569 0.000000
1.000000 0.631373 0.066667
0.937255 0.450980 0.000000
0.964706 0.458824 0.000000
1.000000 0.600000 0.137255
0.435294 0.466667 0.000000
0.160784 0.607843 0.070588
0.133333 0.529412 0.011765
0.192157 0.549020 0.000000
0.262745 0.580392 0.078431
0.231373 0.517647 0.000000
0.337255 0.584314 0.074510
0.278431 0.490196 0.011765
0.325490 0.501961 0.003922
0.419608 0.541176 0.043137
0.505882 0.572549 0.121569
0.466667 0.509804 0.039216
0.494118 0.498039 0.000000
0.572549 0.529412 0.105882
0.713725 0.639216 0.239216
0.670588 0.541176 0.035294
0.705882 0.545098 0.000000
0.733333 0.521569 0.000000
0.898039 0.631373 0.007843
0.839216 0.545098 0.000000
0.960784 0.615686 0.000000
0.913725 0.509804 0.000000
1.000000 0.572549 0.003922
1.000000 0.533333 0.000000
1.000000 0.450980 0.000000
0.505882 0.611765 0.152941
0.015686 0.600000 0.003922
0.054902 0.560784 0.003922
0.368627 0.733333 0.223529
0.203922 0.592157 0.000000
0.278431 0.619608 0.074510
0.286275 0.584314 0.003922
0.345098 0.588235 0.050980
0.356863 0.568627 0.000000
0.537255 0.690196 0.239216
0.494118 0.627451 0.156863
0.490196 0.556863 0.054902
0.513725 0.549020 0.043137
0.564706 0.568627 0.101961
0.584314 0.545098 0.101961
0.588235 0.529412 0.031373
0.619608 0.513725 0.000000
0.882353 0.721569 0.227451
0.780392 0.584314 0.000000
0.823529 0.580392 0.003922
0.972549 0.666667 0.000000
0.909804 0.560784 0.000000
0.956863 0.568627 0.000000
0.976471 0.545098 0.000000
0.996078 0.560784 0.003922
0.356863 0.588235 0.000000
0.050980 0.619608 0.003922
0.125490 0.611765 0.000000
0.286275 0.713725 0.160784
0.321569 0.705882 0.176471
0.282353 0.647059 0.086275
0.352941 0.682353 0.141176
0.270588 0.576471 0.000000
0.498039 0.729412 0.227451
0.376471 0.584314 0.000000
0.407843 0.572549 0.000000
0.450980 0.564706 0.000000
0.615686 0.690196 0.200000
0.498039 0.541176 0.000000
0.756863 0.749020 0.305882
0.615686 0.560784 0.082353
0.690196 0.607843 0.149020
0.784314 0.654902 0.149020
0.843137 0.670588 0.090196
0.941176 0.721569 0.105882
0.870588 0.596078 0.007843
0.890196 0.584314 0.003922
0.988235 0.725490 0.031373
0.933333 0.541176 0.000000
1.000000 0.666667 0.007843
0.207843 0.768627 0.203922
0.105882 0.713725 0.109804
0.003922 0.631373 0.000000
0.141176 0.705882 0.090196
0.211765 0.709804 0.125490
0.145098 0.650980 0.003922
0.286275 0.701961 0.113725
0.294118 0.666667 0.054902
0.368627 0.690196 0.117647
0.333333 0.611765 0.000000
0.454902 0.686275 0.129412
0.400000 0.600000 0.000000
0.615686 0.760784 0.254902
0.541176 0.639216 0.078431
0.603922 0.670588 0.160784
0.576471 0.588235 0.003922
0.807843 0.768627 0.317647
0.615686 0.549020 0.000000
0.843137 0.741176 0.274510
0.784314 0.647059 0.011765
0.803922 0.623529 0.003922
0.772549 0.549020 0.003922
0.992157 0.705882 0.000000
0.984314 0.658824 0.000000
1.000000 0.580392 0.000000
0.478431 0.635294 0.011765
0.019608 0.756863 0.133333
0.192157 0.741176 0.125490
0.250980 0.772549 0.180392
0.011765 0.635294 0.000000
0.270588 0.756863 0.145098
0.329412 0.745098 0.149020
0.286275 0.690196 0.027451
0.470588 0.800000 0.250980
0.341176 0.662745 0.000000
0.411765 0.670588 0.035294
0.462745 0.674510 0.062745
0.470588 0.658824 0.015686
0.650980 0.776471 0.254902
0.482353 0.576471 0.003922
0.662745 0.713725 0.196078
0.658824 0.658824 0.133333
0.686275 0.658824 0.137255
0.725490 0.670588 0.141176
0.764706 0.662745 0.129412
0.862745 0.721569 0.149020
0.996078 0.850980 0.290196
0.929412 0.694118 0.003922
1.000000 0.733333 0.000000
0.992157 0.717647 0.000000
0.400000 0.639216 0.000000
0.000000 0.721569 0.007843
0.290196 0.835294 0.227451
0.090196 0.729412 0.035294
0.137255 0.729412 0.035294
0.352941 0.835294 0.247059
0.301961 0.776471 0.160784
0.321569 0.768627 0.149020
0.396078 0.772549 0.176471
0.466667 0.800000 0.231373
0.431373 0.745098 0.129412
0.513725 0.772549 0.188235
0.611765 0.819608 0.270588
0.482353 0.650980 0.000000
0.643137 0.780392 0.223529
0.635294 0.741176 0.196078
0.709804 0.760784 0.243137
0.725490 0.741176 0.207843
0.662745 0.647059 0.062745
0.784314 0.725490 0.219608
0.725490 0.650980 0.098039
0.780392 0.650980 0.003922
0.870588 0.686275 0.003922
0.933333 0.717647 0.007843
0.984314 0.682353 0.000000
0.450980 0.764706 0.149020
0.000000 0.788235 0.105882
0.243137 0.847059 0.219608
0.254902 0.843137 0.219608
0.188235 0.792157 0.164706
0.141176 0.745098 0.062745
0.000000 0.647059 0.003922
0.290196 0.764706 0.109804
0.447059 0.850980 0.258824
0.317647 0.705882 0.000000
0.349020 0.713725 0.011765
0.431373 0.737255 0.094118
0.513725 0.784314 0.192157
0.654902 0.862745 0.305882
0.690196 0.866667 0.305882
0.658824 0.780392 0.231373
0.698039 0.807843 0.239216
0.698039 0.756863 0.203922
0.666667 0.686275 0.090196
0.725490 0.701961 0.152941
0.780392 0.733333 0.200000
0.874510 0.792157 0.290196
0.835294 0.713725 0.125490
0.984314 0.819608 0.247059
1.000000 0.737255 0.000000
0.352941 0.776471 0.133333
0.172549 0.847059 0.203922
0.247059 0.862745 0.215686
0.000000 0.756863 0.000000
0.090196 0.772549 0.054902
0.196078 0.796078 0.137255
0.188235 0.756863 0.054902
0.486275 0.960784 0.345098
0.250980 0.729412 0.000000
0.372549 0.792157 0.149020
0.564706 0.929412 0.341176
0.533333 0.843137 0.250980
0.549020 0.823529 0.235294
0.545098 0.796078 0.184314
0.498039 0.694118 0.000000
0.694118 0.858824 0.286275
0.780392 0.901961 0.352941
0.772549 0.847059 0.294118
0.654902 0.729412 0.125490
0.784314 0.800000 0.254902
0.886275 0.854902 0.333333
0.933333 0.878431 0.356863
0.894118 0.807843 0.278431
0.866667 0.733333 0.141176
1.000000 0.858824 0.298039
0.133333 0.843137 0.196078
0.164706 0.850980 0.211765
0.125490 0.835294 0.196078
0.254902 0.882353 0.262745
0.141176 0.811765 0.160784
0.200000 0.815686 0.168627
0.423529 0.933333 0.337255
0.184314 0.764706 0.082353
0.364706 0.850980 0.239216
0.454902 0.882353 0.274510
0.450980 0.862745 0.258824
0.631373 0.972549 0.419608
0.509804 0.835294 0.231373
0.568627 0.843137 0.262745
0.686275 0.909804 0.349020
0.576471 0.788235 0.207843
0.635294 0.800000 0.227451
0.698039 0.835294 0.278431
0.760784 0.839216 0.313725
0.835294 0.862745 0.345098
0.772549 0.788235 0.250980
0.992157 0.976471 0.486275
0.847059 0.792157 0.278431
0.968627 0.886275 0.396078
0.976471 0.811765 0.270588
0.537255 0.843137 0.262745
0.007843 0.819608 0.168627
0.352941 0.937255 0.333333
0.411765 0.972549 0.368627
0.137255 0.792157 0.141176
0.486275 1.000000 0.443137
0.301961 0.843137 0.231373
0.290196 0.823529 0.196078
0.129412 0.709804 0.000000
0.384314 0.839216 0.247059
0.556863 0.968627 0.372549
0.490196 0.874510 0.290196
0.537255 0.882353 0.301961
0.505882 0.811765 0.231373
0.631373 0.901961 0.341176
0.588235 0.831373 0.262745
0.650980 0.843137 0.278431
0.764706 0.925490 0.384314
0.792157 0.917647 0.396078
0.666667 0.760784 0.211765
0.803922 0.850980 0.317647
0.847059 0.858824 0.352941
0.878431 0.858824 0.349020
0.835294 0.784314 0.282353
0.925490 0.803922 0.313725
0.705882 1.000000 0.486275
0.007843 0.815686 0.176471
0.411765 0.992157 0.419608
0.254902 0.886275 0.274510
0.262745 0.882353 0.274510
0.270588 0.862745 0.262745
0.427451 0.972549 0.380392
0.392157 0.929412 0.341176
0.447059 0.949020 0.364706
0.415686 0.894118 0.317647
0.466667 0.913725 0.333333
0.462745 0.874510 0.305882
0.470588 0.854902 0.286275
0.639216 0.980392 0.427451
0.584314 0.886275 0.329412
0.631373 0.909804 0.352941
0.639216 0.862745 0.317647
0.631373 0.823529 0.270588
0.737255 0.894118 0.372549
0.925490 1.000000 0.537255
0.721569 0.811765 0.286275
0.894118 0.937255 0.435294
0.811765 0.831373 0.329412
0.870588 0.847059 0.360784
0.988235 0.921569 0.474510
0.603922 1.000000 0.450980
0.129412 0.870588 0.274510
0.262745 0.909804 0.305882
0.427451 0.996078 0.443137
0.180392 0.847059 0.227451
0.388235 0.968627 0.388235
0.470588 1.000000 0.447059
0.423529 0.964706 0.388235
0.286275 0.850980 0.274510
0.435294 0.937255 0.360784
0.513725 0.980392 0.423529
0.458824 0.886275 0.333333
0.678431 0.996078 0.521569
0.517647 0.886275 0.337255
0.564706 0.905882 0.360784
0.541176 0.839216 0.309804
0.709804 0.972549 0.458824
0.729412 0.960784 0.458824
0.780392 0.952941 0.466667
0.772549 0.925490 0.427451
0.807843 0.925490 0.439216
0.878431 0.956863 0.482353
0.909804 0.945098 0.494118
0.854902 0.866667 0.407843
1.000000 0.952941 0.529412
0.545098 0.996078 0.482353
0.270588 0.929412 0.360784
0.505882 0.992157 0.521569
0.356863 0.956863 0.400000
0.411765 0.984314 0.423529
0.235294 0.858824 0.294118
0.556863 1.000000 0.529412
0.427451 0.956863 0.411765
0.454902 0.956863 0.423529
0.447059 0.925490 0.400000
0.494118 0.937255 0.411765
0.505882 0.929412 0.392157
0.607843 1.000000 0.474510
0.458824 0.827451 0.294118
0.776471 0.996078 0.568627
0.596078 0.878431 0.376471
0.682353 0.933333 0.450980
0.725490 0.945098 0.462745
0.819608 0.976471 0.529412
0.807843 0.925490 0.478431
0.858824 0.952941 0.513725
0.925490 0.988235 0.560784
0.847059 0.874510 0.458824
0.937255 0.929412 0.525490
0.952941 0.921569 0.533333
0.062745 0.000000 0.003922
0.066667 0.000000 0.000000
0.239216 0.054902 0.117647
0.223529 0.000000 0.054902
0.294118 0.015686 0.086275
0.333333 0.000000 0.074510
0.313725 0.000000 0.035294
0.317647 0.000000 0.019608
0.490196 0.082353 0.117647
0.482353 0.035294 0.074510
0.627451 0.176471 0.164706
0.596078 0.070588 0.074510
0.537255 0.003922 0.003922
0.662745 0.082353 0.043137
0.533333 0.000000 0.007843
0.709804 0.011765 0.000000
0.835294 0.184314 0.090196
0.792157 0.074510 0.011765
0.862745 0.141176 0.007843
0.870588 0.109804 0.003922
0.996078 0.313725 0.176471
1.000000 0.258824 0.094118
1.000000 0.227451 0.062745
1.000000 0.231373 0.043137
1.000000 0.200000 0.054902
0.411765 0.000000 0.003922
0.168627 0.145098 0.184314
0.047059 0.000000 0.000000
0.270588 0.062745 0.101961
0.333333 0.086275 0.121569
0.250980 0.007843 0.019608
0.400000 0.074510 0.105882
0.580392 0.227451 0.235294
0.400000 0.003922 0.027451
0.490196 0.047059 0.062745
0.545098 0.082353 0.066667
0.568627 0.062745 0.039216
0.505882 0.000000 0.003922
0.713725 0.176471 0.105882
0.792157 0.223529 0.141176
0.800000 0.188235 0.101961
0.768627 0.121569 0.003922
0.874510 0.231373 0.094118
0.929412 0.235294 0.101961
0.937255 0.223529 0.078431
0.960784 0.203922 0.043137
1.000000 0.235294 0.062745
0.992157 0.262745 0.070588
1.000000 0.231373 0.015686
0.988235 0.200000 0.027451
0.482353 0.000000 0.070588
0.058824 0.101961 0.086275
0.129412 0.039216 0.015686
0.149020 0.035294 0.019608
0.305882 0.137255 0.113725
0.349020 0.121569 0.105882
0.356863 0.078431 0.054902
0.329412 0.019608 0.003922
0.486275 0.141176 0.094118
0.458824 0.062745 0.023529
0.541176 0.121569 0.050980
0.592157 0.152941 0.066667
0.627451 0.113725 0.035294
0.600000 0.039216 0.000000
0.784314 0.219608 0.113725
0.705882 0.082353 0.007843
0.698039 0.000000 0.000000
0.937255 0.313725 0.160784
0.749020 0.000000 0.003922
0.968627 0.278431 0.094118
0.843137 0.054902 0.000000
1.000000 0.254902 0.050980
0.992157 0.337255 0.133333
1.000000 0.317647 0.117647
0.992157 0.254902 0.078431
0.431373 0.054902 0.062745
0.133333 0.168627 0.101961
0.160784 0.109804 0.043137
0.129412 0.050980 0.007843
0.411765 0.274510 0.196078
0.364706 0.176471 0.090196
0.309804 0.094118 0.015686
0.568627 0.301961 0.211765
0.376471 0.074510 0.011765
0.400000 0.078431 0.000000
0.537255 0.156863 0.027451
0.600000 0.215686 0.078431
0.607843 0.164706 0.007843
0.658824 0.176471 0.011765
0.647059 0.125490 0.003922
0.756863 0.207843 0.007843
0.796078 0.227451 0.011765
0.737255 0.094118 0.000000
0.756863 0.070588 0.000000
0.921569 0.235294 0.011765
0.980392 0.274510 0.035294
0.952941 0.207843 0.003922
1.000000 0.305882 0.043137
1.000000 0.270588 0.000000
0.992157 0.254902 0.003922
0.301961 0.101961 0.000000
0.015686 0.086275 0.000000
0.086275 0.094118 0.000000
0.266667 0.227451 0.129412
0.266667 0.196078 0.101961
0.396078 0.274510 0.164706
0.313725 0.164706 0.023529
0.301961 0.105882 0.007843
0.482353 0.227451 0.062745
0.533333 0.227451 0.074510
0.352941 0.019608 0.000000
0.498039 0.125490 0.000000
0.647059 0.247059 0.054902
0.552941 0.098039 0.007843
0.623529 0.125490 0.000000
0.792157 0.270588 0.039216
0.839216 0.278431 0.050980
0.945098 0.349020 0.152941
0.800000 0.141176 0.000000
0.949020 0.290196 0.035294
0.847059 0.141176 0.000000
0.921569 0.192157 0.007843
0.937255 0.168627 0.011765
0.996078 0.250980 0.007843
0.996078 0.317647 0.058824
0.000000 0.149020 0.000000
0.156863 0.313725 0.109804
0.203922 0.333333 0.125490
0.121569 0.192157 0.003922
0.160784 0.184314 0.000000
0.207843 0.196078 0.000000
0.286275 0.215686 0.035294
0.356863 0.239216 0.043137
0.419608 0.266667 0.003922
0.505882 0.294118 0.011765
0.517647 0.262745 0.003922
0.443137 0.149020 0.000000
0.611765 0.270588 0.000000
0.607843 0.219608 0.003922
0.643137 0.211765 0.003922
0.713725 0.262745 0.007843
0.807843 0.309804 0.000000
0.800000 0.262745 0.000000
0.874510 0.313725 0.003922
0.917647 0.329412 0.000000
0.898039 0.262745 0.007843
0.996078 0.349020 0.000000
0.835294 0.109804 0.000000
1.000000 0.282353 0.000000
0.996078 0.254902 0.000000
0.478431 0.196078 0.000000
0.000000 0.309804 0.031373
0.200000 0.333333 0.094118
0.098039 0.203922 0.003922
0.223529 0.270588 0.011765
0.317647 0.329412 0.105882
0.305882 0.266667 0.027451
0.227451 0.152941 0.000000
0.388235 0.290196 0.027451
0.466667 0.301961 0.003922
0.560784 0.364706 0.031373
0.494118 0.254902 0.007843
0.678431 0.360784 0.003922
0.592157 0.247059 0.000000
0.662745 0.278431 0.000000
0.639216 0.211765 0.000000
0.831373 0.356863 0.000000
0.745098 0.243137 0.003922
0.870588 0.325490 0.000000
0.882353 0.325490 0.000000
0.984314 0.388235 0.000000
0.952941 0.313725 0.003922
0.976471 0.301961 0.003922
0.925490 0.227451 0.000000
1.000000 0.219608 0.000000
0.513725 0.325490 0.000000
0.000000 0.325490 0.000000
0.109804 0.290196 0.000000
0.270588 0.388235 0.105882
0.192157 0.282353 0.000000
0.164706 0.235294 0.007843
0.368627 0.376471 0.117647
0.407843 0.368627 0.125490
0.325490 0.254902 0.003922
0.400000 0.309804 0.000000
0.392157 0.243137 0.000000
0.529412 0.333333 0.000000
0.654902 0.403922 0.011765
0.611765 0.329412 0.007843
0.780392 0.415686 0.007843
0.768627 0.364706 0.000000
0.784314 0.356863 0.000000
0.807843 0.356863 0.000000
0.878431 0.380392 0.000000
0.890196 0.360784 0.007843
0.866667 0.317647 0.000000
0.945098 0.360784 0.000000
0.988235 0.349020 0.000000
1.000000 0.349020 0.011765
0.996078 0.352941 0.003922
0.498039 0.407843 0.141176
0.000000 0.294118 0.011765
0.125490 0.337255 0.000000
0.313725 0.482353 0.168627
0.129412 0.274510 0.011765
0.372549 0.454902 0.152941
0.278431 0.333333 0.000000
0.301961 0.321569 0.007843
0.403922 0.388235 0.098039
0.439216 0.372549 0.090196
0.411765 0.313725 0.000000
0.529412 0.403922 0.015686
0.564706 0.388235 0.000000
0.768627 0.521569 0.105882
0.627451 0.333333 0.007843
0.858824 0.505882 0.058824
0.768627 0.380392 0.011765
0.803922 0.380392 0.000000
0.996078 0.556863 0.133333
0.874510 0.388235 0.000000
0.996078 0.568627 0.172549
0.996078 0.478431 0.000000
0.996078 0.439216 0.000000
0.968627 0.341176 0.000000
0.913725 0.219608 0.007843
0.329412 0.349020 0.000000
0.188235 0.478431 0.098039
0.176471 0.423529 0.003922
0.137255 0.368627 0.000000
0.290196 0.466667 0.094118
0.227451 0.372549 0.000000
0.313725 0.407843 0.023529
0.431373 0.486275 0.145098
0.447059 0.454902 0.125490
0.545098 0.513725 0.219608
0.470588 0.423529 0.086275
0.611765 0.509804 0.180392
0.576471 0.435294 0.000000
0.721569 0.517647 0.047059
0.705882 0.458824 0.011765
0.733333 0.450980 0.000000
0.788235 0.447059 0.003922
0.784314 0.403922 0.000000
0.945098 0.505882 0.003922
0.898039 0.427451 0.000000
0.992157 0.537255 0.054902
0.905882 0.360784 0.000000
1.000000 0.435294 0.000000
0.976471 0.380392 0.000000
1.000000 0.411765 0.000000
0.200000 0.560784 0.141176
0.180392 0.521569 0.109804
0.000000 0.380392 0.000000
0.243137 0.537255 0.133333
0.258824 0.521569 0.109804
0.309804 0.529412 0.133333
0.207843 0.411765 0.000000
0.474510 0.596078 0.227451
0.298039 0.396078 0.000000
