other luts/Kodak Gold 100 _ 04 Skin Tones.cube
# Created by Adobe Lightroom plugin Export LUT (1.24.0)
# www.johnrellis.com/lightroom/exportlut.htm
# Preset: FCP - Kodak Gold 100 | 04 Skin Tones 
# Color profile: C:\Windows\System32\Spool\Drivers\Color\AdobeRGB1998.icc
LUT_3D_SIZE 5
DOMAIN_MIN 0.000000 0.000000 0.000000
DOMAIN_MAX 0.903226 0.903226 0.903226
0.000000 0.082429 0.000000
0.260166 0.112276 0.000000
0.675898 0.223697 0.000000
0.963622 0.315038 0.000000
1.000000 0.343877 0.000000
0.092256 0.209812 0.080476
0.279423 0.271489 0.000000
0.742031 0.389258 0.000000
0.986023 0.410925 0.000000
1.000000 0.404059 0.000000
0.214603 0.476356 0.130465
0.312963 0.456947 0.147280
0.700221 0.691249 0.000000
1.000000 0.666346 0.000000
1.000000 0.561913 0.000000
0.357061 0.749233 0.203250
0.420661 0.740017 0.216495
0.565484 0.737942 0.236332
0.930663 0.911070 0.000000
1.000000 0.799161 0.000000
0.532555 0.966247 0.440742
0.569268 0.962982 0.452979
0.673274 0.950347 0.490150
0.824826 0.976440 0.478187
1.000000 0.995209 0.000000
0.000000 0.084840 0.234745
0.237949 0.068208 0.232059
0.576226 0.072175 0.181857
0.918700 0.229374 0.012268
1.000000 0.297795 0.000000
0.000000 0.234989 0.232761
0.253086 0.256229 0.250950
0.669245 0.296818 0.180117
0.950561 0.353582 0.000000
1.000000 0.369085 0.000000
0.094179 0.513634 0.218814
0.335363 0.521080 0.270909
0.679194 0.672389 0.153079
0.997742 0.640833 0.000000
1.000000 0.549279 0.000000
0.337865 0.775265 0.293431
0.425940 0.767971 0.322240
0.566430 0.734707 0.347997
0.925902 0.908232 0.000000
1.000000 0.793393 0.000000
0.538079 0.968627 0.495399
0.574548 0.965179 0.505119
0.684382 0.955383 0.544884
0.829984 0.973083 0.553948
1.000000 0.994842 0.000000
0.000000 0.000000 0.587579
0.338384 0.000000 0.603143
0.616968 0.000000 0.591760
0.846311 0.000000 0.466194
1.000000 0.281224 0.399176
0.000000 0.187991 0.592889
0.256138 0.176028 0.607904
0.627771 0.164645 0.608026
0.850065 0.236698 0.467811
1.000000 0.358679 0.406622
0.000000 0.562066 0.573144
0.168307 0.580713 0.590631
0.645411 0.662226 0.654566
0.921782 0.634150 0.573724
1.000000 0.581048 0.470161
0.116304 0.808957 0.488411
0.324529 0.813016 0.503960
0.631037 0.818204 0.612909
0.907500 0.901762 0.605127
1.000000 0.823087 0.576562
0.443641 0.979858 0.544884
0.515099 0.977295 0.575402
0.697169 0.963531 0.667414
0.831174 0.954253 0.701503
1.000000 0.991241 0.562432
0.000000 0.000000 0.863981
0.324163 0.000000 0.869688
0.596368 0.000000 0.884611
0.882628 0.000000 0.856474
1.000000 0.345098 0.721431
0.000000 0.065705 0.864195
0.263890 0.000000 0.868223
0.573907 0.000000 0.882231
0.880858 0.019287 0.857572
1.000000 0.427466 0.726314
0.000000 0.473579 0.841978
0.000000 0.469612 0.848020
0.545373 0.527825 0.869444
0.870390 0.591302 0.861021
1.000000 0.611017 0.741909
0.000000 0.809232 0.829191
0.000000 0.814633 0.832547
0.550835 0.842100 0.848783
0.885527 0.897002 0.893187
1.000000 0.865080 0.840574
0.253574 0.996460 0.721645
0.373663 0.993713 0.730526
0.621210 0.983337 0.770199
0.855528 0.963775 0.849973
0.992828 0.986603 0.864378
0.000000 0.000000 1.000000
0.197208 0.000000 1.000000
0.491524 0.000000 1.000000
0.765530 0.000000 1.000000
1.000000 0.000000 0.983246
0.000000 0.000000 1.000000
0.216403 0.000000 1.000000
0.480781 0.000000 1.000000
0.754482 0.000000 1.000000
1.000000 0.085328 0.981323
0.000000 0.318822 0.998779
0.000000 0.342779 0.998138
0.421912 0.344793 0.998383
0.734615 0.387823 0.997742
1.000000 0.533074 0.977508
0.000000 0.666651 0.984222
0.000000 0.666682 0.983246
0.413611 0.686000 0.981201
0.765408 0.768307 0.981292
0.983917 0.842618 0.975677
0.000000 0.948516 0.972595
0.111360 0.950195 0.972320
0.501427 0.957763 0.972076
0.801480 0.965698 0.970245
0.981201 0.983215 0.982544
