other luts/Kodak Ektar 100.cube
# Created by Adobe Lightroom plugin Export LUT (1.24.0)
# www.johnrellis.com/lightroom/exportlut.htm
# Preset: FCP - Kodak Ektar 100 | 01
# Color profile: C:\Windows\System32\Spool\Drivers\Color\AdobeRGB1998.icc
LUT_3D_SIZE 8
DOMAIN_MIN 0.000000 0.000000 0.000000
DOMAIN_MAX 0.903226 0.903226 0.903226
0.000000 0.000000 0.000000
0.124544 0.000000 0.000000
0.282780 0.000000 0.000000
0.474403 0.000000 0.000000
0.674830 0.000000 0.000000
0.847654 0.000000 0.000000
0.977295 0.000000 0.000000
1.000000 0.000000 0.000000
0.008026 0.088808 0.000000
0.114199 0.086061 0.000000
0.275395 0.000000 0.000000
0.467659 0.000000 0.000000
0.669001 0.000000 0.000000
0.842679 0.000000 0.000000
0.973968 0.000000 0.000000
1.000000 0.000000 0.000000
0.000000 0.238254 0.000000
0.060182 0.236332 0.000000
0.237064 0.255497 0.000000
0.449500 0.246830 0.000000
0.654963 0.247868 0.000000
0.833524 0.257115 0.000000
0.969360 0.267308 0.000000
1.000000 0.256596 0.000000
0.000000 0.395819 0.000000
0.000000 0.394079 0.000000
0.134463 0.387854 0.000000
0.394598 0.439338 0.000000
0.630488 0.452827 0.000000
0.818601 0.476814 0.000000
0.958679 0.473884 0.000000
1.000000 0.452399 0.000000
0.000000 0.543999 0.000000
0.000000 0.542504 0.000000
0.000000 0.537377 0.000000
0.281071 0.549096 0.000000
0.564385 0.604852 0.000000
0.789120 0.615442 0.000000
0.945373 0.623621 0.000000
1.000000 0.603479 0.000000
0.000000 0.683772 0.000000
0.000000 0.684016 0.000000
0.000000 0.681147 0.000000
0.216800 0.675319 0.000000
0.466499 0.701045 0.000000
0.742245 0.742306 0.000000
0.926024 0.733913 0.000000
1.000000 0.720150 0.000000
0.000000 0.830747 0.000000
0.000000 0.830655 0.000000
0.000000 0.828794 0.000000
0.212802 0.824765 0.000000
0.415869 0.817655 0.000000
0.672114 0.837675 0.000000
0.896971 0.857603 0.000000
1.000000 0.822354 0.000000
0.000000 0.970001 0.000000
0.000000 0.969787 0.000000
0.000000 0.968688 0.000000
0.214084 0.966003 0.000000
0.445258 0.959411 0.000000
0.623163 0.953765 0.000000
0.837064 0.955383 0.000000
1.000000 0.954803 0.000000
0.040436 0.002686 0.106752
0.125093 0.000000 0.107668
0.283604 0.000000 0.076814
0.473732 0.000000 0.034699
0.673823 0.000000 0.000000
0.844968 0.000000 0.000000
0.975036 0.000000 0.000000
1.000000 0.000000 0.000000
0.029786 0.095705 0.099611
0.119265 0.093935 0.103456
0.277989 0.015595 0.080964
0.469245 0.000000 0.008728
0.669581 0.000000 0.000000
0.841459 0.000000 0.000000
0.972290 0.000000 0.000000
1.000000 0.000000 0.000000
0.000000 0.245670 0.038270
0.083223 0.253239 0.066682
0.246311 0.264591 0.023407
0.452399 0.253758 0.000000
0.655879 0.244419 0.000000
0.832181 0.250950 0.000000
0.966827 0.270970 0.000000
1.000000 0.259831 0.000000
0.000000 0.405463 0.000000
0.000000 0.408270 0.000000
0.151461 0.401801 0.000000
0.400397 0.443610 0.000000
0.630610 0.452461 0.000000
0.815610 0.472328 0.000000
0.956085 0.474372 0.000000
1.000000 0.452033 0.000000
0.000000 0.553887 0.000000
0.000000 0.552300 0.000000
0.000000 0.546532 0.000000
0.283330 0.551507 0.000000
0.567102 0.605615 0.000000
0.788998 0.614588 0.000000
0.944640 0.623224 0.000000
1.000000 0.602502 0.000000
0.000000 0.688228 0.000000
0.000000 0.687373 0.000000
0.000000 0.683864 0.000000
0.222812 0.676875 0.000000
0.469734 0.700893 0.000000
0.745022 0.741970 0.000000
0.926482 0.733425 0.000000
1.000000 0.719265 0.000000
0.000000 0.828733 0.000000
0.000000 0.828031 0.000000
0.000000 0.826230 0.000000
0.219272 0.822751 0.000000
0.418067 0.816251 0.000000
0.674067 0.836851 0.000000
0.897612 0.856596 0.000000
1.000000 0.821286 0.000000
0.000000 0.969116 0.000000
0.000000 0.969024 0.000000
0.000000 0.968048 0.000000
0.214023 0.965484 0.000000
0.446906 0.960296 0.000000
0.624231 0.954162 0.000000
0.837583 0.955230 0.000000
1.000000 0.954467 0.000000
0.000000 0.025696 0.288273
0.062745 0.000000 0.290990
0.275395 0.000000 0.294163
0.479713 0.000000 0.234501
0.682277 0.000000 0.190494
0.852720 0.000000 0.149386
0.979767 0.000000 0.000000
1.000000 0.000000 0.000000
0.000000 0.130007 0.281895
0.083345 0.114870 0.286931
0.272099 0.068025 0.292393
0.476905 0.000000 0.238254
0.680995 0.000000 0.184268
0.849363 0.000000 0.145968
0.977417 0.000000 0.000000
1.000000 0.000000 0.000000
0.000000 0.274510 0.259068
0.000000 0.280308 0.265721
0.256565 0.292576 0.286748
0.467201 0.256382 0.239292
0.669978 0.219883 0.186374
0.840726 0.201205 0.108949
0.971527 0.205234 0.000000
1.000000 0.203952 0.000000
0.000000 0.418952 0.170840
0.000000 0.427039 0.182467
0.196048 0.447944 0.223239
0.420630 0.467659 0.214420
0.646754 0.467964 0.141695
0.824796 0.462226 0.000000
0.961334 0.452888 0.000000
1.000000 0.433204 0.000000
0.000000 0.564355 0.077729
0.000000 0.570123 0.090272
0.092836 0.581994 0.138338
0.295415 0.568597 0.123720
0.584741 0.620691 0.073945
0.801175 0.622889 0.000000
0.948486 0.619745 0.000000
1.000000 0.595087 0.000000
0.000000 0.697902 0.000000
0.000000 0.701045 0.000000
0.000000 0.703975 0.000000
0.245365 0.695247 0.000000
0.469429 0.705501 0.000000
0.752346 0.746914 0.000000
0.930968 0.735042 0.000000
1.000000 0.717006 0.000000
0.000000 0.835172 0.000000
0.000000 0.835874 0.000000
0.000000 0.834073 0.000000
0.213138 0.828855 0.000000
0.422736 0.820249 0.000000
0.675349 0.837461 0.000000
0.903441 0.857786 0.000000
1.000000 0.820615 0.000000
0.000000 0.970336 0.000000
0.000000 0.969818 0.000000
0.000000 0.968536 0.000000
0.210269 0.966003 0.000000
0.445960 0.960754 0.000000
0.624994 0.954681 0.000000
0.839689 0.955627 0.000000
1.000000 0.954742 0.000000
0.000000 0.069245 0.494728
0.000000 0.062562 0.497810
0.230014 0.000000 0.507164
0.461219 0.000000 0.510246
0.663478 0.000000 0.450172
0.846860 0.000000 0.410651
0.978393 0.000000 0.340703
1.000000 0.000000 0.230838
0.000000 0.150332 0.492653
0.000000 0.145724 0.495613
0.232029 0.124453 0.505211
0.460060 0.000000 0.510002
0.663478 0.000000 0.447852
0.845701 0.000000 0.407965
0.977630 0.000000 0.333928
1.000000 0.000000 0.254154
0.000000 0.315465 0.468421
0.000000 0.320958 0.474037
0.219669 0.304295 0.498360
0.453285 0.277073 0.508995
0.668971 0.191897 0.452918
0.844755 0.000000 0.394781
0.974853 0.000000 0.333501
1.000000 0.000000 0.262486
0.000000 0.462623 0.439460
0.000000 0.467659 0.445228
0.162692 0.483894 0.466163
0.438270 0.510674 0.508385
0.657313 0.466682 0.448188
0.830686 0.436042 0.388525
0.962371 0.414527 0.318181
1.000000 0.390112 0.212833
0.000000 0.581811 0.336522
0.000000 0.586847 0.343175
0.000000 0.604761 0.367193
0.353216 0.629725 0.415625
0.604883 0.647425 0.423743
0.811246 0.635035 0.368048
0.949554 0.610071 0.273533
1.000000 0.575067 0.101930
0.000000 0.709102 0.282200
0.000000 0.712917 0.285710
0.000000 0.722499 0.294438
0.266148 0.732174 0.319738
0.459663 0.716274 0.300359
0.761471 0.758389 0.320653
0.933867 0.740291 0.252201
1.000000 0.711635 0.000000
0.000000 0.840085 0.225284
0.000000 0.841215 0.220737
0.000000 0.844724 0.198550
0.162387 0.844541 0.202853
0.421057 0.833646 0.177371
0.658442 0.839170 0.154330
0.903197 0.860868 0.119356
1.000000 0.820981 0.000000
0.000000 0.973358 0.121279
0.000000 0.973754 0.091646
0.000000 0.974701 0.000000
0.000000 0.971618 0.000000
0.414649 0.964996 0.000000
0.612482 0.957031 0.000000
0.836545 0.956390 0.000000
1.000000 0.955016 0.000000
0.000000 0.122713 0.688685
0.000000 0.119112 0.690517
0.189303 0.086610 0.696864
0.447120 0.000000 0.708827
0.654475 0.000000 0.707088
0.820706 0.000000 0.654200
0.963897 0.000000 0.596979
1.000000 0.000000 0.527062
0.000000 0.188266 0.686000
0.000000 0.186282 0.688319
0.188724 0.169711 0.695003
0.443702 0.100343 0.707210
0.652888 0.000000 0.706355
0.820218 0.000000 0.652491
0.963104 0.000000 0.596002
1.000000 0.000000 0.524651
0.000000 0.372442 0.671565
0.000000 0.370489 0.677485
0.160220 0.324132 0.688075
0.428412 0.307408 0.700954
0.647425 0.249180 0.704219
0.817807 0.164340 0.644434
0.959777 0.000000 0.590936
1.000000 0.000000 0.514305
0.000000 0.504997 0.640986
0.000000 0.507408 0.644831
0.171115 0.516014 0.659632
0.403540 0.505852 0.691554
0.638819 0.486946 0.702937
0.819028 0.430152 0.642634
0.954559 0.358038 0.580438
1.000000 0.279545 0.492775
0.000000 0.631922 0.606958
0.000000 0.635035 0.611017
0.000000 0.645441 0.625910
0.353185 0.663172 0.656367
0.632319 0.687465 0.706752
0.809842 0.638178 0.645563
0.941680 0.593927 0.576135
1.000000 0.551476 0.491524
0.000000 0.722683 0.506676
0.000000 0.725490 0.510277
0.000000 0.734676 0.522545
0.225376 0.749599 0.545892
0.515862 0.763088 0.588922
0.766903 0.775326 0.611536
0.928222 0.747555 0.556756
1.000000 0.703792 0.440528
0.000000 0.846647 0.478248
0.000000 0.847532 0.477394
0.000000 0.850584 0.473121
0.000000 0.855253 0.462318
0.403143 0.854612 0.461311
0.615381 0.838956 0.436866
0.894499 0.864958 0.489296
1.000000 0.823148 0.417762
0.000000 0.975097 0.451423
0.000000 0.975372 0.446418
0.000000 0.976196 0.426734
0.000000 0.977722 0.383032
0.330602 0.972656 0.361486
0.582238 0.962127 0.340917
0.809079 0.956664 0.328618
1.000000 0.955291 0.283848
0.000000 0.192813 0.842435
0.000000 0.190158 0.843137
0.193576 0.172396 0.845487
0.442695 0.112306 0.850462
0.646723 0.000000 0.856809
0.818387 0.000000 0.852598
0.938354 0.000000 0.800656
1.000000 0.000000 0.730648
0.000000 0.243473 0.839658
0.000000 0.240879 0.840360
0.187045 0.227146 0.843229
0.437934 0.189425 0.848295
0.643732 0.089754 0.855467
0.816587 0.000000 0.851560
0.937377 0.000000 0.799191
1.000000 0.000000 0.729702
0.000000 0.408209 0.831907
0.000000 0.385504 0.833585
0.143130 0.358251 0.837461
0.420935 0.342290 0.843290
0.633448 0.314885 0.851804
0.812131 0.234409 0.849485
0.934630 0.164096 0.794583
1.000000 0.000000 0.726314
0.000000 0.564721 0.808957
0.000000 0.563195 0.811460
0.212650 0.557671 0.821256
0.391852 0.516472 0.834775
0.615808 0.508537 0.845151
0.804685 0.471168 0.846708
0.929595 0.426703 0.787289
1.000000 0.331426 0.722713
0.000000 0.674708 0.786831
0.000000 0.674830 0.788632
0.000000 0.675410 0.795529
0.386419 0.678431 0.809384
0.598260 0.672541 0.834440
0.795224 0.656916 0.843503
0.923980 0.608057 0.785000
1.000000 0.553674 0.727871
0.000000 0.775875 0.758480
0.000000 0.777066 0.760586
0.000000 0.779995 0.767361
0.234684 0.784482 0.781033
0.540429 0.790524 0.804746
0.795499 0.810422 0.848569
0.913024 0.766751 0.800961
1.000000 0.722408 0.742885
0.000000 0.856596 0.681209
0.000000 0.857694 0.681147
0.000000 0.860655 0.679713
0.000000 0.864775 0.681422
0.375708 0.867399 0.690913
0.668360 0.864652 0.733852
0.883452 0.874571 0.766140
0.999176 0.838712 0.719966
0.000000 0.978820 0.655756
0.000000 0.979034 0.653986
0.000000 0.979767 0.647150
0.000000 0.980529 0.632837
0.211337 0.978363 0.613519
0.564508 0.967132 0.624628
0.765438 0.954528 0.606256
0.981384 0.955596 0.654292
0.000000 0.292821 0.944518
0.000000 0.291783 0.945220
0.273136 0.281041 0.945434
0.463783 0.255833 0.946197
0.637568 0.210483 0.947570
0.796292 0.102266 0.948241
0.934691 0.000000 0.945525
1.000000 0.000000 0.893675
0.000000 0.326146 0.940795
0.000000 0.324804 0.941497
0.263432 0.314733 0.942016
0.456550 0.292363 0.942870
0.631159 0.254582 0.944274
0.790646 0.181369 0.944915
0.929717 0.000000 0.942046
1.000000 0.000000 0.890288
0.000000 0.438361 0.937682
0.000000 0.429206 0.938079
0.244572 0.421332 0.938262
0.445014 0.406897 0.939330
0.621912 0.383856 0.940673
0.784848 0.349676 0.942473
0.926848 0.262852 0.940795
1.000000 0.224277 0.889250
0.143435 0.616205 0.926574
0.206332 0.613550 0.926879
0.311742 0.593988 0.929137
0.428779 0.551995 0.933135
0.610101 0.539391 0.935332
0.778042 0.526299 0.939208
0.921050 0.472236 0.938231
1.000000 0.437995 0.885771
0.000000 0.713130 0.911040
0.000000 0.711482 0.910796
0.269932 0.707912 0.911498
0.456153 0.701198 0.916930
0.592340 0.672328 0.924895
0.762936 0.665522 0.930022
0.908263 0.634180 0.930907
0.997894 0.605951 0.881224
0.000000 0.804044 0.897520
0.000000 0.802976 0.897948
0.000000 0.799161 0.899413
0.344518 0.793088 0.903014
0.581994 0.789670 0.908843
0.763241 0.790646 0.922606
0.901030 0.783108 0.928252
0.989532 0.749142 0.887327
0.000000 0.901793 0.882872
0.000000 0.901946 0.883665
0.000000 0.900511 0.884825
0.000000 0.897368 0.887388
0.438270 0.889952 0.891325
0.706844 0.882780 0.901610
0.900603 0.901762 0.930388
0.978180 0.869169 0.901884
0.000000 0.979461 0.820371
0.000000 0.979736 0.819638
0.000000 0.982452 0.818601
0.000000 0.983551 0.812924
0.146883 0.980926 0.806760
0.558190 0.969696 0.816556
0.805600 0.953460 0.852079
0.962554 0.956085 0.877348
0.286595 0.445167 1.000000
0.317632 0.444251 1.000000
0.401709 0.435645 0.999725
0.518120 0.422004 0.999634
0.644892 0.398840 0.999512
0.772213 0.364294 0.999512
0.892363 0.298344 0.999573
1.000000 0.108125 0.999207
0.287114 0.467811 0.998474
0.317693 0.466835 0.998596
0.401160 0.458595 0.998322
0.516075 0.444404 0.998138
0.642542 0.422583 0.998108
0.769863 0.390143 0.998169
0.889982 0.328649 0.998169
1.000000 0.177310 0.997894
0.299809 0.541802 0.994934
0.327153 0.540215 0.994995
0.404242 0.531640 0.994598
0.518730 0.523095 0.995178
0.641108 0.503563 0.995117
0.765774 0.475746 0.995087
0.885313 0.429877 0.995453
1.000000 0.329839 0.995575
0.430365 0.677852 0.987335
0.434028 0.671077 0.987945
0.440497 0.641505 0.989471
0.526513 0.624475 0.990295
0.643153 0.610468 0.990600
0.763455 0.590387 0.990997
0.880400 0.559777 0.991791
0.995941 0.487160 0.992401
0.405005 0.752377 0.980407
0.428168 0.752102 0.980713
0.493996 0.749020 0.981018
0.592187 0.745418 0.982116
0.646113 0.709865 0.984588
0.760678 0.696010 0.985290
0.875731 0.682551 0.986725
0.987488 0.636316 0.987762
0.274327 0.819730 0.975219
0.306401 0.818509 0.974975
0.401953 0.815183 0.974456
0.534081 0.812070 0.974121
0.671534 0.810361 0.975311
0.768856 0.796017 0.979461
0.877745 0.794949 0.982238
0.980011 0.774441 0.984009
0.000000 0.903563 0.971008
0.000000 0.902251 0.970855
0.157412 0.897765 0.970611
0.391974 0.890745 0.970733
0.587518 0.883024 0.970825
0.762448 0.882109 0.971344
0.880583 0.886320 0.976593
0.970245 0.880064 0.978637
0.000000 1.000000 0.966705
0.000000 1.000000 0.966552
0.000000 1.000000 0.966369
0.000000 1.000000 0.966339
0.403052 0.991882 0.965972
0.652003 0.976379 0.965209
0.836515 0.961181 0.965515
0.967102 0.967132 0.977661
