other luts/Kodak Gold 100 _ 04 Skin Tones.cube
# Created by Adobe Lightroom plugin Export LUT (1.24.0)
# www.johnrellis.com/lightroom/exportlut.htm
# Preset: FCP - Kodak Gold 100 | 04 Skin Tones 
# Color profile: C:\Windows\System32\Spool\Drivers\Color\AdobeRGB1998.icc
LUT_3D_SIZE 32
DOMAIN_MIN 0.0 0.0 0.0
DOMAIN_MAX 1.0 1.0 1.0
0.000000 0.082429 0.000000
0.021363 0.082918 0.000000
0.064363 0.083314 0.000000
0.094636 0.085481 0.000000
0.129213 0.090791 0.000000
0.166934 0.098787 0.000000
0.209812 0.106203 0.000000
0.260166 0.112276 0.000000
0.318822 0.117678 0.000000
0.382818 0.124483 0.000000
0.447059 0.136843 0.000000
0.509270 0.155886 0.000000
0.568261 0.179232 0.000000
0.623682 0.202274 0.000000
0.675898 0.223697 0.000000
0.725154 0.242466 0.000000
0.771817 0.258701 0.000000
0.817716 0.273442 0.000000
0.861173 0.286595 0.000000
0.899474 0.297551 0.000000
0.933501 0.306798 0.000000
0.963622 0.315038 0.000000
0.990051 0.321721 0.000000
1.000000 0.327550 0.000000
1.000000 0.332219 0.000000
1.000000 0.336278 0.000000
1.000000 0.339818 0.000000
1.000000 0.342565 0.000000
1.000000 0.343877 0.000000
1.000000 0.342962 0.000000
1.000000 0.341344 0.000000
1.000000 0.338964 0.000000
0.000000 0.089174 0.000000
0.022705 0.091829 0.000000
0.064698 0.091951 0.000000
0.095521 0.093477 0.000000
0.130373 0.099519 0.000000
0.168429 0.106294 0.000000
0.211673 0.113100 0.000000
0.262181 0.118959 0.000000
0.320836 0.124636 0.000000
0.384924 0.131624 0.000000
0.448737 0.144167 0.000000
0.510369 0.162997 0.000000
0.568750 0.185306 0.000000
0.623957 0.207553 0.000000
0.675959 0.228702 0.000000
0.724971 0.246983 0.000000
0.771511 0.262821 0.000000
0.817166 0.277226 0.000000
0.859892 0.289982 0.000000
0.897887 0.300511 0.000000
0.931762 0.309728 0.000000
0.961913 0.317357 0.000000
0.988464 0.324041 0.000000
1.000000 0.329625 0.000000
1.000000 0.334264 0.000000
1.000000 0.338262 0.000000
1.000000 0.341588 0.000000
1.000000 0.344335 0.000000
1.000000 0.345739 0.000000
1.000000 0.344701 0.000000
1.000000 0.342962 0.000000
1.000000 0.340612 0.000000
0.002625 0.099153 0.006409
0.027314 0.099275 0.007904
0.064179 0.105135 0.000000
0.095277 0.105989 0.000000
0.132113 0.109407 0.000000
0.170809 0.115663 0.000000
0.214359 0.121798 0.000000
0.265171 0.127596 0.000000
0.324224 0.133272 0.000000
0.388098 0.141115 0.000000
0.451881 0.154147 0.000000
0.513146 0.173037 0.000000
0.570855 0.193820 0.000000
0.625849 0.215640 0.000000
0.677516 0.235966 0.000000
0.726467 0.253483 0.000000
0.772763 0.269017 0.000000
0.818357 0.282872 0.000000
0.860410 0.294774 0.000000
0.897978 0.305272 0.000000
0.931670 0.313909 0.000000
0.961700 0.321416 0.000000
0.988190 0.327642 0.000000
1.000000 0.332952 0.000000
1.000000 0.337499 0.000000
1.000000 0.341222 0.000000
1.000000 0.344366 0.000000
1.000000 0.346899 0.000000
1.000000 0.348272 0.000000
1.000000 0.347173 0.000000
1.000000 0.345281 0.000000
1.000000 0.342809 0.000000
0.027985 0.117525 0.028687
0.049104 0.117037 0.033753
0.064454 0.118196 0.031464
0.096010 0.128511 0.000000
0.131899 0.131044 0.000000
0.173953 0.135073 0.000000
0.221592 0.139528 0.000000
0.273777 0.145480 0.000000
0.333501 0.152041 0.000000
0.396979 0.160861 0.000000
0.459693 0.174411 0.000000
0.520012 0.192172 0.000000
0.577173 0.212436 0.000000
0.631342 0.232883 0.000000
0.682521 0.251621 0.000000
0.731014 0.268162 0.000000
0.776699 0.282170 0.000000
0.821988 0.295354 0.000000
0.862699 0.306126 0.000000
0.899199 0.315496 0.000000
0.932189 0.323247 0.000000
0.961761 0.329900 0.000000
0.988159 0.335760 0.000000
1.000000 0.340551 0.000000
1.000000 0.344579 0.000000
1.000000 0.347875 0.000000
1.000000 0.350500 0.000000
1.000000 0.352697 0.000000
1.000000 0.354101 0.000000
1.000000 0.352483 0.000000
1.000000 0.350347 0.000000
1.000000 0.347601 0.000000
0.057832 0.137148 0.053864
0.065400 0.136660 0.056947
0.074403 0.135958 0.059754
0.091402 0.140963 0.047822
0.131807 0.156252 0.000000
0.172305 0.160616 0.000000
0.221225 0.165957 0.000000
0.280735 0.171756 0.000000
0.346166 0.178592 0.000000
0.409247 0.188815 0.000000
0.470954 0.202945 0.000000
0.530175 0.220371 0.000000
0.586419 0.239475 0.000000
0.639918 0.258366 0.000000
0.690517 0.275395 0.000000
0.738613 0.290288 0.000000
0.784085 0.302861 0.000000
0.828977 0.314427 0.000000
0.868315 0.323705 0.000000
0.903624 0.331487 0.000000
0.935515 0.337987 0.000000
0.964324 0.343755 0.000000
0.990082 0.348394 0.000000
1.000000 0.352270 0.000000
1.000000 0.355535 0.000000
1.000000 0.358129 0.000000
1.000000 0.360266 0.000000
1.000000 0.361547 0.000000
1.000000 0.362646 0.000000
1.000000 0.360906 0.000000
1.000000 0.358221 0.000000
1.000000 0.355047 0.000000
0.068910 0.158480 0.064698
0.075990 0.157870 0.065827
0.083375 0.157168 0.067292
0.096162 0.155734 0.070619
0.122774 0.168093 0.050233
0.172305 0.188418 0.000000
0.220127 0.195865 0.000000
0.279088 0.203922 0.000000
0.347875 0.213138 0.000000
0.421271 0.224979 0.000000
0.487709 0.240116 0.000000
0.545708 0.257023 0.000000
0.600671 0.274540 0.000000
0.653254 0.291508 0.000000
0.702937 0.306462 0.000000
0.750149 0.318944 0.000000
0.795895 0.329992 0.000000
0.838895 0.339574 0.000000
0.876555 0.346807 0.000000
0.910552 0.352819 0.000000
0.941344 0.357855 0.000000
0.969177 0.361913 0.000000
1.000000 0.369146 0.000000
1.000000 0.371313 0.000000
1.000000 0.372992 0.000000
1.000000 0.374060 0.000000
1.000000 0.374792 0.000000
1.000000 0.374945 0.000000
1.000000 0.374792 0.000000
1.000000 0.372717 0.000000
1.000000 0.369268 0.000000
1.000000 0.365393 0.000000
0.080812 0.183444 0.072358
0.087037 0.182742 0.073762
0.094148 0.182101 0.074739
0.106905 0.180514 0.077638
0.123964 0.182101 0.077577
0.161685 0.202090 0.044526
0.222904 0.228367 0.000000
0.282170 0.240208 0.000000
0.351629 0.252537 0.000000
0.424994 0.267674 0.000000
0.497292 0.285527 0.000000
0.567224 0.304875 0.000000
0.625757 0.321386 0.000000
0.676478 0.335271 0.000000
0.724392 0.346685 0.000000
0.769955 0.356115 0.000000
0.815671 0.365179 0.000000
0.856138 0.371649 0.000000
0.891661 0.376440 0.000000
0.924071 0.380224 0.000000
0.953948 0.383490 0.000000
0.981170 0.385962 0.000000
1.000000 0.388006 0.000000
1.000000 0.389349 0.000000
1.000000 0.390143 0.000000
1.000000 0.390295 0.000000
1.000000 0.389990 0.000000
1.000000 0.389288 0.000000
1.000000 0.388251 0.000000
1.000000 0.386053 0.000000
1.000000 0.381872 0.000000
1.000000 0.377386 0.000000
0.092256 0.209812 0.080476
0.098085 0.209110 0.081086
0.104891 0.208408 0.082246
0.117342 0.206729 0.084932
0.132692 0.204501 0.088563
0.157748 0.214878 0.079042
0.206119 0.240177 0.030335
0.279423 0.271489 0.000000
0.346075 0.287114 0.000000
0.420447 0.305974 0.000000
0.492164 0.326329 0.000000
0.561547 0.347234 0.000000
0.628046 0.365942 0.000000
0.691554 0.380529 0.000000
0.742031 0.389258 0.000000
0.788418 0.396887 0.000000
0.831052 0.402380 0.000000
0.868498 0.405768 0.000000
0.901671 0.407874 0.000000
0.932128 0.409155 0.000000
0.960204 0.410346 0.000000
0.986023 0.410925 0.000000
1.000000 0.411322 0.000000
1.000000 0.410986 0.000000
1.000000 0.410285 0.000000
1.000000 0.409308 0.000000
1.000000 0.407904 0.000000
1.000000 0.406012 0.000000
1.000000 0.404059 0.000000
1.000000 0.401617 0.000000
1.000000 0.396704 0.000000
1.000000 0.391424 0.000000
0.106020 0.239689 0.088502
0.110658 0.239200 0.089326
0.117128 0.238468 0.090364
0.129366 0.236790 0.092805
0.145083 0.234348 0.096132
0.161990 0.231357 0.100557
0.199466 0.253910 0.078889
0.260166 0.284337 0.000946
0.344457 0.321141 0.000000
0.412573 0.341283 0.000000
0.487739 0.367620 0.000000
0.556603 0.390143 0.000000
0.622858 0.410437 0.000000
0.686305 0.425635 0.000000
0.748989 0.436774 0.000000
0.807004 0.442756 0.000000
0.848661 0.444434 0.000000
0.883177 0.444343 0.000000
0.913695 0.443214 0.000000
0.942016 0.442023 0.000000
0.968292 0.440894 0.000000
0.992370 0.439216 0.000000
1.000000 0.437507 0.000000
1.000000 0.435584 0.000000
1.000000 0.433356 0.000000
1.000000 0.430701 0.000000
1.000000 0.428077 0.000000
1.000000 0.425208 0.000000
1.000000 0.421973 0.000000
1.000000 0.418677 0.000000
1.000000 0.413397 0.000000
1.000000 0.407355 0.000000
0.120272 0.273075 0.096651
0.125063 0.272435 0.097414
0.130983 0.271641 0.098177
0.142885 0.269963 0.100404
0.158633 0.267552 0.103456
0.176455 0.264286 0.107546
0.200259 0.269261 0.104860
0.250797 0.298558 0.074403
0.322698 0.334203 0.000000
0.410224 0.377325 0.000000
0.475807 0.401160 0.000000
0.550774 0.432441 0.000000
0.617365 0.454658 0.000000
0.682734 0.472602 0.000000
0.745022 0.483864 0.000000
0.802945 0.489570 0.000000
0.854856 0.490486 0.000000
0.899077 0.487098 0.000000
0.927886 0.482704 0.000000
0.953765 0.478370 0.000000
0.977722 0.474342 0.000000
0.999603 0.470375 0.000000
1.000000 0.466377 0.000000
1.000000 0.462318 0.000000
1.000000 0.458259 0.000000
1.000000 0.454170 0.000000
1.000000 0.450172 0.000000
1.000000 0.446082 0.000000
1.000000 0.441749 0.000000
1.000000 0.437324 0.000000
1.000000 0.431891 0.000000
1.000000 0.424994 0.000000
0.135256 0.308690 0.104341
0.139834 0.308171 0.104768
0.145815 0.307378 0.105684
0.157656 0.305760 0.107729
0.173831 0.303258 0.110353
0.192233 0.299992 0.114382
0.211856 0.296056 0.119020
0.248539 0.314153 0.105043
0.310002 0.348699 0.061250
0.387579 0.389990 0.000000
0.473243 0.439246 0.000000
0.537713 0.466712 0.000000
0.613916 0.501183 0.000000
0.678157 0.519066 0.000000
0.739712 0.530358 0.000000
0.797147 0.535851 0.000000
0.849180 0.536339 0.000000
0.893553 0.532341 0.000000
0.931701 0.525353 0.000000
0.964752 0.516808 0.000000
0.986725 0.510094 0.000000
1.000000 0.503532 0.000000
1.000000 0.497414 0.000000
1.000000 0.491371 0.000000
1.000000 0.485573 0.000000
1.000000 0.479713 0.000000
1.000000 0.474098 0.000000
1.000000 0.468696 0.000000
1.000000 0.463233 0.000000
1.000000 0.457679 0.000000
1.000000 0.451759 0.000000
1.000000 0.444038 0.000000
0.152071 0.347051 0.111360
0.156619 0.346502 0.112001
0.162570 0.345769 0.112856
0.174075 0.344060 0.114565
0.190433 0.341680 0.117372
0.209659 0.338262 0.120790
0.230259 0.334264 0.125338
0.251835 0.330724 0.129763
0.304356 0.364111 0.100832
0.372900 0.404608 0.007752
0.451362 0.452979 0.000000
0.535851 0.507683 0.000000
0.617517 0.554742 0.000000
0.691615 0.582452 0.000000
0.752926 0.591943 0.000000
0.809751 0.595422 0.000000
0.859800 0.593194 0.000000
0.902342 0.586419 0.000000
0.938720 0.576776 0.000000
0.970550 0.565942 0.000000
0.998260 0.554131 0.000000
1.000000 0.542168 0.000000
1.000000 0.532952 0.000000
1.000000 0.524285 0.000000
1.000000 0.516014 0.000000
1.000000 0.508202 0.000000
1.000000 0.500694 0.000000
1.000000 0.493568 0.000000
1.000000 0.486702 0.000000
1.000000 0.479835 0.000000
1.000000 0.472999 0.000000
1.000000 0.464576 0.000000
0.172519 0.391028 0.118044
0.176883 0.390478 0.118837
0.182345 0.389471 0.119539
0.194125 0.387488 0.121218
0.210391 0.384466 0.123720
0.229862 0.380652 0.127047
0.250736 0.376165 0.131350
0.273075 0.371862 0.136385
0.306828 0.383337 0.129854
0.367651 0.423804 0.090852
0.438483 0.471412 0.000000
0.516442 0.525414 0.000000
0.601190 0.582513 0.000000
0.672236 0.615137 0.000000
0.742916 0.635798 0.000000
0.800534 0.640375 0.000000
0.851347 0.638392 0.000000
0.894591 0.631250 0.000000
0.931701 0.621088 0.000000
0.964233 0.609369 0.000000
0.992554 0.596674 0.000000
1.000000 0.583276 0.000000
1.000000 0.569482 0.000000
1.000000 0.556298 0.000000
1.000000 0.546136 0.000000
1.000000 0.536553 0.000000
1.000000 0.527459 0.000000
1.000000 0.518853 0.000000
1.000000 0.510613 0.000000
1.000000 0.502647 0.000000
1.000000 0.494789 0.000000
1.000000 0.485939 0.000000
0.192264 0.431891 0.124178
0.196475 0.431525 0.124697
0.202060 0.430640 0.125490
0.213687 0.429053 0.127169
0.229953 0.426368 0.129610
0.249760 0.423011 0.132998
0.271183 0.419074 0.137087
0.293645 0.414466 0.142000
0.316258 0.409430 0.147616
0.362432 0.438148 0.126467
0.424414 0.483070 0.072938
0.493935 0.533715 0.000000
0.569635 0.587304 0.000000
0.652461 0.640223 0.000000
0.725429 0.670863 0.000000
0.789090 0.682673 0.000000
0.842344 0.682704 0.000000
0.886259 0.675563 0.000000
0.924254 0.664973 0.000000
0.957580 0.652613 0.000000
0.986694 0.639094 0.000000
1.000000 0.624842 0.000000
1.000000 0.609979 0.000000
1.000000 0.594995 0.000000
1.000000 0.579980 0.000000
1.000000 0.566217 0.000000
1.000000 0.555505 0.000000
1.000000 0.545342 0.000000
1.000000 0.535760 0.000000
1.000000 0.526574 0.000000
1.000000 0.517571 0.000000
1.000000 0.508171 0.000000
0.214603 0.476356 0.130465
0.218845 0.475837 0.131014
0.224186 0.474830 0.131655
0.235019 0.472969 0.133028
0.250828 0.470008 0.135500
0.269780 0.466285 0.138582
0.290898 0.461921 0.142702
0.312963 0.456947 0.147280
0.335363 0.451728 0.152956
0.360845 0.452277 0.154788
0.414832 0.494881 0.119905
0.476509 0.542504 0.021271
0.544244 0.593042 0.000000
0.618158 0.643549 0.000000
0.700221 0.691249 0.000000
0.774105 0.719661 0.000000
0.829374 0.723049 0.000000
0.878111 0.719448 0.000000
0.916777 0.708644 0.000000
0.950866 0.695705 0.000000
0.980652 0.681483 0.000000
1.000000 0.666346 0.000000
1.000000 0.650568 0.000000
1.000000 0.634516 0.000000
1.000000 0.618372 0.000000
1.000000 0.602380 0.000000
1.000000 0.586603 0.000000
1.000000 0.572900 0.000000
1.000000 0.561913 0.000000
1.000000 0.551507 0.000000
1.000000 0.541466 0.000000
1.000000 0.531395 0.000000
0.236942 0.518975 0.136904
0.241123 0.518578 0.137362
0.245853 0.517784 0.138094
0.256260 0.516106 0.139528
0.271550 0.513268 0.141878
0.290013 0.509789 0.144778
0.310307 0.505730 0.148684
0.332128 0.501122 0.153323
0.354040 0.496071 0.158785
0.375647 0.490608 0.164736
0.410437 0.508232 0.153719
0.464454 0.552758 0.110842
0.524376 0.599756 0.000000
0.590021 0.647120 0.000000
0.662379 0.692653 0.000000
0.743008 0.734798 0.000000
0.816617 0.761166 0.000000
0.863310 0.757259 0.000000
0.909178 0.751736 0.000000
0.944274 0.738674 0.000000
0.974914 0.724025 0.000000
1.000000 0.708064 0.000000
1.000000 0.691463 0.000000
1.000000 0.674403 0.000000
1.000000 0.657252 0.000000
1.000000 0.640131 0.000000
1.000000 0.623255 0.000000
1.000000 0.606806 0.000000
1.000000 0.590692 0.000000
1.000000 0.577203 0.000000
1.000000 0.565942 0.000000
1.000000 0.554864 0.000000
0.258427 0.559167 0.143771
0.261906 0.558556 0.144289
0.266484 0.557794 0.144839
0.276097 0.556085 0.146395
0.290257 0.553491 0.148470
0.307591 0.550286 0.151522
0.327092 0.546380 0.155123
0.347845 0.541833 0.159518
0.369085 0.536919 0.164797
0.390173 0.531548 0.170718
0.410803 0.525902 0.177157
0.454994 0.561639 0.151247
0.508324 0.606134 0.099886
0.567010 0.651118 0.000000
0.631800 0.695003 0.000000
0.703578 0.736019 0.000000
0.781765 0.772976 0.000000
0.853758 0.796841 0.000000
0.893675 0.787839 0.000000
0.936858 0.780789 0.000000
0.968231 0.765621 0.000000
0.995453 0.749142 0.000000
1.000000 0.731685 0.000000
1.000000 0.713863 0.000000
1.000000 0.695766 0.000000
1.000000 0.677729 0.000000
1.000000 0.659846 0.000000
1.000000 0.642420 0.000000
1.000000 0.625269 0.000000
1.000000 0.608606 0.000000
1.000000 0.592370 0.000000
1.000000 0.578943 0.000000
0.279026 0.598260 0.152102
0.282444 0.597955 0.152651
0.292760 0.608057 0.156069
0.301610 0.606348 0.157290
0.314672 0.603784 0.159518
0.330755 0.600366 0.162112
0.349004 0.596246 0.165774
0.368475 0.591547 0.169924
0.388983 0.586511 0.174899
0.409522 0.581079 0.180697
0.429816 0.575280 0.186893
0.455146 0.579858 0.186007
0.502281 0.621729 0.151461
0.554803 0.664149 0.091676
0.612879 0.705653 0.000000
0.677485 0.745174 0.000000
0.748409 0.781094 0.000000
0.822049 0.811460 0.000000
0.891325 0.832242 0.000000
0.925200 0.818723 0.000000
0.964569 0.809384 0.000000
0.991882 0.791714 0.000000
1.000000 0.773220 0.000000
1.000000 0.754208 0.000000
1.000000 0.734859 0.000000
1.000000 0.715663 0.000000
1.000000 0.696712 0.000000
1.000000 0.678096 0.000000
1.000000 0.659968 0.000000
1.000000 0.642298 0.000000
1.000000 0.625177 0.000000
1.000000 0.608331 0.000000
0.300725 0.638819 0.162356
0.303990 0.639765 0.163394
0.308812 0.640467 0.164431
0.317754 0.640345 0.166110
0.329961 0.639033 0.168460
0.345251 0.636469 0.171267
0.362463 0.632959 0.174594
0.381201 0.628809 0.178531
0.400916 0.624231 0.183200
0.420844 0.619135 0.188693
0.440925 0.613764 0.194675
0.460639 0.607904 0.201236
0.493935 0.629175 0.187564
0.540734 0.669551 0.149752
0.592889 0.709468 0.080690
0.650874 0.747860 0.000000
0.714961 0.783261 0.000000
0.782589 0.813779 0.000000
0.852110 0.839536 0.000000
0.917662 0.857267 0.000000
0.948577 0.842466 0.000000
0.985260 0.831937 0.000000
1.000000 0.812924 0.000000
1.000000 0.793210 0.000000
1.000000 0.773190 0.000000
1.000000 0.753109 0.000000
1.000000 0.733211 0.000000
1.000000 0.713741 0.000000
1.000000 0.694697 0.000000
1.000000 0.676081 0.000000
1.000000 0.657984 0.000000
1.000000 0.640375 0.000000
0.318883 0.674342 0.173251
0.322301 0.675166 0.174105
0.326482 0.675868 0.175204
0.334386 0.675746 0.176791
0.345769 0.674617 0.179141
0.359899 0.672389 0.181735
0.375952 0.669276 0.185031
0.393774 0.665461 0.188785
0.412634 0.661341 0.193240
0.432136 0.656733 0.198459
0.451820 0.651972 0.204288
0.471504 0.646632 0.210636
0.490455 0.640711 0.217411
0.531640 0.677607 0.190799
0.578607 0.715846 0.149966
0.630793 0.753017 0.071626
0.688685 0.787533 0.000000
0.750484 0.817746 0.000000
0.814725 0.843656 0.000000
0.880064 0.865202 0.000000
0.941680 0.880003 0.000000
0.970062 0.864378 0.000000
1.000000 0.851865 0.000000
1.000000 0.832120 0.000000
1.000000 0.811337 0.000000
1.000000 0.790463 0.000000
1.000000 0.769680 0.000000
1.000000 0.749294 0.000000
1.000000 0.729305 0.000000
1.000000 0.709804 0.000000
1.000000 0.690852 0.000000
1.000000 0.672358 0.000000
0.336645 0.709621 0.185946
0.339635 0.710353 0.186893
0.343572 0.711055 0.187869
0.351049 0.710994 0.189548
0.361517 0.709987 0.191714
0.374517 0.708034 0.194278
0.389593 0.705196 0.197421
0.406317 0.701869 0.200839
0.424445 0.698024 0.205081
0.443214 0.693904 0.209995
0.462562 0.689418 0.215549
0.481941 0.684504 0.221653
0.500999 0.679103 0.228214
0.526482 0.687373 0.225010
0.568811 0.724208 0.195682
0.616175 0.760342 0.152529
0.668818 0.794125 0.070497
0.725460 0.824155 0.000000
0.784970 0.850156 0.000000
0.846006 0.872129 0.000000
0.907256 0.890043 0.000000
0.965362 0.902190 0.000000
0.991577 0.885863 0.000000
1.000000 0.870970 0.000000
1.000000 0.850553 0.000000
1.000000 0.828733 0.000000
1.000000 0.807004 0.000000
1.000000 0.785611 0.000000
1.000000 0.764584 0.000000
1.000000 0.744137 0.000000
1.000000 0.724147 0.000000
1.000000 0.704646 0.000000
0.357061 0.749233 0.203250
0.359533 0.749416 0.204105
0.362799 0.749386 0.204654
0.369146 0.748806 0.205997
0.378637 0.747463 0.207919
0.390539 0.745480 0.210147
0.404730 0.742947 0.212955
0.420661 0.740017 0.216495
0.437934 0.736721 0.220829
0.456275 0.733242 0.225559
0.475380 0.729427 0.231174
0.494728 0.725216 0.237064
0.514031 0.720394 0.243534
0.532921 0.715236 0.250492
0.565484 0.737942 0.236332
0.608545 0.772366 0.205753
0.655756 0.804379 0.162478
0.707118 0.833097 0.084840
0.761166 0.858183 0.000000
0.817258 0.879515 0.000000
0.874022 0.897093 0.000000
0.930663 0.911070 0.000000
0.984466 0.920287 0.000000
1.000000 0.903838 0.000000
1.000000 0.886534 0.000000
1.000000 0.865629 0.000000
1.000000 0.843137 0.000000
1.000000 0.820981 0.000000
1.000000 0.799161 0.000000
1.000000 0.777829 0.000000
1.000000 0.756985 0.000000
1.000000 0.736629 0.000000
0.375280 0.783841 0.221012
0.377569 0.784115 0.221714
0.380407 0.784237 0.222477
0.386511 0.783688 0.223758
0.395148 0.782528 0.225681
0.406165 0.780758 0.227848
0.419348 0.778408 0.230411
0.434180 0.775753 0.233738
0.450752 0.772763 0.237736
0.468482 0.769558 0.242374
0.486976 0.766110 0.247654
0.506004 0.762295 0.253605
0.525109 0.758114 0.259922
0.544427 0.753536 0.266667
0.564569 0.751034 0.272129
0.603235 0.783871 0.249027
0.646082 0.814298 0.218540
0.692500 0.841855 0.176211
0.741787 0.866148 0.106264
0.793149 0.887022 0.000000
0.845701 0.904448 0.000000
0.898589 0.918486 0.000000
0.951049 0.929320 0.000000
1.000000 0.936187 0.000000
1.000000 0.919432 0.000000
1.000000 0.900053 0.000000
1.000000 0.878813 0.000000
1.000000 0.855955 0.000000
1.000000 0.833433 0.000000
1.000000 0.811337 0.000000
1.000000 0.789639 0.000000
1.000000 0.768551 0.000000
0.396307 0.821378 0.245274
0.398566 0.821683 0.245975
0.401221 0.821653 0.246860
0.406561 0.821042 0.247959
0.414343 0.819852 0.249454
0.424537 0.818112 0.251164
0.436591 0.815885 0.253574
0.450568 0.813230 0.256504
0.466041 0.810269 0.259831
0.482765 0.807126 0.264073
0.500511 0.803647 0.268986
0.518914 0.800046 0.274418
0.537896 0.796139 0.280400
0.556909 0.791836 0.286870
0.575952 0.787106 0.293614
0.602136 0.796994 0.289342
0.640253 0.825193 0.265934
0.681910 0.850980 0.235569
0.726406 0.874144 0.194308
0.773251 0.894347 0.130312
0.821439 0.911498 0.000000
0.870298 0.925414 0.000000
0.919310 0.936278 0.000000
0.967834 0.944213 0.000000
1.000000 0.948943 0.000000
1.000000 0.933715 0.000000
1.000000 0.912657 0.000000
1.000000 0.890929 0.000000
1.000000 0.867674 0.000000
1.000000 0.844724 0.000000
1.000000 0.822293 0.000000
1.000000 0.800412 0.000000
0.415991 0.852873 0.270146
0.417914 0.853208 0.271061
0.420478 0.853239 0.271824
0.425238 0.852750 0.273014
0.432593 0.851743 0.274235
0.441810 0.850278 0.276219
0.453254 0.848447 0.278630
0.466407 0.846311 0.281498
0.481209 0.843900 0.285008
0.497505 0.841367 0.289342
0.514702 0.838590 0.294255
0.532921 0.835660 0.299809
0.551781 0.832517 0.305943
0.571008 0.828977 0.312566
0.590509 0.825162 0.319738
0.610101 0.821134 0.327153
0.641749 0.840787 0.314214
0.679042 0.864683 0.291630
0.718959 0.886229 0.262333
0.760952 0.905150 0.223239
0.804379 0.921233 0.166201
0.848814 0.934508 0.000000
0.893736 0.944976 0.000000
0.938750 0.952789 0.000000
0.983551 0.958160 0.000000
1.000000 0.960967 0.000000
1.000000 0.946410 0.000000
1.000000 0.924102 0.000000
1.000000 0.901915 0.000000
1.000000 0.878233 0.000000
1.000000 0.855009 0.000000
1.000000 0.832334 0.000000
0.438422 0.884123 0.301427
0.440223 0.884276 0.302281
0.442390 0.884184 0.302800
0.446662 0.883635 0.303807
0.453193 0.882628 0.305028
0.461738 0.881285 0.306798
0.472206 0.879667 0.308812
0.484413 0.877806 0.311528
0.498482 0.875731 0.315160
0.513878 0.873594 0.319432
0.530541 0.871275 0.324437
0.548394 0.868925 0.330144
0.567010 0.866331 0.336553
0.586267 0.863493 0.343389
0.605890 0.860288 0.350683
0.625788 0.856901 0.358404
0.647791 0.857603 0.362860
0.680934 0.879332 0.345403
0.716365 0.898985 0.323033
0.753689 0.916381 0.294438
0.792416 0.931304 0.256596
0.832212 0.943755 0.203311
0.872740 0.953674 0.109590
0.913787 0.961212 0.000000
0.955230 0.966491 0.000000
0.996643 0.969757 0.000000
1.000000 0.971008 0.000000
1.000000 0.957366 0.000000
1.000000 0.933959 0.000000
1.000000 0.911192 0.000000
1.000000 0.887388 0.000000
1.000000 0.864042 0.000000
0.462898 0.912596 0.337255
0.464424 0.912657 0.338018
0.466529 0.912535 0.338659
0.470405 0.912139 0.339544
0.476600 0.911437 0.341131
0.484718 0.910643 0.343297
0.494972 0.909728 0.346319
0.507012 0.908812 0.350103
0.520989 0.907774 0.355016
0.536522 0.906706 0.360601
0.553277 0.905516 0.367041
0.571283 0.904143 0.374121
0.590082 0.902556 0.381872
0.609674 0.900603 0.389807
0.629694 0.898344 0.398138
0.649897 0.895720 0.406622
0.670466 0.892973 0.415717
0.695674 0.901274 0.412940
0.726131 0.918242 0.396185
0.758175 0.933257 0.374578
0.791379 0.946136 0.346685
0.825589 0.956970 0.309819
0.860746 0.965637 0.258976
0.896727 0.972259 0.182406
0.933623 0.976959 0.000000
0.971252 0.979797 0.000000
1.000000 0.980987 0.000000
1.000000 0.980621 0.000000
1.000000 0.967681 0.000000
1.000000 0.943359 0.000000
1.000000 0.919951 0.000000
1.000000 0.895995 0.000000
0.497108 0.942718 0.388525
0.498512 0.942718 0.389075
0.500114 0.942565 0.389532
0.503563 0.942107 0.390417
0.508995 0.941466 0.391547
0.516197 0.940612 0.393561
0.525353 0.939635 0.396124
0.536278 0.938598 0.399481
0.548974 0.937438 0.403815
0.563317 0.936187 0.409064
0.578943 0.934844 0.414954
0.595850 0.933349 0.421515
0.613855 0.931701 0.428870
0.632685 0.929839 0.436927
