other luts/Kodak Ektar 100.cube
# Created by Adobe Lightroom plugin Export LUT (1.24.0)
# www.johnrellis.com/lightroom/exportlut.htm
# Preset: FCP - Kodak Ektar 100 | 01
# Color profile: C:\Windows\System32\Spool\Drivers\Color\AdobeRGB1998.icc
LUT_3D_SIZE 5
DOMAIN_MIN 0.000000 0.000000 0.000000
DOMAIN_MAX 0.903226 0.903226 0.903226
0.000000 0.000000 0.000000
0.239475 0.000000 0.000000
0.576318 0.000000 0.000000
0.884916 0.000000 0.000000
1.000000 0.000000 0.000000
0.000000 0.199008 0.000000
0.202304 0.210452 0.000000
0.559197 0.181674 0.000000
0.875700 0.188510 0.000000
1.000000 0.193332 0.000000
0.000000 0.471046 0.000000
0.000000 0.465675 0.000000
0.479866 0.527184 0.000000
0.849821 0.556603 0.000000
1.000000 0.532036 0.000000
0.000000 0.721065 0.000000
0.000000 0.719356 0.000000
0.308934 0.709438 0.000000
0.785367 0.773007 0.000000
1.000000 0.746487 0.000000
0.000000 0.970001 0.000000
0.000000 0.969055 0.000000
0.341375 0.962188 0.000000
0.682338 0.954620 0.000000
1.000000 0.954803 0.000000
0.000000 0.018372 0.237491
0.233860 0.000000 0.242008
0.581964 0.000000 0.153994
0.885985 0.000000 0.000000
1.000000 0.000000 0.000000
0.000000 0.227268 0.213901
0.217838 0.239658 0.234592
0.571740 0.167056 0.153628
0.878294 0.112184 0.000000
1.000000 0.150393 0.000000
0.000000 0.489509 0.053712
0.083162 0.505943 0.114839
0.497414 0.542107 0.008270
0.852567 0.553582 0.000000
1.000000 0.526665 0.000000
0.000000 0.732052 0.000000
0.000000 0.733486 0.000000
0.326757 0.719661 0.000000
0.792844 0.775235 0.000000
1.000000 0.744533 0.000000
0.000000 0.970245 0.000000
0.000000 0.969299 0.000000
0.343267 0.963684 0.000000
0.684596 0.955444 0.000000
1.000000 0.955077 0.000000
0.000000 0.094392 0.596307
0.125154 0.061524 0.604120
0.559960 0.000000 0.614313
0.877256 0.000000 0.522942
1.000000 0.000000 0.393103
0.000000 0.310521 0.582361
0.118379 0.271244 0.597223
0.555322 0.199985 0.613275
0.874083 0.000000 0.518456
1.000000 0.000000 0.374731
0.000000 0.551385 0.526207
0.000000 0.565240 0.543481
0.536858 0.607691 0.613794
0.858274 0.531640 0.504448
1.000000 0.471778 0.359136
0.000000 0.747189 0.389044
0.000000 0.754330 0.395026
0.362982 0.771145 0.424048
0.800015 0.790005 0.442267
1.000000 0.737026 0.221653
0.000000 0.973816 0.318975
0.000000 0.975097 0.288762
0.217014 0.972381 0.227085
0.644556 0.956664 0.179110
1.000000 0.954955 0.000000
0.000000 0.213962 0.872465
0.112032 0.201541 0.874235
0.546654 0.097261 0.880797
0.851987 0.000000 0.880400
1.000000 0.000000 0.775296
0.000000 0.351873 0.866056
0.000000 0.337743 0.868345
0.533379 0.300999 0.876036
0.847166 0.160098 0.877684
1.000000 0.000000 0.769345
0.000000 0.632349 0.833066
0.102510 0.631037 0.837125
0.492073 0.596551 0.859617
0.828489 0.557214 0.867765
1.000000 0.456886 0.764248
0.000000 0.809812 0.793973
0.000000 0.810880 0.798154
0.368109 0.813931 0.817075
0.827024 0.835904 0.873960
0.998596 0.762905 0.793362
0.000000 0.979828 0.698390
0.000000 0.980713 0.693965
0.000000 0.981140 0.675410
0.628779 0.964111 0.689631
0.975311 0.955566 0.725673
0.286595 0.445167 1.000000
0.376471 0.438178 0.999817
0.581048 0.411963 0.999603
0.803464 0.354528 0.999603
1.000000 0.108125 0.999207
0.298497 0.521294 0.996277
0.381994 0.514702 0.996155
0.579400 0.491615 0.996216
0.798276 0.443366 0.996277
1.000000 0.294316 0.996582
0.425940 0.716487 0.983948
0.491188 0.714351 0.984161
0.584436 0.666560 0.987030
0.788876 0.636042 0.987884
0.991699 0.562158 0.989990
0.223911 0.839933 0.974945
0.339666 0.835996 0.974456
0.588556 0.829343 0.973938
0.798062 0.817899 0.978363
0.977691 0.803342 0.982757
0.000000 1.000000 0.966705
0.000000 1.000000 0.966400
0.231296 0.997711 0.966247
0.704158 0.972168 0.965087
0.967102 0.967132 0.977661
