other luts/Kodak Ektar 100.cube
# Created by Adobe Lightroom plugin Export LUT (1.24.0)
# www.johnrellis.com/lightroom/exportlut.htm
# Preset: FCP - Kodak Ektar 100 | 01
# Color profile: C:\Windows\System32\Spool\Drivers\Color\AdobeRGB1998.icc
LUT_3D_SIZE 32
DOMAIN_MIN 0.0 0.0 0.0
DOMAIN_MAX 1.0 1.0 1.0
0.000000 0.000000 0.000000
0.040558 0.000000 0.000000
0.069795 0.000000 0.000000
0.094362 0.000000 0.000000
0.124544 0.000000 0.000000
0.159365 0.000000 0.000000
0.198062 0.000000 0.000000
0.239475 0.000000 0.000000
0.282780 0.000000 0.000000
0.327977 0.000000 0.000000
0.375525 0.000000 0.000000
0.424170 0.000000 0.000000
0.474403 0.000000 0.000000
0.525475 0.000000 0.000000
0.576318 0.000000 0.000000
0.626154 0.000000 0.000000
0.674830 0.000000 0.000000
0.721614 0.000000 0.000000
0.765072 0.000000 0.000000
0.807431 0.000000 0.000000
0.847654 0.000000 0.000000
0.884916 0.000000 0.000000
0.918822 0.000000 0.000000
0.949523 0.000000 0.000000
0.977295 0.000000 0.000000
1.000000 0.000000 0.000000
1.000000 0.000000 0.000000
1.000000 0.000000 0.000000
1.000000 0.000000 0.000000
1.000000 0.000000 0.000000
1.000000 0.000000 0.000000
1.000000 0.000000 0.000000
0.002380 0.010163 0.000183
0.037476 0.005554 0.000000
0.068818 0.000000 0.000000
0.093690 0.000000 0.000000
0.123751 0.000000 0.000000
0.158602 0.000000 0.000000
0.197208 0.000000 0.000000
0.238468 0.000000 0.000000
0.281834 0.000000 0.000000
0.327123 0.000000 0.000000
0.374517 0.000000 0.000000
0.423194 0.000000 0.000000
0.473365 0.000000 0.000000
0.524498 0.000000 0.000000
0.575311 0.000000 0.000000
0.625116 0.000000 0.000000
0.673854 0.000000 0.000000
0.720668 0.000000 0.000000
0.764126 0.000000 0.000000
0.806485 0.000000 0.000000
0.846555 0.000000 0.000000
0.883848 0.000000 0.000000
0.917784 0.000000 0.000000
0.948669 0.000000 0.000000
0.976501 0.000000 0.000000
1.000000 0.000000 0.000000
1.000000 0.000000 0.000000
1.000000 0.000000 0.000000
1.000000 0.000000 0.000000
1.000000 0.000000 0.000000
1.000000 0.000000 0.000000
1.000000 0.000000 0.000000
0.005035 0.026093 0.000977
0.030671 0.023041 0.000549
0.067201 0.016510 0.000000
0.092744 0.007050 0.000000
0.122805 0.000000 0.000000
0.157534 0.000000 0.000000
0.195956 0.000000 0.000000
0.237278 0.000000 0.000000
0.280766 0.000000 0.000000
0.326207 0.000000 0.000000
0.373388 0.000000 0.000000
0.422309 0.000000 0.000000
0.472328 0.000000 0.000000
0.523491 0.000000 0.000000
0.574334 0.000000 0.000000
0.624170 0.000000 0.000000
0.672816 0.000000 0.000000
0.719722 0.000000 0.000000
0.763333 0.000000 0.000000
0.805600 0.000000 0.000000
0.845823 0.000000 0.000000
0.883116 0.000000 0.000000
0.917144 0.000000 0.000000
0.948058 0.000000 0.000000
0.975952 0.000000 0.000000
1.000000 0.000000 0.000000
1.000000 0.000000 0.000000
1.000000 0.000000 0.000000
1.000000 0.000000 0.000000
1.000000 0.000000 0.000000
1.000000 0.000000 0.000000
1.000000 0.000000 0.000000
0.007385 0.061707 0.001648
0.031647 0.060578 0.001251
0.061341 0.058503 0.001740
0.090333 0.054170 0.000000
0.119966 0.039582 0.000000
0.155184 0.020600 0.000000
0.193759 0.000000 0.000000
0.235142 0.000000 0.000000
0.278752 0.000000 0.000000
0.324315 0.000000 0.000000
0.371557 0.000000 0.000000
0.420478 0.000000 0.000000
0.470436 0.000000 0.000000
0.521599 0.000000 0.000000
0.572564 0.000000 0.000000
0.622492 0.000000 0.000000
0.671290 0.000000 0.000000
0.718227 0.000000 0.000000
0.761990 0.000000 0.000000
0.804074 0.000000 0.000000
0.844297 0.000000 0.000000
0.881651 0.000000 0.000000
0.915831 0.000000 0.000000
0.946929 0.000000 0.000000
0.975097 0.000000 0.000000
1.000000 0.000000 0.000000
1.000000 0.000000 0.000000
1.000000 0.000000 0.000000
1.000000 0.000000 0.000000
1.000000 0.000000 0.000000
1.000000 0.000000 0.000000
1.000000 0.000000 0.000000
0.008026 0.088808 0.000000
0.032074 0.088045 0.000000
0.060517 0.086824 0.000000
0.081392 0.085359 0.000000
0.114199 0.086061 0.000000
0.148440 0.076051 0.000000
0.189761 0.068544 0.000000
0.231327 0.043305 0.000000
0.275395 0.000000 0.000000
0.320928 0.000000 0.000000
0.368353 0.000000 0.000000
0.417334 0.000000 0.000000
0.467659 0.000000 0.000000
0.518822 0.000000 0.000000
0.569970 0.000000 0.000000
0.619989 0.000000 0.000000
0.669001 0.000000 0.000000
0.716121 0.000000 0.000000
0.760281 0.000000 0.000000
0.802426 0.000000 0.000000
0.842679 0.000000 0.000000
0.880156 0.000000 0.000000
0.914427 0.000000 0.000000
0.945647 0.000000 0.000000
0.973968 0.000000 0.000000
0.999573 0.000000 0.000000
1.000000 0.000000 0.000000
1.000000 0.000000 0.000000
1.000000 0.000000 0.000000
1.000000 0.000000 0.000000
1.000000 0.000000 0.000000
1.000000 0.000000 0.000000
0.000885 0.122408 0.000000
0.025330 0.121675 0.000000
0.051820 0.121065 0.000000
0.074434 0.119692 0.000000
0.100862 0.120333 0.000000
0.140444 0.123903 0.000000
0.179324 0.110964 0.000000
0.226413 0.108064 0.000000
0.270665 0.099702 0.000000
0.316716 0.081727 0.000000
0.364416 0.052491 0.000000
0.413642 0.000000 0.000000
0.463966 0.000000 0.000000
0.515465 0.000000 0.000000
0.566827 0.000000 0.000000
0.617151 0.000000 0.000000
0.666224 0.000000 0.000000
0.713619 0.000000 0.000000
0.758022 0.000000 0.000000
0.800443 0.000000 0.000000
0.840879 0.000000 0.000000
0.878569 0.000000 0.000000
0.917754 0.000000 0.000000
0.948608 0.000000 0.000000
0.976471 0.000000 0.000000
1.000000 0.000000 0.000000
1.000000 0.000000 0.000000
1.000000 0.000000 0.000000
1.000000 0.000000 0.000000
1.000000 0.000000 0.000000
1.000000 0.000000 0.000000
1.000000 0.000000 0.000000
0.000000 0.160403 0.000000
0.007294 0.159945 0.000000
0.031708 0.159426 0.000000
0.065187 0.158419 0.000000
0.088014 0.157137 0.000000
0.123201 0.161166 0.000000
0.170047 0.166690 0.000000
0.213046 0.150546 0.000000
0.263523 0.150729 0.000000
0.312749 0.147127 0.000000
0.360540 0.141207 0.000000
0.410285 0.130190 0.000000
0.460883 0.118563 0.000000
0.512627 0.104860 0.000000
0.564263 0.089418 0.000000
0.614649 0.074495 0.000000
0.663874 0.060151 0.000000
0.711818 0.043091 0.000000
0.756680 0.037049 0.000000
0.799466 0.046113 0.000000
0.840452 0.063630 0.000000
0.878782 0.076204 0.000000
0.913756 0.089662 0.000000
0.945556 0.098695 0.000000
0.974121 0.107576 0.000000
0.999756 0.112398 0.000000
1.000000 0.115572 0.000000
1.000000 0.112306 0.000000
1.000000 0.105470 0.000000
1.000000 0.092653 0.000000
1.000000 0.071199 0.000000
1.000000 0.000000 0.000000
0.000000 0.199008 0.000000
0.000000 0.198703 0.000000
0.000000 0.198398 0.000000
0.043122 0.197543 0.000000
0.076814 0.196506 0.000000
0.105135 0.196292 0.000000
0.148775 0.203311 0.000000
0.202304 0.210452 0.000000
0.247837 0.192050 0.000000
0.301030 0.195193 0.000000
0.354955 0.195865 0.000000
0.404334 0.194644 0.000000
0.455177 0.191165 0.000000
0.507134 0.186435 0.000000
0.559197 0.181674 0.000000
0.609888 0.178378 0.000000
0.659693 0.176272 0.000000
0.707881 0.175998 0.000000
0.752926 0.176699 0.000000
0.795926 0.179385 0.000000
0.837125 0.183963 0.000000
0.875700 0.188510 0.000000
0.910948 0.193210 0.000000
0.942962 0.197208 0.000000
0.971801 0.200137 0.000000
0.997681 0.201785 0.000000
1.000000 0.201266 0.000000
1.000000 0.198398 0.000000
1.000000 0.193332 0.000000
1.000000 0.185214 0.000000
1.000000 0.174472 0.000000
1.000000 0.159792 0.000000
0.000000 0.238254 0.000000
0.000000 0.237980 0.000000
0.000000 0.237827 0.000000
0.000122 0.237217 0.000000
0.060182 0.236332 0.000000
0.090791 0.235050 0.000000
0.128481 0.238682 0.000000
0.178256 0.247196 0.000000
0.237064 0.255497 0.000000
0.284489 0.237491 0.000000
0.340398 0.241337 0.000000
0.396063 0.244694 0.000000
0.449500 0.246830 0.000000
0.501213 0.249027 0.000000
0.553429 0.248173 0.000000
0.604669 0.247593 0.000000
0.654963 0.247868 0.000000
0.703365 0.249393 0.000000
0.748653 0.250980 0.000000
0.792142 0.253391 0.000000
0.833524 0.257115 0.000000
0.872465 0.260349 0.000000
0.908049 0.263401 0.000000
0.940307 0.265843 0.000000
0.969360 0.267308 0.000000
0.995483 0.267002 0.000000
1.000000 0.265568 0.000000
1.000000 0.261997 0.000000
1.000000 0.256596 0.000000
1.000000 0.249332 0.000000
1.000000 0.239841 0.000000
1.000000 0.228122 0.000000
0.000000 0.277562 0.000000
0.000000 0.277287 0.000000
0.000000 0.277012 0.000000
0.000000 0.276432 0.000000
0.011872 0.275731 0.000000
0.074311 0.274632 0.000000
0.107424 0.273075 0.000000
0.156039 0.281468 0.000000
0.211337 0.291020 0.000000
0.273381 0.300755 0.000000
0.321935 0.284062 0.000000
0.380835 0.287480 0.000000
0.438239 0.293492 0.000000
0.495552 0.298863 0.000000
0.547845 0.303136 0.000000
0.599207 0.307622 0.000000
0.649744 0.309117 0.000000
0.698573 0.311162 0.000000
0.744198 0.313329 0.000000
0.788022 0.315740 0.000000
0.829862 0.318669 0.000000
0.868864 0.321599 0.000000
0.904662 0.323522 0.000000
0.937194 0.324590 0.000000
0.966461 0.324926 0.000000
0.992828 0.323796 0.000000
1.000000 0.321477 0.000000
1.000000 0.317235 0.000000
1.000000 0.311467 0.000000
1.000000 0.304051 0.000000
1.000000 0.295262 0.000000
1.000000 0.284642 0.000000
0.000000 0.316991 0.000000
0.000000 0.316869 0.000000
0.000000 0.316564 0.000000
0.000000 0.316228 0.000000
0.000000 0.315312 0.000000
0.036408 0.314244 0.000000
0.091005 0.312840 0.000000
0.132082 0.314366 0.000000
0.187076 0.324529 0.000000
0.246494 0.335363 0.000000
0.311833 0.346166 0.000000
0.360784 0.330694 0.000000
0.422827 0.334325 0.000000
0.481849 0.342779 0.000000
0.540551 0.350774 0.000000
0.593683 0.356939 0.000000
0.643763 0.362982 0.000000
0.692470 0.367285 0.000000
0.738705 0.369604 0.000000
0.783017 0.371740 0.000000
0.825315 0.374548 0.000000
0.864866 0.376623 0.000000
0.901091 0.378149 0.000000
0.933928 0.378454 0.000000
0.963561 0.377752 0.000000
0.990204 0.375860 0.000000
1.000000 0.372625 0.000000
1.000000 0.367895 0.000000
1.000000 0.361608 0.000000
1.000000 0.354070 0.000000
1.000000 0.345220 0.000000
1.000000 0.334905 0.000000
0.000000 0.356146 0.000000
0.000000 0.356054 0.000000
0.000000 0.355810 0.000000
0.000000 0.355474 0.000000
0.000000 0.354589 0.000000
0.000000 0.353643 0.000000
0.066621 0.352300 0.000000
0.111391 0.350469 0.000000
0.161715 0.356542 0.000000
0.221012 0.367712 0.000000
0.283970 0.379614 0.000000
0.351720 0.391974 0.000000
0.403601 0.380529 0.000000
0.470192 0.385229 0.000000
0.530358 0.395636 0.000000
0.588525 0.404639 0.000000
0.643091 0.412634 0.000000
0.691646 0.419043 0.000000
0.737148 0.424964 0.000000
0.781735 0.427192 0.000000
0.824247 0.428992 0.000000
0.863737 0.430579 0.000000
0.899870 0.430884 0.000000
0.932647 0.430213 0.000000
0.962280 0.428565 0.000000
0.988891 0.425635 0.000000
1.000000 0.421485 0.000000
1.000000 0.415839 0.000000
1.000000 0.409064 0.000000
1.000000 0.401068 0.000000
1.000000 0.391943 0.000000
1.000000 0.381689 0.000000
0.000000 0.395819 0.000000
0.000000 0.395636 0.000000
0.000000 0.395361 0.000000
0.000000 0.394842 0.000000
0.000000 0.394079 0.000000
0.000000 0.392828 0.000000
0.000000 0.391669 0.000000
0.090455 0.390021 0.000000
0.134463 0.387854 0.000000
0.194827 0.399237 0.000000
0.257908 0.411933 0.000000
0.324285 0.425299 0.000000
0.394598 0.439338 0.000000
0.444343 0.426703 0.000000
0.513817 0.431891 0.000000
0.573388 0.443091 0.000000
0.630488 0.452827 0.000000
0.684871 0.461585 0.000000
0.731930 0.467262 0.000000
0.776181 0.472663 0.000000
0.818601 0.476814 0.000000
0.858732 0.477729 0.000000
0.895384 0.477577 0.000000
0.928679 0.476234 0.000000
0.958679 0.473884 0.000000
0.985687 0.470405 0.000000
1.000000 0.465675 0.000000
1.000000 0.459632 0.000000
1.000000 0.452399 0.000000
1.000000 0.444251 0.000000
1.000000 0.435035 0.000000
1.000000 0.424811 0.000000
0.000000 0.433570 0.000000
0.000000 0.433417 0.000000
0.000000 0.433112 0.000000
0.000000 0.432593 0.000000
0.000000 0.431800 0.000000
0.000000 0.430945 0.000000
0.000000 0.429633 0.000000
0.057343 0.428260 0.000000
0.116884 0.426246 0.000000
0.166751 0.428351 0.000000
0.230686 0.441230 0.000000
0.296269 0.454871 0.000000
0.364721 0.469215 0.000000
0.436866 0.483986 0.000000
0.489265 0.475441 0.000000
0.557336 0.477241 0.000000
0.615564 0.488594 0.000000
0.671351 0.498360 0.000000
0.723568 0.506279 0.000000
0.771206 0.512291 0.000000
0.813962 0.516838 0.000000
0.853788 0.520836 0.000000
0.890867 0.520867 0.000000
0.924620 0.519127 0.000000
0.955077 0.516258 0.000000
0.982483 0.512261 0.000000
1.000000 0.507073 0.000000
1.000000 0.500694 0.000000
1.000000 0.493294 0.000000
1.000000 0.484932 0.000000
1.000000 0.475654 0.000000
1.000000 0.465431 0.000000
0.000000 0.471046 0.000000
0.000000 0.470893 0.000000
0.000000 0.470802 0.000000
0.000000 0.470344 0.000000
0.000000 0.469459 0.000000
0.000000 0.468605 0.000000
0.000000 0.467292 0.000000
0.000000 0.465675 0.000000
0.093660 0.463844 0.000000
0.144808 0.461707 0.000000
0.202701 0.469032 0.000000
0.268803 0.482795 0.000000
0.336370 0.497200 0.000000
0.406683 0.512230 0.000000
0.479866 0.527184 0.000000
0.534051 0.521691 0.000000
0.600031 0.520439 0.000000
0.657099 0.531456 0.000000
0.711025 0.540459 0.000000
0.761898 0.547723 0.000000
0.809445 0.553521 0.000000
0.849821 0.556603 0.000000
0.886748 0.558892 0.000000
0.920500 0.559136 0.000000
0.951415 0.555901 0.000000
0.979217 0.551659 0.000000
1.000000 0.546136 0.000000
1.000000 0.539666 0.000000
1.000000 0.532036 0.000000
1.000000 0.523522 0.000000
1.000000 0.514183 0.000000
1.000000 0.503807 0.000000
0.000000 0.507988 0.000000
0.000000 0.507866 0.000000
0.000000 0.507713 0.000000
0.000000 0.507256 0.000000
0.000000 0.506554 0.000000
0.000000 0.505638 0.000000
0.000000 0.504509 0.000000
0.000000 0.502983 0.000000
0.057649 0.501274 0.000000
0.126589 0.499092 0.000000
0.173678 0.496773 0.000000
0.241306 0.509667 0.000000
0.308507 0.523919 0.000000
0.377996 0.538628 0.000000
0.449348 0.553185 0.000000
0.522393 0.567437 0.000000
0.577661 0.564721 0.000000
0.640589 0.561334 0.000000
0.697841 0.571191 0.000000
0.750484 0.579553 0.000000
0.799741 0.585931 0.000000
0.844877 0.590509 0.000000
0.883574 0.592584 0.000000
0.917571 0.593011 0.000000
0.948180 0.592706 0.000000
0.976226 0.588983 0.000000
1.000000 0.583307 0.000000
1.000000 0.576593 0.000000
1.000000 0.568750 0.000000
1.000000 0.560052 0.000000
1.000000 0.550500 0.000000
1.000000 0.540215 0.000000
0.000000 0.543999 0.000000
0.000000 0.543847 0.000000
0.000000 0.543694 0.000000
0.000000 0.543267 0.000000
0.000000 0.542504 0.000000
0.000000 0.541741 0.000000
0.000000 0.540520 0.000000
0.000000 0.539086 0.000000
0.000000 0.537377 0.000000
0.105043 0.535363 0.000000
0.159670 0.533074 0.000000
0.212345 0.535088 0.000000
0.281071 0.549096 0.000000
0.349828 0.563256 0.000000
0.420233 0.577447 0.000000
0.491768 0.591302 0.000000
0.564385 0.604852 0.000000
0.620905 0.604547 0.000000
0.680476 0.600000 0.000000
0.738308 0.608057 0.000000
0.789120 0.615442 0.000000
0.835904 0.620722 0.000000
0.877714 0.623651 0.000000
0.914397 0.624506 0.000000
0.945373 0.623621 0.000000
0.973297 0.621820 0.000000
0.998627 0.618341 0.000000
1.000000 0.611414 0.000000
1.000000 0.603479 0.000000
1.000000 0.594720 0.000000
1.000000 0.585229 0.000000
1.000000 0.574914 0.000000
0.000000 0.578912 0.000000
0.000000 0.578790 0.000000
0.000000 0.581323 0.000000
0.000000 0.580957 0.000000
0.000000 0.580163 0.000000
0.000000 0.579431 0.000000
0.000000 0.578241 0.000000
0.000000 0.576745 0.000000
0.000000 0.575097 0.000000
0.076570 0.573175 0.000000
0.145144 0.570977 0.000000
0.194125 0.568322 0.000000
0.254734 0.575525 0.000000
0.324559 0.589349 0.000000
0.394507 0.602991 0.000000
0.465797 0.616358 0.000000
0.537865 0.629603 0.000000
0.609583 0.642573 0.000000
0.667140 0.643824 0.000000
0.721798 0.637354 0.000000
0.779477 0.643549 0.000000
0.827787 0.649500 0.000000
0.870970 0.653010 0.000000
0.909209 0.654383 0.000000
0.942962 0.653803 0.000000
0.971221 0.651484 0.000000
0.996460 0.648219 0.000000
1.000000 0.644068 0.000000
1.000000 0.636683 0.000000
1.000000 0.627863 0.000000
1.000000 0.618250 0.000000
1.000000 0.607965 0.000000
0.000000 0.614191 0.000000
0.000000 0.614374 0.000000
0.000000 0.614618 0.000000
0.000000 0.614649 0.000000
0.000000 0.614313 0.000000
0.000000 0.613672 0.000000
0.000000 0.612665 0.000000
0.000000 0.611414 0.000000
0.000000 0.609979 0.000000
0.000000 0.608179 0.000000
0.127779 0.606104 0.000000
0.182986 0.604150 0.000000
0.229038 0.601862 0.000000
0.298100 0.613581 0.000000
0.368566 0.626764 0.000000
0.439918 0.639765 0.000000
0.511650 0.652674 0.000000
0.582818 0.665156 0.000000
0.653681 0.676997 0.000000
0.711177 0.679255 0.000000
0.760678 0.670771 0.000000
0.817746 0.675257 0.000000
0.862608 0.679652 0.000000
0.902281 0.681697 0.000000
0.937133 0.681727 0.000000
0.967926 0.679835 0.000000
0.994293 0.676326 0.000000
1.000000 0.671809 0.000000
1.000000 0.666560 0.000000
1.000000 0.659571 0.000000
1.000000 0.649989 0.000000
1.000000 0.639704 0.000000
0.000000 0.648615 0.000000
0.000000 0.648859 0.000000
0.000000 0.649073 0.000000
0.000000 0.649042 0.000000
0.000000 0.648768 0.000000
0.000000 0.648219 0.000000
0.000000 0.647364 0.000000
0.000000 0.646235 0.000000
0.000000 0.644984 0.000000
0.000000 0.643549 0.000000
0.108827 0.642115 0.000000
0.172457 0.640406 0.000000
0.222293 0.638270 0.000000
0.272099 0.638697 0.000000
0.344518 0.651514 0.000000
0.416358 0.664118 0.000000
0.488075 0.676478 0.000000
0.558892 0.688197 0.000000
0.628840 0.699397 0.000000
0.697688 0.710018 0.000000
0.754849 0.712886 0.000000
0.798856 0.702449 0.000000
0.854032 0.704616 0.000000
0.895079 0.707424 0.000000
0.931121 0.708034 0.000000
0.962829 0.706783 0.000000
0.990784 0.703609 0.000000
1.000000 0.698909 0.000000
1.000000 0.693294 0.000000
1.000000 0.687129 0.000000
1.000000 0.680385 0.000000
1.000000 0.670283 0.000000
0.000000 0.683772 0.000000
0.000000 0.684016 0.000000
0.000000 0.684169 0.000000
0.000000 0.684230 0.000000
0.000000 0.684016 0.000000
0.000000 0.683497 0.000000
0.000000 0.682887 0.000000
0.000000 0.682185 0.000000
0.000000 0.681147 0.000000
0.000000 0.680049 0.000000
0.086000 0.678767 0.000000
0.162966 0.677150 0.000000
0.216800 0.675319 0.000000
0.263493 0.673182 0.000000
0.321263 0.677394 0.000000
0.394476 0.689448 0.000000
0.466499 0.701045 0.000000
0.537682 0.712123 0.000000
0.607416 0.722713 0.000000
0.675715 0.732753 0.000000
0.742245 0.742306 0.000000
0.798856 0.745663 0.000000
0.836820 0.732906 0.000000
0.888792 0.732540 0.000000
0.926024 0.733913 0.000000
0.958618 0.733211 0.000000
0.987274 0.730556 0.000000
1.000000 0.726162 0.000000
1.000000 0.720150 0.000000
1.000000 0.713619 0.000000
1.000000 0.706538 0.000000
1.000000 0.698970 0.000000
0.000000 0.721065 0.000000
0.000000 0.721248 0.000000
0.000000 0.721279 0.000000
0.000000 0.721248 0.000000
0.000000 0.720974 0.000000
0.000000 0.720577 0.000000
0.000000 0.720089 0.000000
0.000000 0.719356 0.000000
0.000000 0.718654 0.000000
0.000000 0.717617 0.000000
0.057588 0.716548 0.000000
0.155276 0.715175 0.000000
0.214359 0.713527 0.000000
0.263981 0.711604 0.000000
0.308934 0.709438 0.000000
0.374456 0.716518 0.000000
0.447456 0.727077 0.000000
0.518853 0.737240 0.000000
0.588190 0.746914 0.000000
0.656092 0.756161 0.000000
0.721889 0.764858 0.000000
0.785367 0.773007 0.000000
0.839841 0.776333 0.000000
0.871336 0.760800 0.000000
0.919524 0.757931 0.000000
0.953185 0.757961 0.000000
0.982696 0.755917 0.000000
1.000000 0.751980 0.000000
1.000000 0.746487 0.000000
1.000000 0.739559 0.000000
1.000000 0.732052 0.000000
1.000000 0.724147 0.000000
0.000000 0.757382 0.000000
0.000000 0.757504 0.000000
0.000000 0.757656 0.000000
0.000000 0.757504 0.000000
0.000000 0.757351 0.000000
0.000000 0.756985 0.000000
0.000000 0.756527 0.000000
0.000000 0.755886 0.000000
0.000000 0.755215 0.000000
0.000000 0.754299 0.000000
0.000000 0.753292 0.000000
0.147890 0.752102 0.000000
0.211978 0.750576 0.000000
0.264866 0.748867 0.000000
0.312200 0.746914 0.000000
0.356329 0.744778 0.000000
0.429114 0.753811 0.000000
0.501274 0.763027 0.000000
0.570977 0.771878 0.000000
0.638239 0.780301 0.000000
0.703517 0.788113 0.000000
0.766171 0.795377 0.000000
0.825803 0.802243 0.000000
0.877928 0.805600 0.000000
0.902861 0.787076 0.000000
0.947204 0.781643 0.000000
0.977722 0.780331 0.000000
1.000000 0.776974 0.000000
1.000000 0.771939 0.000000
1.000000 0.765469 0.000000
1.000000 0.757839 0.000000
1.000000 0.749020 0.000000
0.000000 0.794705 0.000000
0.000000 0.794797 0.000000
0.000000 0.794858 0.000000
0.000000 0.794766 0.000000
0.000000 0.794614 0.000000
0.000000 0.794247 0.000000
0.000000 0.793698 0.000000
0.000000 0.793118 0.000000
0.000000 0.792325 0.000000
0.000000 0.791409 0.000000
0.000000 0.790372 0.000000
0.142214 0.789151 0.000000
0.211765 0.787686 0.000000
0.267460 0.786099 0.000000
0.316838 0.784207 0.000000
0.362707 0.782101 0.000000
0.411963 0.781704 0.000000
0.485115 0.789914 0.000000
0.554925 0.797726 0.000000
0.622004 0.805051 0.000000
0.686488 0.811917 0.000000
0.748257 0.818326 0.000000
0.807034 0.824277 0.000000
0.862608 0.829923 0.000000
0.912108 0.833555 0.000000
0.932372 0.812711 0.000000
0.972137 0.805325 0.000000
1.000000 0.801724 0.000000
1.000000 0.797177 0.000000
1.000000 0.791043 0.000000
1.000000 0.783658 0.000000
1.000000 0.774899 0.000000
0.000000 0.830747 0.000000
0.000000 0.830900 0.000000
0.000000 0.830961 0.000000
0.000000 0.830900 0.000000
0.000000 0.830655 0.000000
0.000000 0.830350 0.000000
0.000000 0.829923 0.000000
0.000000 0.829435 0.000000
0.000000 0.828794 0.000000
0.000000 0.828031 0.000000
0.000000 0.827146 0.000000
0.137728 0.826047 0.000000
0.212802 0.824765 0.000000
0.271427 0.823331 0.000000
0.323125 0.821592 0.000000
0.370703 0.819760 0.000000
0.415869 0.817655 0.000000
0.470985 0.819120 0.000000
0.541253 0.825681 0.000000
0.608270 0.831876 0.000000
0.672114 0.837675 0.000000
0.733150 0.843076 0.000000
0.791012 0.848203 0.000000
0.845762 0.852995 0.000000
0.896971 0.857603 0.000000
0.943969 0.861418 0.000000
0.960082 0.838224 0.000000
0.994965 0.828458 0.000000
1.000000 0.822354 0.000000
1.000000 0.816770 0.000000
1.000000 0.809476 0.000000
1.000000 0.800900 0.000000
0.000000 0.866606 0.000000
0.000000 0.866697 0.000000
0.000000 0.866697 0.000000
0.000000 0.866606 0.000000
0.000000 0.866392 0.000000
0.000000 0.866117 0.000000
0.000000 0.865660 0.000000
0.000000 0.865171 0.000000
0.000000 0.864561 0.000000
0.000000 0.863890 0.000000
0.000000 0.863066 0.000000
0.132235 0.862119 0.000000
0.213413 0.860960 0.000000
0.275242 0.859648 0.000000
0.328954 0.858091 0.000000
0.378424 0.856352 0.000000
0.425025 0.854459 0.000000
0.469093 0.852476 0.000000
0.528252 0.854856 0.000000
0.595178 0.859922 0.000000
0.658808 0.864652 0.000000
0.719142 0.869108 0.000000
0.776242 0.873259 0.000000
0.830137 0.877104 0.000000
0.880644 0.880705 0.000000
0.927672 0.884092 0.000000
0.971618 0.887327 0.000000
0.986389 0.863767 0.000000
1.000000 0.850523 0.000000
1.000000 0.841855 0.000000
1.000000 0.835019 0.000000
1.000000 0.826841 0.000000
0.000000 0.901579 0.000000
0.000000 0.901610 0.000000
0.000000 0.901610 0.000000
0.000000 0.901579 0.000000
0.000000 0.901427 0.000000
0.000000 0.901244 0.000000
0.000000 0.901030 0.000000
0.000000 0.900786 0.000000
0.000000 0.900450 0.000000
0.000000 0.900084 0.000000
0.000000 0.899504 0.000000
0.127535 0.898833 0.000000
0.215335 0.897978 0.000000
0.280095 0.896849 0.000000
0.336248 0.895506 0.000000
0.387304 0.893919 0.000000
0.435126 0.892241 0.000000
0.480385 0.890471 0.000000
0.523522 0.888670 0.000000
0.585107 0.891264 0.000000
0.648188 0.894804 0.000000
0.708003 0.898039 0.000000
0.764279 0.900999 0.000000
0.817227 0.903624 0.000000
0.866819 0.906065 0.000000
0.912993 0.908324 0.000000
0.956176 0.910430 0.000000
0.996979 0.912322 0.000000
1.000000 0.888823 0.000000
1.000000 0.872068 0.000000
1.000000 0.860838 0.000000
1.000000 0.853086 0.000000
0.000000 0.937224 0.000000
0.000000 0.937255 0.000000
0.000000 0.937194 0.000000
0.000000 0.937133 0.000000
0.000000 0.936980 0.000000
0.000000 0.936736 0.000000
0.000000 0.936461 0.000000
0.000000 0.936156 0.000000
0.000000 0.935760 0.000000
0.000000 0.935241 0.000000
0.000000 0.934600 0.000000
0.120089 0.933776 0.000000
0.214633 0.932860 0.000000
0.282200 0.931731 0.000000
