other luts/Kodak Gold 100 _ 04 Skin Tones.cube
# Created by Adobe Lightroom plugin Export LUT (1.24.0)
# www.johnrellis.com/lightroom/exportlut.htm
# Preset: FCP - Kodak Gold 100 | 04 Skin Tones 
# Color profile: C:\Windows\System32\Spool\Drivers\Color\AdobeRGB1998.icc
LUT_3D_SIZE 8
DOMAIN_MIN 0.000000 0.000000 0.000000
DOMAIN_MAX 0.903226 0.903226 0.903226
0.000000 0.082429 0.000000
0.129213 0.090791 0.000000
0.318822 0.117678 0.000000
0.568261 0.179232 0.000000
0.771817 0.258701 0.000000
0.933501 0.306798 0.000000
1.000000 0.332219 0.000000
1.000000 0.343877 0.000000
0.057832 0.137148 0.053864
0.131807 0.156252 0.000000
0.346166 0.178592 0.000000
0.586419 0.239475 0.000000
0.784085 0.302861 0.000000
0.935515 0.337987 0.000000
1.000000 0.355535 0.000000
1.000000 0.362646 0.000000
0.106020 0.239689 0.088502
0.145083 0.234348 0.096132
0.344457 0.321141 0.000000
0.622858 0.410437 0.000000
0.848661 0.444434 0.000000
0.968292 0.440894 0.000000
1.000000 0.433356 0.000000
1.000000 0.421973 0.000000
0.172519 0.391028 0.118044
0.210391 0.384466 0.123720
0.306828 0.383337 0.129854
0.601190 0.582513 0.000000
0.851347 0.638392 0.000000
0.992554 0.596674 0.000000
1.000000 0.546136 0.000000
1.000000 0.510613 0.000000
0.258427 0.559167 0.143771
0.290257 0.553491 0.148470
0.369085 0.536919 0.164797
0.508324 0.606134 0.099886
0.781765 0.772976 0.000000
0.968231 0.765621 0.000000
1.000000 0.695766 0.000000
1.000000 0.625269 0.000000
0.336645 0.709621 0.185946
0.361517 0.709987 0.191714
0.424445 0.698024 0.205081
0.500999 0.679103 0.228214
0.668818 0.794125 0.070497
0.907256 0.890043 0.000000
1.000000 0.850553 0.000000
1.000000 0.764584 0.000000
0.415991 0.852873 0.270146
0.432593 0.851743 0.274235
0.481209 0.843900 0.285008
0.551781 0.832517 0.305943
0.641749 0.840787 0.314214
0.804379 0.921233 0.166201
0.983551 0.958160 0.000000
1.000000 0.901915 0.000000
0.532555 0.966247 0.440742
0.543542 0.965209 0.444160
0.581323 0.962097 0.457771
0.644190 0.957580 0.485695
0.713039 0.947112 0.511101
0.800809 0.968261 0.500481
0.901640 0.992432 0.355016
1.000000 0.995209 0.000000
0.000000 0.084749 0.126986
0.118563 0.082399 0.123964
0.272740 0.109773 0.108949
0.533104 0.134707 0.051209
0.743923 0.221012 0.000000
0.910735 0.278416 0.000000
1.000000 0.312566 0.000000
1.000000 0.331182 0.000000
0.000000 0.144015 0.124422
0.117922 0.150240 0.129030
0.309941 0.159823 0.108614
0.556420 0.201694 0.008087
0.761318 0.270573 0.000000
0.918029 0.313298 0.000000
1.000000 0.337438 0.000000
1.000000 0.349950 0.000000
0.073213 0.251194 0.124117
0.155215 0.256229 0.150027
0.333898 0.313664 0.101198
0.612085 0.384985 0.000000
0.823026 0.417090 0.000000
0.951995 0.421088 0.000000
1.000000 0.418524 0.000000
1.000000 0.411505 0.000000
0.155001 0.407599 0.154879
0.213626 0.404547 0.168734
0.311162 0.386145 0.182803
0.584985 0.564904 0.000000
0.830472 0.615167 0.000000
0.980591 0.579644 0.000000
1.000000 0.535943 0.000000
1.000000 0.503044 0.000000
0.254154 0.574823 0.185611
0.289494 0.568322 0.188846
0.373541 0.549676 0.201328
0.500237 0.596857 0.170230
0.770230 0.762295 0.000000
0.961212 0.756619 0.000000
1.000000 0.688991 0.000000
1.000000 0.619257 0.000000
0.332769 0.715297 0.220340
0.356542 0.711940 0.223575
0.422004 0.699977 0.234714
0.501335 0.681849 0.254795
0.662623 0.787808 0.162325
0.904234 0.887602 0.000000
1.000000 0.847440 0.000000
1.000000 0.761349 0.000000
0.411231 0.851133 0.291814
0.426947 0.848203 0.293645
0.477028 0.841093 0.303929
0.549401 0.831052 0.324498
0.637659 0.834073 0.339605
0.800504 0.917479 0.220005
0.980804 0.956023 0.000000
1.000000 0.899748 0.000000
0.529168 0.964599 0.450385
0.540917 0.963897 0.454658
0.579309 0.960937 0.468238
0.642695 0.956603 0.495247
0.718776 0.949950 0.531640
0.803128 0.967407 0.523613
0.901457 0.991394 0.387671
1.000000 0.994690 0.000000
0.000000 0.082979 0.279637
0.138796 0.035828 0.284886
0.294072 0.005219 0.276768
0.486824 0.000000 0.255314
0.660426 0.081300 0.208194
0.865721 0.188266 0.162722
1.000000 0.248112 0.057740
1.000000 0.283909 0.000000
0.000000 0.131472 0.281407
0.115145 0.134585 0.286259
0.299718 0.124788 0.282536
0.494881 0.087221 0.250217
0.686183 0.167117 0.211002
0.879271 0.234226 0.155825
1.000000 0.281834 0.052186
1.000000 0.307652 0.000000
0.000000 0.274937 0.275792
0.081514 0.282475 0.282444
0.316167 0.304234 0.302129
0.564202 0.313146 0.262119
0.768490 0.348821 0.216892
0.920989 0.371771 0.161624
1.000000 0.382238 0.069184
1.000000 0.381933 0.000000
0.000000 0.433906 0.262974
0.129274 0.443793 0.267124
0.354833 0.461494 0.310674
0.577722 0.562219 0.264317
0.828336 0.586419 0.207858
0.974304 0.552209 0.179843
1.000000 0.519768 0.109041
1.000000 0.488136 0.000000
0.121126 0.602655 0.252354
0.202640 0.608759 0.258030
0.393469 0.610193 0.321294
0.500053 0.595636 0.329625
0.767971 0.762966 0.210697
0.958282 0.745449 0.144137
1.000000 0.678645 0.121706
1.000000 0.609949 0.000000
0.257145 0.741665 0.266728
0.324132 0.743038 0.299718
0.432044 0.735836 0.342321
0.518181 0.714778 0.354009
0.654902 0.780056 0.328466
0.898192 0.884062 0.169772
1.000000 0.841794 0.072023
1.000000 0.756985 0.000000
0.400092 0.867521 0.364782
0.431708 0.866026 0.384833
0.483864 0.857694 0.391669
0.557458 0.845212 0.404364
0.638636 0.828824 0.423804
0.797208 0.912779 0.365759
0.978515 0.955627 0.149233
1.000000 0.897795 0.000000
0.536889 0.967773 0.508598
0.545953 0.966522 0.508659
0.583368 0.962951 0.518334
0.648096 0.958892 0.543084
0.722927 0.951629 0.572473
0.806363 0.962036 0.584833
0.903136 0.988922 0.493263
1.000000 0.994232 0.129824
0.000000 0.042603 0.482490
0.176303 0.000000 0.489876
0.372534 0.000000 0.507408
0.521386 0.000000 0.486671
0.663386 0.000000 0.435065
0.810819 0.000000 0.357153
0.926452 0.185031 0.322911
1.000000 0.250217 0.283970
0.000000 0.104067 0.489845
0.141268 0.088319 0.494606
0.360052 0.000000 0.510155
0.526635 0.000000 0.493477
0.668879 0.000000 0.436439
0.812009 0.000000 0.353521
0.936950 0.229892 0.327550
1.000000 0.272709 0.279911
0.000000 0.277012 0.478431
0.000000 0.270542 0.487129
0.302495 0.256596 0.513420
0.537774 0.265476 0.512078
0.686641 0.288701 0.443458
0.817777 0.327855 0.390295
0.977752 0.356207 0.351934
1.000000 0.357183 0.283482
0.000000 0.466926 0.475654
0.000000 0.474006 0.482307
0.281590 0.498512 0.505211
0.551324 0.552239 0.547082
0.755215 0.545098 0.498512
0.906462 0.536034 0.450690
1.000000 0.520043 0.397864
1.000000 0.493416 0.330602
0.000000 0.636316 0.435859
0.000000 0.640955 0.438056
0.329961 0.657008 0.455299
0.552636 0.675959 0.532158
0.755245 0.759976 0.516136
0.941375 0.743648 0.497597
1.000000 0.698970 0.484718
1.000000 0.639551 0.406043
0.157229 0.766690 0.407721
0.231479 0.771878 0.415137
0.384131 0.778286 0.443275
0.558923 0.777798 0.523827
0.657252 0.770413 0.525231
0.889921 0.882353 0.489662
1.000000 0.845701 0.475563
1.000000 0.775113 0.442084
0.306096 0.882567 0.416510
0.342168 0.883055 0.425849
0.448402 0.883268 0.467903
0.581750 0.873960 0.536706
0.664668 0.855833 0.544793
0.796048 0.904875 0.539361
0.971496 0.953765 0.467750
1.000000 0.901183 0.430671
0.472786 0.978241 0.517876
0.497383 0.977111 0.532250
0.584405 0.971221 0.590295
0.658137 0.964385 0.618616
0.731258 0.956146 0.638849
0.809171 0.951049 0.665827
0.905486 0.984222 0.623224
1.000000 0.992767 0.450446
0.000000 0.000000 0.679744
0.206455 0.000000 0.684260
0.384344 0.000000 0.695888
0.558953 0.000000 0.716274
0.704219 0.000000 0.683925
0.816800 0.000000 0.595453
0.935088 0.000000 0.526940
1.000000 0.176638 0.464424
0.071290 0.000000 0.683040
0.191257 0.000000 0.687282
0.367437 0.000000 0.697902
0.551995 0.000000 0.716762
0.706386 0.000000 0.687068
0.818418 0.061524 0.597955
0.935180 0.149538 0.528069
1.000000 0.221103 0.464973
0.000000 0.208713 0.682429
0.000000 0.217014 0.688197
0.297856 0.200656 0.698054
0.527184 0.182742 0.717281
0.711147 0.225406 0.696437
0.819516 0.324407 0.608362
0.933196 0.312749 0.532280
1.000000 0.364965 0.486000
0.000000 0.444190 0.664363
0.000000 0.443030 0.668696
0.216464 0.443153 0.684413
0.503075 0.480964 0.716640
0.718593 0.519432 0.715541
0.827756 0.523186 0.633661
0.929290 0.495125 0.556725
1.000000 0.510674 0.522179
0.000000 0.644373 0.657984
0.000000 0.648859 0.662165
0.234684 0.664851 0.676326
0.500908 0.699855 0.702907
0.730953 0.751034 0.743618
0.877287 0.731472 0.700008
0.980804 0.705623 0.651606
1.000000 0.670253 0.593530
0.000000 0.785458 0.592615
0.000000 0.789303 0.594476
0.301884 0.799191 0.603449
0.513878 0.809781 0.636835
0.704952 0.815915 0.703731
0.872831 0.875944 0.712490
0.992584 0.861204 0.716976
1.000000 0.824094 0.700587
0.205570 0.896849 0.554162
0.258457 0.896666 0.557733
0.388006 0.896544 0.575280
0.541405 0.896300 0.617334
0.698177 0.887480 0.683467
0.788205 0.884123 0.685328
0.959045 0.949767 0.686854
1.000000 0.913909 0.683558
0.410620 0.983520 0.583948
0.434272 0.982513 0.590448
0.508171 0.979217 0.614191
0.620752 0.974731 0.662074
0.740719 0.963012 0.719783
0.814572 0.952667 0.736080
0.905241 0.976135 0.739315
1.000000 0.989990 0.669001
0.000000 0.000000 0.835752
0.196567 0.000000 0.837797
0.375738 0.000000 0.843351
0.524346 0.000000 0.852689
0.708797 0.000000 0.866941
0.853788 0.000000 0.829465
0.938567 0.000000 0.727413
1.000000 0.319493 0.677638
0.152132 0.000000 0.834867
0.219059 0.000000 0.836210
0.357549 0.000000 0.841306
0.514580 0.000000 0.850980
0.702937 0.000000 0.864927
0.852628 0.000000 0.829099
0.937194 0.167208 0.728420
1.000000 0.346899 0.678828
0.000000 0.164279 0.834745
0.000000 0.156527 0.835935
0.291234 0.130220 0.840848
0.485603 0.093111 0.850950
0.689082 0.052430 0.864164
0.853605 0.203128 0.833463
0.934844 0.358556 0.737240
1.000000 0.433539 0.686061
0.000000 0.385473 0.821988
0.000000 0.380438 0.824796
0.145083 0.373693 0.836088
0.460578 0.414130 0.848692
0.678279 0.451270 0.862425
0.854826 0.501030 0.842802
0.930541 0.551659 0.758968
1.000000 0.544427 0.697200
0.000000 0.591821 0.808743
0.000000 0.592248 0.810666
0.162325 0.597986 0.817227
0.445716 0.625757 0.829038
0.673915 0.681636 0.851347
0.850797 0.714382 0.850126
0.923919 0.696559 0.776577
1.000000 0.651057 0.702174
0.000000 0.779355 0.798215
0.000000 0.782345 0.800778
0.192599 0.791165 0.807095
0.455451 0.809384 0.818723
0.673304 0.836210 0.837095
0.861845 0.875364 0.870848
0.951720 0.858915 0.840574
1.000000 0.835691 0.804318
0.000000 0.909178 0.736294
0.000000 0.910582 0.737514
0.295415 0.913359 0.741146
0.487068 0.917418 0.751644
0.674525 0.914977 0.780758
0.832425 0.910185 0.833402
0.947601 0.947417 0.849912
1.000000 0.935607 0.859709
0.302159 0.993683 0.689662
0.335576 0.992737 0.692622
0.432380 0.989471 0.704585
0.562799 0.984100 0.729671
0.706477 0.975097 0.771786
0.831876 0.962860 0.823972
0.901396 0.962585 0.833799
0.995331 0.987274 0.834684
0.000000 0.000000 0.940856
0.128603 0.000000 0.942748
0.325139 0.000000 0.945251
0.485786 0.000000 0.949401
0.637964 0.000000 0.953246
0.816556 0.000000 0.955749
0.956695 0.000000 0.924926
1.000000 0.254063 0.825620
0.032319 0.000000 0.937987
0.175723 0.000000 0.939696
0.338018 0.000000 0.942443
0.474800 0.000000 0.945312
0.629908 0.000000 0.949157
0.811246 0.000000 0.951934
0.951141 0.000000 0.920348
1.000000 0.274540 0.821897
0.000000 0.055909 0.940307
0.000000 0.006836 0.940673
0.277653 0.000000 0.941405
0.443488 0.000000 0.943969
0.612818 0.000000 0.947417
0.807156 0.000000 0.952270
0.950408 0.193332 0.922606
1.000000 0.417060 0.831296
0.000000 0.297246 0.936767
0.000000 0.304997 0.936675
0.173800 0.319768 0.937224
0.409339 0.330327 0.940459
0.598779 0.354528 0.944182
0.800595 0.400275 0.949554
0.946777 0.475257 0.925505
1.000000 0.571130 0.844907
0.000000 0.520226 0.918608
0.000000 0.518547 0.918151
0.000000 0.518486 0.919799
0.381415 0.540612 0.926268
0.597436 0.587640 0.931975
0.791226 0.629023 0.938354
0.934936 0.670436 0.922972
0.990661 0.712642 0.861112
0.000000 0.704768 0.909087
0.000000 0.705348 0.909453
0.040681 0.709377 0.910704
0.385657 0.724147 0.913542
0.597864 0.755398 0.917540
0.804807 0.813260 0.930388
0.931792 0.841581 0.929900
0.981964 0.824491 0.879057
0.000000 0.879149 0.901732
0.000000 0.880583 0.902647
0.154574 0.884337 0.903899
0.409827 0.892271 0.906584
0.616907 0.903075 0.910369
0.806638 0.919127 0.920073
0.939666 0.945983 0.943908
0.989685 0.934386 0.924651
0.000000 0.994263 0.844785
0.070527 0.993988 0.844633
0.302953 0.994568 0.847166
0.476478 0.992126 0.850004
0.651881 0.986206 0.859342
0.808743 0.976104 0.883085
0.917601 0.967163 0.916991
0.986694 0.984985 0.932647
0.000000 0.000000 1.000000
0.000000 0.000000 1.000000
0.246799 0.000000 1.000000
0.413855 0.000000 1.000000
0.570001 0.000000 1.000000
0.724056 0.000000 1.000000
0.886900 0.000000 1.000000
1.000000 0.000000 0.983246
0.000000 0.000000 1.000000
0.000000 0.000000 1.000000
0.252598 0.000000 1.000000
0.415534 0.000000 1.000000
0.566491 0.000000 1.000000
0.719722 0.000000 1.000000
0.884550 0.000000 1.000000
1.000000 0.000000 0.981750
0.000000 0.000000 1.000000
0.000000 0.000000 1.000000
0.256657 0.000000 1.000000
0.401221 0.000000 1.000000
0.546380 0.000000 1.000000
0.707729 0.000000 1.000000
0.880278 0.000000 1.000000
1.000000 0.183993 0.980407
0.000000 0.230961 1.000000
0.000000 0.229374 1.000000
0.111055 0.222568 1.000000
0.350927 0.219364 1.000000
0.521233 0.225223 1.000000
0.695308 0.245060 1.000000
0.876829 0.302464 1.000000
1.000000 0.433570 0.979034
0.000000 0.433509 0.993957
0.000000 0.432410 0.994476
0.000000 0.429694 0.994842
0.320653 0.452522 0.995178
0.509636 0.471901 0.994934
0.691005 0.504143 0.994385
0.872465 0.557092 0.993805
0.996918 0.631861 0.976379
0.000000 0.621485 0.984710
0.000000 0.620752 0.984314
0.000000 0.620417 0.983398
0.289738 0.627832 0.982483
0.513909 0.661006 0.983337
0.714687 0.714626 0.984131
0.879576 0.766323 0.985229
0.986267 0.808957 0.975769
0.000000 0.789731 0.977966
0.000000 0.789853 0.977630
0.000000 0.791348 0.976776
0.324376 0.798795 0.976013
0.530419 0.816312 0.974609
0.726925 0.848417 0.972992
0.891722 0.896178 0.976684
0.978180 0.919707 0.975525
0.000000 0.948516 0.972595
0.000000 0.948852 0.972412
0.192508 0.950958 0.972320
0.408484 0.955566 0.972564
0.593408 0.959991 0.971405
0.764034 0.964508 0.970275
0.897948 0.970184 0.971557
0.981201 0.983215 0.982544
