other luts/山魈映画-800T 35mm 偏黄.cube
#Generated with IWLTBAP LUT Generator
#Website: http://luts.iwltbap.com
TITLE "Æ«»Æ"
#LUT size
LUT_3D_SIZE 9
#LUT data points
0.121569 0.015686 0.043137
0.000000 0.003922 0.000000
0.082353 0.003922 0.000000
0.286275 0.003922 0.019608
0.447059 0.000000 0.047059
0.701961 0.000000 0.113725
0.752941 0.000000 0.000000
0.909804 0.000000 0.000000
0.996078 0.000000 0.000000
0.164706 0.211765 0.156863
0.254902 0.227451 0.188235
0.345098 0.258824 0.168627
0.278431 0.058824 0.007843
0.545098 0.141176 0.019608
0.760784 0.149020 0.050980
0.917647 0.031373 0.047059
0.898039 0.000000 0.000000
0.956863 0.000000 0.000000
0.007843 0.341176 0.109804
0.003922 0.301961 0.109804
0.129412 0.286275 0.090196
0.266667 0.278431 0.007843
0.580392 0.392157 0.000000
0.596078 0.215686 0.000000
0.819608 0.211765 0.000000
1.000000 0.282353 0.000000
0.996078 0.000000 0.000000
0.000000 0.533333 0.156863
0.000000 0.682353 0.349020
0.000000 0.568627 0.250980
0.231373 0.533333 0.219608
0.552941 0.627451 0.125490
0.631373 0.525490 0.011765
0.988235 0.733333 0.000000
1.000000 0.592157 0.000000
0.996078 0.498039 0.000000
0.000000 0.847059 0.396078
0.003922 0.807843 0.345098
0.000000 0.819608 0.392157
0.219608 0.807843 0.427451
0.360784 0.690196 0.243137
0.517647 0.647059 0.000000
0.874510 0.811765 0.000000
0.964706 0.800000 0.000000
0.996078 0.749020 0.007843
0.000000 0.921569 0.447059
0.015686 0.909804 0.435294
0.000000 1.000000 0.576471
0.278431 1.000000 0.560784
0.168627 0.764706 0.298039
0.670588 0.968627 0.439216
0.913725 0.984314 0.341176
0.835294 0.811765 0.000000
1.000000 0.909804 0.000000
0.000000 0.929412 0.576471
0.196078 0.913725 0.588235
0.423529 1.000000 0.666667
0.345098 0.905882 0.552941
0.419608 0.862745 0.509804
0.580392 0.882353 0.505882
0.803922 0.968627 0.529412
1.000000 0.996078 0.513725
0.956863 0.917647 0.192157
0.568627 0.952941 0.721569
0.760784 0.996078 0.847059
0.627451 0.960784 0.745098
0.682353 0.988235 0.760784
0.756863 1.000000 0.800000
0.858824 1.000000 0.827451
0.890196 1.000000 0.772549
1.000000 1.000000 0.768627
1.000000 0.992157 0.650980
0.749020 0.988235 0.827451
0.933333 1.000000 0.960784
0.698039 0.980392 0.792157
1.000000 1.000000 0.992157
0.843137 0.996078 0.874510
0.901961 1.000000 0.905882
0.886275 0.988235 0.874510
0.760784 0.988235 0.760784
1.000000 0.996078 1.000000
0.152941 0.094118 0.176471
0.215686 0.086275 0.200000
0.333333 0.121569 0.211765
0.270588 0.000000 0.003922
0.525490 0.066667 0.000000
0.698039 0.000000 0.000000
0.917647 0.000000 0.000000
0.996078 0.000000 0.000000
0.996078 0.000000 0.000000
0.000000 0.227451 0.203922
0.000000 0.000000 0.000000
0.203922 0.149020 0.145098
0.454902 0.235294 0.168627
0.576471 0.200000 0.003922
0.698039 0.203922 0.003922
0.796078 0.058824 0.011765
0.996078 0.039216 0.000000
0.996078 0.000000 0.007843
0.000000 0.439216 0.235294
0.000000 0.392157 0.196078
0.078431 0.329412 0.192157
0.533333 0.564706 0.372549
0.623529 0.447059 0.180392
1.000000 0.658824 0.235294
0.850980 0.368627 0.003922
0.807843 0.109804 0.000000
1.000000 0.333333 0.000000
0.000000 0.776471 0.443137
0.000000 0.792157 0.470588
0.000000 0.545098 0.258824
0.219608 0.529412 0.305882
0.560784 0.670588 0.337255
0.772549 0.701961 0.200000
0.862745 0.658824 0.000000
0.976471 0.662745 0.000000
0.996078 0.650980 0.000000
0.003922 0.945098 0.525490
0.000000 0.937255 0.541176
0.003922 0.788235 0.400000
0.152941 0.796078 0.447059
0.470588 0.819608 0.458824
0.698039 0.835294 0.364706
0.886275 0.866667 0.223529
1.000000 0.937255 0.000000
0.945098 0.733333 0.011765
0.000000 0.980392 0.537255
0.000000 0.886275 0.462745
0.000000 0.941176 0.529412
0.219608 0.945098 0.545098
0.439216 0.929412 0.537255
0.600000 0.898039 0.470588
0.917647 1.000000 0.486275
0.917647 0.901961 0.235294
0.960784 0.866667 0.000000
0.419608 1.000000 0.752941
0.282353 0.952941 0.647059
0.552941 0.996078 0.776471
0.576471 1.000000 0.737255
0.866667 1.000000 0.862745
0.643137 0.937255 0.615686
0.780392 0.956863 0.592157
0.862745 0.917647 0.474510
0.992157 1.000000 0.466667
1.000000 1.000000 1.000000
0.698039 1.000000 0.819608
0.866667 1.000000 0.917647
0.905882 0.996078 0.917647
0.949020 1.000000 0.913725
0.600000 0.847059 0.623529
0.886275 1.000000 0.788235
0.992157 1.000000 0.827451
0.992157 0.984314 0.682353
0.815686 0.996078 0.882353
0.745098 0.984314 0.823529
1.000000 1.000000 1.000000
0.917647 1.000000 0.933333
0.752941 0.980392 0.819608
0.854902 0.988235 0.882353
0.952941 1.000000 0.921569
0.984314 1.000000 0.933333
0.894118 0.996078 0.819608
0.007843 0.160784 0.313725
0.007843 0.231373 0.439216
0.360784 0.294118 0.498039
0.498039 0.321569 0.435294
0.772549 0.301961 0.450980
0.768627 0.000000 0.196078
0.862745 0.000000 0.000000
0.996078 0.274510 0.000000
0.996078 0.000000 0.000000
0.000000 0.439216 0.454902
0.000000 0.466667 0.490196
0.274510 0.466667 0.533333
0.462745 0.400000 0.443137
0.588235 0.243137 0.329412
0.788235 0.164706 0.250980
0.929412 0.203922 0.086275
0.996078 0.380392 0.007843
1.000000 0.050980 0.000000
0.000000 0.509804 0.415686
0.000000 0.607843 0.525490
0.000000 0.447059 0.380392
0.317647 0.407843 0.368627
0.525490 0.345098 0.282353
0.654902 0.290196 0.168627
0.984314 0.466667 0.215686
0.929412 0.443137 0.000000
1.000000 0.435294 0.007843
0.000000 0.909804 0.682353
0.000000 0.713725 0.490196
0.000000 0.788235 0.552941
0.470588 0.878431 0.686275
0.537255 0.690196 0.513725
0.847059 0.823529 0.580392
0.921569 0.760784 0.415686
0.917647 0.666667 0.000000
1.000000 0.780392 0.000000
0.000000 0.917647 0.576471
0.000000 0.992157 0.674510
0.000000 0.886275 0.564706
0.000000 0.737255 0.447059
0.686275 1.000000 0.760784
0.541176 0.701961 0.392157
1.000000 1.000000 0.745098
0.764706 0.662745 0.117647
1.000000 0.996078 0.121569
0.000000 0.976471 0.623529
0.000000 0.827451 0.498039
0.000000 0.866667 0.549020
0.419608 0.972549 0.666667
0.501961 0.901961 0.611765
0.611765 0.878431 0.584314
0.756863 0.858824 0.509804
1.000000 0.984314 0.576471
0.996078 1.000000 0.521569
0.286275 0.952941 0.705882
0.447059 0.992157 0.760784
0.415686 0.898039 0.674510
0.839216 1.000000 0.909804
0.701961 0.988235 0.780392
0.945098 1.000000 0.909804
0.713725 0.862745 0.623529
0.764706 0.819608 0.525490
0.854902 0.882353 0.478431
0.701961 1.000000 0.847059
0.760784 1.000000 0.870588
0.780392 0.996078 0.870588
0.811765 0.996078 0.870588
0.745098 0.960784 0.803922
0.901961 1.000000 0.890196
0.988235 1.000000 0.933333
0.976471 1.000000 0.850980
0.972549 0.984314 0.760784
0.835294 1.000000 0.894118
0.847059 0.996078 0.898039
0.701961 0.984314 0.796078
0.992157 1.000000 0.996078
0.823529 0.996078 0.866667
0.996078 1.000000 1.000000
0.925490 0.992157 0.929412
0.749020 0.980392 0.768627
1.000000 1.000000 1.000000
0.003922 0.588235 0.756863
0.000000 0.607843 0.796078
0.007843 0.356863 0.615686
0.498039 0.447059 0.658824
0.588235 0.364706 0.541176
0.784314 0.501961 0.580392
0.858824 0.007843 0.349020
0.992157 0.000000 0.223529
0.996078 0.003922 0.000000
0.003922 0.603922 0.627451
0.003922 0.764706 0.803922
0.000000 0.654902 0.721569
0.400000 0.529412 0.666667
0.776471 0.682353 0.768627
0.678431 0.513725 0.521569
0.933333 0.258824 0.454902
0.858824 0.003922 0.101961
1.000000 0.313725 0.003922
0.000000 0.760784 0.717647
0.000000 0.780392 0.737255
0.003922 0.764706 0.729412
0.368627 0.674510 0.674510
0.654902 0.670588 0.666667
0.811765 0.670588 0.678431
0.850980 0.262745 0.360784
0.956863 0.113725 0.176471
1.000000 0.423529 0.007843
0.011765 0.796078 0.643137
0.007843 0.925490 0.788235
0.000000 0.905882 0.780392
0.172549 0.835294 0.705882
0.513725 0.784314 0.670588
0.737255 0.721569 0.623529
0.890196 0.682353 0.549020
1.000000 0.682353 0.435294
0.996078 0.811765 0.294118
0.000000 1.000000 0.854902
0.000000 0.898039 0.686275
0.003922 0.960784 0.760784
0.184314 0.866667 0.674510
0.592157 0.929412 0.752941
0.658824 0.819608 0.654902
0.972549 0.996078 0.807843
0.933333 0.858824 0.592157
1.000000 0.890196 0.462745
0.200000 1.000000 0.874510
0.145098 1.000000 0.854902
0.607843 1.000000 0.941176
0.454902 0.972549 0.749020
0.694118 1.000000 0.811765
0.650980 0.870588 0.686275
0.929412 1.000000 0.827451
1.000000 1.000000 0.780392
0.964706 0.909804 0.615686
0.376471 0.956863 0.760784
0.227451 0.858824 0.654902
0.580392 0.984314 0.815686
0.886275 0.992157 0.964706
0.792157 1.000000 0.878431
0.694118 0.866667 0.725490
0.800000 0.925490 0.780392
0.874510 0.941176 0.776471
0.945098 0.945098 0.741176
0.839216 0.996078 0.952941
0.882353 1.000000 0.968627
0.749020 1.000000 0.866667
0.854902 1.000000 0.929412
0.894118 1.000000 0.925490
0.831373 0.968627 0.850980
0.658824 0.866667 0.686275
0.933333 0.984314 0.874510
0.850980 0.941176 0.760784
0.498039 0.972549 0.701961
0.901961 0.996078 0.933333
0.419608 0.976471 0.654902
0.792157 0.984314 0.858824
1.000000 1.000000 0.992157
0.439216 0.952941 0.639216
0.949020 0.988235 0.945098
0.866667 0.996078 0.874510
1.000000 0.996078 1.000000
0.000000 0.635294 0.760784
0.007843 0.725490 0.882353
0.105882 0.741176 0.925490
0.333333 0.545098 0.788235
0.694118 0.631373 0.807843
0.690196 0.509804 0.650980
0.949020 0.760784 0.815686
0.992157 0.478431 0.635294
0.996078 0.003922 0.431373
0.000000 0.815686 0.843137
0.000000 0.847059 0.870588
0.000000 0.752941 0.811765
0.388235 0.717647 0.827451
0.592157 0.670588 0.764706
0.909804 0.854902 0.913725
0.992157 0.992157 1.000000
1.000000 0.674510 0.752941
1.000000 0.000000 0.447059
0.000000 0.917647 0.874510
0.000000 0.796078 0.752941
0.003922 0.831373 0.796078
0.470588 0.878431 0.882353
0.545098 0.698039 0.756863
0.678431 0.690196 0.709804
0.811765 0.760784 0.737255
0.996078 0.576471 0.678431
1.000000 0.000000 0.250980
0.003922 0.972549 0.890196
0.003922 0.952941 0.858824
0.000000 0.882353 0.803922
0.388235 0.960784 0.878431
0.705882 0.996078 0.937255
0.890196 1.000000 0.952941
0.823529 0.874510 0.807843
1.000000 0.733333 0.741176
1.000000 0.427451 0.427451
0.000000 1.000000 0.886275
0.000000 0.807843 0.698039
0.262745 1.000000 0.945098
0.415686 0.976471 0.866667
0.741176 1.000000 0.968627
0.749020 0.925490 0.843137
0.772549 0.756863 0.658824
0.968627 0.796078 0.650980
1.000000 0.776471 0.509804
0.003922 1.000000 0.870588
0.000000 0.929412 0.788235
0.376471 0.996078 0.866667
0.521569 0.968627 0.835294
0.545098 0.862745 0.737255
0.811765 0.992157 0.882353
0.807843 0.905882 0.788235
0.835294 0.870588 0.749020
0.996078 1.000000 0.968627
0.372549 0.929412 0.772549
0.835294 1.000000 0.996078
0.717647 1.000000 0.945098
0.713725 0.996078 0.901961
0.686275 0.925490 0.796078
0.850980 0.984314 0.890196
0.784314 0.894118 0.807843
0.996078 1.000000 1.000000
0.972549 0.972549 0.870588
0.584314 0.968627 0.807843
0.509804 0.949020 0.752941
0.568627 0.945098 0.764706
0.717647 0.976471 0.835294
0.780392 0.960784 0.847059
0.796078 0.956863 0.839216
0.996078 1.000000 1.000000
0.949020 0.992157 0.929412
0.913725 0.972549 0.858824
0.780392 1.000000 0.878431
0.788235 1.000000 0.882353
0.901961 0.992157 0.952941
0.956863 0.996078 0.992157
0.905882 0.996078 0.925490
0.819608 0.988235 0.870588
0.588235 0.968627 0.698039
0.886275 0.988235 0.890196
0.949020 0.992157 0.925490
0.007843 0.870588 0.933333
0.000000 0.772549 0.854902
0.003922 0.772549 0.874510
0.423529 0.784314 0.929412
0.756863 0.858824 1.000000
0.854902 0.847059 0.929412
1.000000 0.913725 0.996078
0.960784 0.870588 0.894118
0.905882 0.729412 0.756863
0.000000 0.984314 1.000000
0.513725 0.992157 0.996078
0.000000 0.737255 0.752941
0.501961 0.862745 0.921569
0.572549 0.760784 0.847059
0.839216 0.894118 0.937255
0.882353 0.878431 0.901961
0.929412 0.874510 0.874510
0.988235 0.886275 0.882353
0.000000 0.878431 0.831373
0.007843 0.921569 0.909804
0.003922 0.862745 0.847059
0.486275 0.894118 0.890196
0.615686 0.850980 0.890196
0.745098 0.839216 0.854902
0.823529 0.815686 0.819608
0.901961 0.886275 0.850980
0.992157 0.886275 0.905882
0.000000 0.949020 0.886275
0.000000 0.921569 0.858824
0.027451 0.909804 0.839216
0.419608 0.929412 0.882353
0.623529 0.921569 0.874510
0.749020 0.905882 0.870588
0.909804 0.968627 0.941176
0.815686 0.827451 0.792157
0.996078 1.000000 0.976471
0.000000 0.909804 0.823529
0.152941 0.996078 0.933333
0.352941 1.000000 0.925490
0.333333 0.835294 0.776471
0.611765 0.960784 0.890196
0.764706 0.960784 0.913725
0.917647 0.984314 0.945098
0.921569 0.952941 0.909804
1.000000 0.698039 0.760784
0.458824 1.000000 0.992157
0.149020 0.905882 0.823529
0.690196 0.996078 0.996078
0.780392 1.000000 0.996078
0.839216 1.000000 1.000000
0.627451 0.831373 0.745098
0.909804 1.000000 0.937255
0.964706 0.937255 0.827451
1.000000 0.835294 0.658824
0.552941 0.976471 0.886275
0.466667 0.909804 0.800000
0.576471 0.949020 0.854902
0.631373 0.956863 0.854902
0.756863 0.980392 0.913725
0.901961 1.000000 0.968627
0.996078 0.996078 0.988235
0.941176 0.988235 0.933333
0.917647 0.937255 0.850980
0.733333 0.996078 0.925490
0.796078 0.996078 0.960784
0.556863 0.960784 0.784314
0.709804 0.980392 0.866667
0.878431 1.000000 0.945098
0.776471 0.956863 0.847059
0.850980 0.968627 0.866667
0.909804 0.976471 0.913725
0.941176 0.972549 0.890196
0.827451 0.996078 0.929412
0.901961 1.000000 0.976471
0.803922 1.000000 0.901961
0.898039 1.000000 0.956863
0.737255 0.992157 0.827451
0.921569 1.000000 0.952941
0.792157 0.980392 0.815686
0.929412 0.996078 0.921569
0.945098 0.992157 0.905882
0.337255 0.941176 0.972549
0.490196 1.000000 0.984314
0.462745 0.921569 0.956863
0.803922 1.000000 0.988235
0.741176 0.921569 1.000000
0.752941 0.803922 0.870588
0.882353 0.894118 0.913725
0.870588 0.843137 0.874510
1.000000 0.960784 0.976471
0.427451 0.952941 0.956863
0.235294 0.760784 0.756863
0.466667 0.843137 0.839216
0.505882 0.800000 0.819608
0.721569 0.901961 0.952941
0.733333 0.831373 0.850980
0.917647 0.960784 0.968627
0.956863 0.956863 0.956863
0.768627 0.764706 0.749020
0.168627 0.909804 0.886275
0.317647 0.917647 0.909804
0.494118 0.937255 0.929412
0.631373 0.921569 0.917647
0.764706 0.992157 0.996078
0.733333 0.839216 0.866667
0.878431 0.925490 0.917647
0.941176 0.956863 0.952941
1.000000 0.996078 1.000000
0.478431 1.000000 1.000000
0.478431 1.000000 0.988235
0.458824 0.937255 0.894118
0.454902 0.792157 0.756863
0.662745 0.854902 0.831373
0.756863 0.882353 0.862745
0.780392 0.854902 0.847059
0.937255 0.956863 0.941176
0.964706 0.956863 0.960784
0.207843 0.866667 0.807843
0.439216 0.992157 0.929412
0.423529 0.901961 0.850980
0.847059 1.000000 1.000000
0.615686 0.901961 0.866667
0.874510 1.000000 0.988235
0.952941 1.000000 0.992157
0.933333 0.968627 0.949020
0.913725 0.941176 0.909804
0.521569 1.000000 0.956863
0.690196 0.996078 1.000000
0.572549 0.996078 0.937255
0.901961 1.000000 1.000000
0.752941 1.000000 0.956863
0.768627 0.952941 0.913725
0.819608 0.901961 0.874510
0.996078 1.000000 0.980392
0.905882 0.878431 0.839216
0.462745 0.933333 0.823529
0.690196 1.000000 0.968627
0.623529 0.968627 0.882353
0.619608 0.941176 0.850980
0.819608 1.000000 0.980392
1.000000 0.996078 1.000000
0.996078 0.996078 0.988235
0.686275 0.823529 0.729412
1.000000 0.996078 0.949020
0.756863 0.992157 0.945098
0.890196 1.000000 1.000000
0.682353 0.968627 0.862745
0.745098 0.976471 0.898039
0.756863 0.968627 0.878431
0.847059 0.992157 0.925490
0.933333 0.996078 0.956863
0.913725 0.968627 0.909804
0.984314 0.992157 0.941176
0.423529 1.000000 0.725490
0.996078 1.000000 0.984314
0.913725 0.992157 0.984314
0.749020 1.000000 0.870588
0.980392 0.996078 0.992157
0.768627 1.000000 0.862745
0.752941 0.992157 0.819608
0.964706 0.992157 0.960784
0.976471 0.992157 0.937255
0.623529 0.937255 0.941176
0.835294 1.000000 0.992157
0.592157 0.858824 0.870588
0.615686 0.831373 0.850980
0.698039 0.862745 0.909804
0.996078 1.000000 1.000000
0.862745 0.905882 0.913725
1.000000 1.000000 1.000000
1.000000 0.996078 1.000000
0.619608 0.870588 0.866667
0.733333 0.968627 0.968627
0.764706 0.976471 0.984314
0.686275 0.882353 0.886275
0.768627 0.917647 0.929412
0.839216 0.933333 0.941176
0.984314 1.000000 1.000000
0.854902 0.890196 0.886275
0.972549 0.968627 0.960784
0.494118 0.807843 0.803922
0.709804 0.976471 0.972549
0.784314 0.996078 1.000000
0.996078 0.996078 0.996078
0.745098 0.882353 0.890196
0.792157 0.890196 0.917647
0.925490 0.980392 0.984314
0.980392 0.996078 1.000000
0.898039 0.870588 0.898039
0.607843 0.921569 0.909804
0.741176 1.000000 0.992157
0.752941 0.996078 0.976471
0.631373 0.807843 0.796078
0.996078 0.996078 0.996078
0.905882 1.000000 0.992157
0.862745 0.937255 0.921569
0.996078 1.000000 1.000000
0.960784 0.956863 0.941176
0.545098 0.917647 0.886275
0.556863 0.909804 0.874510
0.705882 1.000000 0.980392
0.796078 1.000000 0.992157
0.862745 1.000000 0.984314
0.796078 0.909804 0.894118
0.996078 1.000000 0.992157
0.925490 0.949020 0.941176
0.909804 0.913725 0.894118
0.717647 1.000000 0.976471
0.945098 1.000000 1.000000
0.792157 0.992157 1.000000
0.749020 0.988235 0.956863
0.862745 0.996078 0.992157
0.654902 0.843137 0.780392
0.996078 1.000000 0.992157
0.929412 0.956863 0.929412
1.000000 0.996078 1.000000
0.717647 0.976471 0.937255
0.725490 0.984314 0.937255
0.701961 0.960784 0.921569
0.623529 0.929412 0.866667
0.635294 0.929412 0.850980
0.992157 0.992157 0.984314
0.866667 0.968627 0.933333
0.925490 0.972549 0.956863
0.937255 0.949020 0.905882
0.541176 0.972549 0.874510
0.752941 0.996078 0.937255
0.772549 0.992157 0.949020
0.925490 1.000000 1.000000
0.780392 0.992157 0.937255
0.937255 1.000000 0.996078
1.000000 0.996078 0.988235
0.898039 0.972549 0.949020
1.000000 1.000000 0.992157
0.945098 1.000000 1.000000
1.000000 1.000000 0.992157
0.800000 1.000000 0.941176
0.941176 1.000000 0.992157
1.000000 1.000000 1.000000
0.937255 1.000000 0.964706
0.945098 1.000000 0.976471
0.952941 0.996078 0.964706
0.984314 1.000000 0.996078
0.756863 0.913725 0.945098
0.658824 0.850980 0.917647
0.760784 0.901961 0.964706
0.815686 0.925490 0.968627
0.898039 0.976471 0.980392
1.000000 0.996078 1.000000
0.764706 0.874510 0.929412
0.984314 0.988235 0.996078
1.000000 1.000000 0.992157
0.819608 0.956863 0.972549
0.647059 0.835294 0.913725
0.898039 1.000000 0.996078
1.000000 1.000000 1.000000
0.858824 0.956863 0.976471
0.996078 0.996078 0.996078
0.792157 0.905882 0.937255
0.913725 0.945098 0.956863
0.913725 0.917647 0.937255
0.792157 0.949020 0.949020
0.898039 0.976471 0.980392
0.549020 0.807843 0.894118
1.000000 1.000000 1.000000
0.827451 0.933333 0.960784
0.835294 0.933333 0.960784
0.847059 0.925490 0.960784
0.850980 0.905882 0.949020
0.984314 0.984314 0.992157
1.000000 1.000000 1.000000
0.819608 0.956863 0.964706
1.000000 1.000000 0.992157
0.917647 0.992157 1.000000
0.800000 0.937255 0.952941
0.968627 0.988235 1.000000
0.949020 0.980392 0.988235
0.886275 0.945098 0.956863
0.956863 0.960784 0.976471
0.505882 0.858824 0.901961
0.756863 0.949020 0.964706
0.788235 0.949020 0.956863
0.874510 0.976471 0.964706
0.733333 0.925490 0.941176
0.831373 0.941176 0.956863
0.678431 0.886275 0.917647
0.921569 0.960784 0.964706
0.929412 0.945098 0.956863
0.921569 1.000000 1.000000
0.827451 0.988235 0.972549
0.823529 0.988235 0.984314
0.800000 0.960784 0.968627
0.843137 0.964706 0.972549
0.858824 0.972549 0.964706
0.925490 0.964706 0.972549
0.945098 0.980392 0.976471
0.937255 0.952941 0.956863
0.788235 0.984314 0.980392
0.686275 0.980392 0.964706
0.752941 0.984314 0.968627
0.854902 0.992157 0.976471
0.996078 1.000000 1.000000
0.749020 0.968627 0.972549
0.972549 0.996078 0.988235
0.847059 0.949020 0.952941
0.988235 0.992157 1.000000
0.835294 1.000000 0.992157
0.486275 0.996078 0.964706
0.545098 0.996078 0.968627
0.870588 0.996078 0.976471
0.874510 0.992157 0.984314
0.709804 0.996078 0.960784
0.533333 0.968627 0.945098
1.000000 0.996078 1.000000
0.996078 1.000000 1.000000
1.000000 0.996078 1.000000
0.823529 1.000000 0.988235
0.780392 0.996078 0.972549
0.741176 1.000000 0.968627
0.960784 1.000000 0.988235
1.000000 0.996078 1.000000
0.996078 1.000000 0.984314
0.960784 1.000000 0.996078
0.996078 1.000000 1.000000
