other luts/山魈映画-800T 35mm 偏黄.cube
#Generated with IWLTBAP LUT Generator
#Website: http://luts.iwltbap.com
TITLE "Æ«»Æ"
#LUT size
LUT_3D_SIZE 5
#LUT data points
0.121569 0.015686 0.043137
0.082353 0.003922 0.000000
0.447059 0.000000 0.047059
0.752941 0.000000 0.000000
0.996078 0.000000 0.000000
0.007843 0.341176 0.109804
0.129412 0.286275 0.090196
0.580392 0.392157 0.000000
0.819608 0.211765 0.000000
0.996078 0.000000 0.000000
0.000000 0.847059 0.396078
0.000000 0.819608 0.392157
0.360784 0.690196 0.243137
0.874510 0.811765 0.000000
0.996078 0.749020 0.007843
0.000000 0.929412 0.576471
0.423529 1.000000 0.666667
0.419608 0.862745 0.509804
0.803922 0.968627 0.529412
0.956863 0.917647 0.192157
0.749020 0.988235 0.827451
0.698039 0.980392 0.792157
0.843137 0.996078 0.874510
0.886275 0.988235 0.874510
1.000000 0.996078 1.000000
0.007843 0.160784 0.313725
0.360784 0.294118 0.498039
0.772549 0.301961 0.450980
0.862745 0.000000 0.000000
0.996078 0.000000 0.000000
0.000000 0.509804 0.415686
0.000000 0.447059 0.380392
0.525490 0.345098 0.282353
0.984314 0.466667 0.215686
1.000000 0.435294 0.007843
0.000000 0.917647 0.576471
0.000000 0.886275 0.564706
0.686275 1.000000 0.760784
1.000000 1.000000 0.745098
1.000000 0.996078 0.121569
0.286275 0.952941 0.705882
0.415686 0.898039 0.674510
0.701961 0.988235 0.780392
0.713725 0.862745 0.623529
0.854902 0.882353 0.478431
0.835294 1.000000 0.894118
0.701961 0.984314 0.796078
0.823529 0.996078 0.866667
0.925490 0.992157 0.929412
1.000000 1.000000 1.000000
0.000000 0.635294 0.760784
0.105882 0.741176 0.925490
0.694118 0.631373 0.807843
0.949020 0.760784 0.815686
0.996078 0.003922 0.431373
0.000000 0.917647 0.874510
0.003922 0.831373 0.796078
0.545098 0.698039 0.756863
0.811765 0.760784 0.737255
1.000000 0.000000 0.250980
0.000000 1.000000 0.886275
0.262745 1.000000 0.945098
0.741176 1.000000 0.968627
0.772549 0.756863 0.658824
1.000000 0.776471 0.509804
0.372549 0.929412 0.772549
0.717647 1.000000 0.945098
0.686275 0.925490 0.796078
0.784314 0.894118 0.807843
0.972549 0.972549 0.870588
0.780392 1.000000 0.878431
0.901961 0.992157 0.952941
0.905882 0.996078 0.925490
0.588235 0.968627 0.698039
0.949020 0.992157 0.925490
0.337255 0.941176 0.972549
0.462745 0.921569 0.956863
0.741176 0.921569 1.000000
0.882353 0.894118 0.913725
1.000000 0.960784 0.976471
0.168627 0.909804 0.886275
0.494118 0.937255 0.929412
0.764706 0.992157 0.996078
0.878431 0.925490 0.917647
1.000000 0.996078 1.000000
0.207843 0.866667 0.807843
0.423529 0.901961 0.850980
0.615686 0.901961 0.866667
0.952941 1.000000 0.992157
0.913725 0.941176 0.909804
0.462745 0.933333 0.823529
0.623529 0.968627 0.882353
0.819608 1.000000 0.980392
0.996078 0.996078 0.988235
1.000000 0.996078 0.949020
0.423529 1.000000 0.725490
0.913725 0.992157 0.984314
0.980392 0.996078 0.992157
0.752941 0.992157 0.819608
0.976471 0.992157 0.937255
0.756863 0.913725 0.945098
0.760784 0.901961 0.964706
0.898039 0.976471 0.980392
0.764706 0.874510 0.929412
1.000000 1.000000 0.992157
0.792157 0.949020 0.949020
0.549020 0.807843 0.894118
0.827451 0.933333 0.960784
0.847059 0.925490 0.960784
0.984314 0.984314 0.992157
0.505882 0.858824 0.901961
0.788235 0.949020 0.956863
0.733333 0.925490 0.941176
0.678431 0.886275 0.917647
0.929412 0.945098 0.956863
0.788235 0.984314 0.980392
0.752941 0.984314 0.968627
0.996078 1.000000 1.000000
0.972549 0.996078 0.988235
0.988235 0.992157 1.000000
1.000000 0.996078 1.000000
0.780392 0.996078 0.972549
0.960784 1.000000 0.988235
0.996078 1.000000 0.984314
0.996078 1.000000 1.000000
