other luts/山魈映画-800T 35mm 偏黄.cube
#Generated with IWLTBAP LUT Generator
#Website: http://luts.iwltbap.com
TITLE "Æ«»Æ"
#LUT size
LUT_3D_SIZE 25
#LUT data points
0.121569 0.015686 0.043137
0.192157 0.039216 0.113725
0.227451 0.058824 0.137255
0.000000 0.003922 0.000000
0.258824 0.054902 0.141176
0.054902 0.000000 0.000000
0.082353 0.003922 0.000000
0.321569 0.003922 0.129412
0.109804 0.000000 0.000000
0.286275 0.003922 0.019608
0.149020 0.000000 0.000000
0.274510 0.000000 0.000000
0.447059 0.000000 0.047059
0.470588 0.000000 0.015686
0.462745 0.000000 0.000000
0.701961 0.000000 0.113725
0.756863 0.000000 0.105882
0.647059 0.003922 0.000000
0.752941 0.000000 0.000000
0.792157 0.000000 0.007843
0.972549 0.003922 0.117647
0.909804 0.000000 0.000000
0.996078 0.000000 0.007843
0.941176 0.000000 0.011765
0.996078 0.000000 0.000000
0.047059 0.000000 0.007843
0.141176 0.023529 0.062745
0.274510 0.109804 0.188235
0.160784 0.047059 0.066667
0.039216 0.000000 0.000000
0.286275 0.125490 0.156863
0.152941 0.003922 0.000000
0.286275 0.039216 0.082353
0.192157 0.003922 0.003922
0.474510 0.109804 0.152941
0.321569 0.000000 0.007843
0.207843 0.000000 0.000000
0.309804 0.000000 0.011765
0.564706 0.000000 0.054902
0.843137 0.211765 0.270588
0.627451 0.000000 0.007843
0.603922 0.000000 0.007843
0.835294 0.000000 0.109804
0.831373 0.003922 0.039216
0.729412 0.003922 0.000000
0.843137 0.003922 0.003922
0.835294 0.003922 0.000000
1.000000 0.003922 0.000000
0.996078 0.000000 0.000000
1.000000 0.000000 0.125490
0.047059 0.000000 0.000000
0.152941 0.086275 0.109804
0.196078 0.109804 0.121569
0.000000 0.003922 0.000000
0.152941 0.039216 0.047059
0.137255 0.023529 0.007843
0.203922 0.047059 0.039216
0.164706 0.000000 0.007843
0.298039 0.062745 0.031373
0.239216 0.000000 0.000000
0.462745 0.094118 0.086275
0.447059 0.000000 0.015686
0.392157 0.000000 0.007843
0.545098 0.003922 0.003922
0.584314 0.000000 0.000000
0.545098 0.003922 0.000000
0.839216 0.043137 0.121569
0.600000 0.000000 0.007843
0.701961 0.000000 0.000000
0.843137 0.003922 0.011765
0.894118 0.000000 0.000000
0.913725 0.003922 0.003922
0.823529 0.000000 0.003922
1.000000 0.003922 0.003922
0.921569 0.000000 0.000000
0.164706 0.211765 0.156863
0.094118 0.137255 0.074510
0.113725 0.113725 0.074510
0.254902 0.227451 0.188235
0.000000 0.000000 0.000000
0.121569 0.043137 0.007843
0.345098 0.258824 0.168627
0.094118 0.000000 0.000000
0.337255 0.164706 0.050980
0.278431 0.058824 0.007843
0.329412 0.058824 0.000000
0.313725 0.000000 0.000000
0.545098 0.141176 0.019608
0.588235 0.113725 0.000000
0.529412 0.000000 0.003922
0.760784 0.149020 0.050980
0.611765 0.003922 0.000000
0.686275 0.003922 0.007843
0.917647 0.031373 0.047059
0.870588 0.000000 0.000000
0.901961 0.003922 0.000000
0.898039 0.000000 0.000000
0.992157 0.003922 0.000000
0.878431 0.000000 0.000000
0.956863 0.000000 0.000000
0.082353 0.333333 0.196078
0.000000 0.058824 0.000000
0.152941 0.298039 0.168627
0.003922 0.070588 0.007843
0.156863 0.215686 0.101961
0.058824 0.078431 0.000000
0.317647 0.282353 0.152941
0.239216 0.200000 0.000000
0.407843 0.309804 0.090196
0.227451 0.101961 0.011765
0.384314 0.203922 0.000000
0.423529 0.184314 0.000000
0.549020 0.243137 0.000000
0.670588 0.290196 0.011765
0.580392 0.141176 0.000000
0.709804 0.203922 0.000000
0.800000 0.203922 0.007843
0.756863 0.058824 0.003922
1.000000 0.294118 0.070588
0.847059 0.000000 0.003922
0.992157 0.090196 0.000000
0.949020 0.000000 0.000000
0.996078 0.000000 0.000000
0.996078 0.000000 0.000000
1.000000 0.003922 0.003922
0.000000 0.086275 0.000000
0.000000 0.188235 0.031373
0.000000 0.239216 0.109804
0.000000 0.109804 0.000000
0.223529 0.329412 0.207843
0.223529 0.282353 0.168627
0.160784 0.192157 0.031373
0.309804 0.305882 0.125490
0.219608 0.176471 0.000000
0.305882 0.215686 0.003922
0.525490 0.384314 0.094118
0.392157 0.207843 0.003922
0.384314 0.125490 0.000000
0.674510 0.337255 0.000000
0.662745 0.262745 0.011765
0.717647 0.235294 0.000000
0.866667 0.313725 0.000000
0.643137 0.000000 0.000000
0.917647 0.223529 0.011765
0.996078 0.243137 0.000000
0.890196 0.003922 0.007843
0.996078 0.000000 0.000000
1.000000 0.078431 0.000000
0.968627 0.007843 0.000000
0.996078 0.000000 0.000000
0.007843 0.341176 0.109804
0.003922 0.298039 0.066667
0.000000 0.364706 0.137255
0.003922 0.301961 0.109804
0.000000 0.270588 0.058824
0.007843 0.196078 0.007843
0.129412 0.286275 0.090196
0.003922 0.117647 0.007843
0.274510 0.325490 0.043137
0.266667 0.278431 0.007843
0.525490 0.450980 0.078431
0.447059 0.345098 0.011765
0.580392 0.392157 0.000000
0.435294 0.200000 0.003922
0.588235 0.274510 0.000000
0.596078 0.215686 0.000000
0.756863 0.305882 0.000000
0.925490 0.392157 0.003922
0.819608 0.211765 0.000000
0.898039 0.219608 0.000000
1.000000 0.396078 0.015686
1.000000 0.282353 0.000000
0.996078 0.066667 0.003922
1.000000 0.266667 0.000000
0.996078 0.000000 0.000000
0.000000 0.486275 0.200000
0.007843 0.411765 0.141176
0.000000 0.431373 0.145098
0.000000 0.384314 0.121569
0.062745 0.541176 0.317647
0.000000 0.329412 0.086275
0.243137 0.498039 0.278431
0.000000 0.254902 0.003922
0.317647 0.474510 0.200000
0.282353 0.364706 0.007843
0.494118 0.505882 0.086275
0.450980 0.403922 0.003922
0.576471 0.462745 0.000000
0.560784 0.407843 0.011765
0.603922 0.388235 0.000000
0.745098 0.450980 0.000000
0.827451 0.474510 0.000000
0.992157 0.564706 0.000000
0.709804 0.219608 0.000000
1.000000 0.447059 0.000000
0.988235 0.364706 0.003922
0.996078 0.403922 0.000000
1.000000 0.266667 0.007843
1.000000 0.298039 0.000000
1.000000 0.360784 0.003922
0.000000 0.572549 0.247059
0.000000 0.670588 0.360784
0.007843 0.592157 0.274510
0.000000 0.686275 0.368627
0.003922 0.556863 0.290196
0.000000 0.474510 0.188235
0.137255 0.549020 0.290196
0.003922 0.388235 0.156863
0.086275 0.388235 0.082353
0.184314 0.376471 0.019608
0.356863 0.470588 0.105882
0.325490 0.380392 0.000000
0.380392 0.364706 0.007843
0.725490 0.631373 0.011765
0.407843 0.278431 0.000000
0.615686 0.427451 0.003922
0.800000 0.556863 0.000000
0.800000 0.470588 0.000000
0.996078 0.701961 0.007843
1.000000 0.666667 0.003922
1.000000 0.537255 0.003922
0.988235 0.592157 0.003922
0.956863 0.333333 0.003922
1.000000 0.537255 0.000000
0.945098 0.211765 0.003922
0.000000 0.533333 0.156863
0.003922 0.650980 0.290196
0.003922 0.572549 0.215686
0.000000 0.682353 0.349020
0.000000 0.713725 0.400000
0.000000 0.509804 0.196078
0.000000 0.568627 0.250980
0.101961 0.576471 0.305882
0.231373 0.584314 0.294118
0.231373 0.533333 0.219608
0.474510 0.690196 0.333333
0.290196 0.447059 0.000000
0.552941 0.627451 0.125490
0.592157 0.607843 0.000000
0.847059 0.768627 0.176471
0.631373 0.525490 0.011765
0.725490 0.588235 0.000000
0.737255 0.533333 0.000000
0.988235 0.733333 0.000000
0.874510 0.564706 0.000000
0.996078 0.639216 0.000000
1.000000 0.592157 0.000000
1.000000 0.639216 0.011765
0.996078 0.654902 0.000000
0.996078 0.498039 0.000000
0.003922 0.803922 0.415686
0.007843 0.560784 0.152941
0.000000 0.584314 0.184314
0.000000 0.525490 0.121569
0.000000 0.631373 0.254902
0.000000 0.647059 0.286275
0.007843 0.560784 0.200000
0.027451 0.662745 0.337255
0.000000 0.392157 0.047059
0.200000 0.588235 0.235294
0.180392 0.498039 0.098039
0.478431 0.686275 0.270588
0.580392 0.709804 0.258824
0.431373 0.513725 0.000000
0.596078 0.596078 0.000000
0.670588 0.607843 0.000000
0.607843 0.490196 0.003922
0.945098 0.760784 0.007843
0.803922 0.592157 0.003922
0.933333 0.666667 0.000000
0.996078 0.729412 0.003922
0.980392 0.631373 0.000000
1.000000 0.729412 0.011765
0.996078 0.607843 0.007843
1.000000 0.694118 0.000000
0.000000 0.733333 0.294118
0.000000 0.654902 0.207843
0.003922 0.788235 0.372549
0.000000 0.772549 0.368627
0.007843 0.615686 0.207843
0.000000 0.705882 0.313725
0.003922 0.717647 0.321569
0.003922 0.752941 0.376471
0.003922 0.529412 0.156863
0.000000 0.560784 0.207843
0.403922 0.800000 0.423529
0.317647 0.643137 0.219608
0.368627 0.635294 0.152941
0.670588 0.827451 0.345098
0.745098 0.835294 0.239216
0.705882 0.741176 0.000000
0.796078 0.760784 0.000000
0.729412 0.643137 0.011765
0.968627 0.819608 0.007843
0.901961 0.741176 0.003922
1.000000 0.815686 0.003922
1.000000 0.960784 0.011765
0.925490 0.666667 0.000000
1.000000 0.847059 0.000000
0.996078 0.796078 0.000000
0.000000 0.847059 0.396078
0.000000 0.807843 0.337255
0.007843 0.615686 0.145098
0.003922 0.807843 0.345098
0.000000 0.941176 0.513725
0.003922 0.854902 0.443137
0.000000 0.819608 0.392157
0.000000 0.784314 0.368627
0.003922 0.745098 0.341176
0.219608 0.807843 0.427451
0.000000 0.545098 0.133333
0.301961 0.729412 0.317647
0.360784 0.690196 0.243137
0.658824 0.898039 0.431373
0.494118 0.674510 0.082353
0.517647 0.647059 0.000000
0.807843 0.835294 0.050980
0.733333 0.729412 0.000000
0.874510 0.811765 0.000000
0.901961 0.800000 0.000000
0.972549 0.839216 0.007843
0.964706 0.800000 0.000000
1.000000 0.827451 0.000000
1.000000 0.882353 0.011765
0.996078 0.749020 0.007843
0.000000 0.866667 0.384314
0.000000 0.866667 0.392157
0.000000 0.745098 0.266667
0.000000 0.945098 0.486275
0.000000 0.768627 0.325490
0.000000 0.996078 0.607843
0.011765 0.701961 0.266667
0.000000 1.000000 0.560784
0.003922 0.815686 0.392157
0.180392 0.886275 0.466667
0.007843 0.713725 0.321569
0.454902 0.929412 0.517647
0.376471 0.800000 0.360784
0.458824 0.811765 0.325490
0.631373 0.886275 0.376471
0.580392 0.776471 0.200000
0.862745 0.980392 0.352941
0.894118 0.941176 0.219608
0.749020 0.749020 0.000000
0.862745 0.823529 0.003922
0.780392 0.705882 0.007843
0.996078 0.964706 0.000000
0.992157 0.878431 0.000000
1.000000 0.917647 0.003922
0.992157 0.960784 0.000000
0.000000 0.854902 0.384314
0.003922 1.000000 0.627451
0.000000 1.000000 0.545098
0.003922 0.901961 0.447059
0.003922 0.878431 0.427451
0.007843 0.921569 0.470588
0.000000 0.984314 0.549020
0.141176 0.996078 0.615686
0.000000 0.854902 0.400000
0.000000 0.870588 0.435294
0.247059 0.905882 0.470588
0.384314 0.909804 0.521569
0.235294 0.760784 0.325490
0.549020 0.941176 0.494118
0.470588 0.800000 0.313725
0.698039 0.941176 0.443137
0.627451 0.823529 0.247059
0.866667 0.968627 0.376471
0.901961 0.945098 0.247059
0.976471 0.980392 0.239216
0.819608 0.811765 0.003922
1.000000 0.941176 0.000000
1.000000 0.909804 0.000000
0.996078 1.000000 0.192157
1.000000 0.874510 0.000000
0.000000 0.921569 0.447059
0.000000 0.976471 0.505882
0.000000 1.000000 0.619608
0.015686 0.909804 0.435294
0.000000 1.000000 0.596078
0.000000 0.972549 0.525490
0.000000 1.000000 0.576471
0.003922 0.980392 0.517647
0.007843 0.937255 0.490196
0.278431 1.000000 0.560784
0.000000 0.850980 0.396078
0.380392 0.960784 0.513725
0.168627 0.764706 0.298039
0.509804 0.945098 0.482353
0.576471 0.949020 0.454902
0.670588 0.968627 0.439216
0.674510 0.898039 0.337255
0.658824 0.819608 0.176471
0.913725 0.984314 0.341176
0.823529 0.843137 0.003922
1.000000 1.000000 0.270588
0.835294 0.811765 0.000000
1.000000 0.952941 0.003922
1.000000 1.000000 0.000000
1.000000 0.909804 0.000000
0.011765 0.862745 0.443137
0.000000 1.000000 0.568627
0.000000 0.996078 0.580392
0.000000 0.921569 0.490196
0.564706 1.000000 0.776471
0.000000 0.847059 0.407843
0.000000 0.964706 0.545098
0.003922 0.945098 0.509804
0.243137 0.996078 0.592157
0.003922 0.850980 0.431373
0.317647 0.968627 0.537255
0.062745 0.800000 0.360784
0.113725 0.749020 0.321569
0.580392 1.000000 0.592157
0.549020 0.933333 0.490196
0.435294 0.768627 0.270588
0.745098 1.000000 0.505882
1.000000 1.000000 0.737255
0.823529 0.964706 0.384314
0.788235 0.847059 0.207843
0.882353 0.882353 0.192157
0.835294 0.811765 0.000000
0.992157 0.941176 0.145098
0.996078 1.000000 0.341176
0.905882 0.819608 0.003922
0.007843 0.878431 0.482353
0.000000 1.000000 0.611765
0.000000 0.850980 0.450980
0.454902 1.000000 0.737255
0.701961 1.000000 0.850980
0.000000 0.929412 0.552941
0.184314 0.960784 0.588235
0.000000 0.839216 0.443137
0.219608 0.952941 0.549020
0.000000 0.760784 0.352941
0.282353 0.905882 0.505882
0.654902 1.000000 0.701961
0.505882 1.000000 0.607843
0.400000 0.866667 0.466667
0.619608 1.000000 0.588235
0.749020 1.000000 0.631373
0.949020 0.996078 0.698039
0.603922 0.823529 0.333333
0.839216 0.992157 0.501961
1.000000 0.996078 0.572549
0.886275 0.925490 0.345098
0.956863 0.933333 0.345098
0.960784 0.933333 0.274510
0.827451 0.772549 0.000000
0.996078 1.000000 0.341176
0.000000 0.929412 0.576471
0.003922 0.882353 0.537255
0.345098 0.996078 0.705882
0.196078 0.913725 0.588235
0.364706 1.000000 0.666667
0.466667 1.000000 0.717647
0.423529 1.000000 0.666667
0.266667 0.886275 0.552941
0.250980 0.882353 0.513725
0.345098 0.905882 0.552941
0.415686 0.925490 0.572549
0.564706 1.000000 0.666667
0.419608 0.862745 0.509804
0.474510 0.878431 0.521569
0.576471 0.941176 0.584314
0.580392 0.882353 0.505882
0.623529 0.882353 0.490196
0.517647 0.737255 0.309804
0.803922 0.968627 0.529412
0.898039 1.000000 0.560784
1.000000 0.996078 0.733333
1.000000 0.996078 0.513725
1.000000 1.000000 0.470588
0.831373 0.827451 0.125490
0.956863 0.917647 0.192157
0.823529 1.000000 0.921569
0.325490 0.901961 0.623529
0.701961 1.000000 0.847059
0.411765 0.937255 0.650980
0.360784 0.874510 0.600000
0.427451 0.901961 0.623529
0.564706 1.000000 0.729412
0.462745 0.917647 0.639216
0.494118 0.949020 0.662745
0.560784 0.984314 0.690196
0.364706 0.800000 0.498039
0.552941 0.941176 0.627451
0.878431 0.996078 0.847059
0.478431 0.823529 0.525490
0.698039 1.000000 0.705882
0.666667 0.937255 0.623529
0.682353 0.913725 0.592157
0.729412 0.925490 0.584314
0.741176 0.898039 0.552941
0.929412 1.000000 0.678431
0.878431 0.964706 0.580392
0.941176 0.992157 0.576471
0.909804 0.937255 0.482353
0.984314 1.000000 0.529412
1.000000 1.000000 0.501961
0.478431 0.937255 0.662745
0.450980 0.917647 0.650980
0.552941 0.988235 0.721569
0.635294 0.996078 0.796078
0.631373 1.000000 0.776471
0.654902 1.000000 0.792157
0.392157 0.870588 0.568627
0.482353 0.921569 0.639216
0.458824 0.909804 0.607843
0.568627 0.960784 0.678431
0.807843 0.996078 0.831373
0.482353 0.847059 0.572549
0.576471 0.901961 0.619608
0.490196 0.803922 0.525490
0.670588 0.952941 0.662745
0.650980 0.917647 0.631373
0.796078 1.000000 0.729412
0.972549 1.000000 0.800000
0.854902 1.000000 0.670588
0.827451 0.956863 0.615686
0.796078 0.901961 0.529412
1.000000 0.996078 0.874510
0.996078 1.000000 0.631373
0.831373 0.898039 0.388235
1.000000 0.996078 0.560784
0.568627 0.952941 0.721569
0.549020 0.949020 0.701961
0.466667 0.890196 0.647059
0.760784 0.996078 0.847059
0.654902 0.980392 0.768627
0.717647 1.000000 0.811765
0.627451 0.960784 0.745098
0.443137 0.890196 0.607843
0.854902 0.996078 0.886275
0.682353 0.988235 0.760784
0.643137 0.956863 0.717647
0.909804 1.000000 0.898039
0.756863 1.000000 0.800000
0.541176 0.854902 0.584314
0.800000 1.000000 0.803922
0.858824 1.000000 0.827451
0.843137 1.000000 0.796078
0.839216 0.996078 0.752941
0.890196 1.000000 0.772549
0.933333 1.000000 0.768627
0.949020 0.996078 0.745098
1.000000 1.000000 0.768627
0.894118 0.964706 0.627451
0.807843 0.905882 0.498039
1.000000 0.992157 0.650980
0.909804 1.000000 0.941176
0.729412 0.984314 0.819608
0.749020 0.996078 0.827451
0.454902 0.890196 0.631373
0.650980 0.964706 0.764706
0.721569 0.980392 0.792157
0.498039 0.909804 0.647059
0.894118 1.000000 0.917647
0.705882 0.976471 0.764706
0.768627 0.996078 0.835294
0.698039 0.968627 0.756863
0.862745 1.000000 0.882353
0.890196 1.000000 0.894118
0.674510 0.929412 0.701961
0.635294 0.913725 0.678431
0.890196 0.996078 0.866667
0.760784 0.952941 0.737255
0.949020 1.000000 0.874510
0.756863 0.945098 0.717647
0.760784 0.941176 0.686275
0.925490 0.996078 0.807843
1.000000 1.000000 0.866667
0.952941 0.992157 0.752941
0.996078 1.000000 0.858824
0.913725 0.972549 0.647059
0.721569 0.976471 0.807843
0.933333 0.996078 0.956863
0.745098 0.984314 0.823529
0.768627 0.988235 0.835294
0.839216 1.000000 0.882353
0.874510 1.000000 0.909804
0.772549 0.988235 0.835294
0.952941 1.000000 0.952941
0.709804 0.968627 0.788235
0.945098 1.000000 0.941176
0.760784 0.976471 0.819608
0.870588 1.000000 0.894118
0.913725 1.000000 0.909804
0.909804 1.000000 0.917647
0.658824 0.937255 0.701961
0.827451 0.984314 0.839216
0.847059 0.988235 0.847059
0.972549 1.000000 0.937255
0.768627 0.964706 0.764706
0.917647 0.992157 0.866667
0.901961 0.992157 0.811765
0.960784 1.000000 0.854902
0.988235 1.000000 0.925490
0.992157 1.000000 0.862745
0.972549 0.984314 0.776471
0.749020 0.988235 0.827451
0.694118 0.976471 0.780392
1.000000 1.000000 0.992157
0.933333 1.000000 0.960784
0.905882 0.996078 0.925490
0.976471 1.000000 0.976471
0.698039 0.980392 0.792157
0.901961 1.000000 0.917647
0.866667 0.992157 0.898039
1.000000 1.000000 0.992157
0.725490 0.984314 0.796078
0.913725 0.996078 0.929412
0.843137 0.996078 0.874510
1.000000 1.000000 0.992157
0.831373 0.988235 0.850980
0.901961 1.000000 0.905882
0.988235 1.000000 0.992157
0.713725 0.960784 0.776471
0.886275 0.988235 0.874510
0.913725 0.992157 0.882353
0.890196 0.980392 0.866667
0.760784 0.988235 0.760784
0.870588 0.988235 0.839216
0.866667 0.988235 0.815686
1.000000 0.996078 1.000000
0.309804 0.117647 0.231373
0.152941 0.031373 0.094118
0.105882 0.007843 0.031373
0.203922 0.035294 0.113725
0.415686 0.141176 0.274510
0.000000 0.000000 0.000000
0.149020 0.000000 0.000000
0.298039 0.031373 0.082353
0.325490 0.003922 0.058824
0.317647 0.000000 0.019608
0.505882 0.062745 0.133333
0.443137 0.007843 0.031373
0.670588 0.137255 0.192157
0.505882 0.000000 0.000000
0.560784 0.003922 0.000000
0.654902 0.000000 0.003922
0.709804 0.000000 0.000000
0.800000 0.000000 0.035294
0.937255 0.000000 0.125490
0.701961 0.003922 0.000000
0.890196 0.000000 0.000000
0.784314 0.000000 0.000000
1.000000 0.000000 0.082353
0.996078 0.007843 0.003922
0.933333 0.000000 0.000000
0.384314 0.301961 0.329412
0.003922 0.000000 0.007843
0.290196 0.160784 0.196078
0.121569 0.003922 0.043137
0.250980 0.121569 0.149020
0.003922 0.000000 0.000000
0.109804 0.000000 0.000000
0.176471 0.000000 0.003922
0.211765 0.000000 0.000000
0.380392 0.062745 0.050980
0.596078 0.215686 0.192157
0.513725 0.066667 0.066667
0.450980 0.003922 0.003922
0.756863 0.203922 0.176471
0.596078 0.000000 0.003922
0.635294 0.000000 0.007843
0.670588 0.007843 0.000000
0.670588 0.007843 0.000000
0.945098 0.000000 0.101961
0.929412 0.000000 0.000000
0.988235 0.011765 0.035294
0.949020 0.000000 0.000000
0.980392 0.000000 0.015686
1.000000 0.003922 0.000000
0.996078 0.000000 0.007843
0.152941 0.117647 0.121569
0.035294 0.003922 0.000000
0.043137 0.003922 0.000000
0.337255 0.250980 0.262745
0.188235 0.109804 0.113725
0.239216 0.105882 0.101961
0.219608 0.090196 0.054902
0.407843 0.243137 0.180392
0.439216 0.235294 0.149020
0.400000 0.121569 0.043137
0.309804 0.003922 0.003922
0.513725 0.137255 0.039216
0.600000 0.152941 0.058824
0.603922 0.066667 0.000000
0.721569 0.129412 0.062745
0.639216 0.000000 0.003922
0.874510 0.137255 0.094118
0.678431 0.003922 0.000000
0.933333 0.000000 0.050980
1.000000 0.003922 0.058824
0.956863 0.000000 0.007843
0.960784 0.000000 0.000000
0.996078 0.000000 0.007843
0.996078 0.000000 0.000000
0.850980 0.003922 0.007843
0.007843 0.129412 0.058824
0.000000 0.145098 0.074510
0.000000 0.003922 0.000000
0.215686 0.239216 0.192157
0.172549 0.149020 0.101961
0.066667 0.023529 0.000000
0.247059 0.164706 0.082353
0.305882 0.192157 0.074510
0.431373 0.286275 0.121569
0.458824 0.258824 0.090196
0.431373 0.196078 0.000000
0.454902 0.149020 0.000000
0.509804 0.141176 0.007843
0.545098 0.094118 0.000000
0.737255 0.223529 0.003922
0.643137 0.000000 0.000000
0.705882 0.007843 0.000000
0.839216 0.074510 0.000000
0.960784 0.145098 0.003922
0.988235 0.043137 0.000000
0.647059 0.003922 0.000000
0.980392 0.000000 0.003922
1.000000 0.003922 0.011765
0.996078 0.000000 0.000000
0.996078 0.000000 0.000000
0.000000 0.211765 0.070588
0.000000 0.329412 0.168627
0.003922 0.215686 0.090196
0.250980 0.419608 0.309804
0.160784 0.262745 0.156863
0.058824 0.121569 0.007843
0.301961 0.317647 0.188235
0.223529 0.196078 0.000000
0.380392 0.278431 0.047059
0.137255 0.031373 0.000000
0.564706 0.396078 0.086275
0.552941 0.309804 0.007843
0.733333 0.415686 0.094118
0.690196 0.325490 0.011765
0.737255 0.305882 0.000000
0.650980 0.141176 0.000000
0.756863 0.180392 0.007843
1.000000 0.450980 0.160784
0.866667 0.152941 0.007843
0.870588 0.039216 0.000000
1.000000 0.164706 0.000000
0.996078 0.101961 0.000000
0.996078 0.000000 0.000000
0.996078 0.007843 0.000000
0.996078 0.000000 0.007843
0.000000 0.298039 0.145098
0.078431 0.392157 0.247059
0.000000 0.219608 0.066667
0.000000 0.239216 0.078431
0.000000 0.066667 0.003922
0.235294 0.325490 0.215686
0.164706 0.227451 0.086275
0.309804 0.333333 0.152941
0.341176 0.309804 0.066667
0.231373 0.133333 0.011765
0.450980 0.298039 0.000000
0.494118 0.301961 0.003922
0.549020 0.309804 0.000000
0.643137 0.325490 0.007843
0.572549 0.192157 0.000000
0.603922 0.141176 0.000000
0.913725 0.396078 0.011765
0.937255 0.329412 0.007843
0.698039 0.000000 0.000000
0.925490 0.160784 0.000000
0.988235 0.149020 0.007843
0.952941 0.000000 0.000000
1.000000 0.219608 0.000000
0.996078 0.094118 0.003922
1.000000 0.239216 0.000000
0.000000 0.400000 0.180392
0.000000 0.384314 0.168627
0.003922 0.329412 0.117647
0.003922 0.356863 0.156863
0.011765 0.321569 0.133333
0.223529 0.462745 0.290196
0.050980 0.250980 0.082353
0.313725 0.443137 0.235294
0.368627 0.427451 0.196078
0.329412 0.325490 0.011765
0.384314 0.317647 0.003922
0.466667 0.349020 0.000000
0.509804 0.333333 0.000000
0.678431 0.435294 0.007843
0.572549 0.282353 0.000000
0.725490 0.360784 0.000000
0.752941 0.313725 0.000000
0.858824 0.360784 0.000000
1.000000 0.549020 0.066667
0.815686 0.164706 0.007843
0.988235 0.278431 0.000000
0.960784 0.164706 0.007843
0.917647 0.003922 0.000000
0.988235 0.101961 0.003922
1.000000 0.203922 0.003922
0.000000 0.537255 0.262745
0.007843 0.537255 0.266667
0.000000 0.431373 0.172549
0.000000 0.454902 0.200000
0.000000 0.541176 0.309804
0.003922 0.274510 0.019608
0.207843 0.486275 0.266667
0.094118 0.349020 0.129412
0.196078 0.376471 0.121569
0.235294 0.345098 0.015686
0.254902 0.294118 0.007843
0.501961 0.466667 0.007843
0.486275 0.396078 0.000000
0.678431 0.509804 0.007843
0.701961 0.486275 0.000000
0.662745 0.400000 0.000000
0.882353 0.541176 0.000000
0.905882 0.498039 0.015686
0.929412 0.454902 0.003922
0.725490 0.211765 0.000000
0.996078 0.447059 0.003922
0.992157 0.435294 0.003922
0.996078 0.427451 0.000000
0.996078 0.415686 0.000000
0.992157 0.250980 0.000000
0.000000 0.741176 0.419608
0.000000 0.721569 0.403922
0.000000 0.694118 0.384314
0.007843 0.717647 0.439216
0.000000 0.533333 0.243137
0.000000 0.525490 0.247059
0.007843 0.372549 0.094118
0.372549 0.670588 0.427451
0.141176 0.435294 0.172549
0.215686 0.423529 0.109804
0.486275 0.611765 0.286275
0.537255 0.600000 0.180392
0.454902 0.443137 0.000000
0.596078 0.517647 0.003922
0.760784 0.607843 0.000000
0.737255 0.545098 0.000000
0.788235 0.537255 0.011765
0.917647 0.615686 0.000000
0.980392 0.639216 0.000000
1.000000 0.658824 0.011765
1.000000 0.600000 0.000000
1.000000 0.545098 0.000000
0.937255 0.372549 0.000000
1.000000 0.533333 0.000000
1.000000 0.498039 0.000000
0.003922 0.807843 0.443137
0.000000 0.596078 0.239216
0.003922 0.580392 0.223529
0.003922 0.627451 0.274510
0.000000 0.529412 0.184314
0.156863 0.827451 0.521569
0.000000 0.474510 0.149020
0.278431 0.752941 0.450980
0.035294 0.494118 0.215686
0.270588 0.596078 0.290196
0.423529 0.666667 0.333333
0.337255 0.505882 0.094118
0.580392 0.674510 0.203922
0.596078 0.627451 0.000000
0.690196 0.643137 0.007843
0.788235 0.670588 0.000000
0.749020 0.611765 0.000000
0.894118 0.701961 0.000000
0.854902 0.607843 0.007843
0.968627 0.690196 0.000000
0.988235 0.650980 0.003922
0.992157 0.807843 0.007843
0.882353 0.474510 0.000000
1.000000 0.584314 0.003922
1.000000 0.596078 0.000000
0.000000 0.631373 0.223529
0.000000 0.568627 0.164706
0.000000 0.556863 0.152941
0.003922 0.752941 0.376471
0.000000 0.654902 0.290196
0.000000 0.568627 0.203922
0.000000 0.411765 0.000000
0.003922 0.568627 0.235294
0.125490 0.607843 0.294118
