lab/岛屿青雾-f.CUBE
#Created by: Adobe Photoshop Export Color Lookup Plugin
TITLE "多场景样片-v1.0.psd"
#LUT size
LUT_3D_SIZE 7
#data domain
#LUT data points
DOMAIN_MIN 0.000000 0.000000 0.000000
DOMAIN_MAX 0.909091 0.909091 0.909091
0.000000 0.004852 0.000000
0.000000 0.019836 0.000000
0.228943 0.036713 0.000000
0.468262 0.055878 0.000000
0.682251 0.078552 0.000000
0.869141 0.109650 0.000000
1.000000 0.148651 0.000000
0.000000 0.115234 0.000000
0.000000 0.113861 0.000000
0.200897 0.172089 0.000000
0.454681 0.208771 0.000000
0.679382 0.241455 0.000000
0.867249 0.263916 0.000000
1.000000 0.282806 0.006042
0.000000 0.262756 0.036377
0.000000 0.261383 0.000000
0.122589 0.259979 0.000000
0.401215 0.329468 0.000000
0.632019 0.374878 0.000000
0.834564 0.406494 0.006958
0.999725 0.430817 0.053009
0.000000 0.416382 0.115906
0.000000 0.415894 0.034271
0.125916 0.412659 0.000000
0.319794 0.411713 0.000000
0.582153 0.495758 0.052246
0.785583 0.547333 0.083649
0.967072 0.584259 0.105652
0.000000 0.586273 0.163391
0.000000 0.586090 0.126434
0.142334 0.582794 0.113495
0.314575 0.578613 0.096130
0.495911 0.576965 0.100128
0.741913 0.678070 0.128235
0.925323 0.721405 0.142029
0.003113 0.749969 0.199310
0.025879 0.749847 0.164764
0.169891 0.747742 0.162231
0.325623 0.744843 0.154877
0.487976 0.741089 0.148926
0.648773 0.739410 0.151794
0.892059 0.830597 0.163940
0.085205 0.870667 0.263123
0.086273 0.870575 0.200958
0.209503 0.870117 0.196838
0.348022 0.867401 0.189209
0.492767 0.864594 0.182556
0.637939 0.862183 0.179291
0.786011 0.860229 0.182098
0.000000 0.007202 0.141052
0.000000 0.006653 0.137939
0.210571 0.008911 0.123474
0.457336 0.015930 0.105103
0.678162 0.024109 0.078979
0.864990 0.039703 0.055786
1.000000 0.063568 0.062958
0.000000 0.094696 0.134338
0.000000 0.125366 0.153717
0.214844 0.154846 0.156799
0.455475 0.184235 0.159760
0.669312 0.213196 0.162872
0.855713 0.240784 0.166443
1.000000 0.265869 0.170258
0.000000 0.284668 0.164703
0.007385 0.272675 0.173096
0.163910 0.271423 0.161896
0.430328 0.329315 0.164398
0.655487 0.365723 0.165314
0.851685 0.392731 0.167603
1.000000 0.413239 0.172028
0.000000 0.443512 0.187347
0.039459 0.427155 0.194672
0.169647 0.425568 0.173279
0.357422 0.423553 0.169495
0.604004 0.499237 0.175049
0.805328 0.544617 0.177155
0.983795 0.577789 0.180847
0.000000 0.587097 0.233582
0.080872 0.596313 0.230072
0.183807 0.594391 0.192596
0.349091 0.590424 0.183533
0.523560 0.588226 0.181885
0.753815 0.676147 0.191986
0.941528 0.722290 0.196472
0.020020 0.750702 0.286957
0.134613 0.757172 0.283600
0.207520 0.756683 0.226349
0.358398 0.753571 0.214752
0.512817 0.749481 0.203827
0.670319 0.747742 0.205383
0.899963 0.827820 0.221863
0.103058 0.871094 0.355164
0.199982 0.874847 0.352325
0.240021 0.874481 0.275330
0.379364 0.873047 0.267303
0.517731 0.870453 0.253601
0.657745 0.867218 0.244202
0.804352 0.865326 0.248505
0.000000 0.009491 0.236206
0.013672 0.009094 0.251038
0.191956 0.008392 0.228058
0.425995 0.015533 0.216248
0.651093 0.026093 0.204559
0.845703 0.053406 0.194519
1.000000 0.087646 0.190063
0.000000 0.083832 0.240143
0.007355 0.130463 0.256226
0.197388 0.130035 0.251984
0.439331 0.135468 0.236816
0.660034 0.143982 0.218811
0.850220 0.163696 0.205414
1.000000 0.180847 0.196991
0.000000 0.240997 0.240295
0.000000 0.294800 0.301941
0.202759 0.282104 0.276672
0.444489 0.311249 0.283081
0.653839 0.339935 0.289642
0.838013 0.367706 0.296844
0.998444 0.394104 0.304749
0.000000 0.418640 0.272766
0.000000 0.483337 0.306244
0.235901 0.437775 0.323700
0.395081 0.435760 0.294373
0.625641 0.497833 0.301636
0.822144 0.535187 0.304901
0.997528 0.565704 0.309387
0.000000 0.684265 0.341431
0.061859 0.620056 0.362122
0.272186 0.607025 0.373199
0.393860 0.604614 0.327209
0.556152 0.601624 0.318237
0.773468 0.679626 0.331329
0.959534 0.720642 0.335449
0.000000 0.786163 0.406952
0.167633 0.757904 0.429779
0.314270 0.765656 0.425415
0.408020 0.764648 0.371216
0.549835 0.761047 0.353180
0.699158 0.758636 0.350342
0.912231 0.826050 0.369629
0.146759 0.871948 0.482269
0.236420 0.875366 0.479889
0.362793 0.879974 0.476746
0.429840 0.879425 0.419312
0.556702 0.876923 0.404785
0.687439 0.873993 0.388702
0.830078 0.872223 0.390656
0.000000 0.011780 0.413574
0.038391 0.011444 0.422211
0.267670 0.012482 0.456299
0.418091 0.017212 0.400391
0.620178 0.027802 0.381531
0.814972 0.055267 0.363159
0.986847 0.091187 0.347717
0.000000 0.061188 0.443207
0.040039 0.135773 0.437073
0.245209 0.135559 0.452606
0.423157 0.134857 0.427399
0.628998 0.142578 0.407715
0.822388 0.162262 0.383728
0.993652 0.189850 0.365753
0.000000 0.223907 0.425690
0.000000 0.233917 0.484741
0.236664 0.286926 0.457794
0.427856 0.285919 0.453125
0.636200 0.293030 0.433105
0.825012 0.306458 0.410553
0.996216 0.324280 0.393860
0.000000 0.391388 0.434692
0.000000 0.478699 0.517273
0.140106 0.463226 0.498260
0.432007 0.448120 0.476959
0.630981 0.480103 0.482361
0.813843 0.512543 0.487762
0.985992 0.544678 0.493256
0.000000 0.700104 0.504486
0.000000 0.693329 0.502441
0.188812 0.661011 0.499237
0.461334 0.617065 0.511902
0.588776 0.615082 0.492096
0.789948 0.678772 0.496979
0.973846 0.714508 0.498779
0.000000 0.848724 0.520813
0.045349 0.832794 0.521912
0.306854 0.782959 0.534180
0.491089 0.773621 0.539642
0.590149 0.771759 0.514069
0.729004 0.769501 0.507874
0.929443 0.828247 0.515839
0.012421 0.927246 0.543549
0.184570 0.904541 0.550537
0.391296 0.880035 0.563446
0.522278 0.884827 0.561493
0.599670 0.883881 0.536530
0.721069 0.881317 0.526520
0.856995 0.879181 0.524597
0.000000 0.018341 0.545502
0.064301 0.020813 0.545898
0.273438 0.026062 0.561188
0.496857 0.032928 0.575592
0.606049 0.041138 0.538757
0.790314 0.058502 0.527985
0.960999 0.094421 0.516388
0.000000 0.066406 0.547546
0.072906 0.142761 0.556793
0.263184 0.143982 0.559967
0.477112 0.145111 0.574005
0.609467 0.149231 0.550262
0.791656 0.163544 0.539764
0.969482 0.190094 0.528076
0.000000 0.193329 0.582397
0.000000 0.217743 0.567627
0.268677 0.292236 0.565979
0.459808 0.293243 0.572205
0.612518 0.294830 0.561920
0.796417 0.305115 0.553223
0.974030 0.322876 0.542725
0.000000 0.396698 0.592133
0.000000 0.397339 0.598999
0.169189 0.394501 0.583923
0.460846 0.453583 0.573944
0.614838 0.453888 0.572296
0.797852 0.461578 0.565002
0.976105 0.472626 0.555420
0.000000 0.679535 0.609528
0.000000 0.669983 0.604218
0.131195 0.656708 0.597015
0.383148 0.642303 0.589355
0.618317 0.627563 0.581177
0.796326 0.660400 0.583282
0.967926 0.691498 0.585449
0.000000 0.863861 0.599152
0.000000 0.853699 0.595764
0.146667 0.838226 0.592041
0.407532 0.815369 0.590149
0.642944 0.781403 0.595581
0.757141 0.779724 0.587067
0.944794 0.827118 0.589050
0.000000 0.942474 0.599854
0.051575 0.937744 0.598969
0.248993 0.926636 0.599518
0.508362 0.896271 0.606293
0.668610 0.889313 0.609650
0.756744 0.887756 0.596558
0.884308 0.885864 0.593781
0.000000 0.035095 0.607605
0.094818 0.037781 0.607758
0.285980 0.043671 0.614471
0.490570 0.051178 0.627289
0.688141 0.060791 0.640747
0.772003 0.075409 0.602783
0.945526 0.100281 0.597656
0.000000 0.065521 0.608795
0.107574 0.152222 0.614655
0.285095 0.155151 0.614746
0.479034 0.158722 0.626068
0.674500 0.163849 0.640808
0.774597 0.174744 0.609192
0.946960 0.194275 0.603271
0.000000 0.184753 0.627197
0.047760 0.221008 0.615509
0.300385 0.298767 0.622437
0.474335 0.301025 0.624969
0.656677 0.303864 0.638672
0.777130 0.310181 0.617584
0.946381 0.323822 0.610992
0.000000 0.344055 0.666321
0.000000 0.350403 0.650513
0.235687 0.380859 0.631531
0.488373 0.459656 0.630280
0.644745 0.460999 0.636383
0.779083 0.462067 0.626740
0.950958 0.470215 0.619720
0.000000 0.605774 0.711090
0.000000 0.593567 0.696991
0.133301 0.574951 0.673401
0.397339 0.570618 0.650208
0.642975 0.633118 0.638214
0.781403 0.632843 0.636322
0.952820 0.640625 0.628906
0.000000 0.835876 0.705841
0.000000 0.830231 0.696503
0.125458 0.821991 0.684265
0.351837 0.811829 0.671051
0.575897 0.800873 0.658234
0.784515 0.789490 0.646851
0.949005 0.813934 0.649597
0.000000 0.944092 0.686096
0.000000 0.942657 0.676453
0.141571 0.937683 0.668030
0.369263 0.927765 0.661652
0.600586 0.913879 0.659088
0.807281 0.893494 0.667694
0.910858 0.892120 0.655029
0.000000 0.054962 0.676971
0.128784 0.057434 0.677216
0.302887 0.063690 0.680908
0.491272 0.071777 0.704437
0.676056 0.083832 0.732269
0.859955 0.100891 0.754181
0.925781 0.123260 0.668121
0.000000 0.074310 0.678925
0.144836 0.164703 0.688568
0.309784 0.168488 0.688782
0.486664 0.174377 0.702515
0.665161 0.182312 0.729095
0.849640 0.193481 0.756531
0.927765 0.210175 0.677673
0.000000 0.192841 0.690918
0.075409 0.217804 0.690674
0.332489 0.307007 0.703064
0.492401 0.310883 0.703156
0.656891 0.315643 0.725647
0.835052 0.321716 0.756012
0.929657 0.332275 0.691803
0.000000 0.325714 0.758087
0.082062 0.343903 0.731628
0.289673 0.383972 0.704590
0.514587 0.466522 0.718201
0.657379 0.468872 0.722931
0.819000 0.470612 0.750427
0.931091 0.474548 0.707855
0.000000 0.512634 0.846497
0.005554 0.510132 0.814972
0.206757 0.517273 0.776276
0.449799 0.552246 0.736115
0.666321 0.639130 0.733093
0.807190 0.640381 0.745148
0.932312 0.641602 0.725494
0.000000 0.777191 0.914795
0.000000 0.771759 0.897522
0.124756 0.761414 0.867371
0.356903 0.745483 0.819122
0.591003 0.743286 0.772400
0.806824 0.793732 0.748230
0.933350 0.793945 0.744293
0.000000 0.929749 0.901428
0.002258 0.926758 0.885223
0.158295 0.922577 0.863129
0.355560 0.917175 0.837402
0.558167 0.911041 0.811066
0.750793 0.904388 0.785980
0.935303 0.897797 0.764069
