lab/岛屿青雾-f.CUBE
#Created by: Adobe Photoshop Export Color Lookup Plugin
TITLE "多场景样片-v1.0.psd"
#LUT size
LUT_3D_SIZE 34
#data domain
DOMAIN_MIN 0.0 0.0 0.0
DOMAIN_MAX 1.0 1.0 1.0
#LUT data points
0.000000 0.004852 0.000000
0.000000 0.007843 0.000000
0.000000 0.010590 0.000000
0.000000 0.013489 0.000000
0.000000 0.016602 0.000000
0.000000 0.019836 0.000000
0.032410 0.023193 0.000000
0.081818 0.026550 0.000000
0.130951 0.029907 0.000000
0.179840 0.033295 0.000000
0.228943 0.036713 0.000000
0.277832 0.040314 0.000000
0.326538 0.043976 0.000000
0.374725 0.047821 0.000000
0.422028 0.051758 0.000000
0.468262 0.055878 0.000000
0.513031 0.060120 0.000000
0.556824 0.064545 0.000000
0.599915 0.069153 0.000000
0.641724 0.073822 0.000000
0.682251 0.078552 0.000000
0.721344 0.083252 0.000000
0.759094 0.088531 0.000000
0.796082 0.094910 0.000000
0.832764 0.102325 0.000000
0.869141 0.109650 0.000000
0.905243 0.117432 0.000000
0.940979 0.125763 0.000000
0.975861 0.134216 0.000000
0.998779 0.142273 0.000000
1.000000 0.148651 0.000000
1.000000 0.154053 0.002869
1.000000 0.159149 0.016083
1.000000 0.164734 0.028351
0.000000 0.020935 0.000000
0.000000 0.020721 0.000000
0.000000 0.027344 0.000000
0.000000 0.032349 0.000000
0.000000 0.037170 0.000000
0.000000 0.041748 0.000000
0.032623 0.045807 0.000000
0.081970 0.049835 0.000000
0.130981 0.053772 0.000000
0.179840 0.057648 0.000000
0.228882 0.061615 0.000000
0.277771 0.065826 0.000000
0.326538 0.070007 0.000000
0.374786 0.074341 0.000000
0.422028 0.078918 0.000000
0.468170 0.083771 0.000000
0.512970 0.088806 0.000000
0.556763 0.093933 0.000000
0.599854 0.099548 0.000000
0.641693 0.105438 0.000000
0.682159 0.111420 0.000000
0.721161 0.117615 0.000000
0.758942 0.124023 0.000000
0.795959 0.130463 0.000000
0.832489 0.137146 0.000000
0.868927 0.144012 0.000000
0.905090 0.150513 0.000000
0.940796 0.157440 0.000000
0.975494 0.164551 0.000000
0.998779 0.170746 0.000000
1.000000 0.175598 0.000000
1.000000 0.179596 0.004547
1.000000 0.183868 0.017883
1.000000 0.188110 0.029907
0.000000 0.038483 0.000000
0.000000 0.038483 0.000000
0.000000 0.038391 0.000000
0.000000 0.048096 0.000000
0.000000 0.055389 0.000000
0.000000 0.062195 0.000000
0.026520 0.068481 0.000000
0.077820 0.074432 0.000000
0.129059 0.079865 0.000000
0.178925 0.085052 0.000000
0.228821 0.089874 0.000000
0.277740 0.094727 0.000000
0.326477 0.099762 0.000000
0.374756 0.104858 0.000000
0.422028 0.110168 0.000000
0.468170 0.115692 0.000000
0.512970 0.121246 0.000000
0.556763 0.127075 0.000000
0.599762 0.132812 0.000000
0.641571 0.138855 0.000000
0.681976 0.144836 0.000000
0.720856 0.150848 0.000000
0.758789 0.156708 0.000000
0.795624 0.162567 0.000000
0.832275 0.168335 0.000000
0.868622 0.174103 0.000000
0.904755 0.179993 0.000000
0.940399 0.185822 0.000000
0.975250 0.191864 0.000000
0.998718 0.197113 0.000000
1.000000 0.200958 0.000000
1.000000 0.204254 0.006775
1.000000 0.207581 0.020142
1.000000 0.210999 0.031799
0.000000 0.059814 0.000000
0.000000 0.059814 0.000000
0.000000 0.059509 0.000000
0.000000 0.059570 0.000000
0.000000 0.073029 0.000000
0.000000 0.082275 0.000000
0.017120 0.090973 0.000000
0.067719 0.098694 0.000000
0.119049 0.105896 0.000000
0.170105 0.112549 0.000000
0.222290 0.118988 0.000000
0.274078 0.125305 0.000000
0.325287 0.131409 0.000000
0.374176 0.137238 0.000000
0.421967 0.143097 0.000000
0.468079 0.148804 0.000000
0.512939 0.154633 0.000000
0.556732 0.160400 0.000000
0.599701 0.166229 0.000000
0.641479 0.172089 0.000000
0.681671 0.177795 0.000000
0.720551 0.183258 0.000000
0.758453 0.188568 0.000000
0.795258 0.193695 0.000000
0.831970 0.198792 0.000000
0.868347 0.203979 0.000000
0.904358 0.209045 0.000000
0.940094 0.214172 0.000000
0.975006 0.219452 0.000000
0.998657 0.223938 0.000000
1.000000 0.227234 0.000031
1.000000 0.229706 0.009705
1.000000 0.232422 0.022797
1.000000 0.235321 0.034241
0.000000 0.085815 0.000000
0.000000 0.085815 0.000000
0.000000 0.085388 0.000000
0.000000 0.084991 0.000000
0.000000 0.085022 0.000000
0.000000 0.102997 0.000000
0.009521 0.112488 0.000000
0.057373 0.122559 0.000000
0.108490 0.131195 0.000000
0.160126 0.139160 0.000000
0.211639 0.146484 0.000000
0.263397 0.153503 0.000000
0.314758 0.160492 0.000000
0.365509 0.167145 0.000000
0.415283 0.173676 0.000000
0.464508 0.180450 0.000000
0.511536 0.186981 0.000000
0.556274 0.193115 0.000000
0.599487 0.198975 0.000000
0.641266 0.204620 0.000000
0.681427 0.210022 0.000000
0.720215 0.215118 0.000000
0.757935 0.219940 0.000000
0.794769 0.224609 0.000000
0.831451 0.229095 0.000000
0.867828 0.233887 0.000000
0.903992 0.238556 0.000000
0.939636 0.243103 0.000000
0.974457 0.247742 0.000000
0.998596 0.251831 0.000000
1.000000 0.254486 0.002563
1.000000 0.256683 0.014160
1.000000 0.258667 0.026337
1.000000 0.260864 0.037079
0.000000 0.115234 0.000000
0.000000 0.115265 0.000000
0.000000 0.114655 0.000000
0.000000 0.114288 0.000000
0.000000 0.113892 0.000000
0.000000 0.113861 0.000000
0.004913 0.135742 0.000000
0.046204 0.144135 0.000000
0.097290 0.154480 0.000000
0.148773 0.163666 0.000000
0.200897 0.172089 0.000000
0.251984 0.179840 0.000000
0.303650 0.187286 0.000000
0.355438 0.194733 0.000000
0.404907 0.201752 0.000000
0.454681 0.208771 0.000000
0.502228 0.215668 0.000000
0.548431 0.222351 0.000000
0.593628 0.229034 0.000000
0.637146 0.235504 0.000000
0.679382 0.241455 0.000000
0.719696 0.246613 0.000000
0.757263 0.251038 0.000000
0.794159 0.255219 0.000000
0.830719 0.259644 0.000000
0.867249 0.263916 0.000000
0.903198 0.268188 0.000000
0.939087 0.272522 0.000000
0.974060 0.276825 0.000000
0.998535 0.280457 0.000000
1.000000 0.282806 0.006042
1.000000 0.284424 0.019226
1.000000 0.286011 0.030853
1.000000 0.287811 0.041168
0.000000 0.145599 0.000000
0.000000 0.145599 0.000000
0.000000 0.145203 0.000000
0.000000 0.144897 0.000000
0.000000 0.144318 0.000000
0.000000 0.143860 0.000000
0.000000 0.143829 0.000000
0.040985 0.167938 0.000000
0.086914 0.175720 0.000000
0.137177 0.185669 0.000000
0.188904 0.195221 0.000000
0.240662 0.204041 0.000000
0.293091 0.212463 0.000000
0.344574 0.220459 0.000000
0.395264 0.228149 0.000000
0.444519 0.235504 0.000000
0.492218 0.242859 0.000000
0.538971 0.249939 0.000000
0.584198 0.256866 0.000000
0.628326 0.263580 0.000000
0.670105 0.269623 0.000000
0.712128 0.275116 0.000000
0.752167 0.280487 0.000000
0.791199 0.285339 0.000000
0.830078 0.290009 0.000000
0.866425 0.294067 0.000000
0.902527 0.298096 0.000000
0.938293 0.302216 0.000000
0.973328 0.306335 0.000000
0.998474 0.309723 0.000214
1.000000 0.311859 0.011932
1.000000 0.313019 0.024292
1.000000 0.314423 0.035461
1.000000 0.315948 0.045563
0.000000 0.175415 0.000000
0.000000 0.175415 0.000000
0.000000 0.175262 0.000000
0.000000 0.174591 0.000000
0.000000 0.174164 0.000000
0.000000 0.173492 0.000000
0.000000 0.173340 0.000000
0.010101 0.173279 0.000000
0.082031 0.199463 0.000000
0.127960 0.206970 0.000000
0.176697 0.216003 0.000000
0.229218 0.226349 0.000000
0.280792 0.235535 0.000000
0.333618 0.244629 0.000000
0.384247 0.252869 0.000000
0.434570 0.261078 0.000000
0.482483 0.268951 0.000000
0.529907 0.276520 0.000000
0.575256 0.283752 0.000000
0.619110 0.290680 0.000000
0.661377 0.296906 0.000000
0.702637 0.302673 0.000000
0.742920 0.307922 0.000000
0.782166 0.313202 0.000000
0.821625 0.318176 0.000000
0.861633 0.323242 0.000000
0.899872 0.328278 0.000000
0.937439 0.332458 0.000000
0.972473 0.336395 0.000092
0.998352 0.339783 0.006775
1.000000 0.341614 0.018921
1.000000 0.342743 0.030151
1.000000 0.343719 0.040588
1.000000 0.344788 0.050140
0.000000 0.204620 0.001526
0.000000 0.204590 0.000000
0.000000 0.204559 0.000000
0.000000 0.203827 0.000000
0.000000 0.203552 0.000000
0.000000 0.203186 0.000000
0.000000 0.202393 0.000000
0.009399 0.202301 0.000000
0.046875 0.202271 0.000000
0.123047 0.230591 0.000000
0.170685 0.238953 0.000000
0.217346 0.246399 0.000000
0.269501 0.256989 0.000000
0.322235 0.267151 0.000000
0.372894 0.276123 0.000000
0.423004 0.285004 0.000000
0.472412 0.293701 0.000000
0.519043 0.301849 0.000000
0.564941 0.309692 0.000000
0.608948 0.316803 0.000000
0.651672 0.323517 0.000000
0.692719 0.329559 0.000000
0.733704 0.335144 0.000000
0.774231 0.340515 0.000000
0.813080 0.345734 0.000000
0.852783 0.350830 0.000000
0.891205 0.355896 0.000000
0.929962 0.361145 0.001648
0.967346 0.366119 0.005493
0.998047 0.370087 0.015320
1.000000 0.372131 0.026917
1.000000 0.373138 0.036591
1.000000 0.373871 0.046234
1.000000 0.374756 0.055603
0.000000 0.233673 0.017761
0.000000 0.233673 0.000000
0.000000 0.233643 0.000000
0.000000 0.232910 0.000000
0.000000 0.232574 0.000000
0.000000 0.231873 0.000000
0.000000 0.231842 0.000000
0.008972 0.231201 0.000000
0.045654 0.231140 0.000000
0.084412 0.231110 0.000000
0.162872 0.260406 0.000000
0.213989 0.270996 0.000000
0.259064 0.277435 0.000000
0.310394 0.287872 0.000000
0.361267 0.298004 0.000000
0.412201 0.307892 0.000000
0.461731 0.317352 0.000000
0.509125 0.326202 0.000000
0.555878 0.334808 0.000000
0.599091 0.342285 0.000000
0.642151 0.349426 0.000000
0.682922 0.355774 0.000000
0.724182 0.361908 0.000000
0.764496 0.367645 0.000000
0.804718 0.373108 0.000000
0.843170 0.378662 0.000000
0.882599 0.383972 0.001282
0.921021 0.389374 0.011047
0.959442 0.394501 0.021088
0.990845 0.398743 0.032196
1.000000 0.401428 0.037872
1.000000 0.402832 0.046112
1.000000 0.404297 0.055298
1.000000 0.405182 0.060364
0.000000 0.262756 0.036377
0.000000 0.262726 0.000000
0.000000 0.262726 0.000000
0.000000 0.262299 0.000000
0.000000 0.262146 0.000000
0.000000 0.261383 0.000000
0.000000 0.260559 0.000000
0.008789 0.260376 0.000000
0.044800 0.260010 0.000000
0.083405 0.259979 0.000000
0.122589 0.259979 0.000000
0.201477 0.289337 0.000000
0.257507 0.303223 0.000000
0.301605 0.309204 0.000000
0.349701 0.318237 0.000000
0.401215 0.329468 0.000000
0.451385 0.340027 0.000000
0.499115 0.349792 0.000000
0.545471 0.359009 0.000000
0.590393 0.367523 0.000000
0.632019 0.374878 0.000000
0.674438 0.382019 0.000000
0.714844 0.388428 0.000000
0.753265 0.394409 0.000000
0.794586 0.400635 0.000000
0.834564 0.406494 0.006958
0.873260 0.412079 0.017792
0.912506 0.417694 0.026581
0.951538 0.423370 0.033997
0.983582 0.428131 0.044769
0.999725 0.430817 0.053009
1.000000 0.432220 0.058685
1.000000 0.433350 0.065216
1.000000 0.434570 0.072113
0.000000 0.292053 0.054535
0.000000 0.292023 0.001099
0.000000 0.292023 0.000000
0.000000 0.291931 0.000000
0.000000 0.291534 0.000000
0.000000 0.290741 0.000000
0.000000 0.290436 0.000000
0.009857 0.289581 0.000000
0.044952 0.289154 0.000000
0.083191 0.289093 0.000000
0.122284 0.289093 0.000000
0.161469 0.289093 0.000000
0.240814 0.318848 0.000000
0.301178 0.336060 0.000000
0.344818 0.341980 0.000000
0.391235 0.350372 0.000000
0.441681 0.362152 0.000000
0.489014 0.372620 0.000000
0.535767 0.382751 0.000000
0.580292 0.391876 0.000000
0.622681 0.399994 0.000000
0.664581 0.407684 0.000000
0.705322 0.414734 0.000153
0.744812 0.421265 0.007141
0.785645 0.428192 0.014618
0.825684 0.434570 0.023407
0.864868 0.440796 0.032990
0.903351 0.446686 0.042297
0.941803 0.452698 0.049622
0.975891 0.457672 0.056610
0.997955 0.460754 0.063812
1.000000 0.462280 0.071045
1.000000 0.463318 0.075836
1.000000 0.464539 0.083099
0.000000 0.321838 0.072754
0.000000 0.321838 0.009125
0.000000 0.321808 0.000000
0.000000 0.321777 0.000000
0.000000 0.320862 0.000000
0.000000 0.320557 0.000000
0.000000 0.320282 0.000000
0.011505 0.319672 0.000000
0.047028 0.319427 0.000000
0.083374 0.318787 0.000000
0.122314 0.318756 0.000000
0.161407 0.318787 0.000000
0.201172 0.318756 0.000000
0.280518 0.349060 0.000000
0.344879 0.369843 0.000000
0.387817 0.375946 0.000000
0.430420 0.382721 0.000000
0.479370 0.394958 0.000000
0.525085 0.405487 0.000000
0.570190 0.415741 0.000000
0.612366 0.424469 0.001648
0.654724 0.433167 0.006287
0.694885 0.440765 0.015991
0.735107 0.448151 0.026398
0.774261 0.455139 0.036591
0.815979 0.462799 0.040863
0.854706 0.469421 0.049805
0.894135 0.476013 0.056274
0.932098 0.482269 0.063446
0.966522 0.488037 0.070038
0.991241 0.491455 0.075104
1.000000 0.492950 0.079987
1.000000 0.493958 0.087158
1.000000 0.495331 0.090240
0.000000 0.352448 0.088989
0.000000 0.352448 0.032410
0.000000 0.352417 0.006348
0.000000 0.352386 0.006073
0.000000 0.352203 0.001343
0.000000 0.351929 0.000000
0.000000 0.350830 0.000000
0.014862 0.350555 0.000000
0.049683 0.350281 0.000000
0.085175 0.349365 0.000000
0.122406 0.349030 0.000000
0.161560 0.349060 0.000000
0.201141 0.349060 0.000000
0.241028 0.349030 0.000000
0.320038 0.380219 0.000000
0.387054 0.404236 0.000000
0.429688 0.411133 0.000000
0.470306 0.417328 0.000000
0.515167 0.427979 0.002960
0.559570 0.438782 0.006622
0.602356 0.448578 0.016602
0.644775 0.458252 0.024567
0.684570 0.466644 0.035767
0.726227 0.475250 0.041870
0.765686 0.483154 0.050659
0.805573 0.490906 0.057373
0.845551 0.498657 0.063202
0.884735 0.505890 0.069000
0.922363 0.512482 0.076263
0.958435 0.518646 0.080566
0.983887 0.522583 0.085266
0.997528 0.524139 0.091339
1.000000 0.525391 0.095764
1.000000 0.526367 0.100769
0.000000 0.383881 0.103424
0.000000 0.383850 0.055939
0.000000 0.383881 0.026245
0.000000 0.383881 0.026489
0.000000 0.383606 0.021790
0.000000 0.383362 0.012115
0.000000 0.383179 0.001953
0.018402 0.381989 0.000153
0.052765 0.381470 0.000000
0.087524 0.380615 0.000000
0.123627 0.380341 0.000000
0.161682 0.380157 0.000000
0.201263 0.380157 0.000000
0.240967 0.380157 0.000000
0.280731 0.380127 0.000000
0.359131 0.412384 0.000000
0.427124 0.439270 0.000000
0.469543 0.446991 0.002136
0.507935 0.452362 0.015900
0.549042 0.461151 0.027313
0.591858 0.472137 0.036438
0.634033 0.482849 0.044464
0.675018 0.492340 0.052094
0.716187 0.502075 0.057861
0.755219 0.510590 0.066010
0.795044 0.519043 0.071869
0.836365 0.528015 0.075165
0.873596 0.534973 0.082825
0.912445 0.542572 0.087921
0.949310 0.549438 0.091705
0.975250 0.553528 0.096008
0.990051 0.555237 0.101227
1.000000 0.556641 0.104340
1.000000 0.557556 0.108765
0.000000 0.416382 0.115906
0.000000 0.416443 0.077393
0.000000 0.416443 0.044647
0.000000 0.416443 0.044250
0.000000 0.416321 0.041992
0.000000 0.415894 0.034271
0.000000 0.415466 0.025970
0.022064 0.414734 0.018646
0.055939 0.413879 0.011139
0.090454 0.413696 0.002563
0.125916 0.412659 0.000000
0.162415 0.412140 0.000000
0.201141 0.411987 0.000000
0.240784 0.411926 0.000000
0.280396 0.411835 0.000000
0.319794 0.411713 0.000000
0.396790 0.445160 0.001068
0.464905 0.474731 0.010040
0.507111 0.483612 0.025208
0.543640 0.488495 0.040588
0.582153 0.495758 0.052246
0.624390 0.507477 0.059204
0.665649 0.518188 0.065826
0.706329 0.528625 0.071686
0.746368 0.538208 0.077698
0.785583 0.547333 0.083649
0.825439 0.556061 0.088013
0.864105 0.564178 0.093414
0.904144 0.572571 0.096497
0.939728 0.579437 0.101715
0.967072 0.584259 0.105652
0.984406 0.586395 0.108063
0.996094 0.587494 0.113251
1.000000 0.588928 0.116394
0.000000 0.449432 0.127747
0.000000 0.449493 0.097290
0.000000 0.449463 0.065308
0.000000 0.449432 0.062531
0.000000 0.449402 0.062439
0.000000 0.448456 0.057404
0.000000 0.447968 0.050903
0.026276 0.447845 0.043671
0.059448 0.446960 0.037415
0.093353 0.446533 0.029449
0.128387 0.445160 0.023651
0.164368 0.445038 0.015289
0.200989 0.444214 0.008942
0.240143 0.444061 0.009125
0.279572 0.443909 0.010559
0.318878 0.443756 0.013336
0.357605 0.443542 0.014893
0.432983 0.478302 0.025024
0.500702 0.510406 0.036377
0.542633 0.520569 0.049683
0.578156 0.525238 0.063080
0.613403 0.530487 0.074493
0.654724 0.542511 0.080078
0.695557 0.553589 0.085297
0.736084 0.564545 0.089783
0.776001 0.574463 0.094360
0.816162 0.584290 0.097839
0.854614 0.592743 0.102997
0.893951 0.601379 0.106445
0.931885 0.609467 0.109436
0.959259 0.614227 0.113953
0.975494 0.616150 0.117340
0.988617 0.617310 0.121246
1.000000 0.618988 0.123840
0.000000 0.483032 0.138733
0.000000 0.483063 0.116028
0.000000 0.483002 0.087219
0.000000 0.483002 0.081268
0.000000 0.482941 0.081512
0.000000 0.482697 0.078705
0.002655 0.482056 0.073578
0.030853 0.481384 0.068176
0.063599 0.480713 0.062592
0.097076 0.479889 0.057129
0.131256 0.479462 0.050781
0.166504 0.477753 0.046509
0.202637 0.477875 0.038605
0.239532 0.476807 0.034760
0.278503 0.476562 0.036224
0.317474 0.476257 0.038300
0.355988 0.476044 0.039856
0.393799 0.475769 0.041565
0.467255 0.511841 0.050049
0.534760 0.546295 0.059875
0.576935 0.557892 0.070984
0.611664 0.562500 0.081818
0.645630 0.567200 0.091461
0.686035 0.578735 0.095886
0.726532 0.590240 0.099854
0.765350 0.600281 0.105042
0.806000 0.611023 0.107819
0.843994 0.619690 0.112946
0.885010 0.629700 0.114563
0.922577 0.637787 0.118073
0.951447 0.643188 0.121674
0.966766 0.645020 0.125732
0.982056 0.647003 0.127625
0.995239 0.648407 0.130890
0.000000 0.517090 0.148407
0.000000 0.517090 0.132019
0.000000 0.517059 0.109619
0.000000 0.516998 0.099060
0.000000 0.516937 0.099213
0.000000 0.516815 0.098877
0.007538 0.515717 0.095337
0.036377 0.515381 0.090485
0.068298 0.514313 0.086304
0.101013 0.513794 0.081390
0.134583 0.513397 0.076355
0.169098 0.512390 0.071533
0.204559 0.511597 0.066559
0.240265 0.510468 0.062042
0.277557 0.509979 0.058960
0.316162 0.509766 0.060394
0.354370 0.509521 0.061829
0.392029 0.509155 0.063324
0.429047 0.508850 0.064697
0.500397 0.545898 0.072021
0.567993 0.582794 0.079437
0.610443 0.595398 0.088562
0.644592 0.600067 0.097443
0.678131 0.604767 0.105499
0.715332 0.613556 0.110962
0.756378 0.625977 0.113556
0.796295 0.636627 0.116760
0.835419 0.646729 0.120026
0.875275 0.656433 0.122589
0.913055 0.664886 0.126038
0.942993 0.670929 0.129303
0.960114 0.673248 0.131897
0.975037 0.675354 0.133698
0.986633 0.675873 0.137939
0.000000 0.551575 0.156586
0.000000 0.551575 0.144073
0.000000 0.551575 0.127960
0.000000 0.551483 0.114105
0.000000 0.551422 0.114288
0.000000 0.551331 0.114471
0.011780 0.551025 0.111755
0.042145 0.549988 0.108551
0.073517 0.548889 0.105408
0.104919 0.549530 0.099976
0.138245 0.547913 0.097076
0.172028 0.547394 0.092560
0.206787 0.546112 0.088867
0.241943 0.544891 0.085266
0.277618 0.544312 0.080536
0.314911 0.543915 0.078796
0.352783 0.543671 0.080017
0.390289 0.543396 0.081207
0.427002 0.543091 0.082672
0.462799 0.542694 0.084045
0.532257 0.580200 0.089752
0.599060 0.617584 0.096039
0.643341 0.632782 0.103485
0.677032 0.637390 0.110901
0.710266 0.641968 0.117737
0.745697 0.649048 0.122894
0.785828 0.660675 0.125458
0.824158 0.670654 0.128876
0.865234 0.681824 0.129913
0.903015 0.690277 0.133331
0.934113 0.696838 0.136169
0.951569 0.699493 0.138855
0.966309 0.701294 0.140686
0.981476 0.703674 0.142303
0.000000 0.586273 0.163391
0.000000 0.586273 0.153809
0.000000 0.586243 0.141418
0.000000 0.586243 0.127319
0.000000 0.586182 0.126221
0.000000 0.586090 0.126434
0.017944 0.585938 0.125641
0.048218 0.584808 0.123138
0.078613 0.584290 0.119965
0.110291 0.583282 0.117188
0.142334 0.582794 0.113495
0.175446 0.582306 0.110016
0.209412 0.581421 0.106628
0.244049 0.580078 0.103394
0.279144 0.580231 0.098938
0.314575 0.578613 0.096130
0.351501 0.578247 0.095612
0.388672 0.577972 0.096680
0.425201 0.577637 0.097748
0.460968 0.577301 0.098907
0.495911 0.576965 0.100128
0.563568 0.614441 0.105133
0.629089 0.651428 0.110199
0.675720 0.669281 0.116394
0.708954 0.673706 0.122559
0.741913 0.678070 0.128235
0.776154 0.683899 0.132629
0.814636 0.694244 0.135590
0.853943 0.704468 0.137787
0.892426 0.713928 0.140137
0.925323 0.721405 0.142029
0.944977 0.725006 0.143860
0.958282 0.726105 0.146637
0.972839 0.728058 0.148346
0.000000 0.620911 0.169708
0.000000 0.620941 0.161560
0.000000 0.620941 0.151855
0.000000 0.620850 0.139618
0.000000 0.620819 0.136505
0.000000 0.620758 0.136597
0.025208 0.620636 0.136627
0.054840 0.619537 0.134949
0.084167 0.619537 0.132080
0.114868 0.619293 0.129181
0.146912 0.617706 0.127014
0.179413 0.617065 0.124298
0.212646 0.616516 0.121277
0.246674 0.614838 0.119049
0.281128 0.615387 0.114777
0.315826 0.613342 0.112793
0.350891 0.612762 0.109558
0.387451 0.612488 0.109955
0.423645 0.612213 0.110840
0.459198 0.611877 0.111786
0.493927 0.611542 0.112823
0.527985 0.611206 0.113922
0.594269 0.648254 0.118073
0.658783 0.684418 0.122406
0.707611 0.704437 0.127380
0.740601 0.708679 0.132507
0.773041 0.712585 0.137390
0.805328 0.716644 0.141907
0.844025 0.726624 0.143829
0.882416 0.736237 0.146057
0.916260 0.744171 0.147583
0.936279 0.747742 0.149536
0.951843 0.750244 0.151093
0.964874 0.751282 0.153503
0.000000 0.655029 0.175842
0.000000 0.655029 0.168335
0.000000 0.654999 0.160309
0.000000 0.654999 0.150360
0.000000 0.654938 0.145081
0.001526 0.654816 0.145264
0.031616 0.654724 0.145325
0.061371 0.654480 0.144196
0.090332 0.654083 0.142212
0.120911 0.652710 0.140442
0.151611 0.652771 0.137817
0.183746 0.651245 0.135956
0.216309 0.650787 0.133423
0.249603 0.650269 0.130981
0.283417 0.649658 0.128418
0.317596 0.648193 0.126282
0.351959 0.647705 0.123566
0.386414 0.646515 0.121460
0.422394 0.646240 0.122314
0.457581 0.645966 0.123138
0.492157 0.645630 0.123871
0.525940 0.645294 0.124725
0.559174 0.644928 0.125732
0.624023 0.681152 0.129120
0.688019 0.716095 0.132874
0.739044 0.737885 0.136841
0.771820 0.741882 0.141205
0.803925 0.745514 0.145325
0.835876 0.749115 0.149078
0.871796 0.756470 0.151642
0.906433 0.765045 0.152985
0.928314 0.769440 0.154633
0.943695 0.771515 0.156250
0.957733 0.773224 0.157959
0.000000 0.688171 0.182587
0.000000 0.688171 0.175079
0.000000 0.688141 0.167511
0.000000 0.688110 0.159180
0.000000 0.688019 0.152588
0.008881 0.687958 0.152618
0.038483 0.687866 0.152710
0.068481 0.687744 0.152344
0.097015 0.687347 0.150696
0.126465 0.686951 0.148895
0.157379 0.685211 0.147614
0.188110 0.685852 0.145020
0.220520 0.684082 0.143616
0.253204 0.683594 0.141571
0.286285 0.681763 0.140289
0.319794 0.682281 0.137482
0.353455 0.681091 0.135590
0.387085 0.679871 0.133514
0.421326 0.679413 0.132202
0.456299 0.679108 0.132751
0.490479 0.678772 0.133514
0.524139 0.678497 0.134277
0.557129 0.678162 0.134949
0.589661 0.677765 0.135803
0.653503 0.712799 0.138733
0.716583 0.746155 0.141724
0.770172 0.769409 0.145111
0.802612 0.773010 0.148773
0.834351 0.776276 0.152313
0.866150 0.779633 0.155548
0.896088 0.783936 0.158081
0.919830 0.788879 0.159424
0.935059 0.791077 0.161102
0.950317 0.793488 0.162354
0.000000 0.719879 0.190033
0.000000 0.719879 0.182098
0.000000 0.719879 0.174652
0.000000 0.719849 0.166840
0.000366 0.719757 0.158905
0.017181 0.719757 0.158936
0.045776 0.719696 0.159058
0.075958 0.719574 0.159180
0.104309 0.719299 0.158081
0.133087 0.718903 0.156433
0.163483 0.717163 0.155457
0.194000 0.716705 0.153748
0.224670 0.717438 0.151520
0.257263 0.715607 0.150452
0.289703 0.715118 0.148590
0.322449 0.714569 0.146790
0.355469 0.712585 0.145721
0.388672 0.712646 0.143494
0.421875 0.712616 0.141327
0.455170 0.711060 0.141205
0.489014 0.710724 0.141846
0.522522 0.710449 0.142456
0.555328 0.710083 0.143005
0.587433 0.709778 0.143738
0.619385 0.709442 0.144257
0.682465 0.742828 0.146912
0.744843 0.774384 0.149445
0.800629 0.798492 0.152283
0.833038 0.801910 0.155457
0.864563 0.805023 0.158508
0.893005 0.807373 0.161224
0.913147 0.808350 0.163635
0.928589 0.810028 0.164978
0.941589 0.811188 0.166901
0.003113 0.749969 0.199310
0.003326 0.750000 0.190002
0.003387 0.749969 0.181976
0.003540 0.749939 0.174103
0.004944 0.749908 0.166321
0.025879 0.749847 0.164764
0.053802 0.749817 0.164825
0.083008 0.749664 0.164886
0.112396 0.749512 0.164490
0.140259 0.749023 0.163208
0.169891 0.747742 0.162231
0.199738 0.747345 0.160675
0.230408 0.746429 0.159424
0.261658 0.746063 0.157928
0.293549 0.745544 0.156464
0.325623 0.744843 0.154877
0.358032 0.744080 0.153595
0.390533 0.744049 0.151733
0.422791 0.741974 0.150818
0.455017 0.741425 0.149323
0.487976 0.741089 0.148926
0.520966 0.740784 0.149567
0.553436 0.740448 0.150024
0.585541 0.740112 0.150543
0.617310 0.739746 0.151215
0.648773 0.739410 0.151794
0.710815 0.771057 0.153992
0.772644 0.800751 0.156189
0.829010 0.823792 0.158539
0.863037 0.828461 0.161346
0.892059 0.830597 0.163940
0.913147 0.831696 0.166260
