lab/岛屿青雾-f.CUBE
#Created by: Adobe Photoshop Export Color Lookup Plugin
TITLE "多场景样片-v1.0.psd"
#LUT size
LUT_3D_SIZE 4
#data domain
DOMAIN_MIN 0.0 0.0 0.0
DOMAIN_MAX 1.0 1.0 1.0
#LUT data points
0.000000 0.004852 0.000000
0.277832 0.040314 0.000000
0.759094 0.088531 0.000000
1.000000 0.164734 0.028351
0.000000 0.292053 0.054535
0.161469 0.289093 0.000000
0.705322 0.414734 0.000153
1.000000 0.464539 0.083099
0.000000 0.655029 0.175842
0.183746 0.651245 0.135956
0.559174 0.644928 0.125732
0.957733 0.773224 0.157959
0.135864 0.905518 0.307678
0.262756 0.905609 0.227295
0.552429 0.902496 0.207825
0.852112 0.902588 0.209717
0.000000 0.009949 0.267609
0.237518 0.009552 0.257568
0.724365 0.036102 0.227356
1.000000 0.109772 0.213776
0.000000 0.267914 0.272339
0.249664 0.313599 0.316742
0.724060 0.377777 0.331970
1.000000 0.430145 0.347839
0.000000 0.749451 0.392242
0.327240 0.676147 0.424438
0.621399 0.670624 0.366913
0.997955 0.777161 0.386353
0.202454 0.907776 0.523163
0.421692 0.914734 0.518890
0.617737 0.913605 0.456665
0.897522 0.912445 0.445679
0.000000 0.024292 0.574158
0.320618 0.034515 0.586670
0.674011 0.053406 0.569092
0.994080 0.120880 0.554169
0.000000 0.218933 0.605652
0.320801 0.325256 0.591125
0.680237 0.330261 0.587646
1.000000 0.360687 0.573883
0.000000 0.748260 0.638977
0.172913 0.726898 0.623505
0.686401 0.697205 0.605499
1.000000 0.755219 0.609619
0.000000 0.944092 0.625305
0.322205 0.944092 0.625275
0.738953 0.925323 0.638611
0.955963 0.924255 0.620117
0.023865 0.068604 0.717377
0.345215 0.079468 0.723145
0.736725 0.107269 0.797150
0.984955 0.157990 0.710236
0.000000 0.224945 0.738678
0.385437 0.342529 0.757294
0.719238 0.354797 0.791595
0.991364 0.374084 0.745483
0.000000 0.578094 0.952789
0.270630 0.583496 0.868469
0.734558 0.708984 0.809814
0.999420 0.713776 0.800964
0.000000 0.944092 0.996246
0.255493 0.944092 0.972137
0.650574 0.943451 0.916412
1.000000 0.933899 0.860168
