movie/重庆森林.cube
#Created by: Adobe Photoshop Export Color Lookup Plugin
#Copyright: (C) Copyright 2026 汉图
TITLE "mint本征源文件-适配lut筛选-恢复的.psd"
#LUT size
LUT_3D_SIZE 34
#data domain
DOMAIN_MIN 0.0 0.0 0.0
DOMAIN_MAX 1.0 1.0 1.0
#LUT data points
0.074585 0.074585 0.074585
0.082550 0.073853 0.073853
0.090515 0.073120 0.073120
0.098511 0.072418 0.072418
0.106476 0.071686 0.071686
0.114441 0.070953 0.070953
0.122437 0.070251 0.070251
0.130371 0.069519 0.069519
0.148865 0.067841 0.067841
0.180817 0.064941 0.064941
0.215515 0.061798 0.061798
0.251892 0.058502 0.058502
0.290070 0.055054 0.055054
0.331268 0.051331 0.051331
0.373291 0.047516 0.047516
0.417816 0.043488 0.043488
0.463989 0.039307 0.039307
0.511688 0.034973 0.034973
0.559814 0.030609 0.030609
0.607880 0.026276 0.026276
0.654144 0.022064 0.022064
0.699066 0.018005 0.018005
0.742737 0.014221 0.014038
0.783569 0.011108 0.010345
0.822845 0.008392 0.006805
0.862305 0.006165 0.003235
0.900421 0.004608 0.000000
0.936096 0.006866 0.000000
0.971375 0.009491 0.000000
0.996979 0.011200 0.000000
1.000000 0.021027 0.009918
1.000000 0.033691 0.022705
1.000000 0.046570 0.035492
1.000000 0.058929 0.048248
0.073853 0.082550 0.073853
0.082550 0.082550 0.073853
0.090515 0.081848 0.073120
0.098511 0.081116 0.072418
0.106476 0.080383 0.071686
0.114441 0.079681 0.070953
0.122437 0.078979 0.070251
0.130371 0.078217 0.069519
0.170624 0.074615 0.065887
0.208374 0.071198 0.062469
0.239288 0.068390 0.059662
0.272034 0.065430 0.056702
0.306396 0.062286 0.053589
0.342804 0.058990 0.050293
0.381653 0.055511 0.046753
0.423248 0.051727 0.042999
0.466553 0.047729 0.039062
0.511169 0.043762 0.035034
0.558685 0.039490 0.030731
0.606903 0.035156 0.026367
0.652802 0.031433 0.022186
0.698120 0.027740 0.018097
0.741241 0.024475 0.014191
0.781738 0.021820 0.010529
0.821991 0.019409 0.006866
0.860992 0.017761 0.003326
0.899963 0.016693 0.000000
0.935059 0.019623 0.000000
0.970673 0.022736 0.000000
0.996704 0.024811 0.000000
1.000000 0.034058 0.009644
1.000000 0.046295 0.022430
1.000000 0.058746 0.035187
1.000000 0.070984 0.047974
0.073059 0.091461 0.073059
0.081757 0.091492 0.073059
0.090424 0.091797 0.073029
0.098511 0.091949 0.072418
0.106476 0.089935 0.071686
0.114441 0.088989 0.070953
0.122437 0.088226 0.070251
0.130890 0.087677 0.069489
0.172638 0.084106 0.065704
0.215698 0.080505 0.061798
0.261536 0.076813 0.057648
0.295990 0.073456 0.054535
0.329041 0.070282 0.051514
0.364288 0.066711 0.048340
0.401184 0.062988 0.044983
0.440094 0.059174 0.041473
0.480560 0.055634 0.037811
0.522339 0.052155 0.034027
0.564728 0.048706 0.030182
0.608704 0.045105 0.026184
0.652679 0.041779 0.022217
0.697174 0.038422 0.018188
0.740814 0.035339 0.014221
0.781647 0.033112 0.010529
0.821259 0.031372 0.006927
0.860138 0.030182 0.003418
0.898621 0.029846 0.000000
0.934143 0.032837 0.000000
0.970001 0.036469 0.000000
0.996002 0.038910 0.000000
1.000000 0.047455 0.009247
1.000000 0.059601 0.022125
1.000000 0.071625 0.034882
1.000000 0.083466 0.047668
0.071747 0.105927 0.071747
0.080505 0.105286 0.071808
0.089111 0.106110 0.071716
0.097656 0.107880 0.071564
0.106049 0.111145 0.071259
0.114441 0.105377 0.070953
0.122437 0.103638 0.070251
0.130371 0.103180 0.069519
0.172119 0.099701 0.065735
0.216644 0.096039 0.061707
0.262756 0.092743 0.057526
0.310913 0.089478 0.053162
0.348816 0.085876 0.049744
0.383636 0.081635 0.046570
0.419708 0.077484 0.043304
0.456696 0.073425 0.039948
0.496063 0.068939 0.036407
0.536499 0.063995 0.032745
0.577240 0.059296 0.029053
0.619446 0.055389 0.025208
0.660553 0.052368 0.021484
0.701233 0.049866 0.017822
0.741638 0.047180 0.014160
0.780457 0.045593 0.010620
0.820068 0.044159 0.007050
0.858704 0.043823 0.003540
0.898132 0.043427 0.000000
0.933685 0.046967 0.000000
0.969299 0.051117 0.000000
0.995819 0.053497 0.000000
1.000000 0.061462 0.008698
1.000000 0.073090 0.021240
1.000000 0.084778 0.034332
1.000000 0.096619 0.047302
0.069916 0.126007 0.069916
0.078705 0.124939 0.070007
0.087372 0.125519 0.069977
0.095917 0.127106 0.069824
0.104248 0.131012 0.069458
0.112457 0.136536 0.068970
0.121979 0.127289 0.069794
0.130371 0.126099 0.069519
0.169342 0.122559 0.065979
0.215881 0.118591 0.061768
0.262878 0.115021 0.057526
0.310913 0.112244 0.053162
0.362579 0.109375 0.048492
0.402435 0.105133 0.044891
0.436951 0.099823 0.041748
0.473663 0.094299 0.038422
0.511627 0.088867 0.034973
0.550323 0.083679 0.031494
0.589966 0.078400 0.027893
0.629974 0.073212 0.024261
0.669708 0.067719 0.020660
0.708771 0.062866 0.017120
0.747467 0.059845 0.013611
0.784607 0.058655 0.010254
0.821777 0.057831 0.006897
0.858612 0.057831 0.003540
0.897156 0.057892 0.000061
0.932892 0.061737 0.000000
0.968750 0.065979 0.000000
0.995544 0.069031 0.000000
1.000000 0.076355 0.008331
1.000000 0.087555 0.021118
1.000000 0.098785 0.033936
1.000000 0.110016 0.046722
0.067657 0.151031 0.067657
0.076477 0.149719 0.067780
0.085236 0.149048 0.067841
0.093750 0.151123 0.067657
0.102203 0.154053 0.067383
0.110260 0.160614 0.066772
0.118256 0.168396 0.066071
0.128204 0.154297 0.067352
0.160431 0.153137 0.066803
0.210236 0.148102 0.062286
0.260406 0.144226 0.057739
0.310516 0.141144 0.053192
0.362305 0.138397 0.048523
0.415649 0.136383 0.043671
0.454712 0.130524 0.040131
0.489777 0.123413 0.036957
0.526154 0.116638 0.033661
0.564178 0.109222 0.030212
0.602325 0.102936 0.026764
0.641571 0.096283 0.023224
0.679108 0.090637 0.019806
0.716858 0.084961 0.016388
0.754089 0.079620 0.013031
0.789734 0.075104 0.009796
0.824921 0.072510 0.006592
0.861847 0.072662 0.003265
0.898315 0.073700 0.000000
0.932617 0.077423 0.000000
0.967865 0.082001 0.000000
0.995239 0.085052 0.000000
1.000000 0.091888 0.008087
1.000000 0.102600 0.020844
1.000000 0.113403 0.033661
1.000000 0.124420 0.046417
0.065002 0.180420 0.065002
0.073822 0.179016 0.065125
0.082672 0.177307 0.065277
0.091248 0.178497 0.065155
0.099640 0.182129 0.064850
0.107880 0.186798 0.064423
0.115814 0.195526 0.063629
0.123474 0.206787 0.062592
0.147888 0.189575 0.064148
0.198578 0.184937 0.063354
0.252838 0.179138 0.058441
0.307159 0.175690 0.053497
0.361542 0.172882 0.048584
0.416138 0.170868 0.043640
0.470612 0.169861 0.038696
0.505463 0.160614 0.035553
0.540863 0.151398 0.032349
0.577271 0.142426 0.029053
0.614838 0.133820 0.025635
0.652466 0.125610 0.022217
0.690247 0.117493 0.018799
0.726105 0.110962 0.015564
0.762177 0.104218 0.012299
0.797729 0.098602 0.009064
0.831177 0.094666 0.006042
0.864410 0.091553 0.003021
0.900116 0.089447 0.000000
0.933136 0.093872 0.000000
0.967560 0.098511 0.000000
0.994965 0.101776 0.000000
1.000000 0.108063 0.007782
1.000000 0.118347 0.020538
1.000000 0.128937 0.033356
1.000000 0.139282 0.046143
0.062012 0.213257 0.062012
0.070831 0.211975 0.062134
0.079681 0.210358 0.062286
0.088470 0.209229 0.062378
0.096832 0.212830 0.062042
0.105164 0.217072 0.061676
0.113190 0.224335 0.061005
0.120972 0.234436 0.060089
0.153717 0.249573 0.058716
0.188324 0.229218 0.060577
0.239532 0.221222 0.059631
0.296448 0.216095 0.054474
0.355560 0.211914 0.049133
0.413330 0.209839 0.043884
0.470215 0.208862 0.038727
0.521301 0.205872 0.034119
0.555176 0.194305 0.031036
0.590759 0.182434 0.027832
0.627167 0.171051 0.024506
0.663574 0.160461 0.021210
0.699585 0.150421 0.017975
0.735748 0.140900 0.014679
0.770660 0.132751 0.011536
0.806000 0.125183 0.008331
0.840485 0.118774 0.005188
0.871765 0.115051 0.002350
0.904419 0.111938 0.000000
0.934448 0.111786 0.000000
0.967102 0.115448 0.000000
0.994659 0.118988 0.000000
1.000000 0.124786 0.007507
1.000000 0.134827 0.020264
1.000000 0.144745 0.033081
1.000000 0.154846 0.045837
0.058807 0.248810 0.058807
0.067596 0.247589 0.058899
0.076447 0.246124 0.059052
0.085358 0.243988 0.059235
0.093933 0.245117 0.059143
0.102142 0.250214 0.058655
0.110413 0.255005 0.058228
0.118195 0.264740 0.057343
0.128662 0.279205 0.056030
0.195068 0.295563 0.054565
0.230652 0.272369 0.056671
0.282440 0.261841 0.055756
0.343689 0.256287 0.050201
0.406586 0.252502 0.044495
0.466431 0.251190 0.039093
0.524597 0.251404 0.033813
0.569519 0.244293 0.029755
0.603577 0.229340 0.026672
0.638885 0.215027 0.023468
0.673706 0.201843 0.020294
0.708954 0.189056 0.017120
0.744202 0.176331 0.013916
0.778442 0.165802 0.010803
0.813690 0.155609 0.007629
0.848480 0.146454 0.004486
0.881470 0.140076 0.001495
0.910980 0.136780 0.000000
0.940125 0.135406 0.000000
0.969971 0.134979 0.000000
0.994385 0.136932 0.000000
1.000000 0.142212 0.007202
1.000000 0.151581 0.019989
1.000000 0.161224 0.032776
1.000000 0.170685 0.045563
0.055389 0.286499 0.055389
0.064209 0.285217 0.055511
0.072998 0.283905 0.055603
0.081879 0.281616 0.055817
0.090790 0.280151 0.055969
0.099060 0.284302 0.055573
0.107239 0.289948 0.055054
0.115356 0.296387 0.054474
0.122925 0.308655 0.053375
0.166107 0.326324 0.051758
0.237793 0.344177 0.050140
0.274017 0.317810 0.052551
0.328705 0.305298 0.051544
0.392395 0.300232 0.045776
0.457916 0.296143 0.039856
0.518372 0.296112 0.034363
0.578644 0.297882 0.028931
0.615417 0.284363 0.025574
0.650665 0.267059 0.022400
0.684296 0.250366 0.019348
0.718567 0.233307 0.016235
0.752411 0.217316 0.013184
0.785919 0.203522 0.010132
0.820435 0.190308 0.007019
0.854218 0.179169 0.003967
0.889038 0.168427 0.000793
0.919128 0.162476 0.000000
0.946686 0.160156 0.000000
0.974365 0.158417 0.000000
0.995911 0.158051 0.000000
1.000000 0.164734 0.008911
1.000000 0.172333 0.021027
1.000000 0.180267 0.033508
1.000000 0.188416 0.045837
0.051880 0.325165 0.051880
0.060669 0.324097 0.051971
0.069458 0.322632 0.052094
0.078369 0.320587 0.052307
0.087311 0.317932 0.052521
0.095886 0.319366 0.052399
0.104034 0.325104 0.051880
0.112152 0.331299 0.051331
0.120026 0.340546 0.050476
0.141479 0.355743 0.049103
0.208374 0.375183 0.047333
0.282379 0.393005 0.045746
0.318268 0.364502 0.048309
0.375854 0.352203 0.047272
0.442780 0.346619 0.041229
0.509308 0.343201 0.035187
0.570038 0.343781 0.029694
0.625458 0.343414 0.024689
0.660095 0.324768 0.021545
0.694061 0.306793 0.018463
0.727783 0.287415 0.015411
0.760010 0.269806 0.012482
0.793152 0.251709 0.009491
0.827301 0.232849 0.006378
0.860626 0.216003 0.003357
0.894836 0.200989 0.000275
0.925476 0.191589 0.000000
0.953308 0.186188 0.000000
0.980133 0.183289 0.000000
0.998901 0.182159 0.000000
1.000000 0.190369 0.012146
1.000000 0.197510 0.024048
1.000000 0.204498 0.036560
1.000000 0.211792 0.048492
0.048309 0.364716 0.048309
0.057129 0.363312 0.048431
0.065887 0.362579 0.048492
0.074799 0.360291 0.048706
0.083740 0.357452 0.048950
0.092560 0.356201 0.049072
0.100861 0.360657 0.048676
0.108917 0.367188 0.048065
0.117065 0.373566 0.047485
0.124603 0.386200 0.046356
0.180725 0.404388 0.044708
0.253448 0.424683 0.042877
0.326904 0.438416 0.041626
0.363678 0.410553 0.044128
0.425415 0.399994 0.042786
0.493958 0.394592 0.036591
0.560242 0.392151 0.030579
0.622223 0.393280 0.024963
0.667389 0.385803 0.020874
0.701355 0.366241 0.017792
0.734711 0.346100 0.014771
0.768066 0.325653 0.011749
0.800781 0.305786 0.008789
0.833740 0.286346 0.005798
0.866791 0.267517 0.002808
0.900909 0.248108 0.000000
0.930878 0.232483 0.000000
0.961426 0.217133 0.000000
0.985809 0.209381 0.000000
1.000000 0.209259 0.002808
1.000000 0.217499 0.015930
1.000000 0.223816 0.027740
1.000000 0.230072 0.039978
1.000000 0.236694 0.051727
0.044678 0.404510 0.044678
0.053467 0.403442 0.044800
0.062256 0.402222 0.044891
0.071198 0.400391 0.045074
0.080078 0.397949 0.045288
0.089111 0.394409 0.045593
0.097656 0.396088 0.045441
0.105743 0.402435 0.044891
0.113831 0.409241 0.044250
0.121735 0.418060 0.043457
0.158661 0.433929 0.042023
0.223938 0.452911 0.040314
0.302368 0.474792 0.038330
0.371643 0.482391 0.037628
0.409882 0.454620 0.040161
0.475677 0.448456 0.038239
0.544769 0.443726 0.031982
0.610657 0.441650 0.026001
0.670990 0.442627 0.020538
0.707092 0.427185 0.017273
0.740112 0.406799 0.014282
0.772980 0.386017 0.011322
0.806458 0.364868 0.008270
0.839661 0.343445 0.005280
0.872375 0.322845 0.002319
0.904755 0.302612 0.000000
0.936005 0.283813 0.000000
0.966248 0.266083 0.000000
0.997253 0.249542 0.000000
1.000000 0.253571 0.013428
1.000000 0.261566 0.026520
1.000000 0.264465 0.038055
1.000000 0.267212 0.048950
1.000000 0.270203 0.059998
0.041107 0.443909 0.041107
0.049957 0.442871 0.041229
0.058716 0.441650 0.041321
0.067535 0.440216 0.041443
0.076477 0.437592 0.041687
0.085480 0.434204 0.041992
0.094299 0.432739 0.042145
0.102570 0.437347 0.041718
0.110596 0.444580 0.041046
0.118683 0.451355 0.040436
0.136475 0.463379 0.039368
0.199524 0.481323 0.037720
0.270691 0.501373 0.035919
0.354553 0.523987 0.033875
0.417725 0.523987 0.033875
0.455627 0.497772 0.036255
0.526520 0.495728 0.033630
0.594757 0.492676 0.027466
0.659637 0.490143 0.021576
0.712799 0.485931 0.016754
0.744690 0.466705 0.013885
0.776855 0.446625 0.010956
0.809570 0.425598 0.007996
0.843597 0.402954 0.004913
0.877197 0.380554 0.001862
0.909241 0.359375 0.000000
0.939270 0.339142 0.000000
0.970581 0.318695 0.000000
1.000000 0.300934 0.000916
1.000000 0.304230 0.016266
1.000000 0.310425 0.029053
1.000000 0.311279 0.041473
1.000000 0.312134 0.053894
1.000000 0.313538 0.066193
0.037628 0.482391 0.037628
0.046326 0.481964 0.037659
0.055206 0.480835 0.037781
0.063995 0.479248 0.037933
0.072937 0.476624 0.038147
0.081879 0.473633 0.038422
0.090881 0.470154 0.038757
0.099426 0.471832 0.038605
0.107544 0.478302 0.037994
0.115570 0.485474 0.037354
0.127838 0.493286 0.036652
0.177734 0.510010 0.035126
0.244415 0.528015 0.033508
0.320526 0.548340 0.031647
0.407562 0.570312 0.029663
0.463715 0.563263 0.030304
0.502106 0.538544 0.032562
0.576691 0.542206 0.029083
0.643219 0.539825 0.023071
0.704987 0.537140 0.017456
0.748688 0.524872 0.013519
0.780060 0.505066 0.010681
0.812775 0.484741 0.007721
0.845398 0.463867 0.004761
0.879272 0.441345 0.001678
0.912079 0.418396 0.000000
0.942871 0.396393 0.000000
0.973114 0.375122 0.000000
1.000000 0.355286 0.004639
1.000000 0.357056 0.017700
1.000000 0.361084 0.030396
1.000000 0.360748 0.042999
1.000000 0.360352 0.055511
1.000000 0.360138 0.067963
0.034210 0.520081 0.034210
0.042908 0.519714 0.034241
0.051727 0.518616 0.034363
0.060516 0.517212 0.034485
0.069519 0.514771 0.034698
0.078400 0.512146 0.034943
0.087402 0.509186 0.035217
0.096222 0.507568 0.035339
0.104584 0.511749 0.034973
0.112640 0.518768 0.034332
0.124390 0.525665 0.033722
0.158997 0.537537 0.032654
0.221313 0.554718 0.031097
0.292114 0.573456 0.029388
0.374176 0.593658 0.027557
0.462006 0.614563 0.025665
0.509094 0.600555 0.026917
0.552429 0.581299 0.028687
0.626007 0.585785 0.024628
0.688965 0.584106 0.018921
0.746735 0.581726 0.013702
0.783813 0.562134 0.010345
0.814117 0.541595 0.007599
0.846283 0.522034 0.004669
0.879822 0.500977 0.001648
0.912720 0.477966 0.000000
0.944122 0.455231 0.000000
0.975403 0.432678 0.000000
1.000000 0.412170 0.005890
1.000000 0.411255 0.018524
1.000000 0.413239 0.031281
1.000000 0.410614 0.043915
1.000000 0.408905 0.056458
1.000000 0.407471 0.069031
0.030853 0.557098 0.030853
0.039642 0.556519 0.030914
0.048431 0.555664 0.031006
0.057159 0.554077 0.031128
0.066162 0.552155 0.031311
0.075043 0.549469 0.031555
0.083984 0.546509 0.031830
0.093018 0.542847 0.032166
0.101562 0.544647 0.031982
0.109650 0.550720 0.031433
0.120605 0.557678 0.030823
0.141602 0.565613 0.030090
0.201202 0.581635 0.028656
0.267853 0.598389 0.027130
0.343933 0.616791 0.025452
0.430450 0.637146 0.023621
0.516724 0.655853 0.021912
0.553772 0.635651 0.023743
0.601807 0.621765 0.025024
0.672333 0.626495 0.020416
0.732208 0.625397 0.015015
0.786377 0.623199 0.010101
0.817474 0.598114 0.007294
0.848755 0.576874 0.004456
0.878784 0.558014 0.001740
0.910919 0.537292 0.000000
0.942108 0.514984 0.000000
0.973999 0.492706 0.000000
1.000000 0.469208 0.006348
1.000000 0.465210 0.019012
1.000000 0.464355 0.031769
1.000000 0.460846 0.044403
1.000000 0.457581 0.057007
1.000000 0.455109 0.069672
0.027679 0.592438 0.027679
0.036407 0.591644 0.027740
0.045135 0.590973 0.027802
0.053955 0.589874 0.027893
0.062775 0.588287 0.028046
0.071686 0.585785 0.028259
0.080780 0.582886 0.028534
0.089752 0.579651 0.028839
0.098541 0.578094 0.028961
0.106812 0.581757 0.028625
0.117249 0.588837 0.027985
0.138214 0.595551 0.027374
0.184601 0.607941 0.026276
0.247620 0.623108 0.024902
0.318573 0.639954 0.023376
0.398926 0.658356 0.021698
0.488434 0.678040 0.019897
0.561279 0.687225 0.019073
0.597473 0.668488 0.020782
0.648560 0.659607 0.021576
0.716553 0.664429 0.016418
0.773834 0.663605 0.011230
0.818939 0.656433 0.007141
0.850281 0.633423 0.004303
0.882233 0.611267 0.001404
0.909271 0.591614 0.000000
0.939667 0.571472 0.000000
0.970734 0.550293 0.000000
1.000000 0.528381 0.002686
1.000000 0.517761 0.019257
1.000000 0.514099 0.031952
1.000000 0.509521 0.044678
1.000000 0.505157 0.057281
1.000000 0.501404 0.070007
0.024536 0.627014 0.024536
0.033295 0.626038 0.024628
0.042145 0.625458 0.024689
0.050842 0.624451 0.024780
0.059814 0.622559 0.024933
0.068573 0.620972 0.025085
0.077576 0.618195 0.025330
0.086487 0.615021 0.025635
0.095428 0.612030 0.025879
0.104065 0.612762 0.025818
0.114685 0.618652 0.025299
0.135529 0.625092 0.024719
0.169525 0.633759 0.023926
0.229736 0.648285 0.022614
0.297302 0.663757 0.021210
0.373199 0.680237 0.019714
0.457397 0.697845 0.018127
0.545776 0.716309 0.016449
0.604553 0.716705 0.016418
0.639618 0.699524 0.017975
0.694427 0.694916 0.018372
0.758789 0.699219 0.012604
0.813812 0.699463 0.007599
0.850739 0.687286 0.004272
0.881989 0.666351 0.001434
0.912659 0.643280 0.000000
0.937439 0.623199 0.000000
0.967682 0.604095 0.000000
0.998779 0.583771 0.000000
1.000000 0.567841 0.019348
1.000000 0.561859 0.032043
1.000000 0.556213 0.044769
1.000000 0.550598 0.057465
1.000000 0.545502 0.070129
0.021545 0.660156 0.021545
0.030273 0.659851 0.021545
0.039032 0.659271 0.021606
0.047821 0.658295 0.021698
0.056732 0.656769 0.021851
0.065430 0.655060 0.022003
0.074402 0.652618 0.022217
0.083282 0.649963 0.022461
0.092377 0.646912 0.022736
0.101135 0.645111 0.022888
0.111084 0.648376 0.022614
0.132599 0.654388 0.022064
0.156586 0.661560 0.021393
0.214813 0.674011 0.020264
0.279846 0.687988 0.019012
0.352142 0.703064 0.017639
0.432220 0.719177 0.016174
0.518341 0.736267 0.014648
0.601837 0.751892 0.013214
0.647339 0.744781 0.013855
0.680756 0.728821 0.015320
0.738037 0.727448 0.014465
0.799408 0.731659 0.008911
0.851837 0.732635 0.004181
0.881714 0.716248 0.001465
0.911591 0.696167 0.000000
0.940918 0.673523 0.000000
0.968384 0.652527 0.000000
0.995117 0.634827 0.000000
1.000000 0.615723 0.019318
1.000000 0.606995 0.032013
1.000000 0.600250 0.044739
1.000000 0.594086 0.057434
1.000000 0.588196 0.070160
0.018585 0.692841 0.018585
0.027313 0.692596 0.018585
0.036072 0.691864 0.018646
0.044800 0.691223 0.018707
0.053558 0.689972 0.018829
0.062439 0.688385 0.018982
0.071259 0.686462 0.019135
0.080231 0.683990 0.019379
0.089264 0.681335 0.019623
0.098145 0.678040 0.019897
0.107178 0.678772 0.019836
0.128571 0.683899 0.019379
0.149902 0.689972 0.018829
0.203094 0.699890 0.017944
0.266113 0.712952 0.016754
0.334991 0.726288 0.015533
0.411041 0.740814 0.014221
0.493225 0.756226 0.012817
0.579285 0.772034 0.011383
0.656616 0.785309 0.010193
0.689117 0.771729 0.011414
0.721130 0.757111 0.012756
0.780426 0.758423 0.010651
0.838501 0.762238 0.005371
0.881775 0.759064 0.001465
0.910614 0.742981 0.000000
0.938965 0.723022 0.000000
0.968231 0.702545 0.000000
0.999207 0.680359 0.000000
1.000000 0.659729 0.019165
1.000000 0.648773 0.031860
1.000000 0.640564 0.044617
1.000000 0.634308 0.057343
1.000000 0.627686 0.070099
0.015656 0.724884 0.015656
0.024353 0.724792 0.015686
0.033020 0.724426 0.015717
0.041870 0.723633 0.015778
0.050720 0.722717 0.015869
0.059540 0.721191 0.015991
0.068359 0.719238 0.016174
0.077301 0.717102 0.016388
0.086121 0.714630 0.016602
0.095062 0.712097 0.016815
0.103973 0.709961 0.017029
0.125366 0.712921 0.016754
0.146545 0.718353 0.016266
0.194672 0.726624 0.015503
0.254883 0.737946 0.014496
0.321686 0.750092 0.013397
0.394592 0.763458 0.012177
0.473267 0.777008 0.010956
0.555573 0.791199 0.009674
0.637909 0.805481 0.008362
0.698914 0.810394 0.007935
0.729919 0.797699 0.009064
0.760895 0.784119 0.010315
0.821411 0.787811 0.006927
0.875702 0.791443 0.002014
0.909851 0.783020 0.000000
0.937256 0.767242 0.000000
0.965546 0.748901 0.000000
0.995392 0.729279 0.000000
1.000000 0.703491 0.019012
1.000000 0.687500 0.031738
1.000000 0.677826 0.044464
1.000000 0.671082 0.057190
1.000000 0.664398 0.069946
0.012817 0.756287 0.012817
0.021545 0.756104 0.012848
0.030273 0.755646 0.012878
0.039032 0.755127 0.012939
0.047760 0.754272 0.013000
0.056641 0.752960 0.013123
0.065521 0.751373 0.013275
0.074341 0.749573 0.013428
0.083130 0.747345 0.013641
0.092010 0.745087 0.013824
0.101044 0.742371 0.014099
0.122009 0.742462 0.014069
0.143799 0.746613 0.013702
0.188538 0.754181 0.013000
0.246368 0.763397 0.012177
0.311432 0.774567 0.011169
0.381714 0.786316 0.010101
0.457397 0.798615 0.009003
0.537292 0.811646 0.007812
0.617920 0.824615 0.006622
0.693634 0.836945 0.005524
0.740417 0.834961 0.005707
0.770294 0.823120 0.006775
0.804718 0.813385 0.007660
0.860840 0.816040 0.003357
0.907867 0.816986 0.000000
0.935669 0.805237 0.000000
0.963043 0.790710 0.000000
0.991333 0.773499 0.000000
1.000000 0.747040 0.018799
1.000000 0.727386 0.031494
1.000000 0.712067 0.044250
1.000000 0.704865 0.057007
1.000000 0.697937 0.069733
0.010071 0.786530 0.010071
0.018829 0.786316 0.010101
0.027527 0.786255 0.010101
0.036285 0.785767 0.010162
0.045044 0.784821 0.010254
0.053772 0.783752 0.010345
0.062653 0.782562 0.010437
0.071533 0.781006 0.010590
0.080353 0.779144 0.010742
0.089111 0.777130 0.010925
0.098022 0.774689 0.011169
0.118958 0.772766 0.011322
0.140533 0.774811 0.011139
0.185577 0.781342 0.010559
0.240662 0.789185 0.009857
0.304016 0.799438 0.008911
0.372070 0.809784 0.007965
0.445557 0.820953 0.006958
0.522858 0.832733 0.005890
0.601227 0.844604 0.004822
0.679626 0.856873 0.003723
0.748688 0.867310 0.002777
0.781219 0.858917 0.003540
0.809906 0.847778 0.004547
0.847229 0.841278 0.004578
0.898376 0.842896 0.000000
0.933044 0.837372 0.000000
0.960724 0.826782 0.000000
0.987976 0.813354 0.000000
1.000000 0.787903 0.016113
1.000000 0.767029 0.031250
1.000000 0.748627 0.044037
1.000000 0.735870 0.056763
1.000000 0.728760 0.069519
0.007385 0.816345 0.007385
0.016083 0.816254 0.007385
0.024780 0.815857 0.007416
0.033478 0.815552 0.007446
0.042389 0.815033 0.007507
0.051117 0.814087 0.007599
0.059784 0.813080 0.007690
0.068634 0.811523 0.007812
0.077484 0.810303 0.007935
0.086243 0.808441 0.008087
0.095215 0.806671 0.008270
0.115723 0.804230 0.008484
0.137024 0.803711 0.008514
0.183258 0.808990 0.008057
0.238251 0.815430 0.007477
0.299805 0.824615 0.006622
0.366913 0.834015 0.005768
0.438507 0.844269 0.004852
0.512970 0.854645 0.003906
0.589386 0.865448 0.002930
0.665497 0.876740 0.001923
0.738464 0.887604 0.000916
0.793976 0.892395 0.000488
0.821411 0.882507 0.001404
0.848511 0.872070 0.002350
0.887238 0.867554 0.000977
0.930542 0.866241 0.000000
0.957794 0.857483 0.000000
0.985046 0.847717 0.000000
1.000000 0.827271 0.011902
1.000000 0.803162 0.030975
1.000000 0.784973 0.043732
1.000000 0.768982 0.056519
1.000000 0.757538 0.069244
0.004730 0.845551 0.004730
0.013367 0.845520 0.004730
0.022217 0.845367 0.004761
0.030853 0.845062 0.004791
0.039673 0.844696 0.004822
0.048309 0.844025 0.004883
0.057129 0.843109 0.004944
0.065948 0.841797 0.005066
0.074738 0.840546 0.005188
0.083496 0.839020 0.005341
0.092407 0.837616 0.005463
0.112427 0.835510 0.005646
0.133942 0.833466 0.005829
0.184357 0.836945 0.005524
0.238556 0.842804 0.004974
0.299316 0.850586 0.004272
0.365143 0.859253 0.003510
0.435059 0.868286 0.002686
0.507996 0.877716 0.001831
0.582367 0.887604 0.000916
0.655853 0.897247 0.000061
0.728180 0.906830 0.000000
0.792603 0.915009 0.000000
0.833282 0.913574 0.000000
0.859772 0.905060 0.000000
0.886169 0.895996 0.000183
0.922424 0.890686 0.000000
0.955597 0.885620 0.000000
0.981689 0.876953 0.000000
1.000000 0.861969 0.008148
