movie/重庆森林.cube
#Created by: Adobe Photoshop Export Color Lookup Plugin
#Copyright: (C) Copyright 2026 汉图
TITLE "mint本征源文件-适配lut筛选-恢复的.psd"
#LUT size
LUT_3D_SIZE 4
#data domain
DOMAIN_MIN 0.0 0.0 0.0
DOMAIN_MAX 1.0 1.0 1.0
#LUT data points
0.074585 0.074585 0.074585
0.251892 0.058502 0.058502
0.742737 0.014221 0.014038
1.000000 0.058929 0.048248
0.048309 0.364716 0.048309
0.253448 0.424683 0.042877
0.800781 0.305786 0.008789
1.000000 0.236694 0.051727
0.012817 0.756287 0.012817
0.122009 0.742462 0.014069
0.770294 0.823120 0.006775
1.000000 0.697937 0.069733
0.055237 1.000000 0.055237
0.310944 1.000000 0.058899
0.770447 1.000000 0.074585
1.000000 0.981781 0.066772
0.058624 0.058624 0.250854
0.322510 0.068939 0.285187
0.856873 0.007629 0.247101
1.000000 0.084290 0.154266
0.041656 0.437927 0.137238
0.203186 0.435852 0.128815
0.774506 0.333771 0.098145
1.000000 0.258423 0.153656
0.009186 0.796478 0.104919
0.133911 0.771454 0.098419
0.753693 0.826141 0.093475
1.000000 0.723755 0.154327
0.059021 1.000000 0.145172
0.244385 1.000000 0.147614
0.754425 1.000000 0.160339
1.000000 0.976471 0.154327
0.095428 0.014343 0.739624
0.390900 0.008911 0.799530
0.849152 0.151703 0.808624
1.000000 0.331909 0.779327
0.074341 0.397980 0.742493
0.288544 0.327271 0.720734
0.767059 0.506531 0.744354
1.000000 0.515167 0.739014
0.005402 0.838379 0.589050
0.224396 0.818787 0.589081
0.684723 0.792786 0.631897
1.000000 0.741882 0.486023
0.062866 1.000000 0.436035
0.204559 1.000000 0.430817
0.636688 1.000000 0.452698
1.000000 0.989685 0.437378
0.273193 0.017181 1.000000
0.391754 0.000000 0.959717
0.840637 0.249664 1.000000
1.000000 0.478302 0.973877
0.251831 0.349182 1.000000
0.450531 0.295593 1.000000
0.767700 0.448730 1.000000
1.000000 0.682617 0.977234
0.241333 0.772186 1.000000
0.420929 0.757965 1.000000
0.692719 0.731232 0.995514
1.000000 0.859680 0.987335
0.178162 1.000000 0.926361
0.368408 1.000000 0.922424
0.680176 1.000000 0.958069
1.000000 1.000000 1.000000
