movie/重庆森林.cube
#Created by: Adobe Photoshop Export Color Lookup Plugin
#Copyright: (C) Copyright 2026 汉图
TITLE "mint本征源文件-适配lut筛选-恢复的.psd"
#LUT size
LUT_3D_SIZE 7
#data domain
#LUT data points
DOMAIN_MIN 0.000000 0.000000 0.000000
DOMAIN_MAX 0.909091 0.909091 0.909091
0.074585 0.074585 0.074585
0.114441 0.070953 0.070953
0.215515 0.061798 0.061798
0.417816 0.043488 0.043488
0.654144 0.022064 0.022064
0.862305 0.006165 0.003235
1.000000 0.021027 0.009918
0.067657 0.151031 0.067657
0.110260 0.160614 0.066772
0.260406 0.144226 0.057739
0.489777 0.123413 0.036957
0.679108 0.090637 0.019806
0.861847 0.072662 0.003265
1.000000 0.091888 0.008087
0.051880 0.325165 0.051880
0.095886 0.319366 0.052399
0.208374 0.375183 0.047333
0.509308 0.343201 0.035187
0.727783 0.287415 0.015411
0.894836 0.200989 0.000275
1.000000 0.190369 0.012146
0.034210 0.520081 0.034210
0.078400 0.512146 0.034943
0.124390 0.525665 0.033722
0.462006 0.614563 0.025665
0.746735 0.581726 0.013702
0.912720 0.477966 0.000000
1.000000 0.413239 0.031281
0.018585 0.692841 0.018585
0.062439 0.688385 0.018982
0.107178 0.678772 0.019836
0.334991 0.726288 0.015533
0.689117 0.771729 0.011414
0.910614 0.742981 0.000000
1.000000 0.648773 0.031860
0.004730 0.845551 0.004730
0.048309 0.844025 0.004883
0.092407 0.837616 0.005463
0.299316 0.850586 0.004272
0.655853 0.897247 0.000061
0.886169 0.895996 0.000183
1.000000 0.836487 0.030701
0.000000 0.980835 0.000000
0.042847 0.980530 0.000000
0.122040 0.980072 0.000000
0.367828 0.981476 0.000000
0.668732 1.000000 0.003723
0.902344 1.000000 0.026642
1.000000 0.973969 0.021973
0.070953 0.070953 0.114441
0.114441 0.070953 0.114441
0.248260 0.058838 0.102295
0.454895 0.040131 0.083557
0.664978 0.021088 0.064636
0.871765 0.005219 0.045624
1.000000 0.025330 0.055542
0.065918 0.170227 0.109375
0.105682 0.167755 0.105682
0.221375 0.144287 0.100830
0.473541 0.116516 0.077972
0.672150 0.082703 0.059998
0.863068 0.068726 0.042694
1.000000 0.090607 0.048553
0.048889 0.358185 0.092377
0.089783 0.343109 0.089783
0.149048 0.364838 0.087830
0.493530 0.354858 0.076172
0.721588 0.298950 0.055511
0.888000 0.204956 0.040436
1.000000 0.187164 0.051453
0.032135 0.543213 0.075562
0.072754 0.531311 0.072754
0.129242 0.530365 0.072815
0.433411 0.608826 0.065735
0.736755 0.587433 0.054138
0.910065 0.495514 0.038422
1.000000 0.410492 0.071320
0.017395 0.705750 0.060913
0.057678 0.697571 0.057678
0.112152 0.683380 0.058960
0.312042 0.720367 0.055603
0.685181 0.773376 0.050812
0.909943 0.746552 0.038452
1.000000 0.659943 0.072021
0.004272 0.850739 0.047668
0.044281 0.845459 0.044281
0.093750 0.838806 0.044891
0.280823 0.844025 0.044403
0.640839 0.891510 0.040100
0.883240 0.894287 0.039856
1.000000 0.836670 0.070801
0.000000 0.982788 0.042694
0.031464 0.986908 0.031464
0.100983 0.985596 0.031586
0.353394 0.986206 0.031525
0.660187 1.000000 0.038727
0.902008 1.000000 0.062103
1.000000 0.972046 0.061432
0.063171 0.063171 0.200348
0.107300 0.063843 0.193237
0.275818 0.067810 0.227325
0.498688 0.068848 0.243774
0.762329 0.014893 0.204681
0.957550 0.001770 0.080872
1.000000 0.046509 0.114716
0.063965 0.172241 0.191681
0.104095 0.169464 0.185272
0.227875 0.163391 0.192566
0.471466 0.166626 0.181885
0.715179 0.081970 0.140564
0.939697 0.068268 0.075928
1.000000 0.107422 0.106995
0.046143 0.388519 0.133087
0.085846 0.386780 0.129333
0.165283 0.386932 0.125366
0.445190 0.352081 0.120087
0.700226 0.305817 0.096985
0.881592 0.220551 0.080536
1.000000 0.196777 0.100861
0.027252 0.597137 0.114197
0.067444 0.589905 0.110931
0.138519 0.564545 0.109283
0.364075 0.602936 0.105804
0.716370 0.594971 0.095520
0.896698 0.515076 0.079193
1.000000 0.432678 0.112732
0.014374 0.739014 0.101410
0.054657 0.731079 0.098083
0.118378 0.713623 0.095764
0.276245 0.716644 0.095490
0.673340 0.778809 0.089874
0.904205 0.754211 0.078491
1.000000 0.674408 0.112701
0.002960 0.865112 0.089905
0.042999 0.859711 0.086456
0.100128 0.848938 0.083496
0.250275 0.839355 0.084381
0.601562 0.882568 0.080475
0.874878 0.893982 0.079437
1.000000 0.839386 0.110901
0.000000 0.987640 0.085358
0.030975 0.992371 0.074402
0.084503 0.985840 0.071106
0.318542 0.985687 0.071136
0.630066 1.000000 0.071564
0.894287 1.000000 0.096100
1.000000 0.972107 0.100006
0.040100 0.040100 0.455017
0.118896 0.045685 0.393555
0.318115 0.033081 0.537415
0.526642 0.080353 0.515533
0.769165 0.096130 0.548981
1.000000 0.013855 0.519440
1.000000 0.081451 0.488037
0.040527 0.147644 0.450592
0.116974 0.142700 0.441071
0.236267 0.104889 0.459625
0.486450 0.219208 0.478149
0.734650 0.207458 0.499115
0.969849 0.087921 0.449219
1.000000 0.149506 0.466980
0.042236 0.400055 0.431732
0.110504 0.393250 0.423523
0.209869 0.345581 0.417297
0.431732 0.400818 0.418671
0.682220 0.348236 0.404175
0.894318 0.214813 0.359314
1.000000 0.200195 0.310516
0.025055 0.621307 0.253754
0.064758 0.619507 0.247314
0.166412 0.610229 0.264465
0.365570 0.602539 0.304260
0.680847 0.586060 0.215881
0.881165 0.518646 0.182373
1.000000 0.458313 0.203339
0.010773 0.778809 0.223785
0.050690 0.774719 0.218079
0.132690 0.762115 0.209076
0.290192 0.736542 0.205078
0.642273 0.777374 0.208069
0.888763 0.758392 0.188873
1.000000 0.682220 0.207764
0.000549 0.891907 0.215759
0.040527 0.886963 0.210388
0.112579 0.872803 0.201111
0.232788 0.851959 0.192535
0.530090 0.864532 0.197632
0.854218 0.887482 0.192566
1.000000 0.845093 0.210785
0.000000 0.997345 0.215485
0.033264 1.000000 0.206512
0.093903 0.994019 0.196747
0.254730 0.981689 0.191223
0.557861 0.984161 0.192963
0.872009 1.000000 0.200745
1.000000 0.973572 0.203644
0.069855 0.021210 0.663849
0.149536 0.027832 0.590515
0.325470 0.017365 0.706207
0.587616 0.068237 0.764160
0.756470 0.124878 0.735504
1.000000 0.152008 0.762115
1.000000 0.240936 0.729797
0.060974 0.121765 0.672729
0.163666 0.116272 0.666107
0.277313 0.072388 0.669403
0.525909 0.167297 0.736633
0.723511 0.273560 0.708466
0.974976 0.266266 0.733612
1.000000 0.329071 0.706787
0.053131 0.358582 0.665802
0.151550 0.353882 0.655029
0.249725 0.299133 0.645813
0.431427 0.291962 0.682678
0.679199 0.451019 0.668945
0.928101 0.390930 0.682983
1.000000 0.410339 0.665863
0.044647 0.627716 0.647888
0.143311 0.619049 0.637512
0.240906 0.592957 0.628540
0.381958 0.554688 0.631409
0.632507 0.614471 0.620331
0.859863 0.540161 0.598938
1.000000 0.474792 0.589813
0.010284 0.784393 0.492981
0.085571 0.778717 0.484100
0.187408 0.769257 0.488983
0.329224 0.761627 0.528961
0.604919 0.751892 0.539856
0.869476 0.744110 0.365570
1.000000 0.682800 0.364380
0.000000 0.915405 0.369202
0.046692 0.912659 0.362549
0.146790 0.901123 0.351013
0.267334 0.885834 0.342987
0.507996 0.863678 0.348511
0.833435 0.883087 0.344910
1.000000 0.848694 0.355164
0.012787 1.000000 0.371185
0.048889 1.000000 0.365845
0.123993 1.000000 0.354340
0.213043 0.993805 0.338074
0.472107 0.978210 0.338776
0.820404 0.994568 0.333405
1.000000 0.976990 0.336670
0.141052 0.005157 0.840973
0.211609 0.009613 0.791687
0.317719 0.009674 0.790955
0.621613 0.003662 0.941132
0.831238 0.139465 0.921997
0.987823 0.190338 0.898651
1.000000 0.412476 0.865326
0.131134 0.095490 0.851837
0.236267 0.095581 0.850800
0.353119 0.047729 0.857361
0.544983 0.085571 0.906921
0.790344 0.295624 0.896912
0.957733 0.338715 0.878998
1.000000 0.524841 0.864380
0.119110 0.324860 0.846222
0.215851 0.320557 0.836517
0.314789 0.263245 0.830719
0.449951 0.212372 0.846741
0.733368 0.420715 0.873230
0.917511 0.502960 0.852753
1.000000 0.592957 0.852631
0.110931 0.577209 0.841583
0.207733 0.571289 0.831848
0.302032 0.539520 0.821930
0.421234 0.499573 0.819275
0.656189 0.545227 0.840759
0.878326 0.645050 0.825928
1.000000 0.653778 0.831696
0.101074 0.785767 0.831421
0.198151 0.777832 0.821838
0.293182 0.766632 0.812256
0.396606 0.726624 0.807983
0.592651 0.712677 0.804535
0.844849 0.753845 0.799316
1.000000 0.710876 0.788605
0.029968 0.908752 0.721252
0.128296 0.900757 0.710846
0.225220 0.892609 0.700195
0.346405 0.881409 0.730682
0.545441 0.874969 0.751465
0.810822 0.859009 0.749329
1.000000 0.840210 0.662445
0.023041 1.000000 0.503876
0.108612 1.000000 0.496429
0.195953 1.000000 0.487457
0.284698 1.000000 0.481873
0.448303 0.992676 0.478882
0.729980 0.971069 0.572235
1.000000 0.984802 0.476715
0.235840 0.000000 0.968964
0.336182 0.000000 0.969055
0.361542 0.000000 0.914673
0.614960 0.015503 1.000000
0.807587 0.146088 1.000000
0.995697 0.295868 1.000000
1.000000 0.412201 0.954651
0.238190 0.073090 0.995667
0.337952 0.074890 0.995026
0.423462 0.037872 0.970734
0.582184 0.056030 1.000000
0.771790 0.231873 1.000000
0.983002 0.422821 0.992889
1.000000 0.513580 0.954651
0.213226 0.287048 0.980743
0.307281 0.284210 0.973846
0.408356 0.237793 0.976288
0.522675 0.157074 0.985809
0.718170 0.317566 0.997284
0.962677 0.551025 0.981262
1.000000 0.614807 0.954865
0.205078 0.539581 0.979614
0.297516 0.535004 0.970734
0.386139 0.495605 0.960938
0.490631 0.454254 0.957611
0.644043 0.434723 0.974274
0.928955 0.636414 0.973175
1.000000 0.705078 0.955078
0.197510 0.736023 0.977753
0.290558 0.728943 0.968933
0.380188 0.720154 0.959930
0.474670 0.680115 0.951965
0.617859 0.670868 0.948273
0.868927 0.717072 0.961365
0.995209 0.790863 0.951660
0.187256 0.900482 0.972992
0.280731 0.893188 0.964081
0.371307 0.885498 0.955353
0.457275 0.854797 0.946075
0.592194 0.841156 0.944702
0.791840 0.828979 0.932343
0.987610 0.874756 0.935730
0.105865 1.000000 0.894135
0.194489 1.000000 0.890656
0.288513 0.992432 0.881256
0.398438 0.979523 0.892975
0.555573 0.976227 0.907623
0.771637 0.967712 0.908875
0.985138 0.958984 0.902069
