movie/霸王别姬-红.cube
#Created by: Adobe Photoshop Export Color Lookup Plugin
#Copyright: (C) Copyright 2026 汉图
TITLE "mint本征源文件-适配lut筛选-恢复的.psd"
#LUT size
LUT_3D_SIZE 4
#data domain
DOMAIN_MIN 0.0 0.0 0.0
DOMAIN_MAX 1.0 1.0 1.0
#LUT data points
0.000000 0.000000 0.000000
0.516357 0.000000 0.000000
0.812592 0.000000 0.000000
1.000000 0.000000 0.000000
0.000000 0.297363 0.000000
0.516357 0.297363 0.000000
0.812592 0.297363 0.000000
1.000000 0.297363 0.000000
0.000000 0.657471 0.000000
0.516357 0.657471 0.000000
0.812592 0.657471 0.000000
1.000000 0.657471 0.000000
0.000000 1.000000 0.000000
0.516357 1.000000 0.000000
0.812592 1.000000 0.000000
1.000000 1.000000 0.000000
0.000000 0.000000 0.391968
0.516357 0.000000 0.391968
0.812592 0.000000 0.391968
1.000000 0.000000 0.391968
0.000000 0.297363 0.391968
0.516357 0.297363 0.391968
0.812592 0.297363 0.391968
1.000000 0.297363 0.391968
0.000000 0.657471 0.391968
0.516357 0.657471 0.391968
0.812592 0.657471 0.391968
1.000000 0.657471 0.391968
0.000000 1.000000 0.391968
0.516357 1.000000 0.391968
0.812592 1.000000 0.391968
1.000000 1.000000 0.391968
0.000000 0.000000 0.730804
0.516357 0.000000 0.730804
0.812592 0.000000 0.730804
1.000000 0.000000 0.730804
0.000000 0.297363 0.730804
0.516357 0.297363 0.730804
0.812592 0.297363 0.730804
1.000000 0.297363 0.730804
0.000000 0.657471 0.730804
0.516357 0.657471 0.730804
0.812592 0.657471 0.730804
1.000000 0.657471 0.730804
0.000000 1.000000 0.730804
0.516357 1.000000 0.730804
0.812592 1.000000 0.730804
1.000000 1.000000 0.730804
0.000000 0.000000 1.000000
0.516357 0.000000 1.000000
0.812592 0.000000 1.000000
1.000000 0.000000 1.000000
0.000000 0.297363 1.000000
0.516357 0.297363 1.000000
0.812592 0.297363 1.000000
1.000000 0.297363 1.000000
0.000000 0.657471 1.000000
0.516357 0.657471 1.000000
0.812592 0.657471 1.000000
1.000000 0.657471 1.000000
0.000000 1.000000 1.000000
0.516357 1.000000 1.000000
0.812592 1.000000 1.000000
1.000000 1.000000 1.000000
