movie/霸王别姬-红.cube
#Created by: Adobe Photoshop Export Color Lookup Plugin
#Copyright: (C) Copyright 2026 汉图
TITLE "mint本征源文件-适配lut筛选-恢复的.psd"
#LUT size
LUT_3D_SIZE 34
#data domain
DOMAIN_MIN 0.0 0.0 0.0
DOMAIN_MAX 1.0 1.0 1.0
#LUT data points
0.000000 0.000000 0.000000
0.071320 0.000000 0.000000
0.150146 0.000000 0.000000
0.218964 0.000000 0.000000
0.271423 0.000000 0.000000
0.313995 0.000000 0.000000
0.353241 0.000000 0.000000
0.389771 0.000000 0.000000
0.424011 0.000000 0.000000
0.456360 0.000000 0.000000
0.487000 0.000000 0.000000
0.516357 0.000000 0.000000
0.545441 0.000000 0.000000
0.574310 0.000000 0.000000
0.602905 0.000000 0.000000
0.631165 0.000000 0.000000
0.658966 0.000000 0.000000
0.686249 0.000000 0.000000
0.712952 0.000000 0.000000
0.738983 0.000000 0.000000
0.764374 0.000000 0.000000
0.788910 0.000000 0.000000
0.812592 0.000000 0.000000
0.835388 0.000000 0.000000
0.857147 0.000000 0.000000
0.877899 0.000000 0.000000
0.897583 0.000000 0.000000
0.916046 0.000000 0.000000
0.933319 0.000000 0.000000
0.949371 0.000000 0.000000
0.964081 0.000000 0.000000
0.977478 0.000000 0.000000
0.989471 0.000000 0.000000
1.000000 0.000000 0.000000
0.000000 0.015533 0.000000
0.071320 0.015533 0.000000
0.150146 0.015533 0.000000
0.218964 0.015533 0.000000
0.271423 0.015533 0.000000
0.313995 0.015533 0.000000
0.353241 0.015533 0.000000
0.389771 0.015533 0.000000
0.424011 0.015533 0.000000
0.456360 0.015533 0.000000
0.487000 0.015533 0.000000
0.516357 0.015533 0.000000
0.545441 0.015533 0.000000
0.574310 0.015533 0.000000
0.602905 0.015533 0.000000
0.631165 0.015533 0.000000
0.658966 0.015533 0.000000
0.686249 0.015533 0.000000
0.712952 0.015533 0.000000
0.738983 0.015533 0.000000
0.764374 0.015533 0.000000
0.788910 0.015533 0.000000
0.812592 0.015533 0.000000
0.835388 0.015533 0.000000
0.857147 0.015533 0.000000
0.877899 0.015533 0.000000
0.897583 0.015533 0.000000
0.916046 0.015533 0.000000
0.933319 0.015533 0.000000
0.949371 0.015533 0.000000
0.964081 0.015533 0.000000
0.977478 0.015533 0.000000
0.989471 0.015533 0.000000
1.000000 0.015533 0.000000
0.000000 0.037018 0.000000
0.071320 0.037018 0.000000
0.150146 0.037018 0.000000
0.218964 0.037018 0.000000
0.271423 0.037018 0.000000
0.313995 0.037018 0.000000
0.353241 0.037018 0.000000
0.389771 0.037018 0.000000
0.424011 0.037018 0.000000
0.456360 0.037018 0.000000
0.487000 0.037018 0.000000
0.516357 0.037018 0.000000
0.545441 0.037018 0.000000
0.574310 0.037018 0.000000
0.602905 0.037018 0.000000
0.631165 0.037018 0.000000
0.658966 0.037018 0.000000
0.686249 0.037018 0.000000
0.712952 0.037018 0.000000
0.738983 0.037018 0.000000
0.764374 0.037018 0.000000
0.788910 0.037018 0.000000
0.812592 0.037018 0.000000
0.835388 0.037018 0.000000
0.857147 0.037018 0.000000
0.877899 0.037018 0.000000
0.897583 0.037018 0.000000
0.916046 0.037018 0.000000
0.933319 0.037018 0.000000
0.949371 0.037018 0.000000
0.964081 0.037018 0.000000
0.977478 0.037018 0.000000
0.989471 0.037018 0.000000
1.000000 0.037018 0.000000
0.000000 0.061279 0.000000
0.071320 0.061279 0.000000
0.150146 0.061279 0.000000
0.218964 0.061279 0.000000
0.271423 0.061279 0.000000
0.313995 0.061279 0.000000
0.353241 0.061279 0.000000
0.389771 0.061279 0.000000
0.424011 0.061279 0.000000
0.456360 0.061279 0.000000
0.487000 0.061279 0.000000
0.516357 0.061279 0.000000
0.545441 0.061279 0.000000
0.574310 0.061279 0.000000
0.602905 0.061279 0.000000
0.631165 0.061279 0.000000
0.658966 0.061279 0.000000
0.686249 0.061279 0.000000
0.712952 0.061279 0.000000
0.738983 0.061279 0.000000
0.764374 0.061279 0.000000
0.788910 0.061279 0.000000
0.812592 0.061279 0.000000
0.835388 0.061279 0.000000
0.857147 0.061279 0.000000
0.877899 0.061279 0.000000
0.897583 0.061279 0.000000
0.916046 0.061279 0.000000
0.933319 0.061279 0.000000
0.949371 0.061279 0.000000
0.964081 0.061279 0.000000
0.977478 0.061279 0.000000
0.989471 0.061279 0.000000
1.000000 0.061279 0.000000
0.000000 0.087494 0.000000
0.071320 0.087494 0.000000
0.150146 0.087494 0.000000
0.218964 0.087494 0.000000
0.271423 0.087494 0.000000
0.313995 0.087494 0.000000
0.353241 0.087494 0.000000
0.389771 0.087494 0.000000
0.424011 0.087494 0.000000
0.456360 0.087494 0.000000
0.487000 0.087494 0.000000
0.516357 0.087494 0.000000
0.545441 0.087494 0.000000
0.574310 0.087494 0.000000
0.602905 0.087494 0.000000
0.631165 0.087494 0.000000
0.658966 0.087494 0.000000
0.686249 0.087494 0.000000
0.712952 0.087494 0.000000
0.738983 0.087494 0.000000
0.764374 0.087494 0.000000
0.788910 0.087494 0.000000
0.812592 0.087494 0.000000
0.835388 0.087494 0.000000
0.857147 0.087494 0.000000
0.877899 0.087494 0.000000
0.897583 0.087494 0.000000
0.916046 0.087494 0.000000
0.933319 0.087494 0.000000
0.949371 0.087494 0.000000
0.964081 0.087494 0.000000
0.977478 0.087494 0.000000
0.989471 0.087494 0.000000
1.000000 0.087494 0.000000
0.000000 0.115112 0.000000
0.071320 0.115112 0.000000
0.150146 0.115112 0.000000
0.218964 0.115112 0.000000
0.271423 0.115112 0.000000
0.313995 0.115112 0.000000
0.353241 0.115112 0.000000
0.389771 0.115112 0.000000
0.424011 0.115112 0.000000
0.456360 0.115112 0.000000
0.487000 0.115112 0.000000
0.516357 0.115112 0.000000
0.545441 0.115112 0.000000
0.574310 0.115112 0.000000
0.602905 0.115112 0.000000
0.631165 0.115112 0.000000
0.658966 0.115112 0.000000
0.686249 0.115112 0.000000
0.712952 0.115112 0.000000
0.738983 0.115112 0.000000
0.764374 0.115112 0.000000
0.788910 0.115112 0.000000
0.812592 0.115112 0.000000
0.835388 0.115112 0.000000
0.857147 0.115112 0.000000
0.877899 0.115112 0.000000
0.897583 0.115112 0.000000
0.916046 0.115112 0.000000
0.933319 0.115112 0.000000
0.949371 0.115112 0.000000
0.964081 0.115112 0.000000
0.977478 0.115112 0.000000
0.989471 0.115112 0.000000
1.000000 0.115112 0.000000
0.000000 0.143890 0.000000
0.071320 0.143890 0.000000
0.150146 0.143890 0.000000
0.218964 0.143890 0.000000
0.271423 0.143890 0.000000
0.313995 0.143890 0.000000
0.353241 0.143890 0.000000
0.389771 0.143890 0.000000
0.424011 0.143890 0.000000
0.456360 0.143890 0.000000
0.487000 0.143890 0.000000
0.516357 0.143890 0.000000
0.545441 0.143890 0.000000
0.574310 0.143890 0.000000
0.602905 0.143890 0.000000
0.631165 0.143890 0.000000
0.658966 0.143890 0.000000
0.686249 0.143890 0.000000
0.712952 0.143890 0.000000
0.738983 0.143890 0.000000
0.764374 0.143890 0.000000
0.788910 0.143890 0.000000
0.812592 0.143890 0.000000
0.835388 0.143890 0.000000
0.857147 0.143890 0.000000
0.877899 0.143890 0.000000
0.897583 0.143890 0.000000
0.916046 0.143890 0.000000
0.933319 0.143890 0.000000
0.949371 0.143890 0.000000
0.964081 0.143890 0.000000
0.977478 0.143890 0.000000
0.989471 0.143890 0.000000
1.000000 0.143890 0.000000
0.000000 0.173492 0.000000
0.071320 0.173492 0.000000
0.150146 0.173492 0.000000
0.218964 0.173492 0.000000
0.271423 0.173492 0.000000
0.313995 0.173492 0.000000
0.353241 0.173492 0.000000
0.389771 0.173492 0.000000
0.424011 0.173492 0.000000
0.456360 0.173492 0.000000
0.487000 0.173492 0.000000
0.516357 0.173492 0.000000
0.545441 0.173492 0.000000
0.574310 0.173492 0.000000
0.602905 0.173492 0.000000
0.631165 0.173492 0.000000
0.658966 0.173492 0.000000
0.686249 0.173492 0.000000
0.712952 0.173492 0.000000
0.738983 0.173492 0.000000
0.764374 0.173492 0.000000
0.788910 0.173492 0.000000
0.812592 0.173492 0.000000
0.835388 0.173492 0.000000
0.857147 0.173492 0.000000
0.877899 0.173492 0.000000
0.897583 0.173492 0.000000
0.916046 0.173492 0.000000
0.933319 0.173492 0.000000
0.949371 0.173492 0.000000
0.964081 0.173492 0.000000
0.977478 0.173492 0.000000
0.989471 0.173492 0.000000
1.000000 0.173492 0.000000
0.000000 0.203766 0.000000
0.071320 0.203766 0.000000
0.150146 0.203766 0.000000
0.218964 0.203766 0.000000
0.271423 0.203766 0.000000
0.313995 0.203766 0.000000
0.353241 0.203766 0.000000
0.389771 0.203766 0.000000
0.424011 0.203766 0.000000
0.456360 0.203766 0.000000
0.487000 0.203766 0.000000
0.516357 0.203766 0.000000
0.545441 0.203766 0.000000
0.574310 0.203766 0.000000
0.602905 0.203766 0.000000
0.631165 0.203766 0.000000
0.658966 0.203766 0.000000
0.686249 0.203766 0.000000
0.712952 0.203766 0.000000
0.738983 0.203766 0.000000
0.764374 0.203766 0.000000
0.788910 0.203766 0.000000
0.812592 0.203766 0.000000
0.835388 0.203766 0.000000
0.857147 0.203766 0.000000
0.877899 0.203766 0.000000
0.897583 0.203766 0.000000
0.916046 0.203766 0.000000
0.933319 0.203766 0.000000
0.949371 0.203766 0.000000
0.964081 0.203766 0.000000
0.977478 0.203766 0.000000
0.989471 0.203766 0.000000
1.000000 0.203766 0.000000
0.000000 0.234619 0.000000
0.071320 0.234619 0.000000
0.150146 0.234619 0.000000
0.218964 0.234619 0.000000
0.271423 0.234619 0.000000
0.313995 0.234619 0.000000
0.353241 0.234619 0.000000
0.389771 0.234619 0.000000
0.424011 0.234619 0.000000
0.456360 0.234619 0.000000
0.487000 0.234619 0.000000
0.516357 0.234619 0.000000
0.545441 0.234619 0.000000
0.574310 0.234619 0.000000
0.602905 0.234619 0.000000
0.631165 0.234619 0.000000
0.658966 0.234619 0.000000
0.686249 0.234619 0.000000
0.712952 0.234619 0.000000
0.738983 0.234619 0.000000
0.764374 0.234619 0.000000
0.788910 0.234619 0.000000
0.812592 0.234619 0.000000
0.835388 0.234619 0.000000
0.857147 0.234619 0.000000
0.877899 0.234619 0.000000
0.897583 0.234619 0.000000
0.916046 0.234619 0.000000
0.933319 0.234619 0.000000
0.949371 0.234619 0.000000
0.964081 0.234619 0.000000
0.977478 0.234619 0.000000
0.989471 0.234619 0.000000
1.000000 0.234619 0.000000
0.000000 0.265808 0.000000
0.071320 0.265808 0.000000
0.150146 0.265808 0.000000
0.218964 0.265808 0.000000
0.271423 0.265808 0.000000
0.313995 0.265808 0.000000
0.353241 0.265808 0.000000
0.389771 0.265808 0.000000
0.424011 0.265808 0.000000
0.456360 0.265808 0.000000
0.487000 0.265808 0.000000
0.516357 0.265808 0.000000
0.545441 0.265808 0.000000
0.574310 0.265808 0.000000
0.602905 0.265808 0.000000
0.631165 0.265808 0.000000
0.658966 0.265808 0.000000
0.686249 0.265808 0.000000
0.712952 0.265808 0.000000
0.738983 0.265808 0.000000
0.764374 0.265808 0.000000
0.788910 0.265808 0.000000
0.812592 0.265808 0.000000
0.835388 0.265808 0.000000
0.857147 0.265808 0.000000
0.877899 0.265808 0.000000
0.897583 0.265808 0.000000
0.916046 0.265808 0.000000
0.933319 0.265808 0.000000
0.949371 0.265808 0.000000
0.964081 0.265808 0.000000
0.977478 0.265808 0.000000
0.989471 0.265808 0.000000
1.000000 0.265808 0.000000
0.000000 0.297363 0.000000
0.071320 0.297363 0.000000
0.150146 0.297363 0.000000
0.218964 0.297363 0.000000
0.271423 0.297363 0.000000
0.313995 0.297363 0.000000
0.353241 0.297363 0.000000
0.389771 0.297363 0.000000
0.424011 0.297363 0.000000
0.456360 0.297363 0.000000
0.487000 0.297363 0.000000
0.516357 0.297363 0.000000
0.545441 0.297363 0.000000
0.574310 0.297363 0.000000
0.602905 0.297363 0.000000
0.631165 0.297363 0.000000
0.658966 0.297363 0.000000
0.686249 0.297363 0.000000
0.712952 0.297363 0.000000
0.738983 0.297363 0.000000
0.764374 0.297363 0.000000
0.788910 0.297363 0.000000
0.812592 0.297363 0.000000
0.835388 0.297363 0.000000
0.857147 0.297363 0.000000
0.877899 0.297363 0.000000
0.897583 0.297363 0.000000
0.916046 0.297363 0.000000
0.933319 0.297363 0.000000
0.949371 0.297363 0.000000
0.964081 0.297363 0.000000
0.977478 0.297363 0.000000
0.989471 0.297363 0.000000
1.000000 0.297363 0.000000
0.000000 0.329102 0.000000
0.071320 0.329102 0.000000
0.150146 0.329102 0.000000
0.218964 0.329102 0.000000
0.271423 0.329102 0.000000
0.313995 0.329102 0.000000
0.353241 0.329102 0.000000
0.389771 0.329102 0.000000
0.424011 0.329102 0.000000
0.456360 0.329102 0.000000
0.487000 0.329102 0.000000
0.516357 0.329102 0.000000
0.545441 0.329102 0.000000
0.574310 0.329102 0.000000
0.602905 0.329102 0.000000
0.631165 0.329102 0.000000
0.658966 0.329102 0.000000
0.686249 0.329102 0.000000
0.712952 0.329102 0.000000
0.738983 0.329102 0.000000
0.764374 0.329102 0.000000
0.788910 0.329102 0.000000
0.812592 0.329102 0.000000
0.835388 0.329102 0.000000
0.857147 0.329102 0.000000
0.877899 0.329102 0.000000
0.897583 0.329102 0.000000
0.916046 0.329102 0.000000
0.933319 0.329102 0.000000
0.949371 0.329102 0.000000
0.964081 0.329102 0.000000
0.977478 0.329102 0.000000
0.989471 0.329102 0.000000
1.000000 0.329102 0.000000
0.000000 0.360931 0.000000
0.071320 0.360931 0.000000
0.150146 0.360931 0.000000
0.218964 0.360931 0.000000
0.271423 0.360931 0.000000
0.313995 0.360931 0.000000
0.353241 0.360931 0.000000
0.389771 0.360931 0.000000
0.424011 0.360931 0.000000
0.456360 0.360931 0.000000
0.487000 0.360931 0.000000
0.516357 0.360931 0.000000
0.545441 0.360931 0.000000
0.574310 0.360931 0.000000
0.602905 0.360931 0.000000
0.631165 0.360931 0.000000
0.658966 0.360931 0.000000
0.686249 0.360931 0.000000
0.712952 0.360931 0.000000
0.738983 0.360931 0.000000
0.764374 0.360931 0.000000
0.788910 0.360931 0.000000
0.812592 0.360931 0.000000
0.835388 0.360931 0.000000
0.857147 0.360931 0.000000
0.877899 0.360931 0.000000
0.897583 0.360931 0.000000
0.916046 0.360931 0.000000
0.933319 0.360931 0.000000
0.949371 0.360931 0.000000
0.964081 0.360931 0.000000
0.977478 0.360931 0.000000
0.989471 0.360931 0.000000
1.000000 0.360931 0.000000
0.000000 0.392853 0.000000
0.071320 0.392853 0.000000
0.150146 0.392853 0.000000
0.218964 0.392853 0.000000
0.271423 0.392853 0.000000
0.313995 0.392853 0.000000
0.353241 0.392853 0.000000
0.389771 0.392853 0.000000
0.424011 0.392853 0.000000
0.456360 0.392853 0.000000
0.487000 0.392853 0.000000
0.516357 0.392853 0.000000
0.545441 0.392853 0.000000
0.574310 0.392853 0.000000
0.602905 0.392853 0.000000
0.631165 0.392853 0.000000
0.658966 0.392853 0.000000
0.686249 0.392853 0.000000
0.712952 0.392853 0.000000
0.738983 0.392853 0.000000
0.764374 0.392853 0.000000
0.788910 0.392853 0.000000
0.812592 0.392853 0.000000
0.835388 0.392853 0.000000
0.857147 0.392853 0.000000
0.877899 0.392853 0.000000
0.897583 0.392853 0.000000
0.916046 0.392853 0.000000
0.933319 0.392853 0.000000
0.949371 0.392853 0.000000
0.964081 0.392853 0.000000
0.977478 0.392853 0.000000
0.989471 0.392853 0.000000
1.000000 0.392853 0.000000
0.000000 0.424744 0.000000
0.071320 0.424744 0.000000
0.150146 0.424744 0.000000
0.218964 0.424744 0.000000
0.271423 0.424744 0.000000
0.313995 0.424744 0.000000
0.353241 0.424744 0.000000
0.389771 0.424744 0.000000
0.424011 0.424744 0.000000
0.456360 0.424744 0.000000
0.487000 0.424744 0.000000
0.516357 0.424744 0.000000
0.545441 0.424744 0.000000
0.574310 0.424744 0.000000
0.602905 0.424744 0.000000
0.631165 0.424744 0.000000
0.658966 0.424744 0.000000
0.686249 0.424744 0.000000
0.712952 0.424744 0.000000
0.738983 0.424744 0.000000
0.764374 0.424744 0.000000
0.788910 0.424744 0.000000
0.812592 0.424744 0.000000
0.835388 0.424744 0.000000
0.857147 0.424744 0.000000
0.877899 0.424744 0.000000
0.897583 0.424744 0.000000
0.916046 0.424744 0.000000
0.933319 0.424744 0.000000
0.949371 0.424744 0.000000
0.964081 0.424744 0.000000
0.977478 0.424744 0.000000
0.989471 0.424744 0.000000
1.000000 0.424744 0.000000
0.000000 0.456543 0.000000
0.071320 0.456543 0.000000
0.150146 0.456543 0.000000
0.218964 0.456543 0.000000
0.271423 0.456543 0.000000
0.313995 0.456543 0.000000
0.353241 0.456543 0.000000
0.389771 0.456543 0.000000
0.424011 0.456543 0.000000
0.456360 0.456543 0.000000
0.487000 0.456543 0.000000
0.516357 0.456543 0.000000
0.545441 0.456543 0.000000
0.574310 0.456543 0.000000
0.602905 0.456543 0.000000
0.631165 0.456543 0.000000
0.658966 0.456543 0.000000
0.686249 0.456543 0.000000
0.712952 0.456543 0.000000
0.738983 0.456543 0.000000
0.764374 0.456543 0.000000
0.788910 0.456543 0.000000
0.812592 0.456543 0.000000
0.835388 0.456543 0.000000
0.857147 0.456543 0.000000
0.877899 0.456543 0.000000
0.897583 0.456543 0.000000
0.916046 0.456543 0.000000
0.933319 0.456543 0.000000
0.949371 0.456543 0.000000
0.964081 0.456543 0.000000
0.977478 0.456543 0.000000
0.989471 0.456543 0.000000
1.000000 0.456543 0.000000
0.000000 0.488190 0.000000
0.071320 0.488190 0.000000
0.150146 0.488190 0.000000
0.218964 0.488190 0.000000
0.271423 0.488190 0.000000
0.313995 0.488190 0.000000
0.353241 0.488190 0.000000
0.389771 0.488190 0.000000
0.424011 0.488190 0.000000
0.456360 0.488190 0.000000
0.487000 0.488190 0.000000
0.516357 0.488190 0.000000
0.545441 0.488190 0.000000
0.574310 0.488190 0.000000
0.602905 0.488190 0.000000
0.631165 0.488190 0.000000
0.658966 0.488190 0.000000
0.686249 0.488190 0.000000
0.712952 0.488190 0.000000
0.738983 0.488190 0.000000
0.764374 0.488190 0.000000
0.788910 0.488190 0.000000
0.812592 0.488190 0.000000
0.835388 0.488190 0.000000
0.857147 0.488190 0.000000
0.877899 0.488190 0.000000
0.897583 0.488190 0.000000
0.916046 0.488190 0.000000
0.933319 0.488190 0.000000
0.949371 0.488190 0.000000
0.964081 0.488190 0.000000
0.977478 0.488190 0.000000
0.989471 0.488190 0.000000
1.000000 0.488190 0.000000
0.000000 0.519989 0.000000
0.071320 0.519989 0.000000
0.150146 0.519989 0.000000
0.218964 0.519989 0.000000
0.271423 0.519989 0.000000
0.313995 0.519989 0.000000
0.353241 0.519989 0.000000
0.389771 0.519989 0.000000
0.424011 0.519989 0.000000
0.456360 0.519989 0.000000
0.487000 0.519989 0.000000
0.516357 0.519989 0.000000
0.545441 0.519989 0.000000
0.574310 0.519989 0.000000
0.602905 0.519989 0.000000
0.631165 0.519989 0.000000
0.658966 0.519989 0.000000
0.686249 0.519989 0.000000
0.712952 0.519989 0.000000
0.738983 0.519989 0.000000
0.764374 0.519989 0.000000
0.788910 0.519989 0.000000
0.812592 0.519989 0.000000
0.835388 0.519989 0.000000
0.857147 0.519989 0.000000
0.877899 0.519989 0.000000
0.897583 0.519989 0.000000
0.916046 0.519989 0.000000
0.933319 0.519989 0.000000
0.949371 0.519989 0.000000
0.964081 0.519989 0.000000
0.977478 0.519989 0.000000
0.989471 0.519989 0.000000
1.000000 0.519989 0.000000
0.000000 0.552917 0.000000
0.071320 0.552917 0.000000
0.150146 0.552917 0.000000
0.218964 0.552917 0.000000
0.271423 0.552917 0.000000
0.313995 0.552917 0.000000
0.353241 0.552917 0.000000
0.389771 0.552917 0.000000
0.424011 0.552917 0.000000
0.456360 0.552917 0.000000
0.487000 0.552917 0.000000
0.516357 0.552917 0.000000
0.545441 0.552917 0.000000
0.574310 0.552917 0.000000
0.602905 0.552917 0.000000
0.631165 0.552917 0.000000
0.658966 0.552917 0.000000
0.686249 0.552917 0.000000
0.712952 0.552917 0.000000
0.738983 0.552917 0.000000
0.764374 0.552917 0.000000
0.788910 0.552917 0.000000
0.812592 0.552917 0.000000
0.835388 0.552917 0.000000
0.857147 0.552917 0.000000
0.877899 0.552917 0.000000
0.897583 0.552917 0.000000
0.916046 0.552917 0.000000
0.933319 0.552917 0.000000
0.949371 0.552917 0.000000
0.964081 0.552917 0.000000
0.977478 0.552917 0.000000
0.989471 0.552917 0.000000
1.000000 0.552917 0.000000
0.000000 0.586914 0.000000
0.071320 0.586914 0.000000
0.150146 0.586914 0.000000
0.218964 0.586914 0.000000
0.271423 0.586914 0.000000
0.313995 0.586914 0.000000
0.353241 0.586914 0.000000
0.389771 0.586914 0.000000
0.424011 0.586914 0.000000
0.456360 0.586914 0.000000
0.487000 0.586914 0.000000
0.516357 0.586914 0.000000
0.545441 0.586914 0.000000
0.574310 0.586914 0.000000
0.602905 0.586914 0.000000
0.631165 0.586914 0.000000
0.658966 0.586914 0.000000
0.686249 0.586914 0.000000
0.712952 0.586914 0.000000
0.738983 0.586914 0.000000
0.764374 0.586914 0.000000
0.788910 0.586914 0.000000
0.812592 0.586914 0.000000
0.835388 0.586914 0.000000
0.857147 0.586914 0.000000
0.877899 0.586914 0.000000
0.897583 0.586914 0.000000
0.916046 0.586914 0.000000
0.933319 0.586914 0.000000
0.949371 0.586914 0.000000
0.964081 0.586914 0.000000
0.977478 0.586914 0.000000
0.989471 0.586914 0.000000
1.000000 0.586914 0.000000
0.000000 0.621826 0.000000
0.071320 0.621826 0.000000
0.150146 0.621826 0.000000
0.218964 0.621826 0.000000
0.271423 0.621826 0.000000
0.313995 0.621826 0.000000
0.353241 0.621826 0.000000
0.389771 0.621826 0.000000
0.424011 0.621826 0.000000
0.456360 0.621826 0.000000
0.487000 0.621826 0.000000
0.516357 0.621826 0.000000
0.545441 0.621826 0.000000
0.574310 0.621826 0.000000
0.602905 0.621826 0.000000
0.631165 0.621826 0.000000
0.658966 0.621826 0.000000
0.686249 0.621826 0.000000
0.712952 0.621826 0.000000
0.738983 0.621826 0.000000
0.764374 0.621826 0.000000
0.788910 0.621826 0.000000
0.812592 0.621826 0.000000
0.835388 0.621826 0.000000
0.857147 0.621826 0.000000
0.877899 0.621826 0.000000
0.897583 0.621826 0.000000
0.916046 0.621826 0.000000
0.933319 0.621826 0.000000
0.949371 0.621826 0.000000
0.964081 0.621826 0.000000
0.977478 0.621826 0.000000
0.989471 0.621826 0.000000
1.000000 0.621826 0.000000
0.000000 0.657471 0.000000
0.071320 0.657471 0.000000
0.150146 0.657471 0.000000
0.218964 0.657471 0.000000
0.271423 0.657471 0.000000
0.313995 0.657471 0.000000
0.353241 0.657471 0.000000
0.389771 0.657471 0.000000
0.424011 0.657471 0.000000
0.456360 0.657471 0.000000
0.487000 0.657471 0.000000
0.516357 0.657471 0.000000
0.545441 0.657471 0.000000
0.574310 0.657471 0.000000
0.602905 0.657471 0.000000
0.631165 0.657471 0.000000
0.658966 0.657471 0.000000
0.686249 0.657471 0.000000
0.712952 0.657471 0.000000
0.738983 0.657471 0.000000
0.764374 0.657471 0.000000
0.788910 0.657471 0.000000
0.812592 0.657471 0.000000
0.835388 0.657471 0.000000
0.857147 0.657471 0.000000
0.877899 0.657471 0.000000
0.897583 0.657471 0.000000
0.916046 0.657471 0.000000
0.933319 0.657471 0.000000
0.949371 0.657471 0.000000
0.964081 0.657471 0.000000
0.977478 0.657471 0.000000
0.989471 0.657471 0.000000
1.000000 0.657471 0.000000
0.000000 0.693481 0.000000
0.071320 0.693481 0.000000
0.150146 0.693481 0.000000
0.218964 0.693481 0.000000
0.271423 0.693481 0.000000
0.313995 0.693481 0.000000
0.353241 0.693481 0.000000
0.389771 0.693481 0.000000
0.424011 0.693481 0.000000
0.456360 0.693481 0.000000
0.487000 0.693481 0.000000
0.516357 0.693481 0.000000
0.545441 0.693481 0.000000
0.574310 0.693481 0.000000
0.602905 0.693481 0.000000
0.631165 0.693481 0.000000
0.658966 0.693481 0.000000
0.686249 0.693481 0.000000
0.712952 0.693481 0.000000
0.738983 0.693481 0.000000
0.764374 0.693481 0.000000
0.788910 0.693481 0.000000
0.812592 0.693481 0.000000
0.835388 0.693481 0.000000
0.857147 0.693481 0.000000
0.877899 0.693481 0.000000
0.897583 0.693481 0.000000
0.916046 0.693481 0.000000
0.933319 0.693481 0.000000
0.949371 0.693481 0.000000
0.964081 0.693481 0.000000
0.977478 0.693481 0.000000
0.989471 0.693481 0.000000
1.000000 0.693481 0.000000
0.000000 0.729675 0.000000
0.071320 0.729675 0.000000
0.150146 0.729675 0.000000
0.218964 0.729675 0.000000
0.271423 0.729675 0.000000
0.313995 0.729675 0.000000
0.353241 0.729675 0.000000
0.389771 0.729675 0.000000
0.424011 0.729675 0.000000
0.456360 0.729675 0.000000
0.487000 0.729675 0.000000
0.516357 0.729675 0.000000
0.545441 0.729675 0.000000
0.574310 0.729675 0.000000
0.602905 0.729675 0.000000
0.631165 0.729675 0.000000
0.658966 0.729675 0.000000
0.686249 0.729675 0.000000
0.712952 0.729675 0.000000
0.738983 0.729675 0.000000
0.764374 0.729675 0.000000
0.788910 0.729675 0.000000
0.812592 0.729675 0.000000
0.835388 0.729675 0.000000
0.857147 0.729675 0.000000
0.877899 0.729675 0.000000
0.897583 0.729675 0.000000
0.916046 0.729675 0.000000
0.933319 0.729675 0.000000
0.949371 0.729675 0.000000
0.964081 0.729675 0.000000
0.977478 0.729675 0.000000
0.989471 0.729675 0.000000
1.000000 0.729675 0.000000
0.000000 0.765747 0.000000
0.071320 0.765747 0.000000
0.150146 0.765747 0.000000
0.218964 0.765747 0.000000
0.271423 0.765747 0.000000
0.313995 0.765747 0.000000
0.353241 0.765747 0.000000
0.389771 0.765747 0.000000
0.424011 0.765747 0.000000
0.456360 0.765747 0.000000
0.487000 0.765747 0.000000
0.516357 0.765747 0.000000
0.545441 0.765747 0.000000
0.574310 0.765747 0.000000
0.602905 0.765747 0.000000
0.631165 0.765747 0.000000
0.658966 0.765747 0.000000
0.686249 0.765747 0.000000
0.712952 0.765747 0.000000
0.738983 0.765747 0.000000
0.764374 0.765747 0.000000
0.788910 0.765747 0.000000
0.812592 0.765747 0.000000
0.835388 0.765747 0.000000
0.857147 0.765747 0.000000
0.877899 0.765747 0.000000
0.897583 0.765747 0.000000
0.916046 0.765747 0.000000
0.933319 0.765747 0.000000
0.949371 0.765747 0.000000
