movie/霸王别姬-红.cube
#Created by: Adobe Photoshop Export Color Lookup Plugin
#Copyright: (C) Copyright 2026 汉图
TITLE "mint本征源文件-适配lut筛选-恢复的.psd"
#LUT size
LUT_3D_SIZE 7
#data domain
#LUT data points
DOMAIN_MIN 0.000000 0.000000 0.000000
DOMAIN_MAX 0.909091 0.909091 0.909091
0.000000 0.000000 0.000000
0.313995 0.000000 0.000000
0.487000 0.000000 0.000000
0.631165 0.000000 0.000000
0.764374 0.000000 0.000000
0.877899 0.000000 0.000000
0.964081 0.000000 0.000000
0.000000 0.115112 0.000000
0.313995 0.115112 0.000000
0.487000 0.115112 0.000000
0.631165 0.115112 0.000000
0.764374 0.115112 0.000000
0.877899 0.115112 0.000000
0.964081 0.115112 0.000000
0.000000 0.265808 0.000000
0.313995 0.265808 0.000000
0.487000 0.265808 0.000000
0.631165 0.265808 0.000000
0.764374 0.265808 0.000000
0.877899 0.265808 0.000000
0.964081 0.265808 0.000000
0.000000 0.424744 0.000000
0.313995 0.424744 0.000000
0.487000 0.424744 0.000000
0.631165 0.424744 0.000000
0.764374 0.424744 0.000000
0.877899 0.424744 0.000000
0.964081 0.424744 0.000000
0.000000 0.586914 0.000000
0.313995 0.586914 0.000000
0.487000 0.586914 0.000000
0.631165 0.586914 0.000000
0.764374 0.586914 0.000000
0.877899 0.586914 0.000000
0.964081 0.586914 0.000000
0.000000 0.765747 0.000000
0.313995 0.765747 0.000000
0.487000 0.765747 0.000000
0.631165 0.765747 0.000000
0.764374 0.765747 0.000000
0.877899 0.765747 0.000000
0.964081 0.765747 0.000000
0.000000 0.930206 0.000000
0.313995 0.930206 0.000000
0.487000 0.930206 0.000000
0.631165 0.930206 0.000000
0.764374 0.930206 0.000000
0.877899 0.930206 0.000000
0.964081 0.930206 0.000000
0.000000 0.000000 0.189819
0.313995 0.000000 0.189819
0.487000 0.000000 0.189819
0.631165 0.000000 0.189819
0.764374 0.000000 0.189819
0.877899 0.000000 0.189819
0.964081 0.000000 0.189819
0.000000 0.115112 0.189819
0.313995 0.115112 0.189819
0.487000 0.115112 0.189819
0.631165 0.115112 0.189819
0.764374 0.115112 0.189819
0.877899 0.115112 0.189819
0.964081 0.115112 0.189819
0.000000 0.265808 0.189819
0.313995 0.265808 0.189819
0.487000 0.265808 0.189819
0.631165 0.265808 0.189819
0.764374 0.265808 0.189819
0.877899 0.265808 0.189819
0.964081 0.265808 0.189819
0.000000 0.424744 0.189819
0.313995 0.424744 0.189819
0.487000 0.424744 0.189819
0.631165 0.424744 0.189819
0.764374 0.424744 0.189819
0.877899 0.424744 0.189819
0.964081 0.424744 0.189819
0.000000 0.586914 0.189819
0.313995 0.586914 0.189819
0.487000 0.586914 0.189819
0.631165 0.586914 0.189819
0.764374 0.586914 0.189819
0.877899 0.586914 0.189819
0.964081 0.586914 0.189819
0.000000 0.765747 0.189819
0.313995 0.765747 0.189819
0.487000 0.765747 0.189819
0.631165 0.765747 0.189819
0.764374 0.765747 0.189819
0.877899 0.765747 0.189819
0.964081 0.765747 0.189819
0.000000 0.930206 0.189819
0.313995 0.930206 0.189819
0.487000 0.930206 0.189819
0.631165 0.930206 0.189819
0.764374 0.930206 0.189819
0.877899 0.930206 0.189819
0.964081 0.930206 0.189819
0.000000 0.000000 0.359924
0.313995 0.000000 0.359924
0.487000 0.000000 0.359924
0.631165 0.000000 0.359924
0.764374 0.000000 0.359924
0.877899 0.000000 0.359924
0.964081 0.000000 0.359924
0.000000 0.115112 0.359924
0.313995 0.115112 0.359924
0.487000 0.115112 0.359924
0.631165 0.115112 0.359924
0.764374 0.115112 0.359924
0.877899 0.115112 0.359924
0.964081 0.115112 0.359924
0.000000 0.265808 0.359924
0.313995 0.265808 0.359924
0.487000 0.265808 0.359924
0.631165 0.265808 0.359924
0.764374 0.265808 0.359924
0.877899 0.265808 0.359924
0.964081 0.265808 0.359924
0.000000 0.424744 0.359924
0.313995 0.424744 0.359924
0.487000 0.424744 0.359924
0.631165 0.424744 0.359924
0.764374 0.424744 0.359924
0.877899 0.424744 0.359924
0.964081 0.424744 0.359924
0.000000 0.586914 0.359924
0.313995 0.586914 0.359924
0.487000 0.586914 0.359924
0.631165 0.586914 0.359924
0.764374 0.586914 0.359924
0.877899 0.586914 0.359924
0.964081 0.586914 0.359924
0.000000 0.765747 0.359924
0.313995 0.765747 0.359924
0.487000 0.765747 0.359924
0.631165 0.765747 0.359924
0.764374 0.765747 0.359924
0.877899 0.765747 0.359924
0.964081 0.765747 0.359924
0.000000 0.930206 0.359924
0.313995 0.930206 0.359924
0.487000 0.930206 0.359924
0.631165 0.930206 0.359924
0.764374 0.930206 0.359924
0.877899 0.930206 0.359924
0.964081 0.930206 0.359924
0.000000 0.000000 0.513855
0.313995 0.000000 0.513855
0.487000 0.000000 0.513855
0.631165 0.000000 0.513855
0.764374 0.000000 0.513855
0.877899 0.000000 0.513855
0.964081 0.000000 0.513855
0.000000 0.115112 0.513855
0.313995 0.115112 0.513855
0.487000 0.115112 0.513855
0.631165 0.115112 0.513855
0.764374 0.115112 0.513855
0.877899 0.115112 0.513855
0.964081 0.115112 0.513855
0.000000 0.265808 0.513855
0.313995 0.265808 0.513855
0.487000 0.265808 0.513855
0.631165 0.265808 0.513855
0.764374 0.265808 0.513855
0.877899 0.265808 0.513855
0.964081 0.265808 0.513855
0.000000 0.424744 0.513855
0.313995 0.424744 0.513855
0.487000 0.424744 0.513855
0.631165 0.424744 0.513855
0.764374 0.424744 0.513855
0.877899 0.424744 0.513855
0.964081 0.424744 0.513855
0.000000 0.586914 0.513855
0.313995 0.586914 0.513855
0.487000 0.586914 0.513855
0.631165 0.586914 0.513855
0.764374 0.586914 0.513855
0.877899 0.586914 0.513855
0.964081 0.586914 0.513855
0.000000 0.765747 0.513855
0.313995 0.765747 0.513855
0.487000 0.765747 0.513855
0.631165 0.765747 0.513855
0.764374 0.765747 0.513855
0.877899 0.765747 0.513855
0.964081 0.765747 0.513855
0.000000 0.930206 0.513855
0.313995 0.930206 0.513855
0.487000 0.930206 0.513855
0.631165 0.930206 0.513855
0.764374 0.930206 0.513855
0.877899 0.930206 0.513855
0.964081 0.930206 0.513855
0.000000 0.000000 0.668396
0.313995 0.000000 0.668396
0.487000 0.000000 0.668396
0.631165 0.000000 0.668396
0.764374 0.000000 0.668396
0.877899 0.000000 0.668396
0.964081 0.000000 0.668396
0.000000 0.115112 0.668396
0.313995 0.115112 0.668396
0.487000 0.115112 0.668396
0.631165 0.115112 0.668396
0.764374 0.115112 0.668396
0.877899 0.115112 0.668396
0.964081 0.115112 0.668396
0.000000 0.265808 0.668396
0.313995 0.265808 0.668396
0.487000 0.265808 0.668396
0.631165 0.265808 0.668396
0.764374 0.265808 0.668396
0.877899 0.265808 0.668396
0.964081 0.265808 0.668396
0.000000 0.424744 0.668396
0.313995 0.424744 0.668396
0.487000 0.424744 0.668396
0.631165 0.424744 0.668396
0.764374 0.424744 0.668396
0.877899 0.424744 0.668396
0.964081 0.424744 0.668396
0.000000 0.586914 0.668396
0.313995 0.586914 0.668396
0.487000 0.586914 0.668396
0.631165 0.586914 0.668396
0.764374 0.586914 0.668396
0.877899 0.586914 0.668396
0.964081 0.586914 0.668396
0.000000 0.765747 0.668396
0.313995 0.765747 0.668396
0.487000 0.765747 0.668396
0.631165 0.765747 0.668396
0.764374 0.765747 0.668396
0.877899 0.765747 0.668396
0.964081 0.765747 0.668396
0.000000 0.930206 0.668396
0.313995 0.930206 0.668396
0.487000 0.930206 0.668396
0.631165 0.930206 0.668396
0.764374 0.930206 0.668396
0.877899 0.930206 0.668396
0.964081 0.930206 0.668396
0.000000 0.000000 0.820709
0.313995 0.000000 0.820709
0.487000 0.000000 0.820709
0.631165 0.000000 0.820709
0.764374 0.000000 0.820709
0.877899 0.000000 0.820709
0.964081 0.000000 0.820709
0.000000 0.115112 0.820709
0.313995 0.115112 0.820709
0.487000 0.115112 0.820709
0.631165 0.115112 0.820709
0.764374 0.115112 0.820709
0.877899 0.115112 0.820709
0.964081 0.115112 0.820709
0.000000 0.265808 0.820709
0.313995 0.265808 0.820709
0.487000 0.265808 0.820709
0.631165 0.265808 0.820709
0.764374 0.265808 0.820709
0.877899 0.265808 0.820709
0.964081 0.265808 0.820709
0.000000 0.424744 0.820709
0.313995 0.424744 0.820709
0.487000 0.424744 0.820709
0.631165 0.424744 0.820709
0.764374 0.424744 0.820709
0.877899 0.424744 0.820709
0.964081 0.424744 0.820709
0.000000 0.586914 0.820709
0.313995 0.586914 0.820709
0.487000 0.586914 0.820709
0.631165 0.586914 0.820709
0.764374 0.586914 0.820709
0.877899 0.586914 0.820709
0.964081 0.586914 0.820709
0.000000 0.765747 0.820709
0.313995 0.765747 0.820709
0.487000 0.765747 0.820709
0.631165 0.765747 0.820709
0.764374 0.765747 0.820709
0.877899 0.765747 0.820709
0.964081 0.765747 0.820709
0.000000 0.930206 0.820709
0.313995 0.930206 0.820709
0.487000 0.930206 0.820709
0.631165 0.930206 0.820709
0.764374 0.930206 0.820709
0.877899 0.930206 0.820709
0.964081 0.930206 0.820709
0.000000 0.000000 0.947357
0.313995 0.000000 0.947357
0.487000 0.000000 0.947357
0.631165 0.000000 0.947357
0.764374 0.000000 0.947357
0.877899 0.000000 0.947357
0.964081 0.000000 0.947357
0.000000 0.115112 0.947357
0.313995 0.115112 0.947357
0.487000 0.115112 0.947357
0.631165 0.115112 0.947357
0.764374 0.115112 0.947357
0.877899 0.115112 0.947357
0.964081 0.115112 0.947357
0.000000 0.265808 0.947357
0.313995 0.265808 0.947357
0.487000 0.265808 0.947357
0.631165 0.265808 0.947357
0.764374 0.265808 0.947357
0.877899 0.265808 0.947357
0.964081 0.265808 0.947357
0.000000 0.424744 0.947357
0.313995 0.424744 0.947357
0.487000 0.424744 0.947357
0.631165 0.424744 0.947357
0.764374 0.424744 0.947357
0.877899 0.424744 0.947357
0.964081 0.424744 0.947357
0.000000 0.586914 0.947357
0.313995 0.586914 0.947357
0.487000 0.586914 0.947357
0.631165 0.586914 0.947357
0.764374 0.586914 0.947357
0.877899 0.586914 0.947357
0.964081 0.586914 0.947357
0.000000 0.765747 0.947357
0.313995 0.765747 0.947357
0.487000 0.765747 0.947357
0.631165 0.765747 0.947357
0.764374 0.765747 0.947357
0.877899 0.765747 0.947357
0.964081 0.765747 0.947357
0.000000 0.930206 0.947357
0.313995 0.930206 0.947357
0.487000 0.930206 0.947357
0.631165 0.930206 0.947357
0.764374 0.930206 0.947357
0.877899 0.930206 0.947357
0.964081 0.930206 0.947357
