other luts/实验工艺系列/凹版印相.cube
#Created by: Adobe Photoshop Export Color Lookup Plugin
#Copyright: (C) Copyright 2026 汉图
TITLE "实验工艺"
#LUT size
LUT_3D_SIZE 4
#data domain
DOMAIN_MIN 0.0 0.0 0.0
DOMAIN_MAX 1.0 1.0 1.0
#LUT data points
0.133331 0.133331 0.133331
0.188782 0.133331 0.133331
0.287384 0.186768 0.133331
0.385986 0.285370 0.227325
0.425568 0.324982 0.266937
0.419067 0.318481 0.260437
0.517639 0.417053 0.359009
0.616241 0.515656 0.457611
0.760925 0.660339 0.602295
0.754425 0.653839 0.595795
0.747925 0.647339 0.589264
0.846527 0.745941 0.687897
1.000000 1.000000 1.000000
1.000000 1.000000 1.000000
1.000000 1.000000 1.000000
1.000000 1.000000 1.000000
0.133331 0.133331 0.133331
0.133331 0.133331 0.133331
0.188751 0.133331 0.133331
0.287384 0.186768 0.133331
0.133331 0.133331 0.133331
0.419067 0.318481 0.260437
0.517639 0.417053 0.359009
0.616241 0.515656 0.457611
0.425537 0.324951 0.266907
0.754425 0.653839 0.595795
0.747925 0.647339 0.589264
0.846527 0.745941 0.687897
0.760925 0.660339 0.602295
1.000000 1.000000 1.000000
1.000000 1.000000 1.000000
1.000000 1.000000 1.000000
0.133331 0.133331 0.133331
0.133331 0.133331 0.133331
0.133331 0.133331 0.133331
0.188782 0.133331 0.133331
0.133331 0.133331 0.133331
0.419067 0.318481 0.260437
0.419067 0.318481 0.260437
0.517670 0.417084 0.359039
0.133331 0.133331 0.133331
0.419067 0.318481 0.260437
0.747925 0.647339 0.589264
0.846527 0.745941 0.687897
0.425568 0.324982 0.266937
0.754456 0.653870 0.595825
1.000000 1.000000 1.000000
1.000000 1.000000 1.000000
0.133331 0.133331 0.133331
0.133331 0.133331 0.133331
0.133331 0.133331 0.133331
0.133331 0.133331 0.133331
0.133331 0.133331 0.133331
0.419067 0.318481 0.260437
0.419067 0.318481 0.260437
0.419067 0.318481 0.260437
0.133331 0.133331 0.133331
0.419067 0.318481 0.260437
0.747925 0.647339 0.589264
0.747925 0.647339 0.589264
0.133331 0.133331 0.133331
0.419067 0.318481 0.260437
0.747925 0.647339 0.589264
1.000000 1.000000 1.000000
