other luts/实验工艺系列/凹版印相.cube
#Created by: Adobe Photoshop Export Color Lookup Plugin
#Copyright: (C) Copyright 2026 汉图
TITLE "实验工艺"
#LUT size
LUT_3D_SIZE 34
#data domain
DOMAIN_MIN 0.0 0.0 0.0
DOMAIN_MAX 1.0 1.0 1.0
#LUT data points
0.133331 0.133331 0.133331
0.133331 0.133331 0.133331
0.133331 0.133331 0.133331
0.133331 0.133331 0.133331
0.133331 0.133331 0.133331
0.133331 0.133331 0.133331
0.133331 0.133331 0.133331
0.135010 0.133331 0.133331
0.152435 0.133331 0.133331
0.169739 0.133331 0.133331
0.179810 0.133331 0.133331
0.188782 0.133331 0.133331
0.197723 0.133331 0.133331
0.206696 0.133331 0.133331
0.215668 0.133331 0.133331
0.224640 0.133331 0.133331
0.233582 0.133331 0.133331
0.242584 0.141968 0.133331
0.251495 0.150909 0.133331
0.260498 0.159882 0.133331
0.269470 0.168854 0.133331
0.278442 0.177826 0.133331
0.287384 0.186768 0.133331
0.296356 0.195740 0.137695
0.305328 0.204712 0.146667
0.314270 0.213654 0.155609
0.323242 0.222626 0.164581
0.332214 0.231598 0.173553
0.341156 0.240540 0.182495
0.350128 0.249512 0.191467
0.359100 0.258484 0.200439
0.368073 0.267456 0.209412
0.377014 0.276398 0.218353
0.385986 0.285370 0.227325
0.133331 0.133331 0.133331
0.133331 0.133331 0.133331
0.133331 0.133331 0.133331
0.133331 0.133331 0.133331
0.133331 0.133331 0.133331
0.140869 0.133331 0.133331
0.158264 0.133331 0.133331
0.173859 0.133331 0.133331
0.182831 0.133331 0.133331
0.191803 0.133331 0.133331
0.200745 0.133331 0.133331
0.209717 0.133331 0.133331
0.218689 0.133331 0.133331
0.227631 0.133331 0.133331
0.236603 0.136017 0.133331
0.245575 0.144989 0.133331
0.254547 0.153961 0.133331
0.263489 0.162903 0.133331
0.272461 0.171875 0.133331
0.281403 0.180817 0.133331
0.290375 0.189789 0.133331
0.299347 0.198761 0.140717
0.308319 0.207733 0.149689
0.317261 0.216675 0.158630
0.326233 0.225647 0.167603
0.335205 0.234619 0.176575
0.344147 0.243561 0.185516
0.353119 0.252533 0.194489
0.362091 0.261505 0.203461
0.371033 0.270447 0.212402
0.380005 0.279419 0.221375
0.388977 0.288391 0.230347
0.397949 0.297363 0.239319
0.406891 0.306305 0.248260
0.133331 0.133331 0.133331
0.133331 0.133331 0.133331
0.133331 0.133331 0.133331
0.146698 0.133331 0.133331
0.164001 0.133331 0.133331
0.176880 0.133331 0.133331
0.185852 0.133331 0.133331
0.194824 0.133331 0.133331
0.203766 0.133331 0.133331
0.212738 0.133331 0.133331
0.221710 0.133331 0.133331
0.230652 0.133331 0.133331
0.239624 0.139008 0.133331
0.248596 0.147980 0.133331
0.257538 0.156952 0.133331
0.266510 0.165924 0.133331
0.275482 0.174896 0.133331
0.284424 0.183838 0.133331
0.293396 0.192810 0.134735
0.302368 0.201782 0.143707
0.311310 0.210724 0.152649
0.320282 0.219696 0.161621
0.329254 0.228668 0.170593
0.338226 0.237640 0.179565
0.347168 0.246582 0.188507
0.356140 0.255554 0.197510
0.365112 0.264526 0.206451
0.374054 0.273468 0.215424
0.383026 0.282440 0.224396
0.391998 0.291412 0.233368
0.400940 0.300354 0.242310
0.409912 0.309326 0.251282
0.418884 0.318298 0.260254
0.427856 0.327271 0.269226
0.181641 0.133331 0.133331
0.181061 0.133331 0.133331
0.180481 0.133331 0.133331
0.179871 0.133331 0.133331
0.188843 0.133331 0.133331
0.197784 0.133331 0.133331
0.206757 0.133331 0.133331
0.215729 0.133331 0.133331
0.224701 0.133331 0.133331
0.233643 0.133331 0.133331
0.242615 0.142029 0.133331
0.251587 0.151001 0.133331
0.260559 0.159943 0.133331
0.269531 0.168915 0.133331
0.278473 0.177887 0.133331
0.287445 0.186829 0.133331
0.296417 0.195801 0.137756
0.305389 0.204773 0.146729
0.314331 0.213715 0.155670
0.323303 0.222687 0.164642
0.332275 0.231659 0.173615
0.341217 0.240601 0.182556
0.350189 0.249573 0.191528
0.359161 0.258545 0.200500
0.368134 0.267517 0.209473
0.377075 0.276459 0.218414
0.386047 0.285431 0.227386
0.395020 0.294403 0.236359
0.403961 0.303345 0.245300
0.412933 0.312317 0.254272
0.421906 0.321320 0.263245
0.430847 0.330261 0.272186
0.439819 0.339233 0.281158
0.448792 0.348206 0.290131
0.212158 0.133331 0.133331
0.211548 0.133331 0.133331
0.210968 0.133331 0.133331
0.210388 0.133331 0.133331
0.209778 0.133331 0.133331
0.218750 0.133331 0.133331
0.227692 0.133331 0.133331
0.236664 0.136078 0.133331
0.245636 0.145050 0.133331
0.254608 0.154022 0.133331
0.263550 0.162964 0.133331
0.272522 0.171936 0.133331
0.281494 0.180908 0.133331
0.290436 0.189850 0.133331
0.299408 0.198822 0.140778
0.308380 0.207794 0.149750
0.317322 0.216736 0.158691
0.326294 0.225708 0.167664
0.335266 0.234680 0.176636
0.344208 0.243622 0.185577
0.353180 0.252594 0.194550
0.362152 0.261566 0.203522
0.371094 0.270508 0.212463
0.380066 0.279480 0.221436
0.389038 0.288452 0.230408
0.398010 0.297424 0.239380
0.406952 0.306366 0.248322
0.415924 0.315338 0.257294
0.424927 0.324310 0.266266
0.433838 0.333252 0.275208
0.442841 0.342224 0.284180
0.451813 0.351196 0.293152
0.460754 0.360138 0.302094
0.469727 0.369110 0.311066
0.242615 0.142029 0.133331
0.242065 0.141449 0.133331
0.241455 0.140869 0.133331
0.240845 0.140259 0.133331
0.240265 0.139679 0.133331
0.239685 0.139069 0.133331
0.248657 0.148041 0.133331
0.257599 0.157013 0.133331
0.266571 0.165985 0.133331
0.275543 0.174927 0.133331
0.284515 0.183929 0.133331
0.293457 0.192871 0.134796
0.302429 0.201843 0.143768
0.311401 0.210815 0.152740
0.320343 0.219757 0.161682
0.329315 0.228729 0.170654
0.338287 0.237701 0.179626
0.347229 0.246643 0.188568
0.356201 0.255615 0.197540
0.365173 0.264587 0.206512
0.374115 0.273529 0.215485
0.383087 0.282501 0.224457
0.392059 0.291473 0.233429
0.401001 0.300415 0.242371
0.409973 0.309387 0.251343
0.418945 0.318359 0.260315
0.427917 0.327332 0.269287
0.436859 0.336273 0.278229
0.445831 0.345245 0.287201
0.454803 0.354218 0.296173
0.463745 0.363159 0.305115
0.472717 0.372131 0.314087
0.481689 0.381104 0.323059
0.490631 0.390045 0.332001
0.273132 0.172546 0.133331
0.272522 0.171936 0.133331
0.271942 0.171356 0.133331
0.271362 0.170746 0.133331
0.270752 0.170166 0.133331
0.270172 0.169586 0.133331
0.269562 0.168976 0.133331
0.278534 0.177948 0.133331
0.287506 0.186890 0.133331
0.296478 0.195862 0.137817
0.305450 0.204834 0.146790
0.314423 0.213806 0.155762
0.323364 0.222748 0.164703
0.332336 0.231720 0.173676
0.341309 0.240692 0.182648
0.350250 0.249634 0.191589
0.359222 0.258606 0.200562
0.368164 0.267548 0.209503
0.377136 0.276520 0.218475
0.386108 0.285492 0.227448
0.395081 0.294464 0.236420
0.404022 0.303406 0.245361
0.412994 0.312378 0.254333
0.421967 0.321350 0.263306
0.430908 0.330292 0.272247
0.439880 0.339294 0.281219
0.448853 0.348267 0.290192
0.457825 0.357239 0.299164
0.466766 0.366180 0.308105
0.475739 0.375153 0.317078
0.484711 0.384125 0.326050
0.493652 0.393066 0.334991
0.502625 0.402039 0.343964
0.511597 0.411011 0.352936
0.303589 0.203003 0.144958
0.303040 0.202423 0.144379
0.302429 0.201843 0.143768
0.301849 0.201263 0.143219
0.301239 0.200653 0.142609
0.300659 0.200043 0.141998
0.300079 0.199493 0.141418
0.299469 0.198883 0.140839
0.308441 0.207855 0.149811
0.317383 0.216797 0.158752
0.326355 0.225769 0.167725
0.335327 0.234741 0.176697
0.344299 0.243713 0.185669
0.353241 0.252655 0.194611
0.362213 0.261627 0.203583
0.371185 0.270599 0.212555
0.380127 0.279541 0.221497
0.389099 0.288513 0.230469
0.398041 0.297455 0.239410
0.407013 0.306427 0.248383
0.415985 0.315399 0.257355
0.424957 0.324371 0.266327
0.433899 0.333313 0.275269
0.442902 0.342285 0.284241
0.451874 0.351257 0.293213
0.460815 0.360199 0.302155
0.469788 0.369171 0.311127
0.478760 0.378143 0.320099
0.487732 0.387115 0.329071
0.496674 0.396057 0.338013
0.505646 0.405029 0.346985
0.514618 0.414001 0.355957
0.523560 0.422943 0.364899
0.532532 0.431915 0.373871
0.334106 0.233490 0.175446
0.333496 0.232910 0.174866
0.332916 0.232330 0.174286
0.332336 0.231720 0.173676
0.331757 0.231171 0.173096
0.331146 0.230560 0.172516
0.330536 0.229950 0.171906
0.329987 0.229370 0.171326
0.329376 0.228790 0.170715
0.338348 0.237762 0.179688
0.347290 0.246704 0.188629
0.356262 0.255676 0.197601
0.365234 0.264648 0.206573
0.374207 0.273621 0.215576
0.383148 0.282562 0.224518
0.392120 0.291534 0.233459
0.401093 0.300507 0.242462
0.410034 0.309448 0.251404
0.419006 0.318420 0.260376
0.427948 0.327362 0.269318
0.436920 0.336334 0.278290
0.445892 0.345306 0.287262
0.454865 0.354279 0.296234
0.463806 0.363220 0.305176
0.472778 0.372192 0.314148
0.481750 0.381165 0.323120
0.490692 0.390106 0.332062
0.499664 0.399078 0.341034
0.508636 0.408051 0.350006
0.517609 0.417023 0.358978
0.526550 0.425964 0.367920
0.535522 0.434937 0.376892
0.544495 0.443909 0.385864
0.553436 0.452850 0.394806
0.364594 0.264008 0.205963
0.363983 0.263397 0.205353
0.363403 0.262817 0.204742
0.362823 0.262238 0.204193
0.362213 0.261627 0.203583
0.361664 0.261047 0.203003
0.361053 0.260468 0.202393
0.360443 0.259857 0.201813
0.359863 0.259277 0.201233
0.359283 0.258667 0.200623
0.368256 0.267639 0.209595
0.377197 0.276581 0.218536
0.386169 0.285553 0.227509
0.395142 0.294525 0.236481
0.404114 0.303497 0.245453
0.413055 0.312439 0.254395
0.422028 0.321411 0.263367
0.430969 0.330353 0.272308
0.439941 0.339355 0.281281
0.448914 0.348328 0.290253
0.457855 0.357239 0.299194
0.466827 0.366241 0.308167
0.475800 0.375214 0.317139
0.484772 0.384186 0.326111
0.493713 0.393127 0.335052
0.502686 0.402100 0.344025
0.511658 0.411072 0.352997
0.520599 0.420013 0.361938
0.529572 0.428986 0.370911
0.538544 0.437958 0.379883
0.547516 0.446930 0.388855
0.556458 0.455872 0.397827
0.565430 0.464844 0.406799
0.574402 0.473816 0.415771
0.395081 0.294464 0.236420
0.394501 0.293915 0.235840
0.393890 0.293304 0.235260
0.393311 0.292694 0.234650
0.392731 0.292114 0.234070
0.392120 0.291534 0.233459
0.391541 0.290955 0.232910
0.390961 0.290344 0.232300
0.390350 0.289764 0.231689
0.389771 0.289185 0.231140
0.389160 0.288574 0.230530
0.398132 0.297546 0.239502
0.407074 0.306488 0.248444
0.416046 0.315460 0.257416
0.425018 0.324432 0.266388
0.433990 0.333405 0.275360
0.442963 0.342346 0.284302
0.451904 0.351318 0.293274
0.460846 0.360260 0.302216
0.469849 0.369232 0.311188
0.478821 0.378204 0.320160
0.487762 0.387146 0.329102
0.496735 0.396118 0.338074
0.505707 0.405090 0.347046
0.514679 0.414062 0.356018
0.523621 0.423004 0.364960
0.532593 0.431976 0.373932
0.541565 0.440948 0.382904
0.550507 0.449890 0.391846
0.559479 0.458862 0.400818
0.568451 0.467834 0.409790
0.577423 0.476807 0.418762
0.586365 0.485748 0.427704
0.595337 0.494720 0.436676
0.425568 0.324982 0.266937
0.424957 0.324371 0.266327
0.424408 0.323792 0.265747
0.423798 0.323212 0.265137
0.423187 0.322601 0.264557
0.422607 0.322021 0.263977
0.422028 0.321411 0.263367
0.421448 0.320862 0.262817
0.420837 0.320251 0.262207
0.420258 0.319641 0.261597
0.419678 0.319092 0.261017
0.419067 0.318481 0.260437
0.428040 0.327454 0.269409
0.436981 0.336395 0.278351
0.445953 0.345367 0.287323
0.454926 0.354340 0.296295
0.463898 0.363312 0.305267
0.472839 0.372253 0.314209
0.481812 0.381226 0.323181
0.490753 0.390167 0.332123
0.499725 0.399139 0.341095
0.508698 0.408112 0.350067
0.517639 0.417053 0.359009
0.526611 0.426025 0.367981
0.535583 0.434998 0.376953
0.544556 0.443970 0.385925
0.553497 0.452911 0.394867
0.562469 0.461884 0.403839
0.571442 0.470856 0.412811
0.580383 0.479797 0.421753
0.589355 0.488770 0.430725
0.598328 0.497742 0.439697
0.607300 0.506714 0.448669
0.616241 0.515656 0.457611
0.456085 0.355469 0.297424
0.455475 0.354889 0.296814
0.454865 0.354279 0.296234
0.454285 0.353699 0.295654
0.453705 0.353088 0.295044
0.453094 0.352509 0.294434
0.452515 0.351929 0.293884
0.451904 0.351318 0.293274
0.451355 0.350739 0.292694
0.450745 0.350159 0.292084
0.450134 0.349548 0.291504
0.449585 0.348969 0.290924
0.448975 0.348358 0.290314
0.457947 0.357330 0.299286
0.466888 0.366302 0.308228
0.475861 0.375275 0.317200
0.484833 0.384247 0.326172
0.493774 0.393188 0.335114
0.502747 0.402161 0.344086
0.511719 0.411133 0.353058
0.520660 0.420074 0.362000
0.529633 0.429047 0.370972
0.538605 0.438019 0.379944
0.547546 0.446960 0.388885
0.556519 0.455933 0.397888
0.565491 0.464905 0.406860
0.574463 0.473877 0.415802
0.583405 0.482819 0.424774
0.592377 0.491791 0.433746
0.601349 0.500763 0.442719
0.610291 0.509705 0.451660
0.619263 0.518677 0.460632
0.628235 0.527649 0.469604
0.637207 0.536621 0.478577
0.486542 0.385956 0.327911
0.485962 0.385376 0.327332
0.485382 0.384766 0.326721
0.484772 0.384186 0.326111
0.484192 0.383606 0.325562
0.483582 0.382996 0.324951
0.483002 0.382385 0.324341
0.482422 0.381836 0.323761
0.481812 0.381226 0.323181
0.481232 0.380646 0.322601
0.480652 0.380035 0.321991
0.480042 0.379456 0.321381
0.479462 0.378876 0.320831
0.478882 0.378265 0.320221
0.487823 0.387238 0.329193
0.496796 0.396179 0.338135
0.505768 0.405151 0.347107
0.514740 0.414124 0.356079
0.523682 0.423065 0.365021
0.532654 0.432037 0.373993
0.541626 0.441010 0.382965
0.550568 0.449951 0.391907
0.559540 0.458923 0.400879
0.568512 0.467896 0.409851
0.577454 0.476837 0.418793
0.586426 0.485809 0.427765
0.595398 0.494781 0.436737
0.604370 0.503754 0.445709
0.613312 0.512695 0.454651
0.622284 0.521698 0.463623
0.631256 0.530670 0.472595
0.640198 0.539581 0.481537
0.649170 0.548584 0.490509
0.658142 0.557556 0.499481
0.517059 0.416443 0.358398
0.516449 0.415833 0.357788
0.515869 0.415283 0.357239
0.515259 0.414673 0.356628
0.514679 0.414062 0.356018
0.514099 0.413513 0.355438
0.513489 0.412903 0.354858
0.512878 0.412292 0.354248
0.512329 0.411713 0.353668
0.511719 0.411133 0.353058
0.511139 0.410553 0.352509
0.510529 0.409943 0.351898
0.509949 0.409332 0.351288
0.509369 0.408783 0.350708
0.508759 0.408173 0.350128
0.517731 0.417145 0.359100
0.526672 0.426086 0.368042
0.535645 0.435059 0.377014
0.544617 0.444031 0.385986
0.553558 0.452972 0.394928
0.562531 0.461945 0.403900
0.571503 0.470917 0.412872
0.580444 0.479858 0.421814
0.589417 0.488831 0.430786
0.598389 0.497803 0.439758
0.607330 0.506744 0.448700
0.616302 0.515717 0.457672
0.625275 0.524689 0.466644
0.634247 0.533661 0.475616
0.643188 0.542603 0.484558
0.652191 0.551575 0.493530
0.661163 0.560547 0.502502
0.670105 0.569489 0.511444
0.679077 0.578461 0.520416
0.547546 0.446960 0.388885
0.546936 0.446350 0.388306
0.546326 0.445740 0.387695
0.545776 0.445160 0.387115
0.545166 0.444580 0.386536
0.544556 0.443970 0.385925
0.544006 0.443390 0.385345
0.543396 0.442810 0.384735
0.542786 0.442200 0.384155
0.542206 0.441620 0.383575
0.541626 0.441010 0.382965
0.541046 0.440460 0.382385
0.540436 0.439850 0.381805
0.539825 0.439240 0.381195
0.539276 0.438660 0.380615
0.538666 0.438080 0.380005
0.547638 0.447052 0.388977
0.556580 0.455994 0.397949
0.565552 0.464966 0.406891
0.574524 0.473938 0.415863
0.583466 0.482880 0.424835
0.592438 0.491852 0.433807
0.601410 0.500824 0.442780
0.610352 0.509766 0.451721
0.619324 0.518738 0.460693
0.628296 0.527710 0.469666
0.637238 0.536652 0.478607
0.646210 0.545624 0.487579
0.655182 0.554596 0.496552
0.664154 0.563568 0.505524
0.673096 0.572510 0.514465
0.682068 0.581482 0.523438
0.691040 0.590454 0.532410
0.699982 0.599396 0.541351
0.578003 0.477417 0.419373
0.577454 0.476837 0.418793
0.576843 0.476257 0.418182
0.576233 0.475647 0.417603
0.575684 0.475067 0.417023
0.575073 0.474457 0.416412
0.574463 0.473877 0.415802
0.573883 0.473297 0.415253
0.573303 0.472687 0.414642
0.572693 0.472107 0.414032
0.572113 0.471527 0.413483
0.571503 0.470917 0.412872
0.570953 0.470337 0.412292
0.570343 0.469757 0.411682
0.569733 0.469147 0.411102
0.569153 0.468567 0.410522
0.568573 0.467957 0.409912
0.577515 0.476898 0.418854
0.586487 0.485870 0.427826
0.595459 0.494843 0.436798
0.604431 0.503815 0.445770
0.613373 0.512756 0.454712
0.622345 0.521759 0.463684
0.631317 0.530701 0.472656
0.640259 0.539642 0.481598
0.649231 0.548645 0.490570
0.658203 0.557617 0.499542
0.667145 0.566559 0.508484
0.676117 0.575531 0.517456
0.685089 0.584503 0.526428
0.694061 0.593475 0.535400
0.703003 0.602417 0.544342
0.711975 0.611389 0.553314
0.720947 0.620361 0.562286
0.608490 0.507904 0.449829
0.607880 0.507294 0.449249
0.607300 0.506714 0.448669
0.606720 0.506104 0.448059
0.606110 0.505524 0.447449
0.605530 0.504944 0.446899
0.604919 0.504333 0.446289
0.604340 0.503723 0.445679
0.603760 0.503174 0.445129
0.603149 0.502563 0.444519
0.602570 0.501953 0.443909
0.601990 0.501373 0.443329
0.601379 0.500793 0.442749
0.600800 0.500214 0.442169
0.600220 0.499603 0.441559
0.599609 0.499023 0.440948
0.599030 0.498444 0.440399
0.598419 0.497833 0.439789
0.607391 0.506805 0.448761
0.616333 0.515747 0.457703
0.625305 0.524719 0.466675
0.634277 0.533691 0.475647
0.643250 0.542664 0.484619
0.652222 0.551605 0.493561
0.661194 0.560577 0.502533
0.670135 0.569550 0.511505
0.679108 0.578491 0.520447
0.688080 0.587463 0.529419
0.697052 0.596436 0.538391
0.705994 0.605377 0.547333
0.714966 0.614349 0.556305
0.723938 0.623322 0.565277
0.732910 0.632294 0.574249
0.741852 0.641235 0.583191
0.638947 0.538361 0.480316
0.638397 0.537781 0.479736
0.637787 0.537201 0.479126
0.637207 0.536621 0.478577
0.636597 0.536011 0.477966
0.636017 0.535400 0.477356
0.635437 0.534851 0.476776
0.634827 0.534241 0.476196
0.634247 0.533630 0.475586
0.633667 0.533051 0.475006
0.633057 0.532471 0.474396
0.632446 0.531860 0.473816
0.631897 0.531281 0.473236
0.631287 0.530670 0.472626
0.630707 0.530121 0.472076
0.630096 0.529510 0.471466
0.629517 0.528900 0.470856
0.628937 0.528351 0.470276
0.628326 0.527740 0.469696
0.637299 0.536713 0.478668
0.646240 0.545654 0.487610
0.655212 0.554626 0.496582
0.664185 0.563599 0.505554
0.673157 0.572571 0.514526
0.682098 0.581512 0.523468
0.691071 0.590485 0.532440
0.700043 0.599457 0.541412
0.708984 0.608398 0.550354
0.717957 0.617371 0.559326
0.726929 0.626343 0.568298
0.735870 0.635284 0.577240
0.744843 0.644257 0.586212
0.753815 0.653229 0.595184
0.762787 0.662201 0.604156
0.669464 0.568878 0.510803
0.668854 0.568268 0.510223
0.668274 0.567688 0.509644
0.667694 0.567078 0.509033
0.667114 0.566528 0.508453
0.666504 0.565918 0.507874
0.665894 0.565308 0.507263
0.665344 0.564728 0.506683
0.664734 0.564148 0.506073
0.664124 0.563538 0.505493
0.663544 0.562958 0.504913
0.662964 0.562347 0.504303
0.662354 0.561768 0.503693
0.661774 0.561188 0.503143
0.661194 0.560577 0.502533
0.660614 0.559998 0.501953
0.660004 0.559418 0.501343
0.659393 0.558807 0.500763
0.658844 0.558228 0.500183
0.658234 0.557648 0.499573
0.667206 0.566620 0.508545
0.676147 0.575562 0.517487
0.685120 0.584534 0.526459
0.694092 0.593506 0.535431
0.703064 0.602478 0.544403
0.712006 0.611420 0.553345
0.720978 0.620392 0.562317
0.729950 0.629364 0.571289
0.738892 0.638306 0.580261
0.747864 0.647278 0.589203
0.756836 0.656250 0.598175
0.765778 0.665192 0.607147
0.774750 0.674164 0.616119
0.783722 0.683136 0.625092
0.699951 0.599365 0.541321
0.699371 0.598755 0.540710
0.698761 0.598145 0.540100
0.698181 0.597595 0.539551
0.697571 0.596985 0.538940
0.697021 0.596405 0.538361
0.696411 0.595825 0.537750
0.695801 0.595215 0.537170
0.695221 0.594635 0.536591
0.694641 0.594025 0.535980
0.694031 0.593445 0.535370
0.693451 0.592865 0.534821
0.692841 0.592255 0.534210
0.692261 0.591644 0.533600
0.691681 0.591095 0.533020
0.691071 0.590485 0.532440
0.690521 0.589905 0.531860
0.689911 0.589294 0.531250
0.689301 0.588715 0.530670
0.688721 0.588135 0.530090
0.688141 0.587524 0.529480
0.697113 0.596497 0.538452
0.706055 0.605438 0.547394
0.715027 0.614410 0.556366
0.723999 0.623383 0.565338
0.732971 0.632355 0.574310
0.741913 0.641296 0.583252
0.750885 0.650269 0.592224
0.759857 0.659241 0.601196
0.768799 0.668182 0.610138
0.777771 0.677155 0.619110
0.786743 0.686127 0.628082
0.795685 0.695068 0.637024
0.804657 0.704071 0.645996
0.730438 0.629822 0.571777
0.729858 0.629272 0.571198
0.729248 0.628662 0.570618
0.728668 0.628052 0.570007
0.728088 0.627502 0.569427
0.727478 0.626892 0.568848
0.726898 0.626312 0.568268
0.726318 0.625702 0.567657
0.725708 0.625092 0.567047
0.725128 0.624542 0.566498
0.724518 0.623932 0.565887
0.723938 0.623322 0.565277
0.723358 0.622772 0.564697
0.722748 0.622162 0.564117
0.722137 0.621552 0.563507
0.721588 0.620972 0.562927
0.720978 0.620392 0.562317
0.720398 0.619812 0.561768
0.719788 0.619202 0.561157
0.719208 0.618591 0.560547
0.718628 0.618042 0.559967
0.718018 0.617432 0.559387
0.726990 0.626404 0.568359
0.735931 0.635345 0.577301
0.744904 0.644318 0.586273
0.753876 0.653290 0.595245
0.762848 0.662262 0.604218
0.771790 0.671204 0.613159
0.780762 0.680176 0.622131
0.789734 0.689148 0.631104
0.798676 0.698090 0.640045
0.807648 0.707062 0.649017
0.816620 0.716034 0.657990
0.825562 0.724976 0.666931
0.760925 0.660339 0.602295
0.760315 0.659729 0.601685
0.759766 0.659149 0.601105
0.759155 0.658569 0.600525
0.758545 0.657959 0.599915
0.757996 0.657379 0.599335
0.757385 0.656769 0.598724
0.756805 0.656219 0.598145
0.756195 0.655609 0.597565
0.755615 0.654999 0.596954
0.755035 0.654449 0.596375
0.754425 0.653839 0.595795
0.753815 0.653229 0.595184
0.753265 0.652649 0.594604
0.752655 0.652069 0.593994
0.752045 0.651459 0.593414
0.751465 0.650879 0.592834
0.750885 0.650269 0.592224
0.750305 0.649719 0.591644
0.749695 0.649109 0.591064
0.749084 0.648499 0.590454
0.748535 0.647919 0.589874
0.747925 0.647339 0.589264
0.756897 0.656311 0.598236
0.765839 0.665253 0.607208
0.774811 0.674225 0.616180
0.783783 0.683197 0.625122
0.792755 0.692169 0.634125
0.801697 0.701111 0.643066
0.810669 0.710083 0.652039
0.819641 0.719055 0.661011
0.828583 0.727997 0.669952
0.837555 0.736969 0.678925
0.846527 0.745941 0.687897
0.791443 0.690826 0.632782
0.790833 0.690247 0.632172
0.790222 0.689636 0.631592
0.789642 0.689056 0.631012
0.789062 0.688446 0.630402
0.788452 0.687866 0.629791
0.787872 0.687286 0.629242
0.787262 0.686676 0.628632
0.786713 0.686096 0.628052
0.786102 0.685516 0.627472
0.785492 0.684906 0.626862
0.784943 0.684326 0.626282
0.784332 0.683716 0.625671
0.783722 0.683136 0.625092
0.783142 0.682556 0.624512
0.782562 0.681946 0.623901
0.781952 0.681366 0.623291
0.781372 0.680786 0.622742
0.780762 0.680176 0.622131
0.780212 0.679596 0.621552
0.779602 0.679016 0.620941
0.778992 0.678406 0.620361
0.778412 0.677826 0.619781
0.777832 0.677216 0.619171
0.786804 0.686188 0.628143
0.795746 0.695129 0.637085
0.804718 0.704102 0.646057
0.813690 0.713074 0.655029
0.822662 0.722046 0.664001
0.831604 0.731018 0.672943
0.840576 0.739990 0.681915
0.849548 0.748932 0.690887
0.858490 0.757904 0.699829
0.867462 0.766876 0.708801
0.821899 0.721313 0.663269
0.821320 0.720734 0.662689
0.820740 0.720123 0.662079
0.820129 0.719543 0.661469
0.819550 0.718964 0.660919
0.818939 0.718353 0.660309
0.818359 0.717743 0.659698
0.817780 0.717194 0.659119
0.817169 0.716583 0.658539
0.816589 0.716003 0.657959
0.816010 0.715393 0.657349
0.815399 0.714813 0.656738
0.814819 0.714233 0.656189
0.814240 0.713623 0.655579
0.813629 0.713013 0.654968
0.813049 0.712463 0.654419
0.812439 0.711853 0.653809
0.811859 0.711243 0.653198
0.811279 0.710693 0.652618
0.810669 0.710083 0.652039
0.810089 0.709503 0.651459
0.809509 0.708893 0.650848
0.808899 0.708313 0.650238
0.808319 0.707733 0.649689
0.807709 0.707123 0.649078
0.816681 0.716095 0.658051
0.825623 0.725037 0.666992
0.834625 0.734009 0.675964
0.843567 0.742981 0.684937
0.852539 0.751953 0.693909
0.861511 0.760895 0.702850
0.870483 0.769867 0.711823
0.879456 0.778839 0.720795
0.888397 0.787781 0.729736
0.852417 0.751801 0.693756
0.851807 0.751221 0.693146
0.851227 0.750641 0.692596
0.850616 0.750031 0.691986
0.850037 0.749420 0.691376
0.849457 0.748871 0.690796
0.848846 0.748260 0.690216
0.848236 0.747650 0.689606
0.847687 0.747070 0.689026
0.847076 0.746490 0.688416
0.846497 0.745911 0.687866
0.845886 0.745300 0.687256
0.845306 0.744690 0.686646
0.844727 0.744141 0.686066
0.844116 0.743530 0.685486
0.843536 0.742920 0.684875
0.842957 0.742340 0.684296
0.842346 0.741760 0.683685
0.841736 0.741150 0.683105
0.841187 0.740570 0.682526
0.840576 0.739990 0.681915
0.839996 0.739410 0.681366
0.839386 0.738800 0.680756
0.838806 0.738190 0.680145
0.838226 0.737640 0.679565
0.837616 0.737030 0.678986
0.846588 0.746002 0.687958
0.855530 0.754944 0.696899
0.864502 0.763916 0.705872
0.873474 0.772888 0.714844
0.882446 0.781860 0.723816
