other luts/实验工艺系列/凹版印相.cube
#Created by: Adobe Photoshop Export Color Lookup Plugin
#Copyright: (C) Copyright 2026 汉图
TITLE "实验工艺"
#LUT size
LUT_3D_SIZE 7
#data domain
#LUT data points
DOMAIN_MIN 0.000000 0.000000 0.000000
DOMAIN_MAX 0.909091 0.909091 0.909091
0.133331 0.133331 0.133331
0.133331 0.133331 0.133331
0.179810 0.133331 0.133331
0.224640 0.133331 0.133331
0.269470 0.168854 0.133331
0.314270 0.213654 0.155609
0.359100 0.258484 0.200439
0.242615 0.142029 0.133331
0.239685 0.139069 0.133331
0.284515 0.183929 0.133331
0.329315 0.228729 0.170654
0.374115 0.273529 0.215485
0.418945 0.318359 0.260315
0.463745 0.363159 0.305115
0.395081 0.294464 0.236420
0.392120 0.291534 0.233459
0.389160 0.288574 0.230530
0.433990 0.333405 0.275360
0.478821 0.378204 0.320160
0.523621 0.423004 0.364960
0.568451 0.467834 0.409790
0.547546 0.446960 0.388885
0.544556 0.443970 0.385925
0.541626 0.441010 0.382965
0.538666 0.438080 0.380005
0.583466 0.482880 0.424835
0.628296 0.527710 0.469666
0.673096 0.572510 0.514465
0.699951 0.599365 0.541321
0.697021 0.596405 0.538361
0.694031 0.593445 0.535370
0.691071 0.590485 0.532440
0.688141 0.587524 0.529480
0.732971 0.632355 0.574310
0.777771 0.677155 0.619110
0.852417 0.751801 0.693756
0.849457 0.748871 0.690796
0.846497 0.745911 0.687866
0.843536 0.742920 0.684875
0.840576 0.739990 0.681915
0.837616 0.737030 0.678986
0.882446 0.781860 0.723816
1.000000 0.905792 0.851410
1.000000 0.901947 0.845306
0.998932 0.898346 0.840302
0.996002 0.895386 0.837341
0.993011 0.892426 0.834381
0.990051 0.889465 0.831421
0.987122 0.886505 0.828461
0.133331 0.133331 0.133331
0.133331 0.133331 0.133331
0.133331 0.133331 0.133331
0.179810 0.133331 0.133331
0.224609 0.133331 0.133331
0.269470 0.168854 0.133331
0.314270 0.213654 0.155609
0.133331 0.133331 0.133331
0.239685 0.139069 0.133331
0.284515 0.183929 0.133331
0.329315 0.228729 0.170654
0.374115 0.273529 0.215485
0.418945 0.318359 0.260315
0.463745 0.363159 0.305115
0.242615 0.142029 0.133331
0.392120 0.291534 0.233459
0.389160 0.288574 0.230530
0.433990 0.333405 0.275360
0.478821 0.378204 0.320160
0.523621 0.423004 0.364960
0.568451 0.467834 0.409790
0.395081 0.294464 0.236420
0.544556 0.443970 0.385925
0.541626 0.441010 0.382965
0.538666 0.438080 0.380005
0.583466 0.482880 0.424835
0.628296 0.527710 0.469666
0.673096 0.572510 0.514465
0.547516 0.446930 0.388855
0.697021 0.596405 0.538361
0.694031 0.593445 0.535370
0.691071 0.590485 0.532440
0.688141 0.587524 0.529480
0.732971 0.632355 0.574310
0.777771 0.677155 0.619110
0.699951 0.599365 0.541321
0.849457 0.748871 0.690796
0.846497 0.745911 0.687866
0.843536 0.742920 0.684875
0.840576 0.739990 0.681915
0.837616 0.737030 0.678986
0.882446 0.781860 0.723816
0.852417 0.751801 0.693756
1.000000 0.901947 0.845306
0.998932 0.898346 0.840302
0.996002 0.895386 0.837341
0.993011 0.892426 0.834381
0.990051 0.889465 0.831421
0.987122 0.886505 0.828461
0.133331 0.133331 0.133331
0.133331 0.133331 0.133331
0.133331 0.133331 0.133331
0.133331 0.133331 0.133331
0.179810 0.133331 0.133331
0.224609 0.133331 0.133331
0.269470 0.168854 0.133331
0.133331 0.133331 0.133331
0.239685 0.139069 0.133331
0.239685 0.139069 0.133331
0.284515 0.183929 0.133331
0.329315 0.228729 0.170654
0.374115 0.273529 0.215485
0.418945 0.318359 0.260315
0.133331 0.133331 0.133331
0.239685 0.139069 0.133331
0.389160 0.288574 0.230530
0.433990 0.333405 0.275360
0.478821 0.378204 0.320160
0.523621 0.423004 0.364960
0.568451 0.467834 0.409790
0.242615 0.142029 0.133331
0.392120 0.291534 0.233459
0.541626 0.441010 0.382965
0.538666 0.438080 0.380005
0.583466 0.482880 0.424835
0.628296 0.527710 0.469666
0.673096 0.572510 0.514465
0.395050 0.294434 0.236389
0.544525 0.443939 0.385895
0.694031 0.593445 0.535370
0.691071 0.590485 0.532440
0.688141 0.587524 0.529480
0.732971 0.632355 0.574310
0.777771 0.677155 0.619110
0.547516 0.446930 0.388855
0.697021 0.596405 0.538361
0.846497 0.745911 0.687866
0.843536 0.742920 0.684875
0.840576 0.739990 0.681915
0.837616 0.737030 0.678986
0.882446 0.781860 0.723816
0.699951 0.599365 0.541321
0.849457 0.748871 0.690796
0.998932 0.898346 0.840302
0.996002 0.895386 0.837341
0.993011 0.892426 0.834381
0.990051 0.889465 0.831421
0.987122 0.886505 0.828461
0.133331 0.133331 0.133331
0.133331 0.133331 0.133331
0.133331 0.133331 0.133331
0.133331 0.133331 0.133331
0.133331 0.133331 0.133331
0.179810 0.133331 0.133331
0.224609 0.133331 0.133331
0.133331 0.133331 0.133331
0.239685 0.139069 0.133331
0.239685 0.139069 0.133331
0.239685 0.139069 0.133331
0.284485 0.183899 0.133331
0.329315 0.228729 0.170654
0.374115 0.273529 0.215485
0.133331 0.133331 0.133331
0.239685 0.139069 0.133331
0.389160 0.288574 0.230530
0.389160 0.288574 0.230530
0.433960 0.333374 0.275330
0.478821 0.378204 0.320160
0.523621 0.423004 0.364960
0.133331 0.133331 0.133331
0.239685 0.139069 0.133331
0.389160 0.288574 0.230530
0.538666 0.438080 0.380005
0.583466 0.482880 0.424835
0.628296 0.527710 0.469666
0.673096 0.572510 0.514465
0.242584 0.141998 0.133331
0.392090 0.291504 0.233429
0.541595 0.440979 0.382935
0.691071 0.590485 0.532440
0.688141 0.587524 0.529480
0.732971 0.632355 0.574310
0.777771 0.677155 0.619110
0.395050 0.294434 0.236389
0.544525 0.443939 0.385895
0.694031 0.593445 0.535370
0.843536 0.742920 0.684875
0.840576 0.739990 0.681915
0.837616 0.737030 0.678986
0.882446 0.781860 0.723816
0.547516 0.446930 0.388855
0.697021 0.596405 0.538361
0.846497 0.745911 0.687866
0.996002 0.895386 0.837341
0.993011 0.892426 0.834381
0.990051 0.889465 0.831421
0.987122 0.886505 0.828461
0.133331 0.133331 0.133331
0.133331 0.133331 0.133331
0.133331 0.133331 0.133331
0.133331 0.133331 0.133331
0.133331 0.133331 0.133331
0.133331 0.133331 0.133331
0.179810 0.133331 0.133331
0.133331 0.133331 0.133331
0.239685 0.139069 0.133331
0.239685 0.139069 0.133331
0.239685 0.139069 0.133331
0.239685 0.139069 0.133331
0.284515 0.183929 0.133331
0.329315 0.228729 0.170654
0.133331 0.133331 0.133331
0.239685 0.139069 0.133331
0.389160 0.288574 0.230530
0.389160 0.288574 0.230530
0.389160 0.288574 0.230530
0.433990 0.333405 0.275360
0.478821 0.378204 0.320160
0.133331 0.133331 0.133331
0.239685 0.139069 0.133331
0.389160 0.288574 0.230530
0.538666 0.438080 0.380005
0.538666 0.438080 0.380005
0.583496 0.482910 0.424866
0.628296 0.527710 0.469666
0.133331 0.133331 0.133331
0.239685 0.139069 0.133331
0.389160 0.288574 0.230530
0.538666 0.438080 0.380005
0.688141 0.587524 0.529480
0.732971 0.632355 0.574310
0.777771 0.677155 0.619110
0.242615 0.142029 0.133331
0.392120 0.291534 0.233459
0.541626 0.441010 0.382965
0.691101 0.590515 0.532471
0.840576 0.739990 0.681915
0.837616 0.737030 0.678986
0.882446 0.781860 0.723816
0.395081 0.294464 0.236420
0.544556 0.443970 0.385925
0.694061 0.593475 0.535400
0.843567 0.742950 0.684906
0.993011 0.892426 0.834381
0.990051 0.889465 0.831421
0.987122 0.886505 0.828461
0.133331 0.133331 0.133331
0.133331 0.133331 0.133331
0.133331 0.133331 0.133331
0.133331 0.133331 0.133331
0.133331 0.133331 0.133331
0.133331 0.133331 0.133331
0.133331 0.133331 0.133331
0.133331 0.133331 0.133331
0.239685 0.139069 0.133331
0.239685 0.139069 0.133331
0.239685 0.139069 0.133331
0.239685 0.139069 0.133331
0.239685 0.139069 0.133331
0.284515 0.183929 0.133331
0.133331 0.133331 0.133331
0.239685 0.139069 0.133331
0.389160 0.288574 0.230530
0.389160 0.288574 0.230530
0.389160 0.288574 0.230530
0.389160 0.288574 0.230530
0.433990 0.333405 0.275360
0.133331 0.133331 0.133331
0.239685 0.139069 0.133331
0.389160 0.288574 0.230530
0.538666 0.438080 0.380005
0.538666 0.438080 0.380005
0.538666 0.438080 0.380005
0.583496 0.482910 0.424866
0.133331 0.133331 0.133331
0.239685 0.139069 0.133331
0.389160 0.288574 0.230530
0.538666 0.438080 0.380005
0.688141 0.587524 0.529480
0.688141 0.587524 0.529480
0.732971 0.632355 0.574310
0.133331 0.133331 0.133331
0.239685 0.139069 0.133331
0.389160 0.288574 0.230530
0.538666 0.438080 0.380005
0.688141 0.587524 0.529480
0.837616 0.737030 0.678986
0.882446 0.781860 0.723816
0.242615 0.142029 0.133331
0.392120 0.291534 0.233459
0.541626 0.441010 0.382965
0.691101 0.590515 0.532471
0.840576 0.739990 0.681915
0.990051 0.889465 0.831421
0.987122 0.886505 0.828461
0.133331 0.133331 0.133331
0.133331 0.133331 0.133331
0.133331 0.133331 0.133331
0.133331 0.133331 0.133331
0.133331 0.133331 0.133331
0.133331 0.133331 0.133331
0.133331 0.133331 0.133331
0.133331 0.133331 0.133331
0.239685 0.139069 0.133331
0.239685 0.139069 0.133331
0.239685 0.139069 0.133331
0.239685 0.139069 0.133331
0.239685 0.139069 0.133331
0.239685 0.139069 0.133331
0.133331 0.133331 0.133331
0.239685 0.139069 0.133331
0.389160 0.288574 0.230530
0.389160 0.288574 0.230530
0.389160 0.288574 0.230530
0.389160 0.288574 0.230530
0.389160 0.288574 0.230530
0.133331 0.133331 0.133331
0.239685 0.139069 0.133331
0.389160 0.288574 0.230530
0.538666 0.438080 0.380005
0.538666 0.438080 0.380005
0.538666 0.438080 0.380005
0.538666 0.438080 0.380005
0.133331 0.133331 0.133331
0.239685 0.139069 0.133331
0.389160 0.288574 0.230530
0.538666 0.438080 0.380005
0.688141 0.587524 0.529480
0.688141 0.587524 0.529480
0.688141 0.587524 0.529480
0.133331 0.133331 0.133331
0.239685 0.139069 0.133331
0.389160 0.288574 0.230530
0.538666 0.438080 0.380005
0.688141 0.587524 0.529480
0.837616 0.737030 0.678986
0.837616 0.737030 0.678986
0.133331 0.133331 0.133331
0.239685 0.139069 0.133331
0.389160 0.288574 0.230530
0.538666 0.438080 0.380005
0.688141 0.587524 0.529480
0.837616 0.737030 0.678986
0.987122 0.886505 0.828461
