other luts/实验工艺系列/明胶银盐.cube
#Created by: Adobe Photoshop Export Color Lookup Plugin
#Copyright: (C) Copyright 2026 汉图
TITLE "实验工艺"
#LUT size
LUT_3D_SIZE 7
#data domain
#LUT data points
DOMAIN_MIN 0.000000 0.000000 0.000000
DOMAIN_MAX 0.909091 0.909091 0.909091
0.066681 0.066681 0.066681
0.066681 0.066681 0.066681
0.066681 0.066681 0.066681
0.079254 0.077148 0.074646
0.101257 0.098022 0.094299
0.130341 0.126526 0.121582
0.165192 0.160645 0.154907
0.087006 0.084473 0.081421
0.085724 0.083282 0.080139
0.110352 0.106842 0.102570
0.141541 0.137390 0.132141
0.178009 0.173248 0.167267
0.219116 0.213898 0.207062
0.263916 0.258270 0.250885
0.196625 0.191650 0.185364
0.193970 0.189148 0.182739
0.191315 0.186432 0.180176
0.233765 0.228333 0.221558
0.279663 0.273834 0.266510
0.328949 0.322784 0.314728
0.381195 0.374695 0.366302
0.356476 0.350128 0.341827
0.353058 0.346710 0.338440
0.349670 0.343353 0.335083
0.346283 0.339966 0.331787
0.399384 0.392761 0.384125
0.455414 0.448456 0.439392
0.513855 0.506592 0.497192
0.550049 0.542358 0.532959
0.545807 0.538422 0.528748
0.541809 0.534424 0.524841
0.537872 0.530548 0.520935
0.533966 0.526642 0.517090
0.595459 0.587921 0.577911
0.659149 0.651276 0.640930
0.770203 0.761658 0.750854
0.765442 0.757263 0.746490
0.761078 0.752869 0.742096
0.756653 0.748413 0.737701
0.752228 0.743774 0.733032
0.747559 0.739380 0.728699
0.816193 0.807831 0.796753
1.000000 1.000000 0.992188
1.000000 0.999146 0.987366
1.000000 0.994141 0.982361
0.998535 0.989227 0.977539
0.993347 0.984467 0.972687
0.988556 0.979645 0.967987
0.983795 0.974579 0.962921
0.066681 0.066681 0.066681
0.066681 0.066681 0.066681
0.066681 0.066681 0.066681
0.066681 0.066681 0.066681
0.079254 0.077118 0.074646
0.101257 0.098022 0.094299
0.130341 0.126526 0.121582
0.066681 0.066681 0.066681
0.085724 0.083282 0.080139
0.110352 0.106842 0.102570
0.141541 0.137390 0.132141
0.178009 0.173248 0.167267
0.219116 0.213898 0.207062
0.263916 0.258270 0.250885
0.087006 0.084473 0.081421
0.193970 0.189148 0.182739
0.191315 0.186432 0.180176
0.233765 0.228333 0.221558
0.279663 0.273834 0.266510
0.328949 0.322784 0.314728
0.381195 0.374695 0.366302
0.196625 0.191650 0.185364
0.353058 0.346710 0.338440
0.349670 0.343353 0.335083
0.346283 0.339966 0.331787
0.399384 0.392761 0.384125
0.455414 0.448456 0.439392
0.513855 0.506592 0.497192
0.356445 0.350098 0.341766
0.545807 0.538422 0.528748
0.541809 0.534424 0.524841
0.537872 0.530548 0.520935
0.533966 0.526642 0.517090
0.595459 0.587921 0.577911
0.659149 0.651276 0.640930
0.550049 0.542358 0.532959
0.765442 0.757263 0.746490
0.761078 0.752869 0.742096
0.756653 0.748413 0.737701
0.752228 0.743774 0.733032
0.747559 0.739380 0.728699
0.816193 0.807831 0.796753
0.770203 0.761658 0.750854
1.000000 0.999146 0.987366
1.000000 0.994141 0.982361
0.998535 0.989227 0.977539
0.993347 0.984467 0.972687
0.988556 0.979645 0.967987
0.983795 0.974579 0.962921
0.066681 0.066681 0.066681
0.066681 0.066681 0.066681
0.066681 0.066681 0.066681
0.066681 0.066681 0.066681
0.066681 0.066681 0.066681
0.079254 0.077118 0.074646
0.101257 0.098022 0.094299
0.066681 0.066681 0.066681
0.085724 0.083282 0.080139
0.085724 0.083282 0.080139
0.110352 0.106842 0.102570
0.141541 0.137390 0.132141
0.178009 0.173248 0.167267
0.219116 0.213898 0.207062
0.066681 0.066681 0.066681
0.085724 0.083282 0.080139
0.191315 0.186432 0.180176
0.233765 0.228333 0.221558
0.279663 0.273834 0.266510
0.328949 0.322784 0.314728
0.381195 0.374695 0.366302
0.087006 0.084473 0.081421
0.193970 0.189148 0.182739
0.349670 0.343353 0.335083
0.346283 0.339966 0.331787
0.399384 0.392761 0.384125
0.455414 0.448456 0.439392
0.513855 0.506592 0.497192
0.196594 0.191620 0.185333
0.352997 0.346680 0.338409
0.541809 0.534424 0.524841
0.537872 0.530548 0.520935
0.533966 0.526642 0.517090
0.595459 0.587921 0.577911
0.659149 0.651276 0.640930
0.356445 0.350098 0.341766
0.545807 0.538422 0.528748
0.761078 0.752869 0.742096
0.756653 0.748413 0.737701
0.752228 0.743774 0.733032
0.747559 0.739380 0.728699
0.816193 0.807831 0.796753
0.550049 0.542358 0.532959
0.765442 0.757263 0.746490
1.000000 0.994141 0.982361
0.998535 0.989227 0.977539
0.993347 0.984467 0.972687
0.988556 0.979645 0.967987
0.983795 0.974579 0.962921
0.066681 0.066681 0.066681
0.066681 0.066681 0.066681
0.066681 0.066681 0.066681
0.066681 0.066681 0.066681
0.066681 0.066681 0.066681
0.066681 0.066681 0.066681
0.079254 0.077118 0.074646
0.066681 0.066681 0.066681
0.085724 0.083282 0.080139
0.085724 0.083282 0.080139
0.085724 0.083282 0.080139
0.110321 0.106812 0.102539
0.141541 0.137390 0.132141
0.178009 0.173248 0.167267
0.066681 0.066681 0.066681
0.085724 0.083282 0.080139
0.191315 0.186432 0.180176
0.191315 0.186432 0.180176
0.233704 0.228302 0.221527
0.279663 0.273834 0.266510
0.328949 0.322784 0.314728
0.066681 0.066681 0.066681
0.085724 0.083282 0.080139
0.191315 0.186432 0.180176
0.346283 0.339966 0.331787
0.399384 0.392761 0.384125
0.455414 0.448456 0.439392
0.513855 0.506592 0.497192
0.087006 0.084473 0.081421
0.193939 0.189087 0.182739
0.349640 0.343292 0.335052
0.537872 0.530548 0.520935
0.533966 0.526642 0.517090
0.595459 0.587921 0.577911
0.659149 0.651276 0.640930
0.196594 0.191620 0.185333
0.352997 0.346680 0.338409
0.541809 0.534424 0.524841
0.756653 0.748413 0.737701
0.752228 0.743774 0.733032
0.747559 0.739380 0.728699
0.816193 0.807831 0.796753
0.356445 0.350098 0.341766
0.545807 0.538422 0.528748
0.761078 0.752869 0.742096
0.998535 0.989227 0.977539
0.993347 0.984467 0.972687
0.988556 0.979645 0.967987
0.983795 0.974579 0.962921
0.066681 0.066681 0.066681
0.066681 0.066681 0.066681
0.066681 0.066681 0.066681
0.066681 0.066681 0.066681
0.066681 0.066681 0.066681
0.066681 0.066681 0.066681
0.066681 0.066681 0.066681
0.066681 0.066681 0.066681
0.085724 0.083282 0.080139
0.085724 0.083282 0.080139
0.085724 0.083282 0.080139
0.085724 0.083282 0.080139
0.110352 0.106842 0.102570
0.141541 0.137390 0.132141
0.066681 0.066681 0.066681
0.085724 0.083282 0.080139
0.191315 0.186432 0.180176
0.191315 0.186432 0.180176
0.191315 0.186432 0.180176
0.233765 0.228333 0.221558
0.279663 0.273834 0.266510
0.066681 0.066681 0.066681
0.085724 0.083282 0.080139
0.191315 0.186432 0.180176
0.346283 0.339966 0.331787
0.346283 0.339966 0.331787
0.399414 0.392792 0.384155
0.455414 0.448456 0.439392
0.066681 0.066681 0.066681
0.085724 0.083282 0.080139
0.191315 0.186432 0.180176
0.346283 0.339966 0.331787
0.533966 0.526642 0.517090
0.595459 0.587921 0.577911
0.659149 0.651276 0.640930
0.087006 0.084473 0.081421
0.193970 0.189148 0.182739
0.349670 0.343353 0.335083
0.537903 0.530579 0.520996
0.752228 0.743774 0.733032
0.747559 0.739380 0.728699
0.816193 0.807831 0.796753
0.196625 0.191650 0.185364
0.353058 0.346710 0.338440
0.541840 0.534485 0.524902
0.756683 0.748474 0.737762
0.993347 0.984467 0.972687
0.988556 0.979645 0.967987
0.983795 0.974579 0.962921
0.066681 0.066681 0.066681
0.066681 0.066681 0.066681
0.066681 0.066681 0.066681
0.066681 0.066681 0.066681
0.066681 0.066681 0.066681
0.066681 0.066681 0.066681
0.066681 0.066681 0.066681
0.066681 0.066681 0.066681
0.085724 0.083282 0.080139
0.085724 0.083282 0.080139
0.085724 0.083282 0.080139
0.085724 0.083282 0.080139
0.085724 0.083282 0.080139
0.110352 0.106842 0.102570
0.066681 0.066681 0.066681
0.085724 0.083282 0.080139
0.191315 0.186432 0.180176
0.191315 0.186432 0.180176
0.191315 0.186432 0.180176
0.191315 0.186432 0.180176
0.233765 0.228333 0.221558
0.066681 0.066681 0.066681
0.085724 0.083282 0.080139
0.191315 0.186432 0.180176
0.346283 0.339966 0.331787
0.346283 0.339966 0.331787
0.346283 0.339966 0.331787
0.399414 0.392792 0.384155
0.066681 0.066681 0.066681
0.085724 0.083282 0.080139
0.191315 0.186432 0.180176
0.346283 0.339966 0.331787
0.533966 0.526642 0.517090
0.533966 0.526642 0.517090
0.595459 0.587921 0.577911
0.066681 0.066681 0.066681
0.085724 0.083282 0.080139
0.191315 0.186432 0.180176
0.346283 0.339966 0.331787
0.533966 0.526642 0.517090
0.747559 0.739380 0.728699
0.816193 0.807831 0.796753
0.087006 0.084473 0.081421
0.193970 0.189148 0.182739
0.349670 0.343353 0.335083
0.537903 0.530579 0.520996
0.752228 0.743774 0.733032
0.988556 0.979645 0.967987
0.983795 0.974579 0.962921
0.066681 0.066681 0.066681
0.066681 0.066681 0.066681
0.066681 0.066681 0.066681
0.066681 0.066681 0.066681
0.066681 0.066681 0.066681
0.066681 0.066681 0.066681
0.066681 0.066681 0.066681
0.066681 0.066681 0.066681
0.085724 0.083282 0.080139
0.085724 0.083282 0.080139
0.085724 0.083282 0.080139
0.085724 0.083282 0.080139
0.085724 0.083282 0.080139
0.085724 0.083282 0.080139
0.066681 0.066681 0.066681
0.085724 0.083282 0.080139
0.191315 0.186432 0.180176
0.191315 0.186432 0.180176
0.191315 0.186432 0.180176
0.191315 0.186432 0.180176
0.191315 0.186432 0.180176
0.066681 0.066681 0.066681
0.085724 0.083282 0.080139
0.191315 0.186432 0.180176
0.346283 0.339966 0.331787
0.346283 0.339966 0.331787
0.346283 0.339966 0.331787
0.346283 0.339966 0.331787
0.066681 0.066681 0.066681
0.085724 0.083282 0.080139
0.191315 0.186432 0.180176
0.346283 0.339966 0.331787
0.533966 0.526642 0.517090
0.533966 0.526642 0.517090
0.533966 0.526642 0.517090
0.066681 0.066681 0.066681
0.085724 0.083282 0.080139
0.191315 0.186432 0.180176
0.346283 0.339966 0.331787
0.533966 0.526642 0.517090
0.747559 0.739380 0.728699
0.747559 0.739380 0.728699
0.066681 0.066681 0.066681
0.085724 0.083282 0.080139
0.191315 0.186432 0.180176
0.346283 0.339966 0.331787
0.533966 0.526642 0.517090
0.747559 0.739380 0.728699
0.983795 0.974579 0.962921
