other luts/实验工艺系列/明胶银盐.cube
#Created by: Adobe Photoshop Export Color Lookup Plugin
#Copyright: (C) Copyright 2026 汉图
TITLE "实验工艺"
#LUT size
LUT_3D_SIZE 4
#data domain
DOMAIN_MIN 0.0 0.0 0.0
DOMAIN_MAX 1.0 1.0 1.0
#LUT data points
0.066681 0.066681 0.066681
0.067963 0.066864 0.066681
0.112061 0.108643 0.104309
0.188477 0.183563 0.177399
0.225464 0.220154 0.213440
0.219238 0.213989 0.207153
0.322296 0.316162 0.308136
0.440063 0.433197 0.424286
0.635132 0.627136 0.616943
0.625793 0.618073 0.607971
0.616486 0.608826 0.598755
0.761108 0.752899 0.742126
1.000000 1.000000 1.000000
1.000000 1.000000 1.000000
1.000000 1.000000 1.000000
1.000000 1.000000 1.000000
0.066681 0.066681 0.066681
0.066681 0.066681 0.066681
0.067932 0.066833 0.066681
0.112061 0.108643 0.104309
0.066681 0.066681 0.066681
0.219238 0.213989 0.207153
0.322296 0.316162 0.308136
0.440063 0.433197 0.424286
0.225403 0.220123 0.213409
0.625793 0.618073 0.607971
0.616486 0.608826 0.598755
0.761108 0.752899 0.742126
0.635132 0.627136 0.616943
1.000000 1.000000 1.000000
1.000000 1.000000 1.000000
1.000000 1.000000 1.000000
0.066681 0.066681 0.066681
0.066681 0.066681 0.066681
0.066681 0.066681 0.066681
0.067963 0.066864 0.066681
0.066681 0.066681 0.066681
0.219238 0.213989 0.207153
0.219238 0.213989 0.207153
0.322327 0.316193 0.308167
0.066681 0.066681 0.066681
0.219238 0.213989 0.207153
0.616486 0.608826 0.598755
0.761108 0.752899 0.742126
0.225464 0.220154 0.213440
0.625824 0.618103 0.608063
1.000000 1.000000 1.000000
1.000000 1.000000 1.000000
0.066681 0.066681 0.066681
0.066681 0.066681 0.066681
0.066681 0.066681 0.066681
0.066681 0.066681 0.066681
0.066681 0.066681 0.066681
0.219238 0.213989 0.207153
0.219238 0.213989 0.207153
0.219238 0.213989 0.207153
0.066681 0.066681 0.066681
0.219238 0.213989 0.207153
0.616486 0.608826 0.598755
0.616486 0.608826 0.598755
0.066681 0.066681 0.066681
0.219238 0.213989 0.207153
0.616486 0.608826 0.598755
1.000000 1.000000 1.000000
