other luts/实验工艺系列/明胶银盐.cube
#Created by: Adobe Photoshop Export Color Lookup Plugin
#Copyright: (C) Copyright 2026 汉图
TITLE "实验工艺"
#LUT size
LUT_3D_SIZE 34
#data domain
DOMAIN_MIN 0.0 0.0 0.0
DOMAIN_MAX 1.0 1.0 1.0
#LUT data points
0.066681 0.066681 0.066681
0.066681 0.066681 0.066681
0.066681 0.066681 0.066681
0.066681 0.066681 0.066681
0.066681 0.066681 0.066681
0.066681 0.066681 0.066681
0.066681 0.066681 0.066681
0.066681 0.066681 0.066681
0.066681 0.066681 0.066681
0.066681 0.066681 0.066681
0.066681 0.066681 0.066681
0.067963 0.066864 0.066681
0.070312 0.068848 0.067169
0.072876 0.071167 0.069244
0.075806 0.073883 0.071686
0.079254 0.077148 0.074646
0.083038 0.080658 0.077759
0.086975 0.084473 0.081421
0.091370 0.088684 0.085358
0.096161 0.093201 0.089691
0.101257 0.098022 0.094299
0.106537 0.103333 0.099152
0.112061 0.108643 0.104309
0.117950 0.114258 0.109894
0.124146 0.120300 0.115570
0.130341 0.126526 0.121582
0.136963 0.132843 0.127716
0.143768 0.139526 0.134277
0.150665 0.146423 0.140991
0.157806 0.153534 0.147766
0.165192 0.160645 0.154907
0.172791 0.168091 0.162231
0.180542 0.175720 0.169739
0.188477 0.183563 0.177399
0.066681 0.066681 0.066681
0.066681 0.066681 0.066681
0.066681 0.066681 0.066681
0.066681 0.066681 0.066681
0.066681 0.066681 0.066681
0.066681 0.066681 0.066681
0.066681 0.066681 0.066681
0.066681 0.066681 0.066681
0.066772 0.066681 0.066681
0.068726 0.067413 0.066681
0.071045 0.069519 0.067780
0.073761 0.072021 0.070007
0.076965 0.074982 0.072662
0.080353 0.078186 0.075562
0.084259 0.081879 0.079010
0.088470 0.085907 0.082581
0.093018 0.090271 0.086700
0.097778 0.094849 0.091095
0.102966 0.099762 0.095764
0.108368 0.104919 0.100891
0.113983 0.110565 0.106140
0.119995 0.116272 0.111633
0.126068 0.122375 0.117554
0.132507 0.128510 0.123535
0.139252 0.135071 0.129913
0.146118 0.141846 0.136505
0.153046 0.148804 0.143127
0.160278 0.155975 0.150116
0.167725 0.163116 0.157318
0.175354 0.170624 0.164734
0.183167 0.178345 0.172272
0.191162 0.186188 0.180023
0.199310 0.194244 0.187927
0.207550 0.202637 0.195984
0.066681 0.066681 0.066681
0.066681 0.066681 0.066681
0.066681 0.066681 0.066681
0.066681 0.066681 0.066681
0.066681 0.066681 0.066681
0.066681 0.066681 0.066681
0.067322 0.066681 0.066681
0.069427 0.068176 0.066681
0.071869 0.070435 0.068573
0.074860 0.073029 0.070923
0.078033 0.075958 0.073578
0.081696 0.079437 0.076752
0.085693 0.083252 0.080139
0.090027 0.087341 0.083984
0.094604 0.091827 0.088165
0.099518 0.096497 0.092682
0.104675 0.101532 0.097443
0.110291 0.106812 0.102478
0.115967 0.112488 0.108032
0.122101 0.118256 0.113586
0.128174 0.124481 0.119598
0.134735 0.130676 0.125641
0.141510 0.137329 0.132080
0.148468 0.144165 0.138794
0.155396 0.151184 0.145447
0.162750 0.158295 0.152527
0.170288 0.165619 0.159790
0.177979 0.173187 0.167236
0.185822 0.180969 0.174835
0.193848 0.188934 0.182678
0.202026 0.197052 0.190582
0.210419 0.205444 0.198730
0.219116 0.213867 0.207001
0.227722 0.222382 0.215454
0.066681 0.066681 0.066681
0.066681 0.066681 0.066681
0.066681 0.066681 0.066681
0.066681 0.066681 0.066681
0.067963 0.066864 0.066681
0.070312 0.068848 0.067200
0.072906 0.071198 0.069275
0.075806 0.073914 0.071686
0.079285 0.077148 0.074646
0.083069 0.080719 0.077789
0.087006 0.084473 0.081421
0.091461 0.088715 0.085419
0.096222 0.093262 0.089722
0.101288 0.098053 0.094299
0.106537 0.103333 0.099213
0.112091 0.108673 0.104309
0.117981 0.114258 0.109924
0.124176 0.120331 0.115601
0.130371 0.126617 0.121613
0.136993 0.132874 0.127777
0.143829 0.139587 0.134308
0.150757 0.146515 0.141052
0.157867 0.153564 0.147797
0.165253 0.160706 0.154938
0.172821 0.168152 0.162292
0.180573 0.175781 0.169769
0.188507 0.183594 0.177429
0.196594 0.191589 0.185333
0.204865 0.199890 0.193329
0.213409 0.208221 0.201508
0.221954 0.216705 0.209808
0.230621 0.225281 0.218292
0.239471 0.234039 0.227142
0.248444 0.242920 0.235931
0.074677 0.072876 0.070740
0.074463 0.072662 0.070587
0.074188 0.072540 0.070465
0.073944 0.072357 0.070312
0.073761 0.072021 0.070038
0.076996 0.075012 0.072723
0.080353 0.078217 0.075592
0.084290 0.081909 0.079041
0.088501 0.085907 0.082611
0.093018 0.090271 0.086731
0.097809 0.094879 0.091095
0.103058 0.099792 0.095764
0.108429 0.105011 0.100952
0.114014 0.110626 0.106171
0.120026 0.116302 0.111664
0.126099 0.122406 0.117584
0.132568 0.128510 0.123566
0.139252 0.135101 0.129974
0.146179 0.141876 0.136566
0.153076 0.148834 0.143158
0.160309 0.156006 0.150177
0.167786 0.163208 0.157379
0.175385 0.170685 0.164734
0.183197 0.178406 0.172302
0.191193 0.186249 0.180084
0.199341 0.194336 0.187958
0.207581 0.202698 0.196014
0.216278 0.211060 0.204254
0.224854 0.219574 0.212646
0.233582 0.228210 0.221344
0.242462 0.236938 0.230072
0.251495 0.245941 0.238892
0.260864 0.255188 0.247833
0.270142 0.264374 0.256927
0.087006 0.084473 0.081421
0.086731 0.084229 0.081207
0.086487 0.083984 0.080994
0.086212 0.083740 0.080750
0.085968 0.083527 0.080353
0.085724 0.083282 0.080139
0.090057 0.087402 0.084015
0.094635 0.091827 0.088196
0.099548 0.096558 0.092712
0.104736 0.101562 0.097473
0.110352 0.106842 0.102570
0.115997 0.112549 0.108063
0.122131 0.118317 0.113617
0.128265 0.124512 0.119659
0.134796 0.130737 0.125702
0.141541 0.137390 0.132141
0.148529 0.144226 0.138824
0.155457 0.151245 0.145477
0.162811 0.158356 0.152557
0.170349 0.165710 0.159851
0.178009 0.173248 0.167267
0.185883 0.181030 0.174896
0.193909 0.189026 0.182709
0.202057 0.197113 0.190613
0.210541 0.205475 0.198761
0.219116 0.213898 0.207062
0.227783 0.222473 0.215515
0.236572 0.231140 0.224274
0.245483 0.239960 0.233002
0.254791 0.249176 0.241882
0.263916 0.258270 0.250885
0.273254 0.267487 0.260162
0.282684 0.276886 0.269501
0.292480 0.286621 0.278870
0.103424 0.100098 0.096161
0.103058 0.099792 0.095764
0.102570 0.099487 0.095490
0.102264 0.099213 0.095215
0.101929 0.098877 0.094910
0.101624 0.098572 0.094635
0.101318 0.098083 0.094330
0.106567 0.103363 0.099213
0.112152 0.108704 0.104340
0.118042 0.114349 0.109955
0.124207 0.120361 0.115631
0.130402 0.126648 0.121735
0.137024 0.132904 0.127838
0.143860 0.139648 0.134369
0.150848 0.146545 0.141083
0.157898 0.153625 0.147827
0.165314 0.160797 0.154999
0.172852 0.168182 0.162323
0.180603 0.175812 0.169800
0.188568 0.183624 0.177490
0.196625 0.191650 0.185364
0.204926 0.199951 0.193359
0.213470 0.208282 0.201569
0.222046 0.216736 0.209869
0.230682 0.225342 0.218384
0.239532 0.234070 0.227203
0.248505 0.242950 0.235992
0.257843 0.252197 0.244873
0.267029 0.261353 0.253906
0.276428 0.270630 0.263336
0.286102 0.280060 0.272614
0.295715 0.289795 0.282074
0.305450 0.299469 0.291840
0.315582 0.309509 0.301544
0.122833 0.119141 0.114349
0.122498 0.118713 0.113983
0.122131 0.118317 0.113617
0.121765 0.117981 0.113312
0.121155 0.117584 0.112915
0.120819 0.117218 0.112610
0.120453 0.116760 0.112152
0.120056 0.116333 0.111725
0.126129 0.122437 0.117645
0.132599 0.128632 0.123596
0.139313 0.135162 0.130005
0.146179 0.141937 0.136597
0.153229 0.148895 0.143280
0.160339 0.156036 0.150238
0.167847 0.163300 0.157440
0.175476 0.170807 0.164825
0.183258 0.178467 0.172363
0.191254 0.186340 0.180115
0.199371 0.194397 0.187988
0.207642 0.202759 0.196075
0.216339 0.211121 0.204315
0.224915 0.219604 0.212708
0.233643 0.228271 0.221466
0.242523 0.237030 0.230133
0.251617 0.246033 0.238953
0.260895 0.255249 0.247894
0.270203 0.264435 0.256989
0.279572 0.273773 0.266449
0.289398 0.283478 0.275818
0.298981 0.293030 0.285248
0.308777 0.302734 0.295105
0.318909 0.312775 0.304810
0.328888 0.322723 0.314667
0.339294 0.332886 0.324860
0.145111 0.141052 0.135559
0.144714 0.140442 0.135162
0.144287 0.140045 0.134766
0.143860 0.139648 0.134369
0.143311 0.139252 0.133972
0.142853 0.138824 0.133423
0.142426 0.138275 0.132965
0.142029 0.137787 0.132599
0.141571 0.137390 0.132202
0.148560 0.144257 0.138885
0.155518 0.151276 0.145508
0.162842 0.158478 0.152588
0.170380 0.165802 0.159882
0.178070 0.173340 0.167328
0.185913 0.181061 0.174927
0.193970 0.189148 0.182739
0.202148 0.197266 0.190735
0.210632 0.205536 0.198822
0.219177 0.213959 0.207123
0.227814 0.222473 0.215515
0.236633 0.231201 0.224335
0.245544 0.240021 0.233063
0.254852 0.249207 0.241943
0.263947 0.258331 0.250916
0.273346 0.267548 0.260284
0.282745 0.276917 0.269531
0.292542 0.286652 0.278931
0.302277 0.296265 0.288452
0.312286 0.306030 0.298340
0.322266 0.316132 0.308105
0.332306 0.326080 0.318054
0.342712 0.336426 0.328247
0.352966 0.346649 0.338379
0.363617 0.356964 0.348816
0.169891 0.165222 0.159424
0.169403 0.164764 0.158936
0.168915 0.164307 0.158478
0.168396 0.163879 0.157898
0.167847 0.163300 0.157440
0.167389 0.162781 0.157013
0.166901 0.162354 0.156555
0.166473 0.161835 0.156097
0.165985 0.161438 0.155518
0.165344 0.160919 0.154999
0.172943 0.168304 0.162384
0.180695 0.175873 0.169861
0.188599 0.183685 0.177551
0.196686 0.191742 0.185425
0.205078 0.200073 0.193420
0.213531 0.208344 0.201599
0.222076 0.216797 0.209930
0.230743 0.225403 0.218445
0.239563 0.234131 0.227234
0.248566 0.243011 0.236023
0.257874 0.252228 0.244904
0.267090 0.261383 0.253937
0.276459 0.270691 0.263397
0.286194 0.280243 0.272675
0.295776 0.289886 0.282135
0.305542 0.299530 0.291931
0.315643 0.309570 0.301636
0.325592 0.319427 0.311401
0.335785 0.329468 0.321564
0.346161 0.339844 0.331635
0.356445 0.350098 0.341766
0.367126 0.360657 0.352264
0.377625 0.371124 0.362671
0.388519 0.381989 0.373383
0.196625 0.191650 0.185364
0.196167 0.191162 0.184906
0.195648 0.190643 0.184387
0.195160 0.190186 0.183685
0.194672 0.189697 0.183228
0.193970 0.189148 0.182739
0.193481 0.188538 0.182312
0.192993 0.188019 0.181793
0.192444 0.187531 0.181122
0.191895 0.187073 0.180664
0.191315 0.186432 0.180176
0.199432 0.194550 0.188080
0.207764 0.202789 0.196136
0.216400 0.211151 0.204376
0.224945 0.219666 0.212738
0.233765 0.228333 0.221558
0.242584 0.237091 0.230133
0.251740 0.246155 0.239014
0.260956 0.255280 0.247925
0.270233 0.264526 0.257050
0.279663 0.273834 0.266510
0.289398 0.283508 0.275848
0.299042 0.293091 0.285339
0.308807 0.302795 0.295166
0.318970 0.312866 0.304871
0.328949 0.322784 0.314728
0.339325 0.333008 0.324921
0.349609 0.343262 0.335022
0.359894 0.353516 0.345428
0.370605 0.364166 0.355743
0.381195 0.374695 0.366302
0.392120 0.385529 0.376984
0.402893 0.396240 0.387573
0.414001 0.407318 0.398560
0.225464 0.220154 0.213440
0.224915 0.219604 0.212708
0.224396 0.219116 0.212219
0.223633 0.218445 0.211700
0.223114 0.217834 0.211151
0.222595 0.217346 0.210571
0.222076 0.216797 0.209930
0.221588 0.216309 0.209412
0.220856 0.215546 0.208923
0.220276 0.215027 0.208405
0.219788 0.214539 0.207703
0.219238 0.213989 0.207153
0.227875 0.222565 0.215576
0.236664 0.231262 0.224365
0.245605 0.240082 0.233124
0.254883 0.249298 0.241974
0.264069 0.258392 0.251007
0.273407 0.267609 0.260345
0.282806 0.277039 0.269623
0.292603 0.286713 0.278992
0.302338 0.296356 0.288513
0.312378 0.306122 0.298401
0.322296 0.316162 0.308136
0.332367 0.326141 0.318176
0.342743 0.336487 0.328308
0.353058 0.346710 0.338440
0.363647 0.357086 0.348846
0.374146 0.367706 0.359253
0.385010 0.378204 0.369934
0.395691 0.389099 0.380463
0.406769 0.399841 0.391388
0.417694 0.410980 0.402191
0.428955 0.421936 0.413300
0.440063 0.433197 0.424286
0.255981 0.250336 0.243042
0.255402 0.249786 0.242493
0.254852 0.249207 0.241943
0.254059 0.248474 0.241394
0.253479 0.247925 0.240845
0.252899 0.247345 0.240082
0.252380 0.246826 0.239563
0.251740 0.246155 0.239014
0.251068 0.245514 0.238464
0.250488 0.244934 0.237885
0.249939 0.244385 0.237152
0.249420 0.243835 0.236633
0.248627 0.243073 0.236084
0.257935 0.252319 0.245026
0.267151 0.261444 0.254028
0.276520 0.270752 0.263458
0.286255 0.280365 0.272736
0.295868 0.289948 0.282166
0.305603 0.299591 0.291992
0.315704 0.309631 0.301697
0.325653 0.319489 0.311462
0.335907 0.329529 0.321625
0.346222 0.339905 0.331696
0.356476 0.350128 0.341827
0.367157 0.360718 0.352325
0.377686 0.371216 0.362732
0.388611 0.382050 0.373474
0.399323 0.392700 0.384033
0.410431 0.403748 0.394989
0.421387 0.414642 0.405792
0.432648 0.425873 0.416931
0.443817 0.436981 0.427948
0.455353 0.448395 0.439331
0.466675 0.459656 0.450562
0.287964 0.282104 0.274628
0.287384 0.281555 0.273865
0.286804 0.280945 0.273285
0.286194 0.280243 0.272675
0.285400 0.279541 0.272156
0.284790 0.278961 0.271393
0.284241 0.278381 0.270752
0.283691 0.277802 0.270203
0.282806 0.277039 0.269623
0.282257 0.276428 0.269043
0.281647 0.275879 0.268250
0.281097 0.275269 0.267670
0.280548 0.274719 0.267120
0.279694 0.273895 0.266571
0.289459 0.283600 0.275940
0.299103 0.293152 0.285370
0.308868 0.302856 0.295227
0.319031 0.312927 0.304932
0.329010 0.322845 0.314789
0.339386 0.333130 0.324982
0.349670 0.343353 0.335083
0.359955 0.353577 0.345490
0.370728 0.364227 0.355804
0.381256 0.374756 0.366486
0.392151 0.385559 0.377014
0.402954 0.396301 0.387695
0.414062 0.407410 0.398621
0.425079 0.418335 0.409607
0.436401 0.429565 0.420624
0.447693 0.440674 0.431946
0.459106 0.452179 0.443115
0.470734 0.463470 0.454559
0.482208 0.475159 0.465881
0.494080 0.486938 0.477600
0.321655 0.315552 0.307526
0.320801 0.314697 0.306946
0.320190 0.314117 0.306183
0.319580 0.313477 0.305511
0.318970 0.312866 0.304871
0.318298 0.312225 0.304321
0.317505 0.311432 0.303711
0.316895 0.310791 0.302856
0.316345 0.310242 0.302307
0.315704 0.309631 0.301697
0.314972 0.308777 0.301117
0.314240 0.308167 0.300262
0.313629 0.307556 0.299652
0.313049 0.307007 0.299072
0.312439 0.306244 0.298462
0.322388 0.316254 0.308228
0.332428 0.326233 0.318237
0.342834 0.336548 0.328369
0.353119 0.346771 0.338501
0.363708 0.357147 0.348938
0.374237 0.367767 0.359314
0.385071 0.378296 0.369995
0.395752 0.389191 0.380524
0.406830 0.399902 0.391449
0.417786 0.411041 0.402252
0.428986 0.421967 0.413330
0.440125 0.433258 0.424347
0.451599 0.444672 0.435669
0.462921 0.455963 0.446869
0.474579 0.467560 0.458344
0.486084 0.479034 0.469696
0.497986 0.490814 0.481476
0.509918 0.502411 0.493256
0.521667 0.514404 0.504913
0.356476 0.350128 0.341827
0.355835 0.349487 0.341187
0.355194 0.348846 0.340546
0.354584 0.348236 0.339935
0.353668 0.347351 0.339294
0.353058 0.346710 0.338440
0.352417 0.346130 0.337860
0.351776 0.345459 0.337158
0.351105 0.344604 0.336548
0.350281 0.343964 0.335846
0.349670 0.343353 0.335083
0.349030 0.342712 0.334473
0.348389 0.341888 0.333862
0.347504 0.341217 0.333221
0.346924 0.340607 0.332397
0.346283 0.339966 0.331787
0.356598 0.350220 0.342010
0.367218 0.360809 0.352386
0.377777 0.371277 0.362793
0.388672 0.382111 0.373535
0.399384 0.392761 0.384125
0.410492 0.403839 0.395050
0.421478 0.414703 0.405853
0.432709 0.425934 0.416992
0.443909 0.437042 0.428009
0.455414 0.448456 0.439392
0.466705 0.459747 0.450592
0.478455 0.471375 0.462158
0.490265 0.482849 0.473846
0.501862 0.494690 0.485352
0.513855 0.506592 0.497192
0.525635 0.518372 0.508850
0.537842 0.530518 0.520905
0.550079 0.542450 0.532990
0.392792 0.386230 0.377594
0.392151 0.385559 0.377014
0.391479 0.384918 0.376312
0.390594 0.384003 0.375641
0.389954 0.383392 0.374786
0.389282 0.382690 0.374115
0.388611 0.382050 0.373474
0.387848 0.381165 0.372864
0.387054 0.380493 0.371918
0.386383 0.379822 0.371277
0.385742 0.379211 0.370697
0.385071 0.378296 0.369995
0.384216 0.377655 0.369202
0.383545 0.377045 0.368469
0.382874 0.376343 0.367828
0.382233 0.375702 0.367188
0.381317 0.374817 0.366547
0.392212 0.385651 0.377075
0.403015 0.396362 0.387787
0.414154 0.407471 0.398682
0.425140 0.418396 0.409729
0.436462 0.429626 0.420685
0.447815 0.440765 0.432007
0.459229 0.452240 0.443176
0.470795 0.463531 0.454620
0.482269 0.475220 0.465973
0.494141 0.487000 0.477661
0.505768 0.498596 0.489166
0.517792 0.510590 0.501068
0.529907 0.522308 0.513062
0.541840 0.534485 0.524902
0.554077 0.546692 0.537018
0.566406 0.558777 0.548950
0.578705 0.571198 0.561340
0.430328 0.423523 0.414642
0.429626 0.422821 0.413940
0.428955 0.421936 0.413300
0.428009 0.421234 0.412354
0.427338 0.420563 0.411682
0.426666 0.419922 0.411041
0.425995 0.418976 0.410370
0.425049 0.418304 0.409515
0.424408 0.417633 0.408783
0.423737 0.416931 0.408112
0.423004 0.416260 0.407440
0.422150 0.415344 0.406769
0.421417 0.414673 0.405823
0.420746 0.414001 0.405212
0.420074 0.413330 0.404480
0.419373 0.412384 0.403870
0.418488 0.411743 0.402954
0.417816 0.411072 0.402283
0.429047 0.422028 0.413391
0.440186 0.433289 0.424377
0.451630 0.444733 0.435699
0.462952 0.456024 0.446899
0.474670 0.467651 0.458435
0.486145 0.479065 0.469727
0.498016 0.490845 0.481506
0.509979 0.502472 0.493317
0.521698 0.514435 0.504944
0.533844 0.526581 0.517029
0.545837 0.538452 0.528778
0.558136 0.550751 0.540955
0.570526 0.563080 0.553284
0.582794 0.575256 0.565369
0.595367 0.587799 0.577850
0.608063 0.600220 0.590363
0.469025 0.462036 0.452850
0.468353 0.461334 0.452179
0.467651 0.460358 0.451477
0.466675 0.459656 0.450562
0.465973 0.458984 0.449860
0.465240 0.458282 0.449158
0.464600 0.457642 0.448456
0.463623 0.456635 0.447540
0.462891 0.455933 0.446808
0.462219 0.455292 0.446136
0.461517 0.454559 0.445465
0.460693 0.453644 0.444733
0.459869 0.452911 0.443817
0.459198 0.452209 0.443146
0.458496 0.451538 0.442444
0.457794 0.450592 0.441711
0.456818 0.449890 0.440796
0.456146 0.449219 0.440125
0.455444 0.448517 0.439423
0.466797 0.459808 0.450714
0.478485 0.471436 0.462189
0.490295 0.482880 0.473877
0.501892 0.494751 0.485413
0.513916 0.506683 0.497253
0.525665 0.518433 0.508881
0.537872 0.530548 0.520935
0.550140 0.542572 0.533051
0.562195 0.554749 0.545013
0.574615 0.567139 0.557312
0.587219 0.579376 0.569519
0.599457 0.591858 0.581940
0.612183 0.604553 0.594543
0.625000 0.617035 0.607056
0.637573 0.629883 0.619690
0.508850 0.501648 0.492249
0.508118 0.500916 0.491455
0.507416 0.500244 0.490814
0.506683 0.499268 0.490082
0.505737 0.498566 0.489136
0.504974 0.497803 0.488403
0.504272 0.497101 0.487701
0.503601 0.496307 0.487000
0.502533 0.495392 0.486023
0.501831 0.494659 0.485291
0.501129 0.494019 0.484589
0.500427 0.493256 0.483917
0.499603 0.492279 0.482880
0.498718 0.491547 0.482208
0.498016 0.490845 0.481506
0.497314 0.490204 0.480835
0.496582 0.489166 0.479828
0.495575 0.488434 0.479126
0.494873 0.487793 0.478455
0.494171 0.487030 0.477692
0.505829 0.498657 0.489227
0.517822 0.510620 0.501099
0.529938 0.522339 0.513092
0.541901 0.534546 0.524933
0.554199 0.546783 0.537079
0.566467 0.558807 0.548981
0.578735 0.571228 0.561432
0.591309 0.583771 0.573822
0.603882 0.596069 0.586029
0.616394 0.608765 0.598663
0.629242 0.621490 0.611359
0.642090 0.634033 0.623871
0.654785 0.646973 0.636719
0.667877 0.660004 0.649750
0.550049 0.542358 0.532959
0.548950 0.541626 0.531952
0.548279 0.540863 0.531219
0.547516 0.540131 0.530518
0.546783 0.539276 0.529724
0.545807 0.538422 0.528748
0.545044 0.537689 0.528046
0.544312 0.536957 0.527283
0.543610 0.536194 0.526611
0.542786 0.535187 0.525574
0.541809 0.534424 0.524841
0.541107 0.533752 0.524139
0.540344 0.532990 0.523407
0.539581 0.532013 0.522339
0.538605 0.531281 0.521667
0.537872 0.530548 0.520935
0.537140 0.529846 0.520264
0.536438 0.528778 0.519440
0.535370 0.528076 0.518494
0.534698 0.527374 0.517792
0.533966 0.526642 0.517090
0.545898 0.538513 0.528839
0.558228 0.550812 0.541077
0.570648 0.563141 0.553345
0.582855 0.575348 0.565460
0.595459 0.587921 0.577911
0.608124 0.600342 0.590454
0.620575 0.612915 0.602844
0.633453 0.625732 0.615570
0.646362 0.638489 0.628357
0.659149 0.651276 0.640930
0.672180 0.664307 0.653961
0.685333 0.677399 0.667023
0.698639 0.690369 0.679840
0.591949 0.584351 0.574432
0.591217 0.583649 0.573700
0.590424 0.582611 0.572693
0.589386 0.581818 0.571930
0.588623 0.581085 0.571198
0.587921 0.580322 0.570435
0.587158 0.579315 0.569458
0.586090 0.578583 0.568695
0.585327 0.577789 0.567871
0.584564 0.577057 0.567169
0.583862 0.576050 0.566162
0.582794 0.575256 0.565369
0.582062 0.574493 0.564667
0.581238 0.573730 0.563934
0.580566 0.572754 0.563141
0.579498 0.571991 0.562164
0.578735 0.571228 0.561432
0.578003 0.570496 0.560638
0.577240 0.569519 0.559906
0.576294 0.568726 0.558868
0.575500 0.567963 0.558167
0.574738 0.567200 0.557404
0.587280 0.579437 0.569672
0.599548 0.591980 0.582031
0.612244 0.604614 0.594635
0.625092 0.617126 0.607208
0.637695 0.629944 0.619751
0.650635 0.642792 0.632599
0.663696 0.655518 0.645508
0.676636 0.668610 0.658234
0.689697 0.681702 0.671295
0.702972 0.694977 0.684448
0.716339 0.708038 0.697510
0.729492 0.721375 0.710754
0.635132 0.627136 0.616943
0.634064 0.626343 0.616211
0.633301 0.625610 0.615479
0.632507 0.624817 0.614685
0.631775 0.623749 0.613586
0.630737 0.623016 0.612885
0.629944 0.622192 0.612091
0.629211 0.621460 0.611328
0.628387 0.620392 0.610260
0.627350 0.619598 0.609497
0.626587 0.618866 0.608795
0.625793 0.618073 0.607971
0.625000 0.617035 0.607056
0.623962 0.616302 0.606171
0.623199 0.615509 0.605408
0.622406 0.614716 0.604614
0.621674 0.613678 0.603821
0.620575 0.612915 0.602844
0.619873 0.612152 0.602142
0.619049 0.611359 0.601349
0.618286 0.610321 0.600494
0.617249 0.609619 0.599518
0.616486 0.608826 0.598755
0.629303 0.621552 0.611450
0.642212 0.634094 0.623932
0.654877 0.647034 0.636810
0.667969 0.660095 0.649811
0.681122 0.672913 0.662628
0.694031 0.686066 0.675659
0.707367 0.699341 0.688812
0.720734 0.712708 0.702087
0.734222 0.725800 0.715149
0.747467 0.739288 0.728638
0.761108 0.752899 0.742126
0.679047 0.671143 0.660767
0.678253 0.670349 0.659973
0.677429 0.669250 0.658905
0.676392 0.668488 0.658142
0.675629 0.667694 0.657349
0.674774 0.666870 0.656555
0.673981 0.665833 0.655487
0.672913 0.665009 0.654694
0.672150 0.664276 0.653931
0.671356 0.663483 0.653137
0.670563 0.662354 0.652313
0.669556 0.661591 0.651306
0.668671 0.660797 0.650513
0.667877 0.660004 0.649750
0.667114 0.658966 0.648956
0.666138 0.658173 0.647827
0.665253 0.657379 0.647034
0.664490 0.656647 0.646301
0.663696 0.655518 0.645508
0.662811 0.654755 0.644440
0.661774 0.653961 0.643677
0.660980 0.653198 0.642853
0.660217 0.652405 0.642151
0.659302 0.651337 0.641083
0.672241 0.664429 0.654053
0.685425 0.677490 0.667084
0.698700 0.690430 0.679932
0.711761 0.703705 0.693207
0.725220 0.717072 0.706512
0.738647 0.730499 0.719849
0.752228 0.743774 0.733032
0.765594 0.757385 0.746582
0.779327 0.771057 0.760193
0.793121 0.784790 0.773895
0.724121 0.716095 0.705475
0.723358 0.715027 0.704407
0.722260 0.714142 0.703583
0.721405 0.713379 0.702759
0.720642 0.712555 0.701965
0.719818 0.711456 0.700897
0.718689 0.710632 0.700073
0.717926 0.709839 0.699280
0.717072 0.709045 0.698517
0.716309 0.707977 0.697418
0.715210 0.707184 0.696594
0.714417 0.706329 0.695801
0.713593 0.705566 0.695007
0.712769 0.704437 0.693939
0.711700 0.703644 0.693146
0.710876 0.702850 0.692322
0.710022 0.702026 0.691467
0.709229 0.700928 0.690430
0.708160 0.700165 0.689636
0.707367 0.699341 0.688812
0.706604 0.698608 0.688049
0.705750 0.697510 0.686981
0.704651 0.696625 0.686157
0.703888 0.695862 0.685364
0.703064 0.695038 0.684570
0.716400 0.708099 0.697571
0.729553 0.721497 0.710846
0.743103 0.734985 0.724243
0.756744 0.748566 0.737793
0.770447 0.761841 0.751099
0.783813 0.775574 0.764679
0.797729 0.789337 0.778412
0.811584 0.803192 0.792206
0.825562 0.816833 0.805786
0.770203 0.761658 0.750854
0.769043 0.760803 0.750031
0.768250 0.760040 0.749207
0.767395 0.759186 0.748322
0.766602 0.758057 0.747253
0.765442 0.757263 0.746490
0.764648 0.756378 0.745636
0.763824 0.755615 0.744812
0.763000 0.754486 0.743744
0.761841 0.753632 0.742889
0.761078 0.752869 0.742096
0.760223 0.752045 0.741241
0.759399 0.750885 0.740173
0.758270 0.750122 0.739319
0.757477 0.749237 0.738525
0.756653 0.748413 0.737701
0.755829 0.747375 0.736603
0.754700 0.746521 0.735779
0.753845 0.745667 0.734985
0.753052 0.744873 0.734192
0.752228 0.743774 0.733032
0.751160 0.743011 0.732269
0.750275 0.742126 0.731415
0.749481 0.741302 0.730591
0.748718 0.740265 0.729523
0.747559 0.739380 0.728699
0.761200 0.752960 0.742218
0.774933 0.766632 0.755798
0.788635 0.780060 0.769165
0.802246 0.793915 0.782959
0.816193 0.807831 0.796753
