other luts/实验工艺系列/湿板火棉胶工艺2.cube
#Created by: Adobe Photoshop Export Color Lookup Plugin
#Copyright: (C) Copyright 2026 汉图
TITLE "实验工艺"
#LUT size
LUT_3D_SIZE 34
#data domain
DOMAIN_MIN 0.0 0.0 0.0
DOMAIN_MAX 1.0 1.0 1.0
#LUT data points
0.086273 0.086273 0.086273
0.086273 0.086273 0.086273
0.086273 0.086273 0.086273
0.086273 0.086273 0.086273
0.086273 0.086273 0.086273
0.086273 0.086273 0.086273
0.086273 0.086273 0.086273
0.086273 0.086273 0.086273
0.086273 0.086273 0.086273
0.092896 0.086273 0.086273
0.105194 0.086273 0.086273
0.117493 0.086273 0.086273
0.129730 0.095551 0.086273
0.141998 0.104980 0.086273
0.154327 0.114410 0.086273
0.166565 0.123840 0.086273
0.178833 0.133270 0.086273
0.191132 0.142700 0.086273
0.203369 0.152100 0.086273
0.213257 0.161377 0.086273
0.222504 0.170654 0.086273
0.231750 0.179901 0.086273
0.240997 0.189117 0.086273
0.250244 0.198364 0.086273
0.259491 0.207642 0.086273
0.268707 0.216858 0.086273
0.277985 0.226105 0.086273
0.287231 0.235352 0.086273
0.296448 0.244598 0.086273
0.305695 0.253845 0.086273
0.314941 0.263092 0.091492
0.324219 0.272339 0.100739
0.333435 0.281555 0.109955
0.342682 0.290833 0.119232
0.086273 0.086273 0.086273
0.086273 0.086273 0.086273
0.086273 0.086273 0.086273
0.086273 0.086273 0.086273
0.086273 0.086273 0.086273
0.086273 0.086273 0.086273
0.086273 0.086273 0.086273
0.097015 0.086273 0.086273
0.109314 0.086273 0.086273
0.121613 0.089325 0.086273
0.133850 0.098724 0.086273
0.146149 0.108124 0.086273
0.158447 0.117584 0.086273
0.170685 0.126984 0.086273
0.182983 0.136414 0.086273
0.195251 0.145874 0.086273
0.207123 0.155273 0.086273
0.216370 0.164490 0.086273
0.225616 0.173737 0.086273
0.234833 0.182983 0.086273
0.244080 0.192230 0.086273
0.253357 0.201477 0.086273
0.262604 0.210724 0.086273
0.271820 0.219971 0.086273
0.281067 0.229218 0.086273
0.290314 0.238464 0.086273
0.299561 0.247681 0.086273
0.308807 0.256958 0.086273
0.318054 0.266205 0.094604
0.327271 0.275421 0.103821
0.336548 0.284668 0.113068
0.345795 0.293945 0.122314
0.355042 0.303192 0.131592
0.364258 0.312408 0.140808
0.086273 0.086273 0.086273
0.086273 0.086273 0.086273
0.086273 0.086273 0.086273
0.086273 0.086273 0.086273
0.088837 0.086273 0.086273
0.101135 0.086273 0.086273
0.113434 0.086273 0.086273
0.125732 0.092499 0.086273
0.137970 0.101868 0.086273
0.150269 0.111298 0.086273
0.162537 0.120758 0.086273
0.174805 0.130157 0.086273
0.187073 0.139587 0.086273
0.199371 0.149048 0.086273
0.210205 0.158356 0.086273
0.219452 0.167603 0.086273
0.228729 0.176849 0.086273
0.237946 0.186096 0.086273
0.247192 0.195343 0.086273
0.256439 0.204590 0.086273
0.265656 0.213806 0.086273
0.274933 0.223053 0.086273
0.284180 0.232330 0.086273
0.293427 0.241577 0.086273
0.302643 0.250793 0.086273
0.311920 0.260040 0.088440
0.321167 0.269318 0.097687
0.330383 0.278534 0.106934
0.339630 0.287781 0.116180
0.348907 0.297028 0.125427
0.358124 0.306274 0.134644
0.367371 0.315521 0.143921
0.376617 0.324768 0.153168
0.385895 0.334015 0.162415
0.107697 0.086273 0.086273
0.106903 0.086273 0.086273
0.106079 0.086273 0.086273
0.105286 0.086273 0.086273
0.117584 0.086273 0.086273
0.129822 0.095612 0.086273
0.142120 0.105042 0.086273
0.154388 0.114471 0.086273
0.166687 0.123901 0.086273
0.178925 0.133331 0.086273
0.191193 0.142761 0.086273
0.203491 0.152191 0.086273
0.213318 0.161469 0.086273
0.222565 0.170715 0.086273
0.231812 0.179962 0.086273
0.241058 0.189178 0.086273
0.250305 0.198456 0.086273
0.259552 0.207703 0.086273
0.268768 0.216919 0.086273
0.278046 0.226166 0.086273
0.287292 0.235413 0.086273
0.296509 0.244659 0.086273
0.305756 0.253906 0.086273
0.315002 0.263153 0.091553
0.324280 0.272400 0.100800
0.333496 0.281616 0.110016
0.342743 0.290894 0.119293
0.351990 0.300140 0.128540
0.361237 0.309357 0.137756
0.370483 0.318604 0.147003
0.379730 0.327881 0.156281
0.388947 0.337097 0.165497
0.398224 0.346344 0.174744
0.407471 0.355591 0.183990
0.149475 0.110718 0.086273
0.148651 0.110077 0.086273
0.147827 0.109436 0.086273
0.147034 0.108856 0.086273
0.146210 0.108185 0.086273
0.158508 0.117645 0.086273
0.170776 0.127045 0.086273
0.183044 0.136475 0.086273
0.195343 0.145935 0.086273
0.207184 0.155334 0.086273
0.216431 0.164551 0.086273
0.225677 0.173798 0.086273
0.234924 0.183075 0.086273
0.244141 0.192291 0.086273
0.253418 0.201538 0.086273
0.262665 0.210785 0.086273
0.271881 0.220032 0.086273
0.281128 0.229279 0.086273
0.290405 0.238525 0.086273
0.299622 0.247742 0.086273
0.308868 0.257019 0.086273
0.318115 0.266266 0.094666
0.327332 0.275482 0.103882
0.336609 0.284729 0.113129
0.345856 0.294006 0.122375
0.355103 0.303253 0.131653
0.364319 0.312469 0.140869
0.373596 0.321716 0.150116
0.382843 0.330963 0.159363
0.392059 0.340210 0.168610
0.401306 0.349457 0.177856
0.410553 0.358704 0.187103
0.419800 0.367920 0.196320
0.429047 0.377197 0.205566
0.191193 0.142761 0.086273
0.190430 0.142181 0.086273
0.189575 0.141510 0.086273
0.188782 0.140900 0.086273
0.188019 0.140289 0.086273
0.187164 0.139648 0.086273
0.199463 0.149109 0.086273
0.210266 0.158417 0.086273
0.219513 0.167664 0.086273
0.228790 0.176910 0.086273
0.238037 0.186188 0.086273
0.247253 0.195404 0.086273
0.256500 0.204651 0.086273
0.265778 0.213898 0.086273
0.274994 0.223114 0.086273
0.284241 0.232391 0.086273
0.293488 0.241638 0.086273
0.302704 0.250854 0.086273
0.311981 0.260101 0.088501
0.321228 0.269379 0.097748
0.330444 0.278595 0.106995
0.339691 0.287842 0.116241
0.348969 0.297089 0.125488
0.358185 0.306335 0.134705
0.367432 0.315582 0.143982
0.376678 0.324829 0.153229
0.385956 0.334076 0.162476
0.395172 0.343292 0.171692
0.404419 0.352570 0.180969
0.413666 0.361816 0.190216
0.422882 0.371033 0.199432
0.432159 0.380280 0.208679
0.441406 0.389557 0.217926
0.450623 0.398773 0.227173
0.226288 0.174438 0.086273
0.225677 0.173798 0.086273
0.225098 0.173218 0.086273
0.224457 0.172607 0.086273
0.223846 0.171967 0.086273
0.223236 0.171387 0.086273
0.222626 0.170776 0.086273
0.231873 0.180023 0.086273
0.241119 0.189240 0.086273
0.250366 0.198517 0.086273
0.259613 0.207764 0.086273
0.268860 0.217010 0.086273
0.278107 0.226227 0.086273
0.287354 0.235474 0.086273
0.296600 0.244751 0.086273
0.305817 0.253967 0.086273
0.315063 0.263214 0.091614
0.324310 0.272430 0.100830
0.333557 0.281708 0.110077
0.342804 0.290955 0.119354
0.352051 0.300201 0.128601
0.361298 0.309418 0.137817
0.370544 0.318695 0.147064
0.379791 0.327942 0.156342
0.389008 0.337158 0.165558
0.398285 0.346405 0.174805
0.407532 0.355652 0.184052
0.416779 0.364929 0.193329
0.425995 0.374146 0.202545
0.435242 0.383392 0.211792
0.444519 0.392639 0.221039
0.453735 0.401886 0.230286
0.462982 0.411133 0.239532
0.472229 0.420380 0.248779
0.257721 0.205872 0.086273
0.257141 0.205261 0.086273
0.256500 0.204651 0.086273
0.255920 0.204071 0.086273
0.255310 0.203430 0.086273
0.254669 0.202820 0.086273
0.254089 0.202240 0.086273
0.253479 0.201599 0.086273
0.262726 0.210876 0.086273
0.271942 0.220093 0.086273
0.281189 0.229340 0.086273
0.290466 0.238586 0.086273
0.299713 0.247833 0.086273
0.308929 0.257080 0.086273
0.318176 0.266327 0.094727
0.327423 0.275574 0.103973
0.336670 0.284790 0.113190
0.345917 0.294067 0.122467
0.355133 0.303284 0.131683
0.364380 0.312531 0.140930
0.373657 0.321777 0.150177
0.382904 0.331024 0.159424
0.392120 0.340271 0.168671
0.401367 0.349518 0.177917
0.410645 0.358765 0.187164
0.419861 0.367981 0.196381
0.429108 0.377258 0.205658
0.438354 0.386505 0.214905
0.447632 0.395752 0.224152
0.456848 0.404968 0.233368
0.466095 0.414246 0.242615
0.475342 0.423492 0.251892
0.484558 0.432709 0.261108
0.493835 0.441956 0.270355
0.289185 0.237305 0.086273
0.288544 0.236694 0.086273
0.287964 0.236115 0.086273
0.287354 0.235474 0.086273
0.286743 0.234894 0.086273
0.286133 0.234283 0.086273
0.285522 0.233643 0.086273
0.284912 0.233063 0.086273
0.284302 0.232452 0.086273
0.293549 0.241699 0.086273
0.302795 0.250916 0.086273
0.312042 0.260162 0.088562
0.321289 0.269440 0.097839
0.330536 0.278687 0.107086
0.339752 0.287903 0.116302
0.349030 0.297150 0.125549
0.358276 0.306427 0.134796
0.367493 0.315643 0.144043
0.376740 0.324890 0.153290
0.385986 0.334106 0.162506
0.395233 0.343353 0.171753
0.404480 0.352631 0.181030
0.413727 0.361877 0.190277
0.422943 0.371094 0.199493
0.432220 0.380341 0.208740
0.441467 0.389618 0.217987
0.450684 0.398834 0.227234
0.459930 0.408081 0.236481
0.469208 0.417328 0.245728
0.478455 0.426605 0.254974
0.487671 0.435822 0.264221
0.496918 0.445068 0.273468
0.506195 0.454315 0.282715
0.515411 0.463562 0.291931
0.320648 0.268768 0.097168
0.320007 0.268158 0.096558
0.319397 0.267548 0.095917
0.318817 0.266937 0.095337
0.318176 0.266327 0.094727
0.317596 0.265717 0.094116
0.316986 0.265106 0.093506
0.316345 0.264496 0.092896
0.315765 0.263916 0.092285
0.315125 0.263275 0.091675
0.324402 0.272522 0.100922
0.333618 0.281769 0.110138
0.342865 0.291016 0.119415
0.352112 0.300262 0.128662
0.361389 0.309509 0.137909
0.370605 0.318756 0.147125
0.379852 0.328003 0.156403
0.389069 0.337219 0.165619
0.398346 0.346466 0.174866
0.407593 0.355743 0.184113
0.416809 0.364960 0.193359
0.426056 0.374207 0.202606
0.435303 0.383453 0.211853
0.444580 0.392700 0.221100
0.453796 0.401947 0.230347
0.463043 0.411194 0.239594
0.472290 0.420441 0.248840
0.481537 0.429657 0.258057
0.490784 0.438934 0.267303
0.500031 0.448181 0.276581
0.509277 0.457428 0.285828
0.518524 0.466644 0.295044
0.527771 0.475891 0.304291
0.537018 0.485168 0.313568
0.352051 0.300201 0.128601
0.351471 0.299622 0.128021
0.350861 0.298981 0.127380
0.350220 0.298370 0.126770
0.349640 0.297791 0.126190
0.349030 0.297150 0.125549
0.348419 0.296570 0.124969
0.347809 0.295959 0.124359
0.347198 0.295319 0.123718
0.346588 0.294739 0.123138
0.345978 0.294128 0.122528
0.355225 0.303375 0.131775
0.364441 0.312592 0.140991
0.373718 0.321838 0.150238
0.382965 0.331116 0.159485
0.392212 0.340363 0.168762
0.401428 0.349579 0.177979
0.410706 0.358826 0.187225
0.419922 0.368042 0.196442
0.429169 0.377319 0.205719
0.438416 0.386566 0.214966
0.447662 0.395782 0.224182
0.456909 0.405029 0.233429
0.466156 0.414307 0.242706
0.475403 0.423553 0.251953
0.484619 0.432770 0.261169
0.493896 0.442017 0.270416
0.503143 0.451263 0.279694
0.512360 0.460510 0.288910
0.521606 0.469757 0.298157
0.530884 0.479004 0.307404
0.540131 0.488251 0.316650
0.549347 0.497498 0.325897
0.558594 0.506744 0.335144
0.383514 0.331665 0.160065
0.382904 0.331024 0.159424
0.382324 0.330444 0.158844
0.381683 0.329834 0.158234
0.381073 0.329193 0.157593
0.380463 0.328613 0.157013
0.379852 0.328003 0.156403
0.379272 0.327393 0.155792
0.378632 0.326782 0.155182
0.378021 0.326172 0.154572
0.377441 0.325562 0.153961
0.376801 0.324951 0.153351
0.386078 0.334198 0.162598
0.395294 0.343414 0.171814
0.404541 0.352692 0.181091
0.413788 0.361938 0.190338
0.423065 0.371185 0.199585
0.432281 0.380402 0.208801
0.441528 0.389679 0.218079
0.450745 0.398895 0.227295
0.459991 0.408142 0.236542
0.469269 0.417389 0.245789
0.478485 0.426636 0.255005
0.487732 0.435883 0.264282
0.496979 0.445129 0.273529
0.506256 0.454376 0.282776
0.515472 0.463623 0.291992
0.524719 0.472870 0.301270
0.533966 0.482117 0.310516
0.543213 0.491333 0.319733
0.552460 0.500580 0.328979
0.561707 0.509857 0.338257
0.570953 0.519104 0.347504
0.580170 0.528320 0.356720
0.414978 0.363129 0.191528
0.414368 0.362488 0.190887
0.413727 0.361877 0.190277
0.413147 0.361298 0.189667
0.412537 0.360657 0.189056
0.411896 0.360046 0.188446
0.411316 0.359467 0.187836
0.410706 0.358826 0.187225
0.410095 0.358246 0.186646
0.409485 0.357605 0.186035
0.408875 0.356995 0.185394
0.408264 0.356415 0.184814
0.407654 0.355804 0.184174
0.416901 0.365051 0.193451
0.426117 0.374268 0.202667
0.435364 0.383514 0.211914
0.444641 0.392761 0.221161
0.453857 0.402008 0.230408
0.463104 0.411255 0.239655
0.472351 0.420502 0.248901
0.481598 0.429718 0.258118
0.490845 0.438995 0.267365
0.500092 0.448242 0.276642
0.509308 0.457458 0.285858
0.518585 0.466705 0.295105
0.527832 0.475983 0.304352
0.537079 0.485229 0.313629
0.546295 0.494446 0.322845
0.555573 0.503693 0.332092
0.564819 0.512939 0.341339
0.574036 0.522186 0.350586
0.583282 0.531433 0.359833
0.592529 0.540680 0.369080
0.601807 0.549927 0.378326
0.446411 0.394531 0.222931
0.445801 0.393951 0.222351
0.445190 0.393341 0.221741
0.444580 0.392700 0.221100
0.443970 0.392120 0.220520
0.443359 0.391510 0.219910
0.442749 0.390869 0.219269
0.442139 0.390289 0.218689
0.441528 0.389679 0.218079
0.440948 0.389069 0.217468
0.440308 0.388458 0.216858
0.439697 0.387848 0.216248
0.439117 0.387238 0.215637
0.438477 0.386627 0.215027
0.447754 0.395874 0.224274
0.456970 0.405090 0.233490
0.466217 0.414368 0.242767
0.475464 0.423615 0.252014
0.484680 0.432831 0.261230
0.493958 0.442078 0.270477
0.503204 0.451355 0.279755
0.512421 0.460571 0.288971
0.521667 0.469818 0.298218
0.530945 0.479065 0.307465
0.540161 0.488281 0.316681
0.549408 0.497559 0.325958
0.558655 0.506805 0.335205
0.567932 0.516052 0.344452
0.577148 0.525269 0.353668
0.586395 0.534546 0.362946
0.595642 0.543793 0.372192
0.604889 0.553009 0.381409
0.614136 0.562256 0.390656
0.623383 0.571533 0.399933
0.477875 0.425995 0.254395
0.477234 0.425385 0.253784
0.476654 0.424805 0.253174
0.476044 0.424164 0.252563
0.475403 0.423553 0.251953
0.474823 0.422943 0.251343
0.474213 0.422333 0.250732
0.473572 0.421722 0.250122
0.472992 0.421112 0.249512
0.472351 0.420502 0.248901
0.471771 0.419922 0.248322
0.471161 0.419281 0.247681
0.470520 0.418671 0.247070
0.469940 0.418091 0.246490
0.469330 0.417450 0.245850
0.478577 0.426727 0.255127
0.487793 0.435944 0.264343
0.497040 0.445190 0.273590
0.506317 0.454437 0.282837
0.515533 0.463684 0.292053
0.524780 0.472931 0.301331
0.534027 0.482178 0.310577
0.543274 0.491394 0.319794
0.552521 0.500641 0.329041
0.561768 0.509918 0.338318
0.570984 0.519135 0.347534
0.580231 0.528381 0.356781
0.589508 0.537628 0.366028
0.598755 0.546906 0.375275
0.607971 0.556122 0.384521
0.617218 0.565369 0.393768
0.626495 0.574615 0.403015
0.635712 0.583862 0.412231
0.644958 0.593109 0.421509
0.509308 0.457458 0.285858
0.508698 0.456848 0.285248
0.508087 0.456207 0.284607
0.507477 0.455627 0.284027
0.506866 0.455017 0.283417
0.506256 0.454376 0.282776
0.505646 0.453796 0.282196
0.505035 0.453186 0.281555
0.504425 0.452545 0.280945
0.503815 0.451965 0.280365
0.503204 0.451355 0.279755
0.502625 0.450745 0.279144
0.501984 0.450134 0.278534
0.501373 0.449524 0.277893
0.500793 0.448914 0.277313
0.500153 0.448303 0.276703
0.509399 0.457550 0.285950
0.518646 0.466766 0.295166
0.527893 0.476044 0.304413
0.537140 0.485291 0.313690
0.546356 0.494507 0.322906
0.555634 0.503754 0.332153
0.564880 0.513000 0.341400
0.574097 0.522247 0.350647
0.583344 0.531494 0.359894
0.592590 0.540741 0.369141
0.601837 0.549957 0.378357
0.611084 0.559235 0.387634
0.620331 0.568481 0.396881
0.629578 0.577728 0.406128
0.638824 0.586945 0.415344
0.648071 0.596222 0.424591
0.657318 0.605469 0.433868
0.666534 0.614685 0.443085
0.540741 0.488892 0.317291
0.540161 0.488281 0.316681
0.539551 0.487671 0.316071
0.538910 0.487061 0.315460
0.538330 0.486450 0.314850
0.537689 0.485840 0.314240
0.537079 0.485229 0.313629
0.536499 0.484619 0.313019
0.535858 0.484009 0.312408
0.535248 0.483398 0.311798
0.534668 0.482788 0.311188
0.534027 0.482178 0.310577
0.533447 0.481598 0.309998
0.532837 0.480957 0.309357
0.532196 0.480347 0.308746
0.531616 0.479767 0.308167
0.531006 0.479126 0.307526
0.540222 0.488373 0.316742
0.549469 0.497620 0.326019
0.558716 0.506866 0.335266
0.567993 0.516113 0.344513
0.577209 0.525330 0.353729
0.586456 0.534607 0.363007
0.595703 0.543854 0.372253
0.604950 0.553070 0.381470
0.614197 0.562317 0.390717
0.623444 0.571594 0.399994
0.632660 0.580811 0.409210
0.641907 0.590057 0.418457
0.651184 0.599304 0.427704
0.660431 0.608551 0.436951
0.669647 0.617798 0.446198
0.678894 0.627045 0.455444
0.688171 0.636292 0.464691
0.572174 0.520325 0.348694
0.571564 0.519684 0.348083
0.570953 0.519104 0.347504
0.570343 0.518494 0.346863
0.569733 0.517853 0.346252
0.569122 0.517273 0.345673
0.568512 0.516632 0.345032
0.567902 0.516022 0.344421
0.567291 0.515442 0.343842
0.566681 0.514801 0.343201
0.566040 0.514191 0.342590
0.565460 0.513611 0.342010
0.564850 0.512970 0.341370
0.564240 0.512390 0.340790
0.563629 0.511780 0.340179
0.563019 0.511139 0.339539
0.562408 0.510559 0.338959
0.561798 0.509949 0.338348
0.571045 0.519196 0.347595
0.580292 0.528412 0.356812
0.589539 0.537659 0.366058
0.598785 0.546936 0.375336
0.608032 0.556183 0.384583
0.617249 0.565399 0.393799
0.626526 0.574646 0.403046
0.635773 0.583923 0.412292
0.644989 0.593140 0.421539
0.654236 0.602386 0.430786
0.663513 0.611633 0.440033
0.672729 0.620850 0.449249
0.681976 0.630127 0.458527
0.691223 0.639374 0.467773
0.700470 0.648621 0.477020
0.709717 0.657837 0.486237
0.603607 0.551727 0.380127
0.602997 0.551147 0.379547
0.602386 0.550537 0.378937
0.601807 0.549927 0.378326
0.601166 0.549316 0.377716
0.600555 0.548706 0.377106
0.599976 0.548096 0.376495
0.599335 0.547485 0.375885
0.598724 0.546875 0.375244
0.598145 0.546265 0.374664
0.597504 0.545654 0.374054
0.596893 0.545044 0.373413
0.596313 0.544434 0.372833
0.595673 0.543823 0.372223
0.595093 0.543243 0.371643
0.594482 0.542603 0.371002
0.593842 0.541992 0.370392
0.593262 0.541412 0.369781
0.592621 0.540771 0.369171
0.601898 0.550018 0.378418
0.611115 0.559265 0.387665
0.620361 0.568512 0.396912
0.629608 0.577759 0.406158
0.638885 0.587006 0.415405
0.648102 0.596252 0.424622
0.657349 0.605499 0.433899
0.666595 0.614746 0.443146
0.675842 0.623962 0.452362
0.685089 0.633240 0.461609
0.694336 0.642487 0.470886
0.703552 0.651703 0.480103
0.712830 0.660950 0.489349
0.722076 0.670197 0.498596
0.731323 0.679474 0.507874
0.635071 0.583191 0.411591
0.634430 0.582581 0.410980
0.633850 0.581970 0.410370
0.633240 0.581360 0.409760
0.632629 0.580780 0.409180
0.632019 0.580139 0.408539
0.631378 0.579529 0.407928
0.630798 0.578949 0.407349
0.630188 0.578308 0.406708
0.629547 0.577698 0.406097
0.628967 0.577118 0.405518
0.628357 0.576477 0.404877
0.627716 0.575867 0.404266
0.627136 0.575287 0.403687
0.626526 0.574646 0.403046
0.625916 0.574066 0.402466
0.625305 0.573456 0.401855
0.624695 0.572815 0.401215
0.624084 0.572235 0.400635
0.623474 0.571625 0.400024
0.632721 0.580872 0.409271
0.641937 0.590088 0.418488
0.651215 0.599335 0.427734
0.660461 0.608612 0.436981
0.669708 0.617859 0.446259
0.678925 0.627075 0.455475
0.688202 0.636322 0.464722
0.697449 0.645569 0.473969
0.706665 0.654816 0.483215
0.715912 0.664062 0.492462
0.725189 0.673309 0.501709
0.734406 0.682526 0.510925
0.743652 0.691803 0.520203
0.752899 0.701050 0.529449
0.666504 0.614655 0.443054
0.665894 0.614044 0.442444
0.665283 0.613403 0.441803
0.664673 0.612823 0.441223
0.664062 0.612213 0.440582
0.663483 0.611603 0.440002
0.662842 0.610992 0.439392
0.662231 0.610382 0.438751
0.661652 0.609772 0.438171
0.661011 0.609161 0.437561
0.660400 0.608521 0.436920
0.659821 0.607941 0.436340
0.659180 0.607330 0.435730
0.658569 0.606689 0.435089
0.657959 0.606110 0.434509
0.657349 0.605499 0.433899
0.656769 0.604919 0.433289
0.656128 0.604279 0.432678
0.655518 0.603668 0.432068
0.654938 0.603058 0.431458
0.654297 0.602448 0.430847
0.663574 0.611694 0.440094
0.672791 0.620911 0.449310
0.682037 0.630188 0.458588
0.691284 0.639435 0.467834
0.700562 0.648682 0.477081
0.709778 0.657898 0.486298
0.719025 0.667175 0.495575
0.728271 0.676422 0.504822
0.737488 0.685638 0.514038
0.746765 0.694885 0.523285
0.756012 0.704163 0.532532
0.765228 0.713379 0.541779
0.774475 0.722626 0.551025
0.697937 0.646088 0.474487
0.697357 0.645477 0.473877
0.696716 0.644867 0.473267
0.696106 0.644257 0.472656
0.695526 0.643646 0.472046
0.694885 0.643036 0.471436
0.694305 0.642456 0.470856
0.693695 0.641815 0.470215
0.693054 0.641205 0.469604
0.692474 0.640625 0.469025
0.691864 0.639984 0.468384
0.691223 0.639374 0.467773
0.690643 0.638794 0.467163
0.690033 0.638153 0.466553
0.689392 0.637543 0.465942
0.688812 0.636963 0.465363
0.688202 0.636322 0.464722
0.687592 0.635742 0.464142
0.686981 0.635132 0.463531
0.686371 0.634491 0.462891
0.685760 0.633911 0.462311
0.685150 0.633301 0.461670
0.694397 0.642548 0.470947
0.703613 0.651764 0.480164
0.712891 0.661011 0.489410
0.722137 0.670258 0.498657
0.731384 0.679535 0.507935
0.740601 0.688751 0.517151
0.749847 0.697998 0.526398
0.759125 0.707245 0.535645
0.768341 0.716492 0.544861
0.777588 0.725739 0.554138
0.786835 0.734985 0.563385
0.796082 0.744202 0.572601
0.729401 0.677551 0.505920
0.728790 0.676910 0.505310
0.728180 0.676331 0.504730
0.727570 0.675720 0.504089
0.726959 0.675079 0.503479
0.726349 0.674500 0.502899
0.725739 0.673859 0.502258
0.725159 0.673279 0.501678
0.724518 0.672668 0.501068
0.723907 0.672028 0.500427
0.723297 0.671448 0.499847
0.722687 0.670837 0.499237
0.722076 0.670197 0.498596
0.721466 0.669617 0.498016
0.720856 0.669006 0.497406
0.720245 0.668365 0.496765
0.719635 0.667786 0.496185
0.719025 0.667175 0.495575
0.718445 0.666565 0.494965
0.717804 0.665955 0.494354
0.717194 0.665344 0.493744
0.716614 0.664734 0.493134
0.715973 0.664124 0.492523
0.725250 0.673370 0.501770
0.734467 0.682587 0.510986
0.743713 0.691864 0.520264
0.752960 0.701111 0.529510
0.762207 0.710358 0.538757
0.771454 0.719574 0.547974
0.780701 0.728851 0.557251
0.789948 0.738098 0.566498
0.799164 0.747314 0.575714
0.808441 0.756561 0.584961
0.817688 0.765808 0.594208
0.760864 0.708984 0.537384
0.760223 0.708374 0.536774
0.759613 0.707764 0.536163
0.759033 0.707153 0.535553
0.758392 0.706543 0.534943
0.757782 0.705933 0.534332
0.757202 0.705322 0.533722
0.756561 0.704712 0.533112
0.755981 0.704132 0.532501
0.755371 0.703491 0.531891
0.754730 0.702881 0.531281
0.754150 0.702301 0.530670
0.753540 0.701660 0.530060
0.752899 0.701050 0.529449
0.752319 0.700439 0.528839
0.751709 0.699829 0.528229
0.751068 0.699219 0.527618
0.750488 0.698608 0.527008
0.749847 0.697998 0.526398
0.749268 0.697418 0.525818
0.748657 0.696808 0.525177
0.748016 0.696167 0.524567
0.747437 0.695587 0.523987
0.746826 0.694946 0.523346
0.756073 0.704224 0.532623
0.765289 0.713440 0.541840
0.774567 0.722687 0.551086
0.783813 0.731934 0.560333
0.793060 0.741211 0.569611
0.802277 0.750427 0.578827
0.811523 0.759674 0.588074
0.820801 0.768921 0.597321
0.830017 0.778137 0.606537
0.839264 0.787415 0.615814
0.792267 0.740417 0.568817
0.791687 0.739838 0.568237
0.791077 0.739197 0.567596
0.790466 0.738586 0.566986
0.789856 0.738007 0.566406
0.789246 0.737366 0.565765
0.788605 0.736755 0.565155
0.788025 0.736176 0.564575
0.787415 0.735535 0.563934
0.786804 0.734955 0.563354
0.786194 0.734344 0.562744
0.785583 0.733704 0.562103
0.784973 0.733124 0.561523
0.784363 0.732513 0.560913
0.783752 0.731873 0.560272
0.783142 0.731293 0.559692
0.782532 0.730682 0.559052
0.781921 0.730042 0.558441
0.781311 0.729462 0.557861
0.780701 0.728851 0.557251
0.780121 0.728241 0.556641
0.779480 0.727631 0.556030
0.778870 0.727020 0.555389
0.778290 0.726410 0.554810
0.777649 0.725800 0.554199
0.786896 0.735046 0.563446
0.796143 0.744263 0.572662
0.805389 0.753540 0.581909
0.814636 0.762787 0.591187
0.823883 0.772034 0.600433
0.833130 0.781250 0.609650
0.842377 0.790527 0.618896
0.851624 0.799774 0.628174
0.860840 0.808990 0.637390
0.823730 0.771881 0.600281
0.823120 0.771271 0.599670
0.822540 0.770660 0.599060
0.821899 0.770050 0.598450
0.821289 0.769440 0.597809
0.820709 0.768829 0.597229
0.820068 0.768219 0.596619
0.819458 0.767609 0.595978
0.818878 0.766998 0.595398
0.818237 0.766388 0.594788
0.817657 0.765778 0.594177
0.817047 0.765167 0.593567
0.816406 0.764557 0.592957
0.815826 0.763947 0.592346
0.815186 0.763336 0.591736
0.814575 0.762726 0.591125
0.813995 0.762115 0.590515
0.813354 0.761505 0.589905
0.812744 0.760895 0.589294
0.812164 0.760284 0.588684
0.811523 0.759674 0.588074
0.810944 0.759094 0.587494
0.810333 0.758453 0.586853
0.809692 0.757843 0.586243
0.809113 0.757263 0.585663
0.808502 0.756622 0.585022
0.817749 0.765900 0.594269
0.826965 0.775116 0.603516
0.836212 0.784363 0.612762
0.845490 0.793610 0.622009
0.854736 0.802887 0.631256
