other luts/实验工艺系列/湿板火棉胶工艺2.cube
#Created by: Adobe Photoshop Export Color Lookup Plugin
#Copyright: (C) Copyright 2026 汉图
TITLE "实验工艺"
#LUT size
LUT_3D_SIZE 7
#data domain
#LUT data points
DOMAIN_MIN 0.000000 0.000000 0.000000
DOMAIN_MAX 0.909091 0.909091 0.909091
0.086273 0.086273 0.086273
0.086273 0.086273 0.086273
0.105194 0.086273 0.086273
0.166565 0.123840 0.086273
0.222504 0.170654 0.086273
0.268707 0.216858 0.086273
0.314941 0.263092 0.091492
0.191193 0.142761 0.086273
0.187164 0.139648 0.086273
0.238037 0.186188 0.086273
0.284241 0.232391 0.086273
0.330444 0.278595 0.106995
0.376678 0.324829 0.153229
0.422882 0.371033 0.199432
0.352051 0.300201 0.128601
0.349030 0.297150 0.125549
0.345978 0.294128 0.122528
0.392212 0.340363 0.168762
0.438416 0.386566 0.214966
0.484619 0.432770 0.261169
0.530884 0.479004 0.307404
0.509308 0.457458 0.285858
0.506256 0.454376 0.282776
0.503204 0.451355 0.279755
0.500153 0.448303 0.276703
0.546356 0.494507 0.322906
0.592590 0.540741 0.369141
0.638824 0.586945 0.415344
0.666504 0.614655 0.443054
0.663483 0.611603 0.440002
0.660400 0.608521 0.436920
0.657349 0.605499 0.433899
0.654297 0.602448 0.430847
0.700562 0.648682 0.477081
0.746765 0.694885 0.523285
0.823730 0.771881 0.600281
0.820709 0.768829 0.597229
0.817657 0.765778 0.594177
0.814575 0.762726 0.591125
0.811523 0.759674 0.588074
0.808502 0.756622 0.585022
0.854736 0.802887 0.631256
0.980957 0.929108 0.757507
0.977905 0.926056 0.754456
0.974884 0.923004 0.751404
0.971832 0.919983 0.748383
0.968750 0.916901 0.745300
0.965729 0.913849 0.742249
0.962677 0.910828 0.739197
0.086273 0.086273 0.086273
0.086273 0.086273 0.086273
0.086273 0.086273 0.086273
0.105194 0.086273 0.086273
0.166534 0.123810 0.086273
0.222504 0.170654 0.086273
0.268707 0.216858 0.086273
0.086273 0.086273 0.086273
0.187164 0.139648 0.086273
0.238037 0.186188 0.086273
0.284241 0.232391 0.086273
0.330444 0.278595 0.106995
0.376678 0.324829 0.153229
0.422882 0.371033 0.199432
0.191193 0.142761 0.086273
0.349030 0.297150 0.125549
0.345978 0.294128 0.122528
0.392212 0.340363 0.168762
0.438416 0.386566 0.214966
0.484619 0.432770 0.261169
0.530884 0.479004 0.307404
0.352051 0.300201 0.128601
0.506256 0.454376 0.282776
0.503204 0.451355 0.279755
0.500153 0.448303 0.276703
0.546356 0.494507 0.322906
0.592590 0.540741 0.369141
0.638824 0.586945 0.415344
0.509277 0.457428 0.285828
0.663483 0.611603 0.440002
0.660400 0.608521 0.436920
0.657349 0.605499 0.433899
0.654297 0.602448 0.430847
0.700562 0.648682 0.477081
0.746765 0.694885 0.523285
0.666504 0.614655 0.443054
0.820709 0.768829 0.597229
0.817657 0.765778 0.594177
0.814575 0.762726 0.591125
0.811523 0.759674 0.588074
0.808502 0.756622 0.585022
0.854736 0.802887 0.631256
0.823730 0.771881 0.600281
0.977905 0.926056 0.754456
0.974884 0.923004 0.751404
0.971832 0.919983 0.748383
0.968750 0.916901 0.745300
0.965729 0.913849 0.742249
0.962677 0.910828 0.739197
0.086273 0.086273 0.086273
0.086273 0.086273 0.086273
0.086273 0.086273 0.086273
0.086273 0.086273 0.086273
0.105194 0.086273 0.086273
0.166534 0.123810 0.086273
0.222504 0.170654 0.086273
0.086273 0.086273 0.086273
0.187164 0.139648 0.086273
0.187164 0.139648 0.086273
0.238037 0.186188 0.086273
0.284241 0.232391 0.086273
0.330444 0.278595 0.106995
0.376678 0.324829 0.153229
0.086273 0.086273 0.086273
0.187164 0.139648 0.086273
0.345978 0.294128 0.122528
0.392212 0.340363 0.168762
0.438416 0.386566 0.214966
0.484619 0.432770 0.261169
0.530884 0.479004 0.307404
0.191193 0.142761 0.086273
0.349030 0.297150 0.125549
0.503204 0.451355 0.279755
0.500153 0.448303 0.276703
0.546356 0.494507 0.322906
0.592590 0.540741 0.369141
0.638824 0.586945 0.415344
0.352020 0.300171 0.128571
0.506226 0.454346 0.282745
0.660400 0.608521 0.436920
0.657349 0.605499 0.433899
0.654297 0.602448 0.430847
0.700562 0.648682 0.477081
0.746765 0.694885 0.523285
0.509277 0.457428 0.285828
0.663483 0.611603 0.440002
0.817657 0.765778 0.594177
0.814575 0.762726 0.591125
0.811523 0.759674 0.588074
0.808502 0.756622 0.585022
0.854736 0.802887 0.631256
0.666504 0.614655 0.443054
0.820709 0.768829 0.597229
0.974884 0.923004 0.751404
0.971832 0.919983 0.748383
0.968750 0.916901 0.745300
0.965729 0.913849 0.742249
0.962677 0.910828 0.739197
0.086273 0.086273 0.086273
0.086273 0.086273 0.086273
0.086273 0.086273 0.086273
0.086273 0.086273 0.086273
0.086273 0.086273 0.086273
0.105194 0.086273 0.086273
0.166534 0.123810 0.086273
0.086273 0.086273 0.086273
0.187164 0.139648 0.086273
0.187164 0.139648 0.086273
0.187164 0.139648 0.086273
0.238007 0.186157 0.086273
0.284241 0.232391 0.086273
0.330444 0.278595 0.106995
0.086273 0.086273 0.086273
0.187164 0.139648 0.086273
0.345978 0.294128 0.122528
0.345978 0.294128 0.122528
0.392181 0.340332 0.168732
0.438416 0.386566 0.214966
0.484619 0.432770 0.261169
0.086273 0.086273 0.086273
0.187164 0.139648 0.086273
0.345978 0.294128 0.122528
0.500153 0.448303 0.276703
0.546356 0.494507 0.322906
0.592590 0.540741 0.369141
0.638824 0.586945 0.415344
0.191162 0.142731 0.086273
0.348999 0.297119 0.125519
0.503174 0.451294 0.279724
0.657349 0.605499 0.433899
0.654297 0.602448 0.430847
0.700562 0.648682 0.477081
0.746765 0.694885 0.523285
0.352020 0.300171 0.128571
0.506226 0.454346 0.282745
0.660400 0.608521 0.436920
0.814575 0.762726 0.591125
0.811523 0.759674 0.588074
0.808502 0.756622 0.585022
0.854736 0.802887 0.631256
0.509277 0.457428 0.285828
0.663483 0.611603 0.440002
0.817657 0.765778 0.594177
0.971832 0.919983 0.748383
0.968750 0.916901 0.745300
0.965729 0.913849 0.742249
0.962677 0.910828 0.739197
0.086273 0.086273 0.086273
0.086273 0.086273 0.086273
0.086273 0.086273 0.086273
0.086273 0.086273 0.086273
0.086273 0.086273 0.086273
0.086273 0.086273 0.086273
0.105194 0.086273 0.086273
0.086273 0.086273 0.086273
0.187164 0.139648 0.086273
0.187164 0.139648 0.086273
0.187164 0.139648 0.086273
0.187164 0.139648 0.086273
0.238037 0.186188 0.086273
0.284241 0.232391 0.086273
0.086273 0.086273 0.086273
0.187164 0.139648 0.086273
0.345978 0.294128 0.122528
0.345978 0.294128 0.122528
0.345978 0.294128 0.122528
0.392212 0.340363 0.168762
0.438416 0.386566 0.214966
0.086273 0.086273 0.086273
0.187164 0.139648 0.086273
0.345978 0.294128 0.122528
0.500153 0.448303 0.276703
0.500153 0.448303 0.276703
0.546387 0.494537 0.322937
0.592590 0.540741 0.369141
0.086273 0.086273 0.086273
0.187164 0.139648 0.086273
0.345978 0.294128 0.122528
0.500153 0.448303 0.276703
0.654297 0.602448 0.430847
0.700562 0.648682 0.477081
0.746765 0.694885 0.523285
0.191193 0.142761 0.086273
0.349030 0.297150 0.125549
0.503204 0.451355 0.279755
0.657379 0.605530 0.433929
0.811523 0.759674 0.588074
0.808502 0.756622 0.585022
0.854736 0.802887 0.631256
0.352051 0.300201 0.128601
0.506256 0.454376 0.282776
0.660431 0.608551 0.436951
0.814606 0.762756 0.591156
0.968750 0.916901 0.745300
0.965729 0.913849 0.742249
0.962677 0.910828 0.739197
0.086273 0.086273 0.086273
0.086273 0.086273 0.086273
0.086273 0.086273 0.086273
0.086273 0.086273 0.086273
0.086273 0.086273 0.086273
0.086273 0.086273 0.086273
0.086273 0.086273 0.086273
0.086273 0.086273 0.086273
0.187164 0.139648 0.086273
0.187164 0.139648 0.086273
0.187164 0.139648 0.086273
0.187164 0.139648 0.086273
0.187164 0.139648 0.086273
0.238037 0.186188 0.086273
0.086273 0.086273 0.086273
0.187164 0.139648 0.086273
0.345978 0.294128 0.122528
0.345978 0.294128 0.122528
0.345978 0.294128 0.122528
0.345978 0.294128 0.122528
0.392212 0.340363 0.168762
0.086273 0.086273 0.086273
0.187164 0.139648 0.086273
0.345978 0.294128 0.122528
0.500153 0.448303 0.276703
0.500153 0.448303 0.276703
0.500153 0.448303 0.276703
0.546387 0.494537 0.322937
0.086273 0.086273 0.086273
0.187164 0.139648 0.086273
0.345978 0.294128 0.122528
0.500153 0.448303 0.276703
0.654297 0.602448 0.430847
0.654297 0.602448 0.430847
0.700562 0.648682 0.477081
0.086273 0.086273 0.086273
0.187164 0.139648 0.086273
0.345978 0.294128 0.122528
0.500153 0.448303 0.276703
0.654297 0.602448 0.430847
0.808502 0.756622 0.585022
0.854736 0.802887 0.631256
0.191193 0.142761 0.086273
0.349030 0.297150 0.125549
0.503204 0.451355 0.279755
0.657379 0.605530 0.433929
0.811523 0.759674 0.588074
0.965729 0.913849 0.742249
0.962677 0.910828 0.739197
0.086273 0.086273 0.086273
0.086273 0.086273 0.086273
0.086273 0.086273 0.086273
0.086273 0.086273 0.086273
0.086273 0.086273 0.086273
0.086273 0.086273 0.086273
0.086273 0.086273 0.086273
0.086273 0.086273 0.086273
0.187164 0.139648 0.086273
0.187164 0.139648 0.086273
0.187164 0.139648 0.086273
0.187164 0.139648 0.086273
0.187164 0.139648 0.086273
0.187164 0.139648 0.086273
0.086273 0.086273 0.086273
0.187164 0.139648 0.086273
0.345978 0.294128 0.122528
0.345978 0.294128 0.122528
0.345978 0.294128 0.122528
0.345978 0.294128 0.122528
0.345978 0.294128 0.122528
0.086273 0.086273 0.086273
0.187164 0.139648 0.086273
0.345978 0.294128 0.122528
0.500153 0.448303 0.276703
0.500153 0.448303 0.276703
0.500153 0.448303 0.276703
0.500153 0.448303 0.276703
0.086273 0.086273 0.086273
0.187164 0.139648 0.086273
0.345978 0.294128 0.122528
0.500153 0.448303 0.276703
0.654297 0.602448 0.430847
0.654297 0.602448 0.430847
0.654297 0.602448 0.430847
0.086273 0.086273 0.086273
0.187164 0.139648 0.086273
0.345978 0.294128 0.122528
0.500153 0.448303 0.276703
0.654297 0.602448 0.430847
0.808502 0.756622 0.585022
0.808502 0.756622 0.585022
0.086273 0.086273 0.086273
0.187164 0.139648 0.086273
0.345978 0.294128 0.122528
0.500153 0.448303 0.276703
0.654297 0.602448 0.430847
0.808502 0.756622 0.585022
0.962677 0.910828 0.739197
