other luts/实验工艺系列/湿板火棉胶工艺1.cube
#Created by: Adobe Photoshop Export Color Lookup Plugin
#Copyright: (C) Copyright 2026 汉图
TITLE "实验工艺"
#LUT size
LUT_3D_SIZE 34
#data domain
DOMAIN_MIN 0.0 0.0 0.0
DOMAIN_MAX 1.0 1.0 1.0
#LUT data points
0.086273 0.086273 0.086273
0.086273 0.086273 0.086273
0.086273 0.086273 0.086273
0.086273 0.086273 0.086273
0.086273 0.086273 0.086273
0.086273 0.086273 0.086273
0.086273 0.086273 0.086273
0.090546 0.086273 0.086273
0.106018 0.086273 0.086273
0.121429 0.086273 0.086273
0.136902 0.086273 0.086273
0.152344 0.086273 0.086273
0.167786 0.086273 0.086273
0.183258 0.086273 0.086273
0.198730 0.091858 0.086273
0.214142 0.099701 0.086273
0.229584 0.107483 0.086273
0.245056 0.115295 0.086273
0.260468 0.123108 0.086273
0.275909 0.130920 0.086273
0.291382 0.138763 0.086273
0.306854 0.146576 0.086273
0.321991 0.154419 0.086273
0.331268 0.163666 0.086273
0.340515 0.172913 0.086273
0.349731 0.182129 0.086273
0.358978 0.191376 0.086273
0.368256 0.200653 0.086273
0.377472 0.209869 0.086273
0.386719 0.219116 0.086273
0.395966 0.228363 0.086273
0.405212 0.237640 0.086273
0.414459 0.246857 0.086273
0.423706 0.256104 0.086273
0.086273 0.086273 0.086273
0.086273 0.086273 0.086273
0.086273 0.086273 0.086273
0.086273 0.086273 0.086273
0.086273 0.086273 0.086273
0.095734 0.086273 0.086273
0.111206 0.086273 0.086273
0.126648 0.086273 0.086273
0.142120 0.086273 0.086273
0.157532 0.086273 0.086273
0.172974 0.086273 0.086273
0.188446 0.086670 0.086273
0.203918 0.094513 0.086273
0.219299 0.102295 0.086273
0.234772 0.110107 0.086273
0.250244 0.117950 0.086273
0.265686 0.125763 0.086273
0.281097 0.133575 0.086273
0.296570 0.141388 0.086273
0.311981 0.149200 0.086273
0.325104 0.157501 0.086273
0.334351 0.166779 0.086273
0.343628 0.176025 0.086273
0.352844 0.185242 0.086273
0.362091 0.194489 0.086273
0.371338 0.203735 0.086273
0.380585 0.212982 0.086273
0.389832 0.222229 0.086273
0.399078 0.231476 0.086273
0.408295 0.240692 0.086273
0.417572 0.249969 0.086273
0.426819 0.259216 0.087616
0.436066 0.268463 0.096863
0.445282 0.277679 0.106079
0.087524 0.086273 0.086273
0.086517 0.086273 0.086273
0.086273 0.086273 0.086273
0.100922 0.086273 0.086273
0.116364 0.086273 0.086273
0.131836 0.086273 0.086273
0.147308 0.086273 0.086273
0.162750 0.086273 0.086273
0.178162 0.086273 0.086273
0.193634 0.089325 0.086273
0.209076 0.097107 0.086273
0.224487 0.104950 0.086273
0.239960 0.112732 0.086273
0.255432 0.120544 0.086273
0.270813 0.128357 0.086273
0.286285 0.136169 0.086273
0.301758 0.144012 0.086273
0.317169 0.151794 0.086273
0.328217 0.160614 0.086273
0.337463 0.169861 0.086273
0.346680 0.179108 0.086273
0.355957 0.188354 0.086273
0.365204 0.197601 0.086273
0.374451 0.206848 0.086273
0.383667 0.216095 0.086273
0.392914 0.225342 0.086273
0.402191 0.234589 0.086273
0.411407 0.243805 0.086273
0.420654 0.253052 0.086273
0.429901 0.262329 0.090729
0.439148 0.271545 0.099945
0.448395 0.280792 0.109192
0.457642 0.290039 0.118439
0.466888 0.299316 0.127686
0.140076 0.086273 0.086273
0.139038 0.086273 0.086273
0.138031 0.086273 0.086273
0.137024 0.086273 0.086273
0.152496 0.086273 0.086273
0.167877 0.086273 0.086273
0.183350 0.086273 0.086273
0.198822 0.091919 0.086273
0.214264 0.099762 0.086273
0.229675 0.107544 0.086273
0.245148 0.115356 0.086273
0.260620 0.123199 0.086273
0.276001 0.130981 0.086273
0.291473 0.138824 0.086273
0.306946 0.146637 0.086273
0.322052 0.154480 0.086273
0.331329 0.163727 0.086273
0.340576 0.172974 0.086273
0.349792 0.182190 0.086273
0.359039 0.191437 0.086273
0.368317 0.200714 0.086273
0.377533 0.209930 0.086273
0.386780 0.219177 0.086273
0.396027 0.228424 0.086273
0.405273 0.237701 0.086273
0.414520 0.246918 0.086273
0.423767 0.256165 0.086273
0.433014 0.265411 0.093811
0.442230 0.274658 0.103058
0.451508 0.283905 0.112305
0.460754 0.293152 0.121552
0.469971 0.302368 0.130768
0.479218 0.311615 0.140015
0.488495 0.320892 0.149292
0.192627 0.088776 0.086273
0.191620 0.088287 0.086273
0.190552 0.087769 0.086273
0.189545 0.087280 0.086273
0.188538 0.086731 0.086273
0.204010 0.094574 0.086273
0.219391 0.102356 0.086273
0.234863 0.110168 0.086273
0.250336 0.118011 0.086273
0.265808 0.125793 0.086273
0.281189 0.133606 0.086273
0.296661 0.141418 0.086273
0.312134 0.149261 0.086273
0.325165 0.157562 0.086273
0.334412 0.166840 0.086273
0.343689 0.176086 0.086273
0.352905 0.185303 0.086273
0.362152 0.194550 0.086273
0.371399 0.203796 0.086273
0.380646 0.213043 0.086273
0.389893 0.222290 0.086273
0.399139 0.231537 0.086273
0.408356 0.240753 0.086273
0.417633 0.250031 0.086273
0.426880 0.259277 0.087677
0.436127 0.268524 0.096924
0.445343 0.277740 0.106140
0.454590 0.287018 0.115387
0.463867 0.296265 0.124664
0.473083 0.305481 0.133881
0.482330 0.314728 0.143127
0.491577 0.324005 0.152374
0.500824 0.333221 0.161621
0.510071 0.342468 0.170868
0.245148 0.115356 0.086273
0.244141 0.114868 0.086273
0.243134 0.114349 0.086273
0.242065 0.113831 0.086273
0.241119 0.113312 0.086273
0.240051 0.112793 0.086273
0.255524 0.120605 0.086273
0.270905 0.128418 0.086273
0.286377 0.136230 0.086273
0.301849 0.144073 0.086273
0.317322 0.151886 0.086273
0.328278 0.160675 0.086273
0.337524 0.169922 0.086273
0.346771 0.179199 0.086273
0.356018 0.188416 0.086273
0.365265 0.197662 0.086273
0.374512 0.206909 0.086273
0.383728 0.216156 0.086273
0.393005 0.225403 0.086273
0.402252 0.234650 0.086273
0.411469 0.243866 0.086273
0.420715 0.253113 0.086273
0.429993 0.262390 0.090790
0.439209 0.271606 0.100006
0.448456 0.280853 0.109253
0.457703 0.290100 0.118500
0.466949 0.299377 0.127747
0.476196 0.308594 0.136993
0.485443 0.317841 0.146240
0.494690 0.327087 0.155487
0.503906 0.336334 0.164703
0.513153 0.345581 0.173981
0.522430 0.354828 0.183228
0.531647 0.364044 0.192444
0.297729 0.141937 0.086273
0.296661 0.141418 0.086273
0.295685 0.140930 0.086273
0.294647 0.140411 0.086273
0.293610 0.139893 0.086273
0.292633 0.139374 0.086273
0.291595 0.138885 0.086273
0.307037 0.146667 0.086273
0.322113 0.154541 0.086273
0.331390 0.163788 0.086273
0.340637 0.173035 0.086273
0.349884 0.182281 0.086273
0.359100 0.191528 0.086273
0.368378 0.200775 0.086273
0.377625 0.210022 0.086273
0.386841 0.219238 0.086273
0.396088 0.228516 0.086273
0.405304 0.237732 0.086273
0.414581 0.246979 0.086273
0.423828 0.256226 0.086273
0.433075 0.265472 0.093872
0.442291 0.274719 0.103119
0.451569 0.283966 0.112366
0.460815 0.293213 0.121613
0.470032 0.302429 0.130829
0.479279 0.311676 0.140106
0.488556 0.320953 0.149353
0.497803 0.330200 0.158600
0.507019 0.339417 0.167816
0.516266 0.348663 0.177063
0.525543 0.357941 0.186340
0.534760 0.367157 0.195557
0.544006 0.376404 0.204803
0.553253 0.385651 0.214050
0.338745 0.171143 0.086273
0.338165 0.170563 0.086273
0.337524 0.169922 0.086273
0.336945 0.169342 0.086273
0.336334 0.168732 0.086273
0.335693 0.168091 0.086273
0.335114 0.167511 0.086273
0.334473 0.166901 0.086273
0.343750 0.176147 0.086273
0.352966 0.185364 0.086273
0.362213 0.194611 0.086273
0.371460 0.203857 0.086273
0.380737 0.213135 0.086273
0.389954 0.222351 0.086273
0.399200 0.231598 0.086273
0.408447 0.240845 0.086273
0.417694 0.250092 0.086273
0.426941 0.259338 0.087738
0.436157 0.268555 0.096954
0.445404 0.277802 0.106201
0.454651 0.287079 0.115479
0.463928 0.296326 0.124725
0.473145 0.305542 0.133942
0.482391 0.314789 0.143188
0.491638 0.324066 0.152435
0.500885 0.333282 0.161682
0.510132 0.342529 0.170929
0.519379 0.351776 0.180176
0.528625 0.361023 0.189423
0.537872 0.370270 0.198669
0.547119 0.379517 0.207916
0.556366 0.388763 0.217163
0.565582 0.397980 0.226379
0.574829 0.407257 0.235626
0.370209 0.202606 0.086273
0.369568 0.201996 0.086273
0.368988 0.201385 0.086273
0.368378 0.200775 0.086273
0.367767 0.200195 0.086273
0.367157 0.199554 0.086273
0.366547 0.198944 0.086273
0.365936 0.198334 0.086273
0.365326 0.197723 0.086273
0.374573 0.206970 0.086273
0.383789 0.216217 0.086273
0.393066 0.225464 0.086273
0.402313 0.234711 0.086273
0.411560 0.243958 0.086273
0.420776 0.253174 0.086273
0.430054 0.262451 0.090851
0.439301 0.271698 0.100098
0.448517 0.280914 0.109314
0.457764 0.290161 0.118561
0.466980 0.299408 0.127777
0.476257 0.308655 0.137054
0.485504 0.317902 0.146301
0.494751 0.327148 0.155548
0.503967 0.336395 0.164764
0.513245 0.345642 0.174042
0.522491 0.354889 0.183289
0.531708 0.364105 0.192505
0.540955 0.373352 0.201752
0.550232 0.382629 0.211029
0.559479 0.391876 0.220276
0.568695 0.401093 0.229492
0.577942 0.410339 0.238739
0.587189 0.419617 0.248016
0.596436 0.428833 0.257233
0.401672 0.234070 0.086273
0.401031 0.233429 0.086273
0.400421 0.232819 0.086273
0.399811 0.232239 0.086273
0.399200 0.231598 0.086273
0.398621 0.231018 0.086273
0.397980 0.230408 0.086273
0.397369 0.229767 0.086273
0.396790 0.229187 0.086273
0.396149 0.228577 0.086273
0.405426 0.237823 0.086273
0.414642 0.247040 0.086273
0.423889 0.256287 0.086273
0.433136 0.265533 0.093933
0.442413 0.274811 0.103210
0.451630 0.284027 0.112427
0.460876 0.293274 0.121674
0.470093 0.302490 0.130890
0.479340 0.311768 0.140167
0.488617 0.321014 0.149414
0.497833 0.330231 0.158630
0.507080 0.339478 0.167877
0.516327 0.348755 0.177124
0.525604 0.358002 0.186401
0.534821 0.367218 0.195618
0.544067 0.376465 0.204865
0.553314 0.385712 0.214111
0.562531 0.394958 0.223358
0.571808 0.404205 0.232605
0.581055 0.413452 0.241852
0.590302 0.422699 0.251099
0.599518 0.431946 0.260345
0.608795 0.441193 0.269592
0.618042 0.450439 0.278839
0.433075 0.265472 0.093872
0.432495 0.264893 0.093292
0.431885 0.264282 0.092682
0.431244 0.263641 0.092041
0.430664 0.263062 0.091461
0.430054 0.262451 0.090851
0.429443 0.261841 0.090240
0.428833 0.261230 0.089630
0.428192 0.260620 0.089020
0.427612 0.260010 0.088409
0.427002 0.259399 0.087799
0.436249 0.268646 0.097046
0.445465 0.277863 0.106262
0.454712 0.287140 0.115540
0.463989 0.296387 0.124786
0.473236 0.305634 0.134033
0.482452 0.314850 0.143250
0.491699 0.324127 0.152527
0.500946 0.333344 0.161743
0.510193 0.342590 0.170990
0.519440 0.351837 0.180237
0.528656 0.361053 0.189453
0.537933 0.370331 0.198730
0.547180 0.379578 0.207977
0.556427 0.388824 0.217224
0.565643 0.398041 0.226440
0.574890 0.407318 0.235718
0.584167 0.416565 0.244965
0.593384 0.425781 0.254181
0.602631 0.435028 0.263428
0.611877 0.444305 0.272675
0.621155 0.453552 0.281952
0.630371 0.462769 0.291168
0.639618 0.472015 0.300415
0.464539 0.296936 0.125336
0.463928 0.296326 0.124725
0.463318 0.295715 0.124115
0.462708 0.295105 0.123505
0.462097 0.294495 0.122894
0.461487 0.293915 0.122284
0.460876 0.293274 0.121674
0.460297 0.292694 0.121094
0.459656 0.292053 0.120453
0.459045 0.291443 0.119843
0.458466 0.290863 0.119263
0.457825 0.290222 0.118622
0.467072 0.299500 0.127899
0.476318 0.308716 0.137115
0.485565 0.317963 0.146362
0.494812 0.327209 0.155609
0.504059 0.336487 0.164856
0.513306 0.345703 0.174103
0.522552 0.354950 0.183350
0.531769 0.364166 0.192566
0.541016 0.373413 0.201813
0.550293 0.382690 0.211090
0.559509 0.391907 0.220306
0.568756 0.401154 0.229553
0.578003 0.410400 0.238800
0.587280 0.419678 0.248077
0.596497 0.428894 0.257294
0.605743 0.438141 0.266541
0.614990 0.447388 0.275787
0.624207 0.456635 0.285004
0.633484 0.465881 0.294281
0.642731 0.475128 0.303528
0.651978 0.484375 0.312775
0.661194 0.493622 0.321991
0.496002 0.328400 0.156799
0.495392 0.327789 0.156158
0.494751 0.327148 0.155548
0.494171 0.326569 0.154968
0.493530 0.325958 0.154358
0.492920 0.325317 0.153717
0.492340 0.324738 0.153137
0.491699 0.324127 0.152527
0.491119 0.323517 0.151917
0.490509 0.322906 0.151306
0.489868 0.322296 0.150665
0.489288 0.321686 0.150085
0.488678 0.321075 0.149475
0.497925 0.330322 0.158722
0.507141 0.339539 0.167938
0.516388 0.348816 0.177185
0.525665 0.358063 0.186462
0.534882 0.367279 0.195679
0.544128 0.376526 0.204926
0.553375 0.385803 0.214172
0.562592 0.395020 0.223419
0.571869 0.404266 0.232666
0.581116 0.413513 0.241913
0.590332 0.422729 0.251129
0.599579 0.432007 0.260406
0.608856 0.441254 0.269653
0.618103 0.450500 0.278900
0.627319 0.459717 0.288116
0.636566 0.468994 0.297363
0.645844 0.478241 0.306641
0.655060 0.487457 0.315857
0.664307 0.496704 0.325104
0.673553 0.505951 0.334351
0.682800 0.515228 0.343628
0.527435 0.359833 0.188232
0.526825 0.359222 0.187622
0.526215 0.358612 0.187012
0.525604 0.358002 0.186401
0.524994 0.357391 0.185791
0.524384 0.356781 0.185181
0.523773 0.356171 0.184570
0.523163 0.355560 0.183960
0.522552 0.354950 0.183350
0.521973 0.354370 0.182770
0.521332 0.353729 0.182129
0.520721 0.353119 0.181519
0.520111 0.352539 0.180939
0.519501 0.351898 0.180298
0.528748 0.361176 0.189545
0.537994 0.370392 0.198792
0.547241 0.379639 0.208038
0.556488 0.388885 0.217285
0.565704 0.398102 0.226501
0.574951 0.407379 0.235779
0.584229 0.416626 0.245026
0.593445 0.425842 0.254242
0.602692 0.435089 0.263489
0.611938 0.444366 0.272766
0.621185 0.453583 0.281982
0.630432 0.462830 0.291229
0.639679 0.472076 0.300476
0.648926 0.481323 0.309753
0.658173 0.490570 0.318970
0.667419 0.499817 0.328217
0.676666 0.509064 0.337463
0.685883 0.518280 0.346680
0.695160 0.527557 0.355957
0.704407 0.536804 0.365204
0.558868 0.391296 0.219666
0.558258 0.390656 0.219055
0.557678 0.390076 0.218475
0.557037 0.389435 0.217834
0.556427 0.388824 0.217224
0.555847 0.388245 0.216644
0.555206 0.387634 0.216003
0.554596 0.386993 0.215393
0.554016 0.386414 0.214813
0.553375 0.385803 0.214172
0.552795 0.385193 0.213593
0.552185 0.384583 0.212982
0.551544 0.383942 0.212341
0.550964 0.383362 0.211761
0.550354 0.382751 0.211151
0.559601 0.391998 0.220398
0.568817 0.401215 0.229614
0.578064 0.410461 0.238861
0.587341 0.419739 0.248138
0.596558 0.428955 0.257355
0.605804 0.438202 0.266602
0.615051 0.447449 0.275848
0.624268 0.456696 0.285065
0.633545 0.465942 0.294342
0.642792 0.475189 0.303589
0.652008 0.484406 0.312805
0.661255 0.493683 0.322052
0.670532 0.502930 0.331329
0.679779 0.512177 0.340576
0.688995 0.521393 0.349792
0.698242 0.530640 0.359039
0.707520 0.539917 0.368317
0.716736 0.549133 0.377533
0.725983 0.558380 0.386780
0.590332 0.422729 0.251129
0.589722 0.422119 0.250519
0.589111 0.421509 0.249908
0.588501 0.420898 0.249298
0.587891 0.420288 0.248688
0.587280 0.419678 0.248077
0.586670 0.419067 0.247467
0.586060 0.418457 0.246857
0.585419 0.417847 0.246246
0.584839 0.417236 0.245636
0.584229 0.416626 0.245026
0.583618 0.416046 0.244446
0.583008 0.415405 0.243805
0.582397 0.414795 0.243195
0.581787 0.414215 0.242584
0.581177 0.413574 0.241974
0.590424 0.422821 0.251221
0.599670 0.432068 0.260468
0.608917 0.441315 0.269714
0.618164 0.450562 0.278961
0.627380 0.459778 0.288177
0.636627 0.469055 0.297424
0.645905 0.478302 0.306702
0.655121 0.487518 0.315918
0.664368 0.496765 0.325165
0.673615 0.506042 0.334412
0.682831 0.515259 0.343658
0.692108 0.524506 0.352905
0.701355 0.533752 0.362152
0.710602 0.543030 0.371399
0.719818 0.552246 0.380646
0.729095 0.561493 0.389893
0.738342 0.570740 0.399139
0.747559 0.579956 0.408356
0.621765 0.454163 0.282562
0.621185 0.453583 0.281982
0.620544 0.452942 0.281342
0.619934 0.452332 0.280731
0.619354 0.451752 0.280151
0.618713 0.451111 0.279510
0.618103 0.450500 0.278900
0.617523 0.449921 0.278320
0.616882 0.449280 0.277679
0.616272 0.448669 0.277069
0.615692 0.448090 0.276489
0.615051 0.447449 0.275848
0.614471 0.446869 0.275269
0.613861 0.446259 0.274658
0.613220 0.445618 0.274017
0.612640 0.445038 0.273438
0.612000 0.444427 0.272827
0.621246 0.453644 0.282043
0.630493 0.462891 0.291290
0.639740 0.472137 0.300537
0.648987 0.481415 0.309814
0.658234 0.490631 0.319031
0.667480 0.499878 0.328278
0.676727 0.509125 0.337524
0.685944 0.518341 0.346741
0.695221 0.527618 0.356018
0.704468 0.536865 0.365265
0.713684 0.546082 0.374481
0.722931 0.555328 0.383728
0.732178 0.564606 0.393005
0.741455 0.573853 0.402252
0.750671 0.583069 0.411469
0.759918 0.592316 0.420715
0.769165 0.601593 0.429993
0.653198 0.485596 0.313995
0.652557 0.484985 0.313354
0.651978 0.484375 0.312775
0.651367 0.483765 0.312164
0.650726 0.483154 0.311523
0.650146 0.482544 0.310944
0.649536 0.481934 0.310333
0.648895 0.481293 0.309692
0.648315 0.480713 0.309113
0.647705 0.480103 0.308502
0.647064 0.479492 0.307861
0.646484 0.478882 0.307281
0.645874 0.478271 0.306671
0.645264 0.477692 0.306061
0.644653 0.477051 0.305450
0.644043 0.476440 0.304840
0.643433 0.475830 0.304230
0.642822 0.475220 0.303619
0.652069 0.484467 0.312866
0.661285 0.493713 0.322083
0.670563 0.502960 0.331360
0.679810 0.512207 0.340607
0.689056 0.521454 0.349854
0.698273 0.530670 0.359070
0.707550 0.539948 0.368347
0.716797 0.549194 0.377594
0.726013 0.558411 0.386810
0.735260 0.567657 0.396057
0.744507 0.576935 0.405304
0.753754 0.586151 0.414551
0.763000 0.595398 0.423798
0.772247 0.604645 0.433044
0.781494 0.613922 0.442291
0.790741 0.623138 0.451538
0.684631 0.517029 0.345428
0.684021 0.516418 0.344818
0.683411 0.515808 0.344208
0.682800 0.515228 0.343628
0.682190 0.514587 0.342987
0.681580 0.513977 0.342377
0.681000 0.513397 0.341797
0.680359 0.512756 0.341156
0.679749 0.512146 0.340546
0.679169 0.511566 0.339966
0.678528 0.510925 0.339325
0.677917 0.510315 0.338715
0.677307 0.509735 0.338135
0.676697 0.509094 0.337494
0.676117 0.508514 0.336914
0.675476 0.507904 0.336273
0.674866 0.507263 0.335663
0.674286 0.506683 0.335083
0.673645 0.506073 0.334442
0.682922 0.515320 0.343719
0.692139 0.524536 0.352936
0.701385 0.533783 0.362183
0.710632 0.543060 0.371429
0.719910 0.552307 0.380707
0.729126 0.561523 0.389923
0.738373 0.570770 0.399170
0.747620 0.580017 0.408417
0.756836 0.589264 0.417664
0.766113 0.598511 0.426910
0.775360 0.607758 0.436157
0.784576 0.616974 0.445374
0.793823 0.626251 0.454620
0.803101 0.635498 0.463898
0.812347 0.644745 0.473145
0.716064 0.548492 0.376862
0.715454 0.547852 0.376251
0.714874 0.547272 0.375671
0.714233 0.546631 0.375031
0.713654 0.546051 0.374451
0.713043 0.545441 0.373840
0.712402 0.544800 0.373199
0.711823 0.544220 0.372620
0.711212 0.543610 0.372009
0.710571 0.542969 0.371368
0.709991 0.542389 0.370789
0.709381 0.541779 0.370178
0.708740 0.541138 0.369537
0.708160 0.540558 0.368958
0.707550 0.539948 0.368347
0.706940 0.539337 0.367737
0.706329 0.538727 0.367126
0.705688 0.538116 0.366516
0.705109 0.537506 0.365906
0.704498 0.536896 0.365295
0.713745 0.546143 0.374542
0.722961 0.555359 0.383759
0.732208 0.564636 0.393036
0.741486 0.573883 0.402283
0.750732 0.583130 0.411530
0.759949 0.592346 0.420746
0.769196 0.601624 0.430023
0.778473 0.610870 0.439270
0.787689 0.620087 0.448486
0.796936 0.629333 0.457733
0.806183 0.638580 0.466980
0.815430 0.647827 0.476227
0.824677 0.657074 0.485474
0.833923 0.666321 0.494720
0.747528 0.579926 0.408325
0.746918 0.579315 0.407715
0.746277 0.578705 0.407074
0.745697 0.578094 0.406494
0.745087 0.577484 0.405884
0.744476 0.576904 0.405273
0.743866 0.576263 0.404663
0.743256 0.575653 0.404053
0.742645 0.575073 0.403473
0.742035 0.574432 0.402832
0.741425 0.573822 0.402222
0.740814 0.573242 0.401611
0.740204 0.572601 0.401001
0.739594 0.571991 0.400391
0.738983 0.571411 0.399780
0.738373 0.570770 0.399170
0.737793 0.570190 0.398590
0.737152 0.569550 0.397949
0.736542 0.568939 0.397339
0.735962 0.568359 0.396759
0.735321 0.567719 0.396118
0.744568 0.576996 0.405396
0.753815 0.586212 0.414612
0.763062 0.595459 0.423859
0.772308 0.604706 0.433105
0.781555 0.613983 0.442352
0.790802 0.623199 0.451599
0.800049 0.632446 0.460846
0.809296 0.641693 0.470093
0.818512 0.650940 0.479309
0.827789 0.660187 0.488586
0.837036 0.669434 0.497833
0.846252 0.678650 0.507050
0.855499 0.687897 0.516296
0.778961 0.611359 0.439758
0.778381 0.610779 0.439178
0.777740 0.610138 0.438538
0.777130 0.609528 0.437927
0.776550 0.608948 0.437347
0.775909 0.608307 0.436707
0.775330 0.607727 0.436127
0.774719 0.607117 0.435516
0.774078 0.606476 0.434875
0.773499 0.605896 0.434296
0.772888 0.605286 0.433685
0.772247 0.604645 0.433044
0.771667 0.604065 0.432465
0.771027 0.603455 0.431854
0.770416 0.602814 0.431213
0.769836 0.602234 0.430634
0.769196 0.601624 0.430023
0.768616 0.601013 0.429413
0.768005 0.600403 0.428802
0.767365 0.599792 0.428162
0.766785 0.599182 0.427582
0.766174 0.598572 0.426971
0.775421 0.607819 0.436218
0.784637 0.617035 0.445435
0.793884 0.626312 0.454681
0.803162 0.635559 0.463959
0.812408 0.644806 0.473206
0.821625 0.654022 0.482422
0.830872 0.663300 0.491669
0.840149 0.672546 0.500946
0.849365 0.681763 0.510162
0.858612 0.691010 0.519409
0.867859 0.700256 0.528656
0.877075 0.709503 0.537903
0.810425 0.642822 0.471222
0.809784 0.642212 0.470581
0.809204 0.641602 0.470001
0.808594 0.640991 0.469391
0.807953 0.640350 0.468750
0.807373 0.639771 0.468170
0.806763 0.639160 0.467560
0.806152 0.638550 0.466949
0.805542 0.637939 0.466339
0.804932 0.637329 0.465729
0.804321 0.636719 0.465118
0.803711 0.636108 0.464508
0.803101 0.635498 0.463898
0.802490 0.634888 0.463287
0.801880 0.634277 0.462677
0.801270 0.633667 0.462067
0.800659 0.633057 0.461456
0.800049 0.632446 0.460846
0.799469 0.631866 0.460266
0.798828 0.631226 0.459625
0.798218 0.630615 0.459015
0.797607 0.630035 0.458435
0.796997 0.629395 0.457794
0.806244 0.638672 0.467041
0.815491 0.647888 0.476288
0.824738 0.657135 0.485535
0.833984 0.666382 0.494781
0.843231 0.675629 0.504028
0.852478 0.684875 0.513275
0.861725 0.694122 0.522522
0.870972 0.703369 0.531769
0.880188 0.712585 0.540985
0.889435 0.721863 0.550262
0.898712 0.731110 0.559509
0.841888 0.674286 0.502686
0.841248 0.673645 0.502045
0.840637 0.673035 0.501434
0.840027 0.672455 0.500854
0.839417 0.671814 0.500214
0.838806 0.671204 0.499603
0.838196 0.670624 0.498993
0.837585 0.669983 0.498383
0.837006 0.669403 0.497803
0.836365 0.668793 0.497162
0.835754 0.668152 0.496552
0.835175 0.667572 0.495972
0.834534 0.666962 0.495361
0.833923 0.666321 0.494720
0.833344 0.665741 0.494141
0.832703 0.665131 0.493500
0.832092 0.664490 0.492889
0.831512 0.663910 0.492310
0.830872 0.663300 0.491669
0.830292 0.662689 0.491089
0.829681 0.662079 0.490479
0.829041 0.661438 0.489838
0.828461 0.660858 0.489258
0.827850 0.660248 0.488647
0.837097 0.669495 0.497894
0.846313 0.678711 0.507111
0.855560 0.687958 0.516357
0.864838 0.697235 0.525635
0.874084 0.706482 0.534882
0.883301 0.715698 0.544098
0.892548 0.724945 0.553345
0.901794 0.734222 0.562592
0.911041 0.743439 0.571838
0.920288 0.752686 0.581085
0.873291 0.705688 0.534088
0.872711 0.705109 0.533508
0.872101 0.704498 0.532898
0.871460 0.703857 0.532257
0.870880 0.703278 0.531677
0.870270 0.702667 0.531067
0.869629 0.702026 0.530426
0.869049 0.701447 0.529846
0.868439 0.700836 0.529236
0.867828 0.700226 0.528625
0.867218 0.699615 0.528015
0.866608 0.699005 0.527405
0.865997 0.698395 0.526794
0.865387 0.697784 0.526184
0.864777 0.697174 0.525574
0.864166 0.696564 0.524963
0.863556 0.695953 0.524353
0.862915 0.695343 0.523743
0.862335 0.694733 0.523132
0.861725 0.694122 0.522522
0.861115 0.693542 0.521942
0.860504 0.692902 0.521301
0.859894 0.692291 0.520691
0.859283 0.691711 0.520081
0.858673 0.691071 0.519470
0.867920 0.700317 0.528717
0.877167 0.709564 0.537964
0.886414 0.718811 0.547211
0.895660 0.728058 0.556458
0.904907 0.737305 0.565704
0.914124 0.746552 0.574921
0.923401 0.755798 0.584198
0.932648 0.765045 0.593445
0.941864 0.774261 0.602661
0.904755 0.737152 0.565552
0.904144 0.736542 0.564941
0.903534 0.735962 0.564331
0.902924 0.735321 0.563721
0.902313 0.734711 0.563110
0.901703 0.734131 0.562500
0.901093 0.733490 0.561890
0.900482 0.732880 0.561279
0.899872 0.732269 0.560669
0.899261 0.731659 0.560059
0.898682 0.731079 0.559479
0.898041 0.730438 0.558838
0.897430 0.729828 0.558228
0.896851 0.729248 0.557648
0.896210 0.728638 0.557007
0.895599 0.727997 0.556396
0.895020 0.727417 0.555817
0.894379 0.726776 0.555176
0.893768 0.726166 0.554565
0.893188 0.725586 0.553986
0.892548 0.724945 0.553345
0.891968 0.724365 0.552765
0.891357 0.723755 0.552155
0.890717 0.723114 0.551514
0.890137 0.722534 0.550934
0.889496 0.721924 0.550323
0.898773 0.731171 0.559570
0.907990 0.740387 0.568787
0.917236 0.749634 0.578033
0.926483 0.758911 0.587311
0.935760 0.768158 0.596558
