other luts/实验工艺系列/湿板火棉胶工艺1.cube
#Created by: Adobe Photoshop Export Color Lookup Plugin
#Copyright: (C) Copyright 2026 汉图
TITLE "实验工艺"
#LUT size
LUT_3D_SIZE 7
#data domain
#LUT data points
DOMAIN_MIN 0.000000 0.000000 0.000000
DOMAIN_MAX 0.909091 0.909091 0.909091
0.086273 0.086273 0.086273
0.086273 0.086273 0.086273
0.136902 0.086273 0.086273
0.214142 0.099701 0.086273
0.291382 0.138763 0.086273
0.349731 0.182129 0.086273
0.395966 0.228363 0.086273
0.245148 0.115356 0.086273
0.240051 0.112793 0.086273
0.317322 0.151886 0.086273
0.365265 0.197662 0.086273
0.411469 0.243866 0.086273
0.457703 0.290100 0.118500
0.503906 0.336334 0.164703
0.433075 0.265472 0.093872
0.430054 0.262451 0.090851
0.427002 0.259399 0.087799
0.473236 0.305634 0.134033
0.519440 0.351837 0.180237
0.565643 0.398041 0.226440
0.611877 0.444305 0.272675
0.590332 0.422729 0.251129
0.587280 0.419678 0.248077
0.584229 0.416626 0.245026
0.581177 0.413574 0.241974
0.627380 0.459778 0.288177
0.673615 0.506042 0.334412
0.719818 0.552246 0.380646
0.747528 0.579926 0.408325
0.744476 0.576904 0.405273
0.741425 0.573822 0.402222
0.738373 0.570770 0.399170
0.735321 0.567719 0.396118
0.781555 0.613983 0.442352
0.827789 0.660187 0.488586
0.904755 0.737152 0.565552
0.901703 0.734131 0.562500
0.898682 0.731079 0.559479
0.895599 0.727997 0.556396
0.892548 0.724945 0.553345
0.889496 0.721924 0.550323
0.935760 0.768158 0.596558
1.000000 0.908691 0.815186
1.000000 0.904968 0.807617
1.000000 0.901215 0.800049
1.000000 0.897461 0.792480
1.000000 0.893707 0.784790
1.000000 0.889954 0.777222
1.000000 0.886200 0.769653
0.086273 0.086273 0.086273
0.086273 0.086273 0.086273
0.086273 0.086273 0.086273
0.136902 0.086273 0.086273
0.214111 0.099670 0.086273
0.291382 0.138763 0.086273
0.349731 0.182129 0.086273
0.086273 0.086273 0.086273
0.240051 0.112793 0.086273
0.317322 0.151886 0.086273
0.365265 0.197662 0.086273
0.411469 0.243866 0.086273
0.457703 0.290100 0.118500
0.503906 0.336334 0.164703
0.245148 0.115356 0.086273
0.430054 0.262451 0.090851
0.427002 0.259399 0.087799
0.473236 0.305634 0.134033
0.519440 0.351837 0.180237
0.565643 0.398041 0.226440
0.611877 0.444305 0.272675
0.433075 0.265472 0.093872
0.587280 0.419678 0.248077
0.584229 0.416626 0.245026
0.581177 0.413574 0.241974
0.627380 0.459778 0.288177
0.673615 0.506042 0.334412
0.719818 0.552246 0.380646
0.590302 0.422699 0.251099
0.744476 0.576904 0.405273
0.741425 0.573822 0.402222
0.738373 0.570770 0.399170
0.735321 0.567719 0.396118
0.781555 0.613983 0.442352
0.827789 0.660187 0.488586
0.747528 0.579926 0.408325
0.901703 0.734131 0.562500
0.898682 0.731079 0.559479
0.895599 0.727997 0.556396
0.892548 0.724945 0.553345
0.889496 0.721924 0.550323
0.935760 0.768158 0.596558
0.904755 0.737152 0.565552
1.000000 0.904968 0.807617
1.000000 0.901215 0.800049
1.000000 0.897461 0.792480
1.000000 0.893707 0.784790
1.000000 0.889954 0.777222
1.000000 0.886200 0.769653
0.086273 0.086273 0.086273
0.086273 0.086273 0.086273
0.086273 0.086273 0.086273
0.086273 0.086273 0.086273
0.136902 0.086273 0.086273
0.214111 0.099670 0.086273
0.291382 0.138763 0.086273
0.086273 0.086273 0.086273
0.240051 0.112793 0.086273
0.240051 0.112793 0.086273
0.317322 0.151886 0.086273
0.365265 0.197662 0.086273
0.411469 0.243866 0.086273
0.457703 0.290100 0.118500
0.086273 0.086273 0.086273
0.240051 0.112793 0.086273
0.427002 0.259399 0.087799
0.473236 0.305634 0.134033
0.519440 0.351837 0.180237
0.565643 0.398041 0.226440
0.611877 0.444305 0.272675
0.245148 0.115356 0.086273
0.430054 0.262451 0.090851
0.584229 0.416626 0.245026
0.581177 0.413574 0.241974
0.627380 0.459778 0.288177
0.673615 0.506042 0.334412
0.719818 0.552246 0.380646
0.433044 0.265442 0.093842
0.587250 0.419647 0.248047
0.741425 0.573822 0.402222
0.738373 0.570770 0.399170
0.735321 0.567719 0.396118
0.781555 0.613983 0.442352
0.827789 0.660187 0.488586
0.590302 0.422699 0.251099
0.744476 0.576904 0.405273
0.898682 0.731079 0.559479
0.895599 0.727997 0.556396
0.892548 0.724945 0.553345
0.889496 0.721924 0.550323
0.935760 0.768158 0.596558
0.747528 0.579926 0.408325
0.901703 0.734131 0.562500
1.000000 0.901215 0.800049
1.000000 0.897461 0.792480
1.000000 0.893707 0.784790
1.000000 0.889954 0.777222
1.000000 0.886200 0.769653
0.086273 0.086273 0.086273
0.086273 0.086273 0.086273
0.086273 0.086273 0.086273
0.086273 0.086273 0.086273
0.086273 0.086273 0.086273
0.136902 0.086273 0.086273
0.214111 0.099670 0.086273
0.086273 0.086273 0.086273
0.240051 0.112793 0.086273
0.240051 0.112793 0.086273
0.240051 0.112793 0.086273
0.317291 0.151855 0.086273
0.365265 0.197662 0.086273
0.411469 0.243866 0.086273
0.086273 0.086273 0.086273
0.240051 0.112793 0.086273
0.427002 0.259399 0.087799
0.427002 0.259399 0.087799
0.473206 0.305603 0.134003
0.519440 0.351837 0.180237
0.565643 0.398041 0.226440
0.086273 0.086273 0.086273
0.240051 0.112793 0.086273
0.427002 0.259399 0.087799
0.581177 0.413574 0.241974
0.627380 0.459778 0.288177
0.673615 0.506042 0.334412
0.719818 0.552246 0.380646
0.245087 0.115326 0.086273
0.430023 0.262421 0.090820
0.584198 0.416595 0.244995
0.738373 0.570770 0.399170
0.735321 0.567719 0.396118
0.781555 0.613983 0.442352
0.827789 0.660187 0.488586
0.433044 0.265442 0.093842
0.587250 0.419647 0.248047
0.741425 0.573822 0.402222
0.895599 0.727997 0.556396
0.892548 0.724945 0.553345
0.889496 0.721924 0.550323
0.935760 0.768158 0.596558
0.590302 0.422699 0.251099
0.744476 0.576904 0.405273
0.898682 0.731079 0.559479
1.000000 0.897461 0.792480
1.000000 0.893707 0.784790
1.000000 0.889954 0.777222
1.000000 0.886200 0.769653
0.086273 0.086273 0.086273
0.086273 0.086273 0.086273
0.086273 0.086273 0.086273
0.086273 0.086273 0.086273
0.086273 0.086273 0.086273
0.086273 0.086273 0.086273
0.136902 0.086273 0.086273
0.086273 0.086273 0.086273
0.240051 0.112793 0.086273
0.240051 0.112793 0.086273
0.240051 0.112793 0.086273
0.240051 0.112793 0.086273
0.317322 0.151886 0.086273
0.365265 0.197662 0.086273
0.086273 0.086273 0.086273
0.240051 0.112793 0.086273
0.427002 0.259399 0.087799
0.427002 0.259399 0.087799
0.427002 0.259399 0.087799
0.473236 0.305634 0.134033
0.519440 0.351837 0.180237
0.086273 0.086273 0.086273
0.240051 0.112793 0.086273
0.427002 0.259399 0.087799
0.581177 0.413574 0.241974
0.581177 0.413574 0.241974
0.627411 0.459808 0.288208
0.673615 0.506042 0.334412
0.086273 0.086273 0.086273
0.240051 0.112793 0.086273
0.427002 0.259399 0.087799
0.581177 0.413574 0.241974
0.735321 0.567719 0.396118
0.781555 0.613983 0.442352
0.827789 0.660187 0.488586
0.245148 0.115356 0.086273
0.430054 0.262451 0.090851
0.584229 0.416626 0.245026
0.738403 0.570801 0.399200
0.892548 0.724945 0.553345
0.889496 0.721924 0.550323
0.935760 0.768158 0.596558
0.433075 0.265472 0.093872
0.587280 0.419678 0.248077
0.741455 0.573853 0.402252
0.895630 0.728027 0.556427
1.000000 0.893707 0.784790
1.000000 0.889954 0.777222
1.000000 0.886200 0.769653
0.086273 0.086273 0.086273
0.086273 0.086273 0.086273
0.086273 0.086273 0.086273
0.086273 0.086273 0.086273
0.086273 0.086273 0.086273
0.086273 0.086273 0.086273
0.086273 0.086273 0.086273
0.086273 0.086273 0.086273
0.240051 0.112793 0.086273
0.240051 0.112793 0.086273
0.240051 0.112793 0.086273
0.240051 0.112793 0.086273
0.240051 0.112793 0.086273
0.317322 0.151886 0.086273
0.086273 0.086273 0.086273
0.240051 0.112793 0.086273
0.427002 0.259399 0.087799
0.427002 0.259399 0.087799
0.427002 0.259399 0.087799
0.427002 0.259399 0.087799
0.473236 0.305634 0.134033
0.086273 0.086273 0.086273
0.240051 0.112793 0.086273
0.427002 0.259399 0.087799
0.581177 0.413574 0.241974
0.581177 0.413574 0.241974
0.581177 0.413574 0.241974
0.627411 0.459808 0.288208
0.086273 0.086273 0.086273
0.240051 0.112793 0.086273
0.427002 0.259399 0.087799
0.581177 0.413574 0.241974
0.735321 0.567719 0.396118
0.735321 0.567719 0.396118
0.781555 0.613983 0.442352
0.086273 0.086273 0.086273
0.240051 0.112793 0.086273
0.427002 0.259399 0.087799
0.581177 0.413574 0.241974
0.735321 0.567719 0.396118
0.889496 0.721924 0.550323
0.935760 0.768158 0.596558
0.245148 0.115356 0.086273
0.430054 0.262451 0.090851
0.584229 0.416626 0.245026
0.738403 0.570801 0.399200
0.892548 0.724945 0.553345
1.000000 0.889954 0.777222
1.000000 0.886200 0.769653
0.086273 0.086273 0.086273
0.086273 0.086273 0.086273
0.086273 0.086273 0.086273
0.086273 0.086273 0.086273
0.086273 0.086273 0.086273
0.086273 0.086273 0.086273
0.086273 0.086273 0.086273
0.086273 0.086273 0.086273
0.240051 0.112793 0.086273
0.240051 0.112793 0.086273
0.240051 0.112793 0.086273
0.240051 0.112793 0.086273
0.240051 0.112793 0.086273
0.240051 0.112793 0.086273
0.086273 0.086273 0.086273
0.240051 0.112793 0.086273
0.427002 0.259399 0.087799
0.427002 0.259399 0.087799
0.427002 0.259399 0.087799
0.427002 0.259399 0.087799
0.427002 0.259399 0.087799
0.086273 0.086273 0.086273
0.240051 0.112793 0.086273
0.427002 0.259399 0.087799
0.581177 0.413574 0.241974
0.581177 0.413574 0.241974
0.581177 0.413574 0.241974
0.581177 0.413574 0.241974
0.086273 0.086273 0.086273
0.240051 0.112793 0.086273
0.427002 0.259399 0.087799
0.581177 0.413574 0.241974
0.735321 0.567719 0.396118
0.735321 0.567719 0.396118
0.735321 0.567719 0.396118
0.086273 0.086273 0.086273
0.240051 0.112793 0.086273
0.427002 0.259399 0.087799
0.581177 0.413574 0.241974
0.735321 0.567719 0.396118
0.889496 0.721924 0.550323
0.889496 0.721924 0.550323
0.086273 0.086273 0.086273
0.240051 0.112793 0.086273
0.427002 0.259399 0.087799
0.581177 0.413574 0.241974
0.735321 0.567719 0.396118
0.889496 0.721924 0.550323
1.000000 0.886200 0.769653
