other luts/实验工艺系列/湿板火棉胶工艺2.cube
#Created by: Adobe Photoshop Export Color Lookup Plugin
#Copyright: (C) Copyright 2026 汉图
TITLE "实验工艺"
#LUT size
LUT_3D_SIZE 4
#data domain
DOMAIN_MIN 0.0 0.0 0.0
DOMAIN_MAX 1.0 1.0 1.0
#LUT data points
0.086273 0.086273 0.086273
0.117493 0.086273 0.086273
0.240997 0.189117 0.086273
0.342682 0.290833 0.119232
0.383514 0.331665 0.160065
0.376801 0.324951 0.153351
0.478485 0.426636 0.255005
0.580170 0.528320 0.356720
0.729401 0.677551 0.505920
0.722687 0.670837 0.499237
0.715973 0.664124 0.492523
0.817688 0.765808 0.594208
1.000000 1.000000 1.000000
1.000000 1.000000 1.000000
1.000000 1.000000 1.000000
1.000000 1.000000 1.000000
0.086273 0.086273 0.086273
0.086273 0.086273 0.086273
0.117462 0.086273 0.086273
0.240997 0.189117 0.086273
0.086273 0.086273 0.086273
0.376801 0.324951 0.153351
0.478485 0.426636 0.255005
0.580170 0.528320 0.356720
0.383484 0.331635 0.160034
0.722687 0.670837 0.499237
0.715973 0.664124 0.492523
0.817688 0.765808 0.594208
0.729401 0.677551 0.505920
1.000000 1.000000 1.000000
1.000000 1.000000 1.000000
1.000000 1.000000 1.000000
0.086273 0.086273 0.086273
0.086273 0.086273 0.086273
0.086273 0.086273 0.086273
0.117493 0.086273 0.086273
0.086273 0.086273 0.086273
0.376801 0.324951 0.153351
0.376801 0.324951 0.153351
0.478516 0.426666 0.255035
0.086273 0.086273 0.086273
0.376801 0.324951 0.153351
0.715973 0.664124 0.492523
0.817688 0.765808 0.594208
0.383514 0.331665 0.160065
0.722717 0.670868 0.499268
1.000000 1.000000 1.000000
1.000000 1.000000 1.000000
0.086273 0.086273 0.086273
0.086273 0.086273 0.086273
0.086273 0.086273 0.086273
0.086273 0.086273 0.086273
0.086273 0.086273 0.086273
0.376801 0.324951 0.153351
0.376801 0.324951 0.153351
0.376801 0.324951 0.153351
0.086273 0.086273 0.086273
0.376801 0.324951 0.153351
0.715973 0.664124 0.492523
0.715973 0.664124 0.492523
0.086273 0.086273 0.086273
0.376801 0.324951 0.153351
0.715973 0.664124 0.492523
1.000000 1.000000 1.000000
