other luts/实验工艺系列/湿板火棉胶工艺1.cube
#Created by: Adobe Photoshop Export Color Lookup Plugin
#Copyright: (C) Copyright 2026 汉图
TITLE "实验工艺"
#LUT size
LUT_3D_SIZE 4
#data domain
DOMAIN_MIN 0.0 0.0 0.0
DOMAIN_MAX 1.0 1.0 1.0
#LUT data points
0.086273 0.086273 0.086273
0.152344 0.086273 0.086273
0.321991 0.154419 0.086273
0.423706 0.256104 0.086273
0.464539 0.296936 0.125336
0.457825 0.290222 0.118622
0.559509 0.391907 0.220306
0.661194 0.493622 0.321991
0.810425 0.642822 0.471222
0.803711 0.636108 0.464508
0.796997 0.629395 0.457794
0.898712 0.731110 0.559509
1.000000 1.000000 1.000000
1.000000 1.000000 1.000000
1.000000 1.000000 1.000000
1.000000 1.000000 1.000000
0.086273 0.086273 0.086273
0.086273 0.086273 0.086273
0.152313 0.086273 0.086273
0.321991 0.154419 0.086273
0.086273 0.086273 0.086273
0.457825 0.290222 0.118622
0.559509 0.391907 0.220306
0.661194 0.493622 0.321991
0.464508 0.296906 0.125305
0.803711 0.636108 0.464508
0.796997 0.629395 0.457794
0.898712 0.731110 0.559509
0.810425 0.642822 0.471222
1.000000 1.000000 1.000000
1.000000 1.000000 1.000000
1.000000 1.000000 1.000000
0.086273 0.086273 0.086273
0.086273 0.086273 0.086273
0.086273 0.086273 0.086273
0.152344 0.086273 0.086273
0.086273 0.086273 0.086273
0.457825 0.290222 0.118622
0.457825 0.290222 0.118622
0.559540 0.391937 0.220337
0.086273 0.086273 0.086273
0.457825 0.290222 0.118622
0.796997 0.629395 0.457794
0.898712 0.731110 0.559509
0.464539 0.296936 0.125336
0.803741 0.636139 0.464539
1.000000 1.000000 1.000000
1.000000 1.000000 1.000000
0.086273 0.086273 0.086273
0.086273 0.086273 0.086273
0.086273 0.086273 0.086273
0.086273 0.086273 0.086273
0.086273 0.086273 0.086273
0.457825 0.290222 0.118622
0.457825 0.290222 0.118622
0.457825 0.290222 0.118622
0.086273 0.086273 0.086273
0.457825 0.290222 0.118622
0.796997 0.629395 0.457794
0.796997 0.629395 0.457794
0.086273 0.086273 0.086273
0.457825 0.290222 0.118622
0.796997 0.629395 0.457794
1.000000 1.000000 1.000000
