other luts/实验工艺系列/经典蓝晒法1.cube
#Created by: Adobe Photoshop Export Color Lookup Plugin
#Copyright: (C) Copyright 2026 汉图
TITLE "实验工艺"
#LUT size
LUT_3D_SIZE 7
#data domain
#LUT data points
DOMAIN_MIN 0.000000 0.000000 0.000000
DOMAIN_MAX 0.909091 0.909091 0.909091
0.133331 0.133331 0.133331
0.133331 0.188721 0.291199
0.193604 0.389343 0.624054
0.291107 0.602234 0.898407
0.422302 0.697662 0.917969
0.589111 0.792450 0.940765
0.756348 0.878204 0.962830
0.134918 0.257019 0.405853
0.227112 0.464905 0.736359
0.329132 0.634491 0.904266
0.477936 0.731110 0.925812
0.648254 0.823456 0.948578
0.809723 0.904480 0.969971
0.938110 0.967316 0.988312
0.264191 0.548126 0.843719
0.377930 0.668945 0.911530
0.536316 0.763977 0.933685
0.706390 0.853241 0.956238
0.859192 0.928619 0.976746
0.970245 0.983582 0.993744
1.000000 1.000000 1.000000
0.434021 0.704865 0.919678
0.599884 0.798157 0.942200
0.764343 0.882172 0.963928
0.903625 0.950317 0.983063
0.994232 0.996521 0.998566
1.000000 1.000000 1.000000
1.000000 1.000000 1.000000
0.662964 0.831085 0.950531
0.820648 0.909882 0.971466
0.944458 0.970459 0.989349
1.000000 1.000000 1.000000
1.000000 1.000000 1.000000
1.000000 1.000000 1.000000
1.000000 1.000000 1.000000
0.872375 0.935059 0.978607
0.977051 0.987152 0.994995
1.000000 1.000000 1.000000
1.000000 1.000000 1.000000
1.000000 1.000000 1.000000
1.000000 1.000000 1.000000
1.000000 1.000000 1.000000
0.999969 0.999969 1.000000
1.000000 1.000000 1.000000
1.000000 1.000000 1.000000
1.000000 1.000000 1.000000
1.000000 1.000000 1.000000
1.000000 1.000000 1.000000
1.000000 1.000000 1.000000
0.133331 0.133331 0.133331
0.133331 0.197815 0.306519
0.198303 0.399963 0.640625
0.295593 0.606781 0.899109
0.430054 0.702423 0.919098
0.597626 0.796997 0.941895
0.764160 0.882050 0.963898
0.162537 0.319275 0.510376
0.133331 0.232971 0.365509
0.216217 0.440399 0.701263
0.315521 0.623810 0.902161
0.459656 0.720276 0.923248
0.629333 0.813660 0.946106
0.792938 0.896240 0.967712
0.293274 0.604523 0.898743
0.251678 0.520325 0.809845
0.360413 0.656982 0.908936
0.517365 0.753448 0.931183
0.687897 0.843781 0.953827
0.843719 0.921112 0.974609
0.960754 0.978699 0.992065
0.484039 0.734589 0.926666
0.414886 0.692993 0.916931
0.578674 0.786896 0.939392
0.744659 0.872406 0.961273
0.889923 0.943604 0.981079
0.987488 0.992737 0.997070
1.000000 1.000000 1.000000
0.714447 0.857300 0.957306
0.642029 0.820282 0.947754
0.802338 0.900909 0.968994
0.931702 0.964111 0.987335
1.000000 1.000000 1.000000
1.000000 1.000000 1.000000
1.000000 1.000000 1.000000
0.910889 0.953857 0.984131
0.855713 0.926941 0.976288
0.967224 0.981995 0.993195
1.000000 1.000000 1.000000
1.000000 1.000000 1.000000
1.000000 1.000000 1.000000
1.000000 1.000000 1.000000
1.000000 1.000000 1.000000
0.993500 0.996155 0.998413
1.000000 1.000000 1.000000
1.000000 1.000000 1.000000
1.000000 1.000000 1.000000
1.000000 1.000000 1.000000
1.000000 1.000000 1.000000
0.133331 0.138092 0.206268
0.139221 0.266754 0.422150
0.203064 0.410706 0.657013
0.300476 0.611237 0.899872
0.437897 0.707275 0.920197
0.606079 0.801483 0.942993
0.771881 0.885895 0.964905
0.195984 0.394684 0.632385
0.155792 0.304108 0.484863
0.221039 0.451233 0.717010
0.321472 0.628540 0.903076
0.467712 0.725159 0.924408
0.637756 0.818024 0.947205
0.800415 0.899963 0.968750
0.327576 0.633301 0.904022
0.283173 0.589539 0.890350
0.239349 0.492523 0.773956
0.345245 0.646271 0.906677
0.498505 0.742798 0.928619
0.669189 0.834259 0.951355
0.827820 0.913361 0.972412
0.536285 0.763977 0.933685
0.463776 0.722778 0.923859
0.396088 0.680908 0.914215
0.557526 0.775482 0.936554
0.726624 0.863373 0.958893
0.875641 0.936676 0.979034
0.979797 0.988617 0.995544
0.764221 0.882080 0.963898
0.694061 0.846924 0.954620
0.620941 0.809296 0.944977
0.783539 0.891663 0.966461
0.918030 0.957367 0.985229
1.000000 1.000000 1.000000
1.000000 1.000000 1.000000
0.944458 0.970428 0.989349
0.896027 0.946625 0.981995
0.838501 0.918549 0.973907
0.956299 0.976410 0.991302
1.000000 1.000000 1.000000
1.000000 1.000000 1.000000
1.000000 1.000000 1.000000
1.000000 1.000000 1.000000
1.000000 1.000000 1.000000
0.985840 0.991882 0.996735
1.000000 1.000000 1.000000
1.000000 1.000000 1.000000
1.000000 1.000000 1.000000
1.000000 1.000000 1.000000
0.133331 0.202271 0.314026
0.171539 0.339600 0.544159
0.238037 0.489624 0.770111
0.305756 0.615814 0.900665
0.445709 0.712067 0.921326
0.614532 0.805908 0.944122
0.779602 0.889709 0.965942
0.230713 0.473053 0.747620
0.188934 0.378815 0.607513
0.256653 0.531403 0.823547
0.327576 0.633301 0.904022
0.475861 0.729858 0.925507
0.646179 0.822449 0.948303
0.807800 0.903595 0.969727
0.376129 0.667725 0.911255
0.318542 0.626221 0.902618
0.275574 0.573059 0.872375
0.351898 0.651093 0.907654
0.506836 0.747620 0.929779
0.677490 0.838562 0.952423
0.834930 0.916870 0.973419
0.589233 0.792572 0.940796
0.515289 0.752258 0.930908
0.443848 0.710938 0.921051
0.377930 0.668945 0.911530
0.538452 0.765106 0.933990
0.708435 0.854248 0.956512
0.860779 0.929413 0.976990
0.811584 0.905365 0.970215
0.744598 0.872375 0.961273
0.673401 0.836426 0.951904
0.599884 0.798157 0.942200
0.764282 0.882141 0.963898
0.905029 0.951019 0.983276
0.994873 0.996948 0.998749
0.972260 0.984619 0.994110
0.931671 0.964111 0.987335
0.880432 0.938965 0.979736
0.820709 0.909912 0.971466
0.944489 0.970459 0.989349
1.000000 1.000000 1.000000
1.000000 1.000000 1.000000
1.000000 1.000000 1.000000
1.000000 1.000000 1.000000
1.000000 1.000000 1.000000
0.977081 0.987152 0.994995
1.000000 1.000000 1.000000
1.000000 1.000000 1.000000
1.000000 1.000000 1.000000
0.141327 0.271545 0.430176
0.205353 0.415894 0.664948
0.274170 0.570099 0.869049
0.350159 0.649780 0.907410
0.453644 0.716797 0.922394
0.622955 0.810364 0.945221
0.787231 0.893494 0.966980
0.266632 0.553528 0.850067
0.223419 0.456512 0.724518
0.291107 0.602234 0.898407
0.376129 0.667725 0.911255
0.484039 0.734589 0.926666
0.654541 0.826782 0.949402
0.815216 0.907166 0.970703
0.430054 0.702423 0.919098
0.365509 0.660553 0.909698
0.309906 0.619263 0.901306
0.403503 0.685669 0.915283
0.515228 0.752350 0.930908
0.685822 0.842773 0.953552
0.841980 0.920258 0.974365
0.650452 0.824646 0.948883
0.576477 0.785767 0.939087
0.502686 0.745209 0.929169
0.432129 0.703735 0.919373
0.546875 0.769745 0.935150
0.716522 0.858307 0.957581
0.867432 0.932678 0.977905
0.855713 0.926941 0.976288
0.792999 0.896301 0.967712
0.724609 0.862396 0.958649
0.652588 0.825775 0.949158
0.578674 0.786896 0.939392
0.746674 0.873352 0.961578
0.891449 0.944366 0.981293
0.993500 0.996155 0.998413
0.961884 0.979218 0.992218
0.917999 0.957367 0.985229
0.864136 0.931091 0.977448
0.802399 0.900940 0.968994
0.931732 0.964142 0.987335
1.000000 1.000000 1.000000
1.000000 1.000000 1.000000
1.000000 1.000000 1.000000
1.000000 1.000000 1.000000
0.996887 0.998138 0.999207
0.967255 0.982025 0.993195
1.000000 1.000000 1.000000
1.000000 1.000000 1.000000
0.173798 0.344696 0.552490
0.240448 0.495056 0.777313
0.308380 0.618042 0.901062
0.401550 0.684387 0.915009
0.513031 0.751068 0.930603
0.631470 0.814758 0.946381
0.794769 0.897186 0.967957
0.300415 0.611206 0.899841
0.259094 0.536835 0.830200
0.330658 0.635559 0.904480
0.430054 0.702423 0.919098
0.544708 0.768524 0.934845
0.662964 0.831085 0.950531
0.822479 0.910767 0.971710
0.488068 0.736969 0.927185
0.418488 0.695190 0.917450
0.355164 0.653351 0.908173
0.459656 0.720398 0.923248
0.576416 0.785706 0.939087
0.694061 0.847015 0.954620
0.848846 0.923645 0.975311
0.710388 0.855255 0.956757
0.637756 0.818024 0.947205
0.563751 0.778870 0.937378
0.490204 0.738190 0.927490
0.608307 0.802673 0.943329
0.724609 0.862396 0.958649
0.874023 0.935883 0.978821
0.902069 0.949524 0.982849
0.845459 0.921997 0.974854
0.781616 0.890686 0.966187
0.712463 0.856293 0.957062
0.639984 0.819214 0.947479
0.754547 0.877289 0.962616
0.897552 0.947357 0.982178
1.000000 1.000000 1.000000
0.985840 0.991882 0.996735
0.950500 0.973511 0.990326
0.903595 0.950317 0.983063
0.847290 0.922852 0.975098
0.783569 0.891693 0.966461
0.919464 0.958099 0.985443
1.000000 1.000000 1.000000
1.000000 1.000000 1.000000
1.000000 1.000000 1.000000
1.000000 1.000000 1.000000
0.989838 0.994080 0.997589
0.956329 0.976410 0.991333
1.000000 1.000000 1.000000
0.207703 0.421143 0.672791
0.276672 0.575500 0.875122
0.353394 0.652161 0.907898
0.457581 0.719147 0.922974
0.574188 0.784485 0.938782
0.691925 0.845856 0.954346
0.802277 0.900879 0.968964
0.343445 0.645081 0.906403
0.293182 0.604492 0.898743
0.379608 0.670044 0.911804
0.488068 0.736969 0.927185
0.606079 0.801483 0.942993
0.722534 0.861328 0.958405
0.829651 0.914246 0.972687
0.548798 0.770844 0.935394
0.475739 0.729797 0.925507
0.407166 0.688171 0.915802
0.519348 0.754578 0.931427
0.637756 0.818024 0.947205
0.752502 0.876282 0.962341
0.855713 0.926941 0.976288
0.768036 0.884003 0.964417
0.698090 0.848969 0.955170
0.625092 0.811462 0.945526
0.550995 0.771942 0.935699
0.669189 0.834259 0.951355
0.781616 0.890686 0.966187
0.880493 0.939026 0.979736
0.941895 0.969208 0.988922
0.892914 0.945068 0.981506
0.834900 0.916840 0.973419
0.770020 0.884979 0.964661
0.700226 0.850098 0.955444
0.809753 0.904480 0.969971
0.903595 0.950317 0.983063
1.000000 1.000000 1.000000
1.000000 1.000000 1.000000
0.980713 0.989075 0.995728
0.943237 0.969818 0.989166
0.894562 0.945862 0.981750
0.836792 0.917755 0.973663
0.925018 0.960815 0.986267
1.000000 1.000000 1.000000
1.000000 1.000000 1.000000
1.000000 1.000000 1.000000
1.000000 1.000000 1.000000
1.000000 1.000000 1.000000
0.981628 0.989594 0.995911
0.944519 0.970490 0.989349
