other luts/实验工艺系列/经典蓝晒法1.cube
#Created by: Adobe Photoshop Export Color Lookup Plugin
#Copyright: (C) Copyright 2026 汉图
TITLE "实验工艺"
#LUT size
LUT_3D_SIZE 34
#data domain
DOMAIN_MIN 0.0 0.0 0.0
DOMAIN_MAX 1.0 1.0 1.0
#LUT data points
0.133331 0.133331 0.133331
0.133331 0.133331 0.133331
0.133331 0.133331 0.133331
0.133331 0.133331 0.173553
0.133331 0.152679 0.230743
0.133331 0.188721 0.291199
0.133331 0.226318 0.354279
0.138611 0.265289 0.419739
0.156433 0.305481 0.487274
0.174805 0.346924 0.556122
0.193604 0.389343 0.624054
0.212860 0.432739 0.690063
0.232483 0.476959 0.752991
0.252411 0.521942 0.811859
0.272705 0.566864 0.865417
0.291107 0.602234 0.898407
0.311523 0.620605 0.901581
0.336029 0.639587 0.905273
0.363098 0.658844 0.909332
0.391968 0.678253 0.913605
0.422302 0.697662 0.917969
0.454041 0.716980 0.922455
0.486816 0.736206 0.927002
0.520599 0.755219 0.931610
0.554810 0.773956 0.936188
0.589111 0.792450 0.940765
0.623352 0.810577 0.945282
0.657440 0.828247 0.949799
0.691040 0.845459 0.954224
0.724030 0.862030 0.958557
0.756348 0.878204 0.962830
0.787567 0.893646 0.967010
0.817657 0.908417 0.971039
0.846405 0.922394 0.974976
0.133331 0.133331 0.133331
0.133331 0.133331 0.138397
0.133331 0.133331 0.192963
0.133331 0.164948 0.251343
0.133331 0.201538 0.312714
0.133331 0.239655 0.376648
0.144714 0.279083 0.442902
0.162720 0.319733 0.511139
0.181274 0.361542 0.579865
0.200195 0.404266 0.647217
0.219604 0.447937 0.712219
0.239319 0.492401 0.773804
0.259399 0.537476 0.830994
0.279846 0.582336 0.882538
0.297424 0.608551 0.899384
0.319702 0.627136 0.902802
0.345184 0.646210 0.906677
0.372833 0.665588 0.910828
0.402283 0.684937 0.915100
0.433167 0.704376 0.919556
0.465302 0.723724 0.924042
0.498474 0.742767 0.928619
0.532440 0.761780 0.933197
0.566620 0.780426 0.937805
0.600922 0.798767 0.942352
0.635193 0.816711 0.946869
0.669067 0.834259 0.951355
0.702576 0.851257 0.955750
0.735352 0.867737 0.960083
0.767242 0.883606 0.964325
0.798126 0.898834 0.968414
0.827728 0.913330 0.972412
0.855927 0.927032 0.976288
0.882507 0.940033 0.980042
0.133331 0.133331 0.158051
0.133331 0.142395 0.213470
0.133331 0.177399 0.272217
0.133331 0.214569 0.334564
0.133331 0.253113 0.399292
0.150909 0.293060 0.466339
0.169098 0.334106 0.535004
0.187775 0.376221 0.603363
0.206879 0.419281 0.670013
0.226410 0.463226 0.733978
0.246216 0.508026 0.794159
0.266449 0.553101 0.849579
0.286652 0.596985 0.897705
0.304688 0.614929 0.900482
0.328186 0.633667 0.904114
0.354523 0.652924 0.908081
0.382874 0.672211 0.912262
0.412872 0.691742 0.916656
0.444153 0.711090 0.921082
0.476624 0.730286 0.925629
0.510132 0.749451 0.930206
0.544189 0.768250 0.934784
0.578491 0.786896 0.939362
0.612854 0.805054 0.943909
0.647003 0.822845 0.948425
0.680756 0.840179 0.952881
0.713989 0.857025 0.957245
0.746490 0.873322 0.961548
0.778076 0.888947 0.965729
0.808533 0.903931 0.969788
0.837708 0.918182 0.973785
0.865387 0.931671 0.977631
0.891357 0.944336 0.981293
0.915405 0.956085 0.984833
0.133331 0.155273 0.235077
0.133331 0.190948 0.294983
0.133331 0.228210 0.357452
0.139252 0.266815 0.422302
0.157135 0.307129 0.489929
0.175507 0.348541 0.558777
0.194305 0.390991 0.626617
0.213531 0.434357 0.692474
0.233215 0.478638 0.755310
0.253174 0.523651 0.813965
0.273560 0.568634 0.867401
0.291748 0.602905 0.898499
0.312408 0.621277 0.901703
0.337006 0.640350 0.905426
0.364136 0.659607 0.909485
0.393127 0.679077 0.913757
0.423584 0.698425 0.918152
0.455261 0.717773 0.922668
0.488068 0.736969 0.927185
0.521881 0.755981 0.931763
0.556091 0.774780 0.936340
0.590393 0.793182 0.940948
0.624695 0.811249 0.945465
0.658691 0.828918 0.949951
0.692352 0.846069 0.954376
0.725311 0.862732 0.958740
0.757538 0.878754 0.962982
0.788757 0.894196 0.967163
0.818787 0.908936 0.971222
0.847473 0.922974 0.975128
0.874573 0.936127 0.978882
0.899902 0.948486 0.982544
0.923218 0.959930 0.985992
0.944397 0.970398 0.989319
0.133331 0.204773 0.318176
0.133331 0.242554 0.381531
0.145813 0.281616 0.447113
0.163696 0.321808 0.514618
0.181946 0.363129 0.582428
0.200958 0.405884 0.649750
0.220337 0.449646 0.714661
0.240112 0.494171 0.776123
0.260193 0.539246 0.833099
0.280609 0.584045 0.884369
0.298248 0.609253 0.899536
0.320587 0.627808 0.902924
0.346222 0.647003 0.906799
0.374023 0.666351 0.910980
0.403503 0.685669 0.915283
0.434418 0.705078 0.919708
0.466553 0.724365 0.924255
0.499725 0.743591 0.928802
0.533691 0.762543 0.933380
0.567993 0.781128 0.937958
0.602325 0.799500 0.942535
0.636505 0.817383 0.947052
0.670380 0.834869 0.951538
0.703827 0.851898 0.955902
0.736572 0.868347 0.960266
0.768463 0.884155 0.964478
0.799316 0.899414 0.968567
0.828918 0.913879 0.972595
0.857056 0.927612 0.976440
0.883575 0.940521 0.980194
0.908203 0.952545 0.983765
0.930847 0.963684 0.987183
0.951172 0.973846 0.990417
0.969025 0.982941 0.993530
0.134918 0.257019 0.405853
0.152466 0.296570 0.472198
0.170502 0.337189 0.540161
0.188934 0.378845 0.607574
0.207855 0.421448 0.673340
0.227112 0.464905 0.736359
0.246979 0.509735 0.796356
0.267242 0.554810 0.851562
0.287079 0.597565 0.897766
0.305481 0.615631 0.900635
0.329132 0.634491 0.904266
0.355591 0.653717 0.908264
0.384003 0.672974 0.912445
0.414032 0.692413 0.916809
0.445404 0.711792 0.921295
0.477936 0.731110 0.925812
0.511444 0.750122 0.930389
0.545563 0.769043 0.934937
0.579865 0.787567 0.939545
0.614136 0.805664 0.944092
0.648254 0.823456 0.948578
0.682037 0.840881 0.953064
0.715271 0.857666 0.957428
0.747772 0.873932 0.961731
0.779266 0.889557 0.965912
0.809723 0.904480 0.969971
0.838837 0.918732 0.973938
0.866394 0.932159 0.977783
0.892334 0.944824 0.981445
0.916260 0.956482 0.984985
0.938110 0.967316 0.988312
0.957642 0.977081 0.991516
0.974548 0.985809 0.994507
0.988678 0.993439 0.997314
0.159180 0.311676 0.497589
0.177338 0.352661 0.565521
0.195984 0.394714 0.632446
0.214996 0.437622 0.697296
0.234467 0.481445 0.759094
0.254181 0.525940 0.816742
0.274292 0.570312 0.869324
0.292389 0.603638 0.898590
0.313293 0.621979 0.901825
0.338074 0.641052 0.905609
0.365234 0.660400 0.909668
0.394226 0.679657 0.913940
0.424744 0.699188 0.918304
0.456512 0.718475 0.922821
0.489471 0.737732 0.927399
0.523254 0.756714 0.931976
0.557465 0.775452 0.936554
0.591705 0.793854 0.941101
0.626007 0.812012 0.945648
0.660004 0.829559 0.950134
0.693604 0.846680 0.954559
0.726562 0.863373 0.958893
0.758728 0.879395 0.963165
0.789917 0.894806 0.967346
0.819916 0.909485 0.971375
0.848541 0.923492 0.975281
0.875580 0.936615 0.979034
0.900848 0.948975 0.982666
0.924103 0.960388 0.986145
0.945129 0.970795 0.989471
0.963776 0.980225 0.992584
0.979767 0.988586 0.995544
0.992920 0.995819 0.998291
1.000000 1.000000 1.000000
0.184265 0.368317 0.590790
0.203064 0.410736 0.657043
0.222290 0.454010 0.720856
0.241821 0.498047 0.781219
0.261719 0.542603 0.837158
0.281891 0.586792 0.887390
0.299255 0.610138 0.899689
0.321503 0.628540 0.903076
0.347229 0.647736 0.906982
0.375153 0.667053 0.911133
0.404694 0.686432 0.915436
0.435638 0.705902 0.919891
0.467804 0.725189 0.924408
0.501068 0.744263 0.928955
0.535065 0.763214 0.933563
0.569305 0.781891 0.938141
0.603668 0.800171 0.942688
0.637787 0.818115 0.947205
0.671692 0.835541 0.951691
0.705078 0.852509 0.956055
0.737793 0.868988 0.960419
0.769623 0.884796 0.964630
0.800476 0.899933 0.968750
0.830048 0.914429 0.972717
0.858093 0.928131 0.976593
0.884491 0.940979 0.980347
0.909058 0.953003 0.983887
0.931610 0.964081 0.987335
0.951843 0.974182 0.990540
0.969635 0.983215 0.993622
0.984680 0.991211 0.996521
0.996704 0.998047 0.999176
1.000000 1.000000 1.000000
1.000000 1.000000 1.000000
0.210236 0.426819 0.681305
0.229553 0.470428 0.743988
0.249237 0.514771 0.802765
0.269257 0.559235 0.856720
0.288208 0.599091 0.897949
0.307129 0.616913 0.900879
0.330719 0.635620 0.904480
0.356964 0.654633 0.908417
0.385132 0.673767 0.912598
0.415222 0.693176 0.916962
0.446655 0.712585 0.921448
0.479187 0.731750 0.925995
0.512756 0.750916 0.930573
0.546875 0.769745 0.935150
0.581207 0.788269 0.939728
0.615479 0.806458 0.944275
0.649658 0.824249 0.948761
0.683289 0.841492 0.953217
0.716492 0.858307 0.957581
0.748962 0.874542 0.961884
0.780457 0.890137 0.966064
0.810822 0.905060 0.970123
0.839844 0.919250 0.974091
0.867432 0.932678 0.977905
0.893219 0.945221 0.981567
0.917145 0.956940 0.985107
0.938934 0.967712 0.988464
0.958344 0.977448 0.991638
0.975159 0.986115 0.994629
0.989197 0.993713 0.997437
1.000000 1.000000 1.000000
1.000000 1.000000 1.000000
1.000000 1.000000 1.000000
1.000000 1.000000 1.000000
0.236847 0.486908 0.766479
0.256653 0.531403 0.823608
0.276794 0.575714 0.875336
0.294434 0.605560 0.898926
0.315582 0.623840 0.902191
0.340363 0.642731 0.905945
0.367310 0.661743 0.909973
0.396088 0.680908 0.914215
0.426331 0.700073 0.918579
0.457764 0.719299 0.923004
0.490692 0.738464 0.927582
0.524506 0.757477 0.932129
0.558746 0.776184 0.936707
0.593048 0.794586 0.941284
0.627350 0.812653 0.945831
0.661285 0.830261 0.950317
0.694916 0.847412 0.954742
0.727814 0.863953 0.959045
0.759949 0.880005 0.963318
0.791138 0.895355 0.967468
0.821075 0.910065 0.971527
0.849609 0.923981 0.975403
0.876587 0.937134 0.979187
0.901764 0.949371 0.982819
0.924896 0.960754 0.986267
0.945892 0.971191 0.989594
0.964478 0.980591 0.992706
0.980347 0.988892 0.995636
0.993347 0.996063 0.998352
1.000000 1.000000 1.000000
1.000000 1.000000 1.000000
1.000000 1.000000 1.000000
1.000000 1.000000 1.000000
1.000000 1.000000 1.000000
0.264191 0.548126 0.843719
0.284424 0.592255 0.893188
0.301758 0.612335 0.900055
0.324554 0.630981 0.903534
0.350220 0.649811 0.907410
0.377930 0.668945 0.911530
0.407288 0.688202 0.915833
0.438019 0.707336 0.920227
0.469879 0.726410 0.924683
0.502777 0.745300 0.929169
0.536316 0.763977 0.933685
0.570648 0.782593 0.938293
0.604919 0.800873 0.942871
0.639130 0.818756 0.947357
0.673035 0.836243 0.951843
0.706390 0.853241 0.956238
0.739075 0.869598 0.960571
0.770874 0.885406 0.964783
0.801575 0.900482 0.968903
0.831116 0.914978 0.972870
0.859192 0.928619 0.976746
0.885529 0.941467 0.980469
0.910034 0.953461 0.984039
0.932495 0.964508 0.987457
0.952606 0.974548 0.990692
0.970245 0.983582 0.993744
0.985199 0.991516 0.996582
0.997162 0.998291 0.999268
1.000000 1.000000 1.000000
1.000000 1.000000 1.000000
1.000000 1.000000 1.000000
1.000000 1.000000 1.000000
1.000000 1.000000 1.000000
1.000000 1.000000 1.000000
0.290070 0.601257 0.898224
0.309906 0.619263 0.901306
0.333923 0.638000 0.904938
0.360413 0.656982 0.908936
0.388763 0.676117 0.913147
0.418640 0.695374 0.917450
0.449738 0.714417 0.921906
0.482086 0.733521 0.926392
0.515289 0.752258 0.930908
0.549042 0.770935 0.935425
0.582916 0.789215 0.939972
0.616791 0.807129 0.944458
0.650940 0.824890 0.948944
0.684631 0.842224 0.953400
0.717773 0.858948 0.957764
0.750214 0.875183 0.962036
0.781677 0.890747 0.966217
0.811981 0.905640 0.970276
0.840973 0.919800 0.974243
0.868439 0.933167 0.978058
0.894196 0.945740 0.981689
0.917999 0.957367 0.985229
0.939697 0.968079 0.988586
0.959015 0.977814 0.991760
0.975739 0.986420 0.994751
0.989685 0.993988 0.997559
1.000000 1.000000 1.000000
1.000000 1.000000 1.000000
1.000000 1.000000 1.000000
1.000000 1.000000 1.000000
1.000000 1.000000 1.000000
1.000000 1.000000 1.000000
1.000000 1.000000 1.000000
1.000000 1.000000 1.000000
0.318542 0.626221 0.902618
0.343567 0.645142 0.906433
0.370789 0.664185 0.910492
0.399780 0.683258 0.914764
0.430176 0.702484 0.919128
0.461731 0.721558 0.923553
0.494415 0.740540 0.928070
0.527924 0.759308 0.932587
0.561707 0.777740 0.937103
0.595642 0.795898 0.941620
0.629456 0.813690 0.946106
0.663086 0.831116 0.950531
0.696167 0.848053 0.954895
0.729095 0.864563 0.959259
0.761200 0.880615 0.963501
0.792328 0.895966 0.967651
0.822205 0.910614 0.971680
0.850677 0.924500 0.975555
0.877533 0.937622 0.979309
0.902649 0.949829 0.982971
0.925781 0.961182 0.986389
0.946686 0.971588 0.989685
0.965118 0.980896 0.992798
0.980865 0.989197 0.995758
0.993774 0.996307 0.998474
1.000000 1.000000 1.000000
1.000000 1.000000 1.000000
1.000000 1.000000 1.000000
1.000000 1.000000 1.000000
1.000000 1.000000 1.000000
1.000000 1.000000 1.000000
1.000000 1.000000 1.000000
1.000000 1.000000 1.000000
1.000000 1.000000 1.000000
0.353546 0.652252 0.907898
0.381500 0.671387 0.912079
0.411041 0.690613 0.916382
0.441864 0.709686 0.920776
0.473938 0.728699 0.925262
0.506927 0.747528 0.929779
0.540558 0.766296 0.934296
0.574402 0.784576 0.938782
0.608337 0.802673 0.943329
0.642090 0.820312 0.947754
0.675476 0.837524 0.952179
0.708435 0.854248 0.956512
0.740692 0.870392 0.960754
0.772095 0.886017 0.964935
0.802795 0.901093 0.969055
0.832245 0.915527 0.973022
0.860199 0.929108 0.976868
0.886475 0.941956 0.980591
0.910919 0.953888 0.984161
0.933258 0.964905 0.987579
0.953308 0.974915 0.990784
0.970886 0.983887 0.993866
0.985657 0.991791 0.996674
0.997528 0.998505 0.999359
1.000000 1.000000 1.000000
1.000000 1.000000 1.000000
1.000000 1.000000 1.000000
1.000000 1.000000 1.000000
1.000000 1.000000 1.000000
1.000000 1.000000 1.000000
1.000000 1.000000 1.000000
1.000000 1.000000 1.000000
1.000000 1.000000 1.000000
1.000000 1.000000 1.000000
0.392395 0.678497 0.913666
0.422455 0.697784 0.917999
0.453735 0.716827 0.922424
0.486145 0.735809 0.926910
0.519470 0.754639 0.931458
0.553192 0.773193 0.935974
0.587128 0.791473 0.940491
0.620941 0.809296 0.944977
0.654633 0.826813 0.949402
0.687927 0.843811 0.953827
0.720642 0.860413 0.958130
0.752594 0.876343 0.962372
0.783569 0.891693 0.966461
0.813507 0.906372 0.970490
0.842072 0.920288 0.974365
0.869537 0.933655 0.978210
0.895203 0.946198 0.981873
0.918884 0.957825 0.985352
0.940491 0.968475 0.988708
0.959686 0.978149 0.991882
0.976318 0.986725 0.994843
0.990112 0.994232 0.997650
1.000000 1.000000 1.000000
1.000000 1.000000 1.000000
1.000000 1.000000 1.000000
1.000000 1.000000 1.000000
1.000000 1.000000 1.000000
1.000000 1.000000 1.000000
1.000000 1.000000 1.000000
1.000000 1.000000 1.000000
1.000000 1.000000 1.000000
1.000000 1.000000 1.000000
1.000000 1.000000 1.000000
1.000000 1.000000 1.000000
0.434021 0.704865 0.919678
0.465790 0.723999 0.924133
0.498505 0.742798 0.928619
0.532135 0.761627 0.933167
0.565948 0.779999 0.937683
0.599884 0.798157 0.942200
0.633636 0.815979 0.946686
0.667175 0.833252 0.951080
0.700256 0.850128 0.955444
0.732697 0.866394 0.959717
0.764343 0.882172 0.963928
0.794922 0.897247 0.967987
0.824371 0.911713 0.971954
0.852448 0.925354 0.975800
0.878906 0.938232 0.979523
0.903625 0.950317 0.983063
0.926666 0.961639 0.986542
0.947418 0.971954 0.989807
0.965759 0.981232 0.992920
0.981415 0.989471 0.995850
0.994232 0.996521 0.998566
1.000000 1.000000 1.000000
1.000000 1.000000 1.000000
1.000000 1.000000 1.000000
1.000000 1.000000 1.000000
1.000000 1.000000 1.000000
1.000000 1.000000 1.000000
1.000000 1.000000 1.000000
1.000000 1.000000 1.000000
1.000000 1.000000 1.000000
1.000000 1.000000 1.000000
1.000000 1.000000 1.000000
1.000000 1.000000 1.000000
1.000000 1.000000 1.000000
0.477936 0.731110 0.925812
0.511078 0.749939 0.930328
0.544708 0.768524 0.934845
0.578644 0.786957 0.939392
0.612549 0.804871 0.943878
0.646271 0.822510 0.948334
0.679596 0.839600 0.952728
0.712524 0.856323 0.957062
0.744598 0.872375 0.961273
0.775909 0.887878 0.965424
0.806122 0.902771 0.969513
0.834991 0.916870 0.973419
0.862518 0.930298 0.977203
0.888397 0.942871 0.980865
0.912415 0.954620 0.984406
0.934357 0.965424 0.987732
0.954071 0.975311 0.990936
0.971527 0.984222 0.993958
0.986176 0.992065 0.996796
0.997925 0.998779 0.999481
1.000000 1.000000 1.000000
1.000000 1.000000 1.000000
1.000000 1.000000 1.000000
1.000000 1.000000 1.000000
1.000000 1.000000 1.000000
1.000000 1.000000 1.000000
1.000000 1.000000 1.000000
1.000000 1.000000 1.000000
1.000000 1.000000 1.000000
1.000000 1.000000 1.000000
1.000000 1.000000 1.000000
1.000000 1.000000 1.000000
1.000000 1.000000 1.000000
1.000000 1.000000 1.000000
0.523651 0.756927 0.932037
0.557373 0.775421 0.936523
0.591309 0.793640 0.941071
0.625122 0.811493 0.945526
0.658783 0.828949 0.949982
0.691986 0.845886 0.954346
0.724579 0.862366 0.958649
0.756439 0.878265 0.962860
0.787323 0.893555 0.967010
0.817108 0.908142 0.970978
0.845490 0.921997 0.974854
0.872406 0.935089 0.978607
0.897552 0.947357 0.982178
0.920807 0.958740 0.985626
0.941986 0.969238 0.988953
0.960785 0.978699 0.992096
0.977081 0.987152 0.994995
0.990570 0.994476 0.997742
1.000000 1.000000 1.000000
1.000000 1.000000 1.000000
1.000000 1.000000 1.000000
1.000000 1.000000 1.000000
1.000000 1.000000 1.000000
1.000000 1.000000 1.000000
1.000000 1.000000 1.000000
1.000000 1.000000 1.000000
1.000000 1.000000 1.000000
1.000000 1.000000 1.000000
1.000000 1.000000 1.000000
1.000000 1.000000 1.000000
1.000000 1.000000 1.000000
1.000000 1.000000 1.000000
1.000000 1.000000 1.000000
1.000000 1.000000 1.000000
0.570129 0.782349 0.938232
0.603973 0.800415 0.942719
0.637787 0.818115 0.947205
0.671326 0.835358 0.951660
0.704254 0.852142 0.955994
0.736633 0.868378 0.960266
0.768097 0.884033 0.964417
0.798584 0.899048 0.968475
0.827881 0.913391 0.972412
0.855774 0.926971 0.976288
0.882019 0.939819 0.979980
0.906555 0.951721 0.983521
0.929047 0.962799 0.986908
0.949310 0.972900 0.990112
0.967224 0.981995 0.993195
0.982483 0.990021 0.996063
0.994904 0.996979 0.998749
1.000000 1.000000 1.000000
1.000000 1.000000 1.000000
1.000000 1.000000 1.000000
1.000000 1.000000 1.000000
1.000000 1.000000 1.000000
1.000000 1.000000 1.000000
1.000000 1.000000 1.000000
1.000000 1.000000 1.000000
1.000000 1.000000 1.000000
1.000000 1.000000 1.000000
1.000000 1.000000 1.000000
1.000000 1.000000 1.000000
1.000000 1.000000 1.000000
1.000000 1.000000 1.000000
1.000000 1.000000 1.000000
1.000000 1.000000 1.000000
1.000000 1.000000 1.000000
0.616699 0.807068 0.944427
0.650391 0.824615 0.948883
0.683716 0.841705 0.953247
0.716492 0.858307 0.957581
0.748566 0.874329 0.961823
0.779694 0.889740 0.965973
0.809753 0.904480 0.969971
0.838501 0.918549 0.973907
0.865784 0.931854 0.977692
0.891449 0.944366 0.981293
0.915192 0.955994 0.984802
0.936920 0.966705 0.988129
0.956299 0.976410 0.991302
0.973267 0.985168 0.994293
0.987488 0.992737 0.997070
0.998810 0.999237 0.999664
1.000000 1.000000 1.000000
1.000000 1.000000 1.000000
1.000000 1.000000 1.000000
1.000000 1.000000 1.000000
1.000000 1.000000 1.000000
1.000000 1.000000 1.000000
1.000000 1.000000 1.000000
1.000000 1.000000 1.000000
1.000000 1.000000 1.000000
1.000000 1.000000 1.000000
1.000000 1.000000 1.000000
1.000000 1.000000 1.000000
1.000000 1.000000 1.000000
1.000000 1.000000 1.000000
1.000000 1.000000 1.000000
1.000000 1.000000 1.000000
1.000000 1.000000 1.000000
1.000000 1.000000 1.000000
0.662964 0.831085 0.950531
0.696045 0.847992 0.954865
0.728638 0.864380 0.959198
0.760284 0.880127 0.963379
0.791138 0.895355 0.967468
0.820648 0.909882 0.971466
0.848907 0.923645 0.975311
0.875610 0.936646 0.979034
0.900574 0.948853 0.982635
0.923615 0.960144 0.986053
0.944458 0.970459 0.989349
0.962952 0.979828 0.992432
0.978912 0.988098 0.995361
0.992096 0.995331 0.998077
1.000000 1.000000 1.000000
1.000000 1.000000 1.000000
1.000000 1.000000 1.000000
1.000000 1.000000 1.000000
1.000000 1.000000 1.000000
1.000000 1.000000 1.000000
1.000000 1.000000 1.000000
1.000000 1.000000 1.000000
1.000000 1.000000 1.000000
1.000000 1.000000 1.000000
1.000000 1.000000 1.000000
1.000000 1.000000 1.000000
1.000000 1.000000 1.000000
1.000000 1.000000 1.000000
1.000000 1.000000 1.000000
1.000000 1.000000 1.000000
1.000000 1.000000 1.000000
1.000000 1.000000 1.000000
1.000000 1.000000 1.000000
1.000000 1.000000 1.000000
0.708344 0.854187 0.956482
0.740631 0.870361 0.960754
0.771973 0.885956 0.964935
0.802307 0.900909 0.968994
0.831451 0.915161 0.972900
0.859131 0.928589 0.976746
0.885223 0.941345 0.980438
0.909393 0.953156 0.983948
0.931671 0.964111 0.987335
0.951721 0.974091 0.990509
0.969299 0.983032 0.993561
0.984161 0.990967 0.996429
0.996246 0.997742 0.999054
1.000000 1.000000 1.000000
1.000000 1.000000 1.000000
1.000000 1.000000 1.000000
1.000000 1.000000 1.000000
1.000000 1.000000 1.000000
1.000000 1.000000 1.000000
1.000000 1.000000 1.000000
1.000000 1.000000 1.000000
1.000000 1.000000 1.000000
1.000000 1.000000 1.000000
1.000000 1.000000 1.000000
1.000000 1.000000 1.000000
1.000000 1.000000 1.000000
1.000000 1.000000 1.000000
1.000000 1.000000 1.000000
1.000000 1.000000 1.000000
1.000000 1.000000 1.000000
1.000000 1.000000 1.000000
1.000000 1.000000 1.000000
1.000000 1.000000 1.000000
1.000000 1.000000 1.000000
0.752472 0.876251 0.962341
0.783478 0.891632 0.966461
0.813385 0.906311 0.970459
0.841980 0.920258 0.974365
0.869080 0.933472 0.978149
0.894562 0.945862 0.981750
0.917999 0.957367 0.985229
0.939423 0.967957 0.988556
0.958557 0.977570 0.991669
0.975159 0.986115 0.994629
0.989075 0.993622 0.997437
0.999969 0.999969 1.000000
1.000000 1.000000 1.000000
1.000000 1.000000 1.000000
1.000000 1.000000 1.000000
1.000000 1.000000 1.000000
1.000000 1.000000 1.000000
1.000000 1.000000 1.000000
1.000000 1.000000 1.000000
1.000000 1.000000 1.000000
1.000000 1.000000 1.000000
1.000000 1.000000 1.000000
1.000000 1.000000 1.000000
1.000000 1.000000 1.000000
1.000000 1.000000 1.000000
1.000000 1.000000 1.000000
1.000000 1.000000 1.000000
1.000000 1.000000 1.000000
1.000000 1.000000 1.000000
1.000000 1.000000 1.000000
1.000000 1.000000 1.000000
1.000000 1.000000 1.000000
1.000000 1.000000 1.000000
1.000000 1.000000 1.000000
0.794800 0.897186 0.967957
0.824280 0.911621 0.971954
0.852325 0.925323 0.975800
0.878815 0.938232 0.979492
0.903534 0.950287 0.983063
0.926331 0.961456 0.986481
0.946899 0.971680 0.989746
0.965118 0.980896 0.992798
0.980713 0.989075 0.995728
0.993500 0.996155 0.998413
1.000000 1.000000 1.000000
1.000000 1.000000 1.000000
1.000000 1.000000 1.000000
1.000000 1.000000 1.000000
1.000000 1.000000 1.000000
1.000000 1.000000 1.000000
1.000000 1.000000 1.000000
1.000000 1.000000 1.000000
1.000000 1.000000 1.000000
1.000000 1.000000 1.000000
1.000000 1.000000 1.000000
1.000000 1.000000 1.000000
1.000000 1.000000 1.000000
1.000000 1.000000 1.000000
1.000000 1.000000 1.000000
1.000000 1.000000 1.000000
1.000000 1.000000 1.000000
1.000000 1.000000 1.000000
1.000000 1.000000 1.000000
1.000000 1.000000 1.000000
1.000000 1.000000 1.000000
1.000000 1.000000 1.000000
1.000000 1.000000 1.000000
1.000000 1.000000 1.000000
0.834930 0.916870 0.973419
0.862427 0.930237 0.977203
0.888336 0.942871 0.980865
0.912323 0.954559 0.984375
0.934265 0.965363 0.987732
0.954010 0.975250 0.990906
0.971283 0.984070 0.993927
0.985840 0.991882 0.996735
0.997528 0.998505 0.999359
1.000000 1.000000 1.000000
1.000000 1.000000 1.000000
1.000000 1.000000 1.000000
1.000000 1.000000 1.000000
1.000000 1.000000 1.000000
1.000000 1.000000 1.000000
1.000000 1.000000 1.000000
1.000000 1.000000 1.000000
1.000000 1.000000 1.000000
1.000000 1.000000 1.000000
1.000000 1.000000 1.000000
1.000000 1.000000 1.000000
1.000000 1.000000 1.000000
1.000000 1.000000 1.000000
1.000000 1.000000 1.000000
1.000000 1.000000 1.000000
1.000000 1.000000 1.000000
1.000000 1.000000 1.000000
1.000000 1.000000 1.000000
1.000000 1.000000 1.000000
1.000000 1.000000 1.000000
1.000000 1.000000 1.000000
1.000000 1.000000 1.000000
1.000000 1.000000 1.000000
1.000000 1.000000 1.000000
0.872375 0.935059 0.978607
0.897522 0.947327 0.982178
0.920807 0.958740 0.985626
0.941956 0.969208 0.988953
0.960785 0.978699 0.992096
0.977051 0.987152 0.994995
0.990570 0.994476 0.997742
1.000000 1.000000 1.000000
1.000000 1.000000 1.000000
1.000000 1.000000 1.000000
1.000000 1.000000 1.000000
1.000000 1.000000 1.000000
1.000000 1.000000 1.000000
1.000000 1.000000 1.000000
1.000000 1.000000 1.000000
1.000000 1.000000 1.000000
1.000000 1.000000 1.000000
1.000000 1.000000 1.000000
1.000000 1.000000 1.000000
1.000000 1.000000 1.000000
1.000000 1.000000 1.000000
1.000000 1.000000 1.000000
1.000000 1.000000 1.000000
1.000000 1.000000 1.000000
1.000000 1.000000 1.000000
1.000000 1.000000 1.000000
1.000000 1.000000 1.000000
1.000000 1.000000 1.000000
1.000000 1.000000 1.000000
1.000000 1.000000 1.000000
1.000000 1.000000 1.000000
