other luts/实验工艺系列/经典蓝晒法2.cube
#Created by: Adobe Photoshop Export Color Lookup Plugin
#Copyright: (C) Copyright 2026 汉图
TITLE "实验工艺"
#LUT size
LUT_3D_SIZE 4
#data domain
DOMAIN_MIN 0.0 0.0 0.0
DOMAIN_MAX 1.0 1.0 1.0
#LUT data points
0.133331 0.133331 0.133331
0.175385 0.373840 0.571686
0.397949 0.637604 0.840942
0.732758 0.843628 0.929382
0.238129 0.520905 0.798706
0.506226 0.706421 0.869537
0.861450 0.919464 0.963379
1.000000 1.000000 1.000000
0.631470 0.783051 0.902618
0.999878 0.999908 0.999969
1.000000 1.000000 1.000000
1.000000 1.000000 1.000000
1.000000 1.000000 1.000000
1.000000 1.000000 1.000000
1.000000 1.000000 1.000000
1.000000 1.000000 1.000000
0.133331 0.133331 0.186859
0.184021 0.394470 0.604309
0.412781 0.647278 0.844849
0.750793 0.854340 0.934143
0.305145 0.574768 0.816437
0.217133 0.473785 0.729675
0.470367 0.683960 0.860077
0.819489 0.894867 0.952301
0.741852 0.849060 0.931793
0.588837 0.757233 0.891357
0.951660 0.971985 0.987244
1.000000 1.000000 1.000000
1.000000 1.000000 1.000000
1.000000 1.000000 1.000000
1.000000 1.000000 1.000000
1.000000 1.000000 1.000000
0.133331 0.259705 0.391266
0.246338 0.528870 0.800873
0.427826 0.656921 0.848816
0.769012 0.865112 0.938965
0.405334 0.642487 0.842896
0.286682 0.561279 0.811554
0.486145 0.693939 0.864227
0.838104 0.905762 0.957214
0.856781 0.916687 0.962158
0.697174 0.822510 0.920013
0.547058 0.731659 0.880310
0.908691 0.947021 0.975891
1.000000 1.000000 1.000000
1.000000 1.000000 1.000000
1.000000 1.000000 1.000000
1.000000 1.000000 1.000000
0.188232 0.404602 0.620331
0.331055 0.592896 0.823273
0.542725 0.729004 0.879181
0.787231 0.875854 0.943787
0.518188 0.713867 0.872711
0.383362 0.628052 0.837067
0.605713 0.767487 0.895813
0.856781 0.916687 0.962158
0.994873 0.997009 0.998657
0.828796 0.900330 0.954773
0.670654 0.806610 0.912994
0.927734 0.958099 0.980896
1.000000 1.000000 1.000000
1.000000 1.000000 1.000000
1.000000 1.000000 1.000000
1.000000 1.000000 1.000000
