other luts/实验工艺系列/经典蓝晒法1.cube
#Created by: Adobe Photoshop Export Color Lookup Plugin
#Copyright: (C) Copyright 2026 汉图
TITLE "实验工艺"
#LUT size
LUT_3D_SIZE 4
#data domain
DOMAIN_MIN 0.0 0.0 0.0
DOMAIN_MAX 1.0 1.0 1.0
#LUT data points
0.133331 0.133331 0.133331
0.212860 0.432739 0.690063
0.486816 0.736206 0.927002
0.846405 0.922394 0.974976
0.290070 0.601257 0.898224
0.616791 0.807129 0.944458
0.939697 0.968079 0.988586
1.000000 1.000000 1.000000
0.752472 0.876251 0.962341
0.999969 0.999969 1.000000
1.000000 1.000000 1.000000
1.000000 1.000000 1.000000
1.000000 1.000000 1.000000
1.000000 1.000000 1.000000
1.000000 1.000000 1.000000
1.000000 1.000000 1.000000
0.133331 0.150452 0.226959
0.223450 0.456635 0.724670
0.505096 0.746613 0.929504
0.861389 0.929718 0.977051
0.372589 0.665405 0.910767
0.264221 0.548218 0.843781
0.574829 0.784821 0.938873
0.912872 0.954834 0.984467
0.854034 0.926147 0.976044
0.708435 0.854248 0.956512
0.984192 0.990967 0.996429
1.000000 1.000000 1.000000
1.000000 1.000000 1.000000
1.000000 1.000000 1.000000
1.000000 1.000000 1.000000
1.000000 1.000000 1.000000
0.154175 0.300415 0.478638
0.300171 0.610931 0.899811
0.523560 0.756866 0.932007
0.875885 0.936768 0.979095
0.495941 0.741455 0.928284
0.349854 0.649628 0.907379
0.593475 0.794800 0.941345
0.925201 0.960876 0.986298
0.936890 0.966675 0.988129
0.815247 0.907227 0.970734
0.663086 0.831116 0.950531
0.965332 0.981018 0.992859
1.000000 1.000000 1.000000
1.000000 1.000000 1.000000
1.000000 1.000000 1.000000
1.000000 1.000000 1.000000
0.228638 0.468384 0.741180
0.404510 0.686340 0.915436
0.658234 0.828674 0.949890
0.889832 0.943573 0.981079
0.630524 0.814362 0.946259
0.468872 0.725800 0.924530
0.726166 0.863129 0.958832
0.936890 0.966675 0.988129
0.998627 0.999146 0.999634
0.919128 0.957947 0.985413
0.790710 0.895172 0.967407
0.974243 0.985626 0.994446
1.000000 1.000000 1.000000
1.000000 1.000000 1.000000
1.000000 1.000000 1.000000
1.000000 1.000000 1.000000
