other luts/实验工艺系列/经典蓝晒法2.cube
#Created by: Adobe Photoshop Export Color Lookup Plugin
#Copyright: (C) Copyright 2026 汉图
TITLE "实验工艺"
#LUT size
LUT_3D_SIZE 34
#data domain
DOMAIN_MIN 0.0 0.0 0.0
DOMAIN_MAX 1.0 1.0 1.0
#LUT data points
0.133331 0.133331 0.133331
0.133331 0.133331 0.133331
0.133331 0.133331 0.133331
0.133331 0.133331 0.143494
0.133331 0.133331 0.189941
0.133331 0.163391 0.239014
0.133331 0.195770 0.290253
0.133331 0.229431 0.343445
0.133331 0.264130 0.398285
0.144470 0.299835 0.454712
0.159760 0.336426 0.512543
0.175385 0.373840 0.571686
0.191315 0.411957 0.631989
0.207550 0.450836 0.693390
0.224030 0.490265 0.755798
0.238953 0.521698 0.798920
0.255554 0.536926 0.803314
0.275452 0.552826 0.808563
0.297424 0.569153 0.814392
0.320892 0.585846 0.820587
0.345520 0.602875 0.827087
0.371277 0.620087 0.833893
0.397949 0.637604 0.840942
0.425385 0.655365 0.848175
0.453613 0.673370 0.855621
0.482452 0.691559 0.863281
0.511932 0.709991 0.871033
0.541992 0.728607 0.878998
0.572601 0.747345 0.887085
0.603668 0.766205 0.895294
0.635345 0.785400 0.903656
0.667358 0.804688 0.912109
0.699829 0.824066 0.920685
0.732758 0.843628 0.929382
0.133331 0.133331 0.133331
0.133331 0.133331 0.133331
0.133331 0.133331 0.159241
0.133331 0.142914 0.206635
0.133331 0.174438 0.256500
0.133331 0.207275 0.308441
0.133331 0.241333 0.362244
0.134674 0.276367 0.417694
0.149750 0.312408 0.474609
0.165131 0.349274 0.532867
0.180878 0.386932 0.592407
0.196899 0.425323 0.653076
0.213196 0.464386 0.714844
0.229797 0.504089 0.777618
0.244110 0.526947 0.800293
0.262207 0.542389 0.805084
0.282898 0.558411 0.810516
0.305359 0.574890 0.816498
0.329254 0.591675 0.822784
0.354340 0.608795 0.829407
0.380432 0.626160 0.836304
0.407379 0.643707 0.843445
0.435089 0.661591 0.850739
0.463470 0.679657 0.858246
0.492554 0.697937 0.865936
0.522278 0.716400 0.873779
0.552490 0.735046 0.881775
0.583344 0.753845 0.889923
0.614594 0.772858 0.898163
0.646362 0.792023 0.906586
0.678528 0.811340 0.915070
0.711121 0.830780 0.923676
0.744171 0.850403 0.932404
0.777588 0.870209 0.941223
0.133331 0.133331 0.133331
0.133331 0.133331 0.175903
0.133331 0.153625 0.223633
0.133331 0.185669 0.274231
0.133331 0.218903 0.326813
0.133331 0.253387 0.381287
0.139862 0.288757 0.437225
0.155029 0.325104 0.494629
0.170563 0.362213 0.553314
0.186371 0.400116 0.613281
0.202484 0.438751 0.674347
0.218933 0.478119 0.736511
0.235352 0.517334 0.797974
0.249969 0.532257 0.801849
0.269104 0.547852 0.806885
0.290466 0.564148 0.812531
0.313507 0.580597 0.818634
0.337860 0.597656 0.825073
0.363281 0.614807 0.831787
0.389648 0.632172 0.838745
0.416870 0.649933 0.845917
0.444824 0.667816 0.853302
0.473480 0.686035 0.860901
0.502808 0.704285 0.868622
0.532715 0.722809 0.876526
0.563141 0.741516 0.884583
0.594086 0.760406 0.892761
0.625519 0.779510 0.901062
0.657440 0.798706 0.909485
0.689789 0.818085 0.918030
0.722565 0.837585 0.926727
0.755768 0.857269 0.935486
0.789307 0.877106 0.944336
0.823242 0.897064 0.953308
0.133331 0.134521 0.193451
0.133331 0.165283 0.242126
0.133331 0.197449 0.292847
0.133331 0.230743 0.345520
0.133331 0.265472 0.400421
0.145081 0.301208 0.456909
0.160339 0.337799 0.514771
0.175964 0.375244 0.573914
0.191925 0.413452 0.634277
0.208160 0.452301 0.695740
0.224670 0.491852 0.758240
0.239471 0.522247 0.799042
0.256256 0.537476 0.803497
0.276276 0.553436 0.808777
0.298279 0.569794 0.814575
0.321808 0.586548 0.820831
0.346558 0.603516 0.827362
0.372314 0.620819 0.834167
0.398956 0.638336 0.841217
0.426453 0.656097 0.848450
0.454681 0.674133 0.855927
0.483551 0.692291 0.863556
0.513062 0.710663 0.871338
0.543152 0.729279 0.879303
0.573792 0.748047 0.887390
0.604889 0.766998 0.895599
0.636505 0.786102 0.903961
0.668579 0.805389 0.912445
0.701111 0.824829 0.921021
0.734009 0.844421 0.929718
0.767303 0.864105 0.938507
0.800995 0.884003 0.947418
0.835022 0.903992 0.956390
0.869446 0.924103 0.965485
0.133331 0.177246 0.260925
0.133331 0.209778 0.312378
0.133331 0.243500 0.365692
0.135437 0.278198 0.420502
0.150330 0.313782 0.476776
0.165741 0.350677 0.535156
0.181488 0.388428 0.594727
0.197540 0.426819 0.655426
0.213837 0.465912 0.717255
0.230438 0.505646 0.780060
0.244751 0.527496 0.800476
0.262878 0.542938 0.805267
0.283722 0.559082 0.810760
0.306305 0.575623 0.816711
0.330261 0.592285 0.823059
0.355347 0.609436 0.829681
0.381470 0.626801 0.836578
0.408417 0.644440 0.843689
0.436127 0.662323 0.851013
0.464630 0.680328 0.858551
0.493744 0.698639 0.866241
0.523438 0.717072 0.874084
0.553680 0.735748 0.882080
0.584503 0.754608 0.890228
0.615814 0.773590 0.898499
0.647583 0.792725 0.906860
0.679810 0.812073 0.915405
0.712463 0.831573 0.924042
0.745514 0.851196 0.932770
0.778931 0.870972 0.941589
0.812714 0.890869 0.950531
0.846924 0.910950 0.959564
0.881500 0.931183 0.968689
0.916321 0.951477 0.977905
0.133331 0.222321 0.332184
0.133331 0.256378 0.386078
0.140991 0.291443 0.441467
0.155975 0.327362 0.498260
0.171326 0.364105 0.556366
0.186981 0.401611 0.615601
0.203125 0.440277 0.676697
0.219574 0.479614 0.738892
0.235687 0.517822 0.798065
0.250671 0.532837 0.802032
0.269836 0.548584 0.807098
0.291351 0.564789 0.812775
0.314423 0.581299 0.818848
0.338837 0.598206 0.825317
0.364288 0.615417 0.832062
0.390717 0.632935 0.839020
0.417938 0.650574 0.846191
0.445923 0.668579 0.853607
0.474609 0.686676 0.861206
0.503906 0.704956 0.868927
0.533813 0.723511 0.876831
0.564331 0.742279 0.884888
0.595337 0.761139 0.893097
0.626801 0.780273 0.901398
0.658691 0.799469 0.909821
0.691040 0.818787 0.918365
0.723846 0.838409 0.927032
0.757019 0.858032 0.935822
0.790619 0.877869 0.944702
0.824524 0.897797 0.953644
0.858826 0.917908 0.962708
0.893463 0.938202 0.971863
0.928436 0.958527 0.981079
0.963715 0.978973 0.990387
0.133331 0.269440 0.406677
0.146545 0.304779 0.462555
0.161682 0.341064 0.519867
0.177155 0.378052 0.578369
0.192963 0.415833 0.638123
0.208954 0.454254 0.698853
0.225311 0.493378 0.760651
0.240021 0.522888 0.799194
0.256989 0.538086 0.803680
0.277100 0.554108 0.809021
0.299164 0.570465 0.814819
0.322723 0.587097 0.821075
0.347504 0.604187 0.827606
0.373322 0.621429 0.834442
0.400085 0.638977 0.841492
0.427551 0.656769 0.848755
0.455811 0.674774 0.856232
0.484680 0.692963 0.863831
0.514252 0.711456 0.871674
0.544312 0.729980 0.879608
0.574982 0.748749 0.887695
0.606110 0.767731 0.895935
0.637726 0.786835 0.904266
0.669830 0.806122 0.912781
0.702332 0.825531 0.921356
0.735291 0.845184 0.930054
0.768616 0.864868 0.938843
0.802307 0.884766 0.947754
0.836365 0.904755 0.956757
0.870758 0.924896 0.965851
0.905518 0.945160 0.975037
0.940582 0.965576 0.984314
0.976044 0.986115 0.993683
1.000000 1.000000 1.000000
0.152191 0.318298 0.483887
0.167450 0.354858 0.541687
0.183044 0.392151 0.600616
0.198914 0.430145 0.660736
0.215088 0.468872 0.721924
0.231476 0.508179 0.784027
0.245575 0.528290 0.800690
0.263672 0.543579 0.805450
0.284546 0.559723 0.810974
0.307220 0.576141 0.816956
0.331207 0.592987 0.823303
0.356354 0.610138 0.829956
0.382477 0.627502 0.836823
0.409485 0.645081 0.843964
0.437256 0.662994 0.851318
0.465729 0.681122 0.858856
0.494904 0.699341 0.866547
0.524567 0.717834 0.874390
0.554871 0.736450 0.882385
0.585693 0.755310 0.890533
0.616974 0.774323 0.898804
0.648773 0.793518 0.907196
0.681061 0.812836 0.915710
0.713715 0.832336 0.924377
0.746765 0.851990 0.933105
0.780212 0.871735 0.941925
0.814026 0.891663 0.950867
0.848206 0.911713 0.959900
0.882751 0.931915 0.969025
0.917694 0.952240 0.978271
0.952850 0.972656 0.987549
0.988342 0.993256 0.996918
1.000000 1.000000 1.000000
1.000000 1.000000 1.000000
0.173248 0.368713 0.563629
0.188965 0.406342 0.623047
0.204926 0.444580 0.683533
0.221191 0.483521 0.745087
0.236603 0.519104 0.798309
0.251953 0.533875 0.802368
0.271149 0.549500 0.807434
0.292450 0.565582 0.813049
0.315338 0.582001 0.819092
0.339752 0.598907 0.825531
0.365295 0.616150 0.832306
0.391724 0.633545 0.839264
0.419006 0.651337 0.846497
0.447052 0.669250 0.853912
0.475769 0.687378 0.861511
0.505096 0.705750 0.869232
0.535065 0.724335 0.877167
0.565460 0.742950 0.885193
0.596466 0.761902 0.893372
0.627991 0.780945 0.901733
0.659912 0.800201 0.910156
0.692322 0.819611 0.918701
0.725067 0.839081 0.927338
0.758270 0.858826 0.936127
0.791840 0.878632 0.944977
0.825806 0.898590 0.953949
0.860168 0.918732 0.963043
0.894806 0.938934 0.972198
0.929779 0.959320 0.981445
0.965088 0.979767 0.990753
1.000000 1.000000 1.000000
1.000000 1.000000 1.000000
1.000000 1.000000 1.000000
1.000000 1.000000 1.000000
0.194916 0.420532 0.645569
0.210999 0.459076 0.706451
0.227325 0.498230 0.768311
0.241669 0.524475 0.799652
0.258850 0.539642 0.804199
0.278961 0.555481 0.809509
0.300873 0.571625 0.815277
0.324249 0.588135 0.821442
0.348785 0.604980 0.827942
0.374329 0.622162 0.834686
0.401093 0.639709 0.841766
0.428619 0.657501 0.849030
0.456879 0.675507 0.856506
0.485809 0.693726 0.864136
0.515381 0.712128 0.871979
0.545502 0.730774 0.879913
0.576172 0.749542 0.888031
0.607300 0.768433 0.896240
0.638947 0.787598 0.904602
0.671082 0.806885 0.913116
0.703613 0.826324 0.921692
0.736542 0.845886 0.930389
0.769867 0.865662 0.939209
0.803589 0.885529 0.948090
0.837646 0.905548 0.957092
0.872101 0.925690 0.966217
0.906891 0.945953 0.975403
0.941986 0.966370 0.984680
0.977356 0.986877 0.994019
1.000000 1.000000 1.000000
1.000000 1.000000 1.000000
1.000000 1.000000 1.000000
1.000000 1.000000 1.000000
1.000000 1.000000 1.000000
0.217102 0.473724 0.729584
0.233521 0.513062 0.791779
0.247620 0.530121 0.801208
0.266113 0.545593 0.806091
0.286957 0.561462 0.811615
0.309509 0.577820 0.817566
0.333313 0.594513 0.823853
0.358276 0.611450 0.830444
0.384155 0.628632 0.837280
0.410889 0.646027 0.844360
0.438324 0.663696 0.851593
0.466858 0.681763 0.859161
0.495972 0.700043 0.866821
0.525757 0.718536 0.874695
0.556091 0.737213 0.882721
0.586945 0.756104 0.890839
0.618256 0.775085 0.899139
0.650024 0.794250 0.907532
0.682251 0.813538 0.916046
0.714996 0.833099 0.924683
0.748077 0.852692 0.933441
0.781525 0.872498 0.942291
0.815369 0.892426 0.951233
0.849579 0.912506 0.960266
0.884064 0.932678 0.969391
0.918945 0.953003 0.978607
0.954193 0.973480 0.987885
0.989777 0.994080 0.997284
1.000000 1.000000 1.000000
1.000000 1.000000 1.000000
1.000000 1.000000 1.000000
1.000000 1.000000 1.000000
1.000000 1.000000 1.000000
1.000000 1.000000 1.000000
0.238129 0.520905 0.798706
0.254211 0.535828 0.802979
0.273743 0.551483 0.808105
0.295258 0.567566 0.813812
0.318268 0.584015 0.819885
0.342560 0.600830 0.826294
0.367828 0.617798 0.832977
0.394073 0.635162 0.839905
0.421082 0.652557 0.847046
0.448822 0.670380 0.854370
0.477203 0.688324 0.861877
0.506226 0.706421 0.869537
0.536194 0.724976 0.877441
0.566711 0.743774 0.885529
0.597717 0.762634 0.893707
0.629242 0.781738 0.902039
0.661194 0.800903 0.910492
0.693542 0.820343 0.919037
0.726379 0.839874 0.927704
0.759583 0.859528 0.936462
0.793182 0.879425 0.945343
0.827148 0.899384 0.954315
0.861450 0.919464 0.963379
0.896149 0.939728 0.972565
0.931152 0.960083 0.981812
0.966461 0.980591 0.991150
1.000000 1.000000 1.000000
1.000000 1.000000 1.000000
1.000000 1.000000 1.000000
1.000000 1.000000 1.000000
1.000000 1.000000 1.000000
1.000000 1.000000 1.000000
1.000000 1.000000 1.000000
1.000000 1.000000 1.000000
0.261230 0.541656 0.804810
0.281555 0.557495 0.810181
0.303680 0.573730 0.816040
0.327240 0.590210 0.822266
0.351929 0.607117 0.828766
0.377533 0.624207 0.835541
0.404114 0.641632 0.842560
0.431396 0.659241 0.849762
0.459351 0.677002 0.857147
0.488007 0.695038 0.864716
0.517212 0.713226 0.872467
0.547058 0.731659 0.880310
0.577362 0.750214 0.888336
0.608551 0.769165 0.896576
0.640228 0.788361 0.904938
0.672394 0.807617 0.913422
0.704895 0.827087 0.922028
0.737823 0.846649 0.930725
0.771149 0.866394 0.939545
0.804871 0.886292 0.948456
0.838989 0.906311 0.957458
0.873413 0.926483 0.966553
0.908234 0.946777 0.975769
0.943329 0.967194 0.985046
0.978699 0.987671 0.994354
1.000000 1.000000 1.000000
1.000000 1.000000 1.000000
1.000000 1.000000 1.000000
1.000000 1.000000 1.000000
1.000000 1.000000 1.000000
1.000000 1.000000 1.000000
1.000000 1.000000 1.000000
1.000000 1.000000 1.000000
1.000000 1.000000 1.000000
0.289703 0.563507 0.812317
0.312347 0.579926 0.818329
0.336365 0.596619 0.824677
0.361420 0.613556 0.831268
0.387451 0.630737 0.838165
0.414246 0.648163 0.845245
0.441803 0.665894 0.852509
0.470001 0.683716 0.859955
0.498932 0.701874 0.867615
0.528381 0.720154 0.875366
0.558319 0.738586 0.883301
0.588837 0.757233 0.891357
0.619843 0.776031 0.899567
0.651306 0.794983 0.907867
0.683563 0.814362 0.916382
0.716248 0.833832 0.925018
0.749329 0.853485 0.933746
0.782806 0.873260 0.942596
0.816650 0.893188 0.951569
0.850861 0.913269 0.960602
0.885406 0.933472 0.969696
0.920288 0.953766 0.978912
0.955505 0.974213 0.988220
0.991028 0.994781 0.997620
1.000000 1.000000 1.000000
1.000000 1.000000 1.000000
1.000000 1.000000 1.000000
1.000000 1.000000 1.000000
1.000000 1.000000 1.000000
1.000000 1.000000 1.000000
1.000000 1.000000 1.000000
1.000000 1.000000 1.000000
1.000000 1.000000 1.000000
1.000000 1.000000 1.000000
0.321259 0.586090 0.820679
0.345642 0.602936 0.827118
0.371033 0.619965 0.833832
0.397400 0.637268 0.840790
0.424500 0.654816 0.847961
0.452271 0.672577 0.855286
0.480804 0.690582 0.862823
0.509857 0.708649 0.870514
0.539551 0.727051 0.878326
0.569702 0.745544 0.886322
0.600464 0.764313 0.894440
0.631592 0.783112 0.902649
0.663177 0.802155 0.911011
0.695221 0.821320 0.919495
0.727631 0.840607 0.928040
0.760925 0.860352 0.936829
0.794525 0.880157 0.945709
0.828430 0.900116 0.954651
0.862793 0.920197 0.963745
0.897461 0.940460 0.972900
0.932495 0.960815 0.982147
0.967804 0.981323 0.991486
1.000000 1.000000 1.000000
1.000000 1.000000 1.000000
1.000000 1.000000 1.000000
1.000000 1.000000 1.000000
1.000000 1.000000 1.000000
1.000000 1.000000 1.000000
1.000000 1.000000 1.000000
1.000000 1.000000 1.000000
1.000000 1.000000 1.000000
1.000000 1.000000 1.000000
1.000000 1.000000 1.000000
1.000000 1.000000 1.000000
0.355072 0.609253 0.829620
0.380859 0.626434 0.836426
0.407410 0.643738 0.843445
0.434845 0.661438 0.850677
0.462921 0.679230 0.858093
0.491638 0.697296 0.865692
0.520905 0.715576 0.873413
0.550781 0.733948 0.881317
0.581177 0.752563 0.889343
0.612030 0.771301 0.897522
0.643372 0.790283 0.905792
0.675110 0.809296 0.914154
0.707336 0.828552 0.922668
0.739929 0.847900 0.931274
0.772888 0.867401 0.940002
0.806213 0.887054 0.948792
0.840332 0.907104 0.957825
0.874786 0.927216 0.966919
0.909515 0.947510 0.976105
0.944641 0.967926 0.985382
0.980103 0.988464 0.994720
1.000000 1.000000 1.000000
1.000000 1.000000 1.000000
1.000000 1.000000 1.000000
1.000000 1.000000 1.000000
1.000000 1.000000 1.000000
1.000000 1.000000 1.000000
1.000000 1.000000 1.000000
1.000000 1.000000 1.000000
1.000000 1.000000 1.000000
1.000000 1.000000 1.000000
1.000000 1.000000 1.000000
1.000000 1.000000 1.000000
1.000000 1.000000 1.000000
0.390717 0.632935 0.839020
0.417633 0.650391 0.846130
0.445221 0.668060 0.853424
0.473602 0.686066 0.860931
0.502533 0.704132 0.868561
0.532074 0.722443 0.876373
0.562103 0.740875 0.884277
0.592712 0.759613 0.892395
0.623688 0.778351 0.900574
0.655212 0.797363 0.908875
0.687164 0.816559 0.917358
0.719452 0.835754 0.925873
0.752197 0.855194 0.934509
0.785309 0.874756 0.943268
0.818787 0.894440 0.952118
0.852600 0.914276 0.961060
0.886810 0.934265 0.970093
0.921692 0.954590 0.979309
0.956909 0.975037 0.988617
0.992432 0.995636 0.998016
1.000000 1.000000 1.000000
1.000000 1.000000 1.000000
1.000000 1.000000 1.000000
1.000000 1.000000 1.000000
1.000000 1.000000 1.000000
1.000000 1.000000 1.000000
1.000000 1.000000 1.000000
1.000000 1.000000 1.000000
1.000000 1.000000 1.000000
1.000000 1.000000 1.000000
1.000000 1.000000 1.000000
1.000000 1.000000 1.000000
1.000000 1.000000 1.000000
1.000000 1.000000 1.000000
0.427887 0.656952 0.848846
0.455750 0.674713 0.856201
0.484314 0.692749 0.863770
0.513489 0.710907 0.871460
0.543213 0.729309 0.879333
0.573486 0.747864 0.887299
0.604218 0.766602 0.895416
0.635437 0.785461 0.903687
0.667114 0.804535 0.912048
0.699219 0.823669 0.920502
0.731659 0.843018 0.929077
0.764557 0.862488 0.937805
0.797791 0.882080 0.946564
0.831360 0.901825 0.955444
0.865326 0.921722 0.964417
0.899628 0.941711 0.973480
0.934265 0.961884 0.982635
0.969116 0.982117 0.991852
1.000000 1.000000 1.000000
1.000000 1.000000 1.000000
1.000000 1.000000 1.000000
1.000000 1.000000 1.000000
1.000000 1.000000 1.000000
1.000000 1.000000 1.000000
1.000000 1.000000 1.000000
1.000000 1.000000 1.000000
1.000000 1.000000 1.000000
1.000000 1.000000 1.000000
1.000000 1.000000 1.000000
1.000000 1.000000 1.000000
1.000000 1.000000 1.000000
1.000000 1.000000 1.000000
1.000000 1.000000 1.000000
1.000000 1.000000 1.000000
0.466431 0.681488 0.859039
0.495148 0.699554 0.866608
0.524567 0.717834 0.874390
0.554535 0.736267 0.882294
0.584900 0.754852 0.890350
0.615875 0.773621 0.898499
0.647217 0.792511 0.906769
0.679077 0.811676 0.915222
0.711273 0.830872 0.923706
0.743958 0.850311 0.932343
0.776947 0.869843 0.941071
0.810333 0.889496 0.949890
0.844086 0.909271 0.958801
0.878174 0.929230 0.967804
0.912567 0.949310 0.976898
0.947235 0.969452 0.986053
0.982330 0.989777 0.995331
1.000000 1.000000 1.000000
1.000000 1.000000 1.000000
1.000000 1.000000 1.000000
1.000000 1.000000 1.000000
1.000000 1.000000 1.000000
1.000000 1.000000 1.000000
1.000000 1.000000 1.000000
1.000000 1.000000 1.000000
1.000000 1.000000 1.000000
1.000000 1.000000 1.000000
1.000000 1.000000 1.000000
1.000000 1.000000 1.000000
1.000000 1.000000 1.000000
1.000000 1.000000 1.000000
1.000000 1.000000 1.000000
1.000000 1.000000 1.000000
1.000000 1.000000 1.000000
0.506134 0.706360 0.869507
0.535706 0.724701 0.877319
0.565857 0.743195 0.885284
0.596466 0.761902 0.893372
0.627563 0.780701 0.901611
0.659119 0.799713 0.909943
0.691101 0.818817 0.918365
0.723480 0.838104 0.926910
0.756226 0.857544 0.935608
0.789429 0.877136 0.944366
0.822937 0.896851 0.953217
0.856842 0.916748 0.962189
0.890991 0.936676 0.971191
0.925568 0.956848 0.980347
0.960358 0.977020 0.989532
0.995544 0.997406 0.998840
1.000000 1.000000 1.000000
1.000000 1.000000 1.000000
1.000000 1.000000 1.000000
1.000000 1.000000 1.000000
1.000000 1.000000 1.000000
1.000000 1.000000 1.000000
1.000000 1.000000 1.000000
1.000000 1.000000 1.000000
1.000000 1.000000 1.000000
1.000000 1.000000 1.000000
1.000000 1.000000 1.000000
1.000000 1.000000 1.000000
1.000000 1.000000 1.000000
1.000000 1.000000 1.000000
1.000000 1.000000 1.000000
1.000000 1.000000 1.000000
1.000000 1.000000 1.000000
1.000000 1.000000 1.000000
0.546967 0.731628 0.880310
0.577240 0.750153 0.888306
0.608093 0.768982 0.896454
0.639313 0.787750 0.904694
0.671082 0.806885 0.913116
0.703156 0.826050 0.921570
0.735718 0.845459 0.930176
0.768646 0.864929 0.938873
0.801941 0.884552 0.947662
0.835602 0.904297 0.956543
0.869568 0.924194 0.965515
0.903900 0.944244 0.974579
0.938538 0.964386 0.983765
0.973541 0.984711 0.993011
1.000000 1.000000 1.000000
1.000000 1.000000 1.000000
1.000000 1.000000 1.000000
1.000000 1.000000 1.000000
1.000000 1.000000 1.000000
1.000000 1.000000 1.000000
1.000000 1.000000 1.000000
1.000000 1.000000 1.000000
1.000000 1.000000 1.000000
1.000000 1.000000 1.000000
1.000000 1.000000 1.000000
1.000000 1.000000 1.000000
1.000000 1.000000 1.000000
1.000000 1.000000 1.000000
1.000000 1.000000 1.000000
1.000000 1.000000 1.000000
1.000000 1.000000 1.000000
1.000000 1.000000 1.000000
1.000000 1.000000 1.000000
1.000000 1.000000 1.000000
0.588745 0.757172 0.891327
0.619781 0.776001 0.899567
0.651184 0.794922 0.907837
0.683044 0.814056 0.916260
0.715332 0.833313 0.924774
0.748016 0.852661 0.933441
0.781097 0.872284 0.942169
0.814484 0.891937 0.950989
0.848297 0.911774 0.959930
0.882416 0.931671 0.968933
0.916870 0.951752 0.978027
0.951599 0.971954 0.987213
0.986694 0.992310 0.996490
1.000000 1.000000 1.000000
1.000000 1.000000 1.000000
1.000000 1.000000 1.000000
1.000000 1.000000 1.000000
1.000000 1.000000 1.000000
1.000000 1.000000 1.000000
1.000000 1.000000 1.000000
1.000000 1.000000 1.000000
1.000000 1.000000 1.000000
1.000000 1.000000 1.000000
1.000000 1.000000 1.000000
1.000000 1.000000 1.000000
1.000000 1.000000 1.000000
1.000000 1.000000 1.000000
1.000000 1.000000 1.000000
1.000000 1.000000 1.000000
1.000000 1.000000 1.000000
1.000000 1.000000 1.000000
1.000000 1.000000 1.000000
1.000000 1.000000 1.000000
1.000000 1.000000 1.000000
0.631470 0.783051 0.902618
0.663086 0.802094 0.910980
0.695068 0.821198 0.919434
0.727539 0.840546 0.928009
0.760345 0.860016 0.936676
0.793640 0.879639 0.945465
0.827148 0.899384 0.954315
0.861023 0.919220 0.963257
0.895294 0.939209 0.972321
0.929810 0.959290 0.981445
0.964722 0.979553 0.990662
0.999878 0.999908 0.999969
1.000000 1.000000 1.000000
1.000000 1.000000 1.000000
1.000000 1.000000 1.000000
1.000000 1.000000 1.000000
1.000000 1.000000 1.000000
1.000000 1.000000 1.000000
1.000000 1.000000 1.000000
1.000000 1.000000 1.000000
1.000000 1.000000 1.000000
1.000000 1.000000 1.000000
1.000000 1.000000 1.000000
1.000000 1.000000 1.000000
1.000000 1.000000 1.000000
1.000000 1.000000 1.000000
1.000000 1.000000 1.000000
1.000000 1.000000 1.000000
1.000000 1.000000 1.000000
1.000000 1.000000 1.000000
1.000000 1.000000 1.000000
1.000000 1.000000 1.000000
1.000000 1.000000 1.000000
1.000000 1.000000 1.000000
0.674988 0.809235 0.914124
0.707245 0.828461 0.922638
0.739807 0.847839 0.931244
0.772766 0.867340 0.939972
0.806091 0.886993 0.948761
0.839813 0.906769 0.957672
0.873810 0.926727 0.966675
0.908234 0.946777 0.975769
0.942841 0.966888 0.984894
0.977844 0.987183 0.994141
1.000000 1.000000 1.000000
1.000000 1.000000 1.000000
1.000000 1.000000 1.000000
1.000000 1.000000 1.000000
1.000000 1.000000 1.000000
1.000000 1.000000 1.000000
1.000000 1.000000 1.000000
1.000000 1.000000 1.000000
1.000000 1.000000 1.000000
1.000000 1.000000 1.000000
1.000000 1.000000 1.000000
1.000000 1.000000 1.000000
1.000000 1.000000 1.000000
1.000000 1.000000 1.000000
1.000000 1.000000 1.000000
1.000000 1.000000 1.000000
1.000000 1.000000 1.000000
1.000000 1.000000 1.000000
1.000000 1.000000 1.000000
1.000000 1.000000 1.000000
1.000000 1.000000 1.000000
1.000000 1.000000 1.000000
1.000000 1.000000 1.000000
1.000000 1.000000 1.000000
0.719391 0.835724 0.925842
0.752106 0.855103 0.934509
0.785248 0.874725 0.943268
0.818695 0.894379 0.952087
0.852478 0.914215 0.961029
0.886688 0.934204 0.970062
0.921143 0.954254 0.979156
0.955994 0.974487 0.988373
0.991028 0.994781 0.997620
1.000000 1.000000 1.000000
1.000000 1.000000 1.000000
1.000000 1.000000 1.000000
1.000000 1.000000 1.000000
1.000000 1.000000 1.000000
1.000000 1.000000 1.000000
1.000000 1.000000 1.000000
1.000000 1.000000 1.000000
1.000000 1.000000 1.000000
1.000000 1.000000 1.000000
1.000000 1.000000 1.000000
1.000000 1.000000 1.000000
1.000000 1.000000 1.000000
1.000000 1.000000 1.000000
1.000000 1.000000 1.000000
1.000000 1.000000 1.000000
1.000000 1.000000 1.000000
1.000000 1.000000 1.000000
1.000000 1.000000 1.000000
1.000000 1.000000 1.000000
1.000000 1.000000 1.000000
1.000000 1.000000 1.000000
1.000000 1.000000 1.000000
1.000000 1.000000 1.000000
1.000000 1.000000 1.000000
0.764496 0.862457 0.937775
0.797729 0.882050 0.946564
0.831360 0.901825 0.955444
0.865265 0.921692 0.964417
0.899597 0.941742 0.973480
0.934143 0.961823 0.982605
0.969055 0.982086 0.991821
1.000000 1.000000 1.000000
1.000000 1.000000 1.000000
1.000000 1.000000 1.000000
1.000000 1.000000 1.000000
1.000000 1.000000 1.000000
1.000000 1.000000 1.000000
1.000000 1.000000 1.000000
1.000000 1.000000 1.000000
1.000000 1.000000 1.000000
1.000000 1.000000 1.000000
1.000000 1.000000 1.000000
1.000000 1.000000 1.000000
1.000000 1.000000 1.000000
1.000000 1.000000 1.000000
1.000000 1.000000 1.000000
1.000000 1.000000 1.000000
1.000000 1.000000 1.000000
1.000000 1.000000 1.000000
1.000000 1.000000 1.000000
1.000000 1.000000 1.000000
1.000000 1.000000 1.000000
1.000000 1.000000 1.000000
1.000000 1.000000 1.000000
1.000000 1.000000 1.000000
