other luts/实验工艺系列/经典蓝晒法2.cube
#Created by: Adobe Photoshop Export Color Lookup Plugin
#Copyright: (C) Copyright 2026 汉图
TITLE "实验工艺"
#LUT size
LUT_3D_SIZE 7
#data domain
#LUT data points
DOMAIN_MIN 0.000000 0.000000 0.000000
DOMAIN_MAX 0.909091 0.909091 0.909091
0.133331 0.133331 0.133331
0.133331 0.163391 0.239014
0.159760 0.336426 0.512543
0.238953 0.521698 0.798920
0.345520 0.602875 0.827087
0.482452 0.691559 0.863281
0.635345 0.785400 0.903656
0.133331 0.222321 0.332184
0.186981 0.401611 0.615601
0.269836 0.548584 0.807098
0.390717 0.632935 0.839020
0.533813 0.723511 0.876831
0.691040 0.818787 0.918365
0.858826 0.917908 0.962708
0.217102 0.473724 0.729584
0.309509 0.577820 0.817566
0.438324 0.663696 0.851593
0.586945 0.756104 0.890839
0.748077 0.852692 0.933441
0.918945 0.953003 0.978607
1.000000 1.000000 1.000000
0.355072 0.609253 0.829620
0.491638 0.697296 0.865692
0.643372 0.790283 0.905792
0.806213 0.887054 0.948792
0.980103 0.988464 0.994720
1.000000 1.000000 1.000000
1.000000 1.000000 1.000000
0.546967 0.731628 0.880310
0.703156 0.826050 0.921570
0.869568 0.924194 0.965515
1.000000 1.000000 1.000000
1.000000 1.000000 1.000000
1.000000 1.000000 1.000000
1.000000 1.000000 1.000000
0.764496 0.862457 0.937775
0.934143 0.961823 0.982605
1.000000 1.000000 1.000000
1.000000 1.000000 1.000000
1.000000 1.000000 1.000000
1.000000 1.000000 1.000000
1.000000 1.000000 1.000000
0.999847 0.999878 0.999939
1.000000 1.000000 1.000000
1.000000 1.000000 1.000000
1.000000 1.000000 1.000000
1.000000 1.000000 1.000000
1.000000 1.000000 1.000000
1.000000 1.000000 1.000000
0.133331 0.133331 0.133331
0.133331 0.171234 0.251495
0.163605 0.345581 0.527039
0.242584 0.525482 0.799896
0.351837 0.607056 0.828735
0.489716 0.696136 0.865173
0.643188 0.790100 0.905731
0.134521 0.276001 0.417053
0.133331 0.201569 0.299377
0.178131 0.380402 0.582123
0.258789 0.539581 0.804169
0.375854 0.623077 0.835083
0.517151 0.713165 0.872437
0.673004 0.807983 0.913605
0.240692 0.523590 0.799377
0.206940 0.449432 0.691193
0.295258 0.567566 0.813812
0.422760 0.653687 0.847504
0.569672 0.745544 0.886322
0.729584 0.841797 0.928558
0.899536 0.941711 0.973450
0.395660 0.636139 0.840332
0.339478 0.598724 0.825500
0.473633 0.686005 0.860931
0.623749 0.778381 0.900574
0.787354 0.875946 0.943817
0.960358 0.977020 0.989532
1.000000 1.000000 1.000000
0.594513 0.760742 0.892883
0.528320 0.720123 0.875366
0.683075 0.814087 0.916260
0.848328 0.911743 0.959930
1.000000 1.000000 1.000000
1.000000 1.000000 1.000000
1.000000 1.000000 1.000000
0.816589 0.893127 0.951538
0.743896 0.850281 0.932343
0.912537 0.949249 0.976868
1.000000 1.000000 1.000000
1.000000 1.000000 1.000000
1.000000 1.000000 1.000000
1.000000 1.000000 1.000000
1.000000 1.000000 1.000000
0.977844 0.987183 0.994141
1.000000 1.000000 1.000000
1.000000 1.000000 1.000000
1.000000 1.000000 1.000000
1.000000 1.000000 1.000000
1.000000 1.000000 1.000000
0.133331 0.133331 0.170044
0.133331 0.230682 0.345398
0.167450 0.354828 0.541656
0.246582 0.529175 0.800934
0.358185 0.611389 0.830414
0.496948 0.700653 0.867096
0.651093 0.794861 0.907806
0.161682 0.341034 0.519806
0.133331 0.262878 0.396332
0.182037 0.389801 0.596954
0.263641 0.543549 0.805450
0.382416 0.627502 0.836823
0.524536 0.717743 0.874390
0.681000 0.812866 0.915710
0.268585 0.547516 0.806763
0.232513 0.510620 0.787933
0.196930 0.425415 0.653229
0.282959 0.558472 0.810547
0.407410 0.643738 0.843445
0.552612 0.735046 0.881805
0.711212 0.830841 0.923706
0.438293 0.663696 0.851593
0.379211 0.625305 0.835999
0.324249 0.588135 0.821442
0.455872 0.674805 0.856232
0.606171 0.767761 0.895935
0.768677 0.864960 0.938873
0.940674 0.965607 0.984314
0.643250 0.790131 0.905762
0.575409 0.748993 0.887817
0.509857 0.708649 0.870514
0.663147 0.802124 0.911011
0.827179 0.899353 0.954315
1.000000 1.000000 1.000000
1.000000 1.000000 1.000000
0.869537 0.924194 0.965515
0.795654 0.880859 0.946014
0.723480 0.838104 0.926910
0.890991 0.936676 0.971191
1.000000 1.000000 1.000000
1.000000 1.000000 1.000000
1.000000 1.000000 1.000000
1.000000 1.000000 1.000000
1.000000 1.000000 1.000000
0.955994 0.974487 0.988373
1.000000 1.000000 1.000000
1.000000 1.000000 1.000000
1.000000 1.000000 1.000000
1.000000 1.000000 1.000000
0.133331 0.175079 0.257568
0.141846 0.293549 0.444794
0.195862 0.422882 0.649261
0.250885 0.532928 0.802094
0.364532 0.615692 0.832123
0.504272 0.705170 0.869019
0.659058 0.799652 0.909912
0.189911 0.408630 0.626678
0.155975 0.327332 0.498199
0.210999 0.459045 0.706390
0.268585 0.547516 0.806763
0.389008 0.631805 0.838593
0.531982 0.722382 0.876343
0.688995 0.817596 0.917816
0.308014 0.576782 0.817169
0.261230 0.541656 0.804810
0.226349 0.495819 0.764526
0.288330 0.562531 0.811981
0.414185 0.648224 0.845245
0.560150 0.739746 0.883789
0.719391 0.835724 0.925842
0.482574 0.691711 0.863312
0.421082 0.652557 0.847046
0.363037 0.614655 0.831726
0.309509 0.577820 0.817566
0.440063 0.664764 0.852081
0.588837 0.757233 0.891357
0.750061 0.853912 0.933960
0.693115 0.820038 0.918915
0.623688 0.778351 0.900574
0.556427 0.737396 0.882812
0.491638 0.697296 0.865692
0.643311 0.790222 0.905762
0.808228 0.888275 0.949310
0.982269 0.989746 0.995300
0.923309 0.955536 0.979736
0.848267 0.911713 0.959930
0.774872 0.868561 0.940491
0.703217 0.826111 0.921600
0.869629 0.924255 0.965546
1.000000 1.000000 1.000000
1.000000 1.000000 1.000000
1.000000 1.000000 1.000000
1.000000 1.000000 1.000000
1.000000 1.000000 1.000000
0.934204 0.961853 0.982635
1.000000 1.000000 1.000000
1.000000 1.000000 1.000000
1.000000 1.000000 1.000000
0.133331 0.234802 0.351929
0.169312 0.359314 0.548737
0.225220 0.493164 0.760315
0.286926 0.561432 0.811615
0.370972 0.619904 0.833801
0.511597 0.709778 0.870941
0.667023 0.804474 0.912018
0.219086 0.478485 0.737091
0.183990 0.394379 0.604156
0.238953 0.521698 0.798920
0.308014 0.576782 0.817169
0.395660 0.636139 0.840332
0.539459 0.726990 0.878326
0.697113 0.822418 0.919983
0.351837 0.607056 0.828735
0.299377 0.570618 0.814880
0.254211 0.535828 0.802979
0.330261 0.592285 0.823059
0.421021 0.652649 0.847046
0.567749 0.744415 0.885803
0.727539 0.840546 0.928009
0.535767 0.724731 0.877319
0.471802 0.684906 0.860443
0.410828 0.645996 0.844330
0.353516 0.608185 0.829193
0.447052 0.669250 0.853912
0.596497 0.761902 0.893372
0.758301 0.858826 0.936127
0.743896 0.850281 0.932343
0.673065 0.808075 0.913605
0.604248 0.766632 0.895416
0.537659 0.725952 0.877838
0.473633 0.686005 0.860931
0.625702 0.779541 0.901123
0.789429 0.877136 0.944366
0.977844 0.987183 0.994141
0.901703 0.942932 0.974030
0.827148 0.899384 0.954315
0.754181 0.856384 0.935059
0.683136 0.814117 0.916260
0.848389 0.911804 0.959961
1.000000 1.000000 1.000000
1.000000 1.000000 1.000000
1.000000 1.000000 1.000000
1.000000 1.000000 1.000000
0.988892 0.993561 0.997040
0.912628 0.949310 0.976898
1.000000 1.000000 1.000000
1.000000 1.000000 1.000000
0.143677 0.297913 0.451691
0.197815 0.427582 0.656647
0.252991 0.534790 0.802643
0.328644 0.591217 0.822632
0.419220 0.651459 0.846558
0.519012 0.714355 0.872894
0.674957 0.809204 0.914124
0.246521 0.529114 0.800903
0.212982 0.463806 0.713928
0.271088 0.549469 0.807434
0.351837 0.607056 0.828735
0.445221 0.668060 0.853424
0.546967 0.731628 0.880310
0.705200 0.827271 0.922119
0.398956 0.638336 0.841217
0.342438 0.600647 0.826263
0.291016 0.564453 0.812683
0.375854 0.623169 0.835083
0.471741 0.684875 0.860413
0.575409 0.749054 0.887817
0.735657 0.845398 0.930145
0.590668 0.758392 0.891846
0.524536 0.717743 0.874390
0.461060 0.678131 0.857605
0.400665 0.639465 0.841644
0.498901 0.701874 0.867615
0.604248 0.766632 0.895416
0.766632 0.863739 0.938324
0.803986 0.885742 0.948212
0.731628 0.842987 0.929077
0.661133 0.800873 0.910461
0.592651 0.759552 0.892365
0.526489 0.718994 0.874908
0.633545 0.784302 0.903168
0.797791 0.882080 0.946564
1.000000 1.000000 1.000000
0.955994 0.974487 0.988373
0.880280 0.930450 0.968353
0.806183 0.887024 0.948792
0.733765 0.844299 0.929657
0.663177 0.802155 0.911011
0.829315 0.900635 0.954895
1.000000 1.000000 1.000000
1.000000 1.000000 1.000000
1.000000 1.000000 1.000000
1.000000 1.000000 1.000000
0.966980 0.980865 0.991272
0.891052 0.936768 0.971222
1.000000 1.000000 1.000000
0.171204 0.363831 0.555878
0.227234 0.498016 0.767975
0.289581 0.563446 0.812286
0.374176 0.622070 0.834656
0.469879 0.683655 0.859924
0.573425 0.747833 0.887299
0.683014 0.814026 0.916229
0.281464 0.557434 0.810150
0.240631 0.523560 0.799377
0.310822 0.578735 0.817932
0.398956 0.638336 0.841217
0.496948 0.700653 0.867096
0.602264 0.765381 0.894928
0.713287 0.832062 0.924255
0.448639 0.670288 0.854340
0.388916 0.631744 0.838562
0.333221 0.594452 0.823822
0.424408 0.654755 0.847931
0.524536 0.717743 0.874390
0.631500 0.783081 0.902618
0.743896 0.850281 0.932343
0.647156 0.792480 0.906769
0.579132 0.751312 0.888794
0.513458 0.710876 0.871460
0.450470 0.671387 0.854828
0.552612 0.735046 0.881805
0.661133 0.800873 0.910461
0.774933 0.868591 0.940521
0.865173 0.921661 0.964386
0.791412 0.878326 0.944885
0.719360 0.835693 0.925842
0.649170 0.793732 0.907288
0.581146 0.752563 0.889343
0.691101 0.818817 0.918365
0.806183 0.887024 0.948792
1.000000 1.000000 1.000000
1.000000 1.000000 1.000000
0.942841 0.966888 0.984894
0.867493 0.922974 0.964996
0.793640 0.879639 0.945465
0.721497 0.836945 0.926422
0.837799 0.905640 0.957153
1.000000 1.000000 1.000000
1.000000 1.000000 1.000000
1.000000 1.000000 1.000000
1.000000 1.000000 1.000000
1.000000 1.000000 1.000000
0.945160 0.968231 0.985504
0.869690 0.924255 0.965546
