other luts/实验工艺系列/蛋白银盐法2.cube
#Created by: Adobe Photoshop Export Color Lookup Plugin
#Copyright: (C) Copyright 2026 汉图
TITLE "实验工艺"
#LUT size
LUT_3D_SIZE 34
#data domain
DOMAIN_MIN 0.0 0.0 0.0
DOMAIN_MAX 1.0 1.0 1.0
#LUT data points
0.086273 0.086273 0.086273
0.086273 0.086273 0.086273
0.086273 0.086273 0.086273
0.086273 0.086273 0.086273
0.086273 0.086273 0.086273
0.086273 0.086273 0.086273
0.086273 0.086273 0.086273
0.086273 0.086273 0.086273
0.097717 0.086273 0.086273
0.112122 0.086273 0.086273
0.126526 0.086273 0.086273
0.140961 0.086273 0.086273
0.155304 0.086273 0.086273
0.169739 0.090912 0.086273
0.184143 0.099243 0.086273
0.198608 0.107605 0.086273
0.211853 0.116089 0.086273
0.221100 0.125336 0.086273
0.230347 0.134552 0.086273
0.239594 0.143829 0.086273
0.248840 0.153076 0.086273
0.258087 0.162323 0.086273
0.267303 0.171539 0.086273
0.276581 0.180817 0.086273
0.285828 0.190063 0.086273
0.295044 0.199280 0.086273
0.304291 0.208527 0.086273
0.313568 0.217773 0.086273
0.322784 0.227020 0.095337
0.332031 0.236267 0.104584
0.341278 0.245514 0.113861
0.350555 0.254761 0.123108
0.359772 0.264008 0.132324
0.369019 0.273254 0.141571
0.086273 0.086273 0.086273
0.086273 0.086273 0.086273
0.086273 0.086273 0.086273
0.086273 0.086273 0.086273
0.086273 0.086273 0.086273
0.088135 0.086273 0.086273
0.102570 0.086273 0.086273
0.116913 0.086273 0.086273
0.131378 0.086273 0.086273
0.145782 0.086273 0.086273
0.160156 0.086273 0.086273
0.174591 0.093689 0.086273
0.188995 0.102051 0.086273
0.203369 0.110382 0.086273
0.214966 0.119202 0.086273
0.224213 0.128448 0.086273
0.233459 0.137695 0.086273
0.242706 0.146912 0.086273
0.251953 0.156158 0.086273
0.261169 0.165405 0.086273
0.270416 0.174652 0.086273
0.279694 0.183899 0.086273
0.288940 0.193146 0.086273
0.298157 0.202393 0.086273
0.307404 0.211639 0.086273
0.316650 0.220886 0.089233
0.325897 0.230103 0.098450
0.335144 0.239380 0.107697
0.344391 0.248627 0.116943
0.353607 0.257843 0.126190
0.362854 0.267090 0.135437
0.372131 0.276367 0.144684
0.381378 0.285614 0.153931
0.390594 0.294830 0.163177
0.086273 0.086273 0.086273
0.086273 0.086273 0.086273
0.086273 0.086273 0.086273
0.092987 0.086273 0.086273
0.107361 0.086273 0.086273
0.121765 0.086273 0.086273
0.136200 0.086273 0.086273
0.150604 0.086273 0.086273
0.165009 0.088165 0.086273
0.179443 0.096497 0.086273
0.193848 0.104858 0.086273
0.208221 0.113159 0.086273
0.218079 0.122284 0.086273
0.227325 0.131561 0.086273
0.236542 0.140778 0.086273
0.245789 0.150024 0.086273
0.255035 0.159271 0.086273
0.264282 0.168518 0.086273
0.273529 0.177765 0.086273
0.282776 0.187012 0.086273
0.291992 0.196228 0.086273
0.301270 0.205475 0.086273
0.310516 0.214752 0.086273
0.319763 0.223999 0.092316
0.328979 0.233215 0.101562
0.338257 0.242462 0.110809
0.347504 0.251740 0.120056
0.356720 0.260956 0.129272
0.365967 0.270203 0.138550
0.375214 0.279449 0.147797
0.384460 0.288696 0.157013
0.393707 0.297943 0.166260
0.402954 0.307190 0.175507
0.412201 0.316437 0.184784
0.129456 0.086273 0.086273
0.128510 0.086273 0.086273
0.127563 0.086273 0.086273
0.126617 0.086273 0.086273
0.141052 0.086273 0.086273
0.155426 0.086273 0.086273
0.169830 0.090973 0.086273
0.184235 0.099304 0.086273
0.198700 0.107666 0.086273
0.211914 0.116150 0.086273
0.221161 0.125397 0.086273
0.230438 0.134644 0.086273
0.239655 0.143890 0.086273
0.248901 0.153137 0.086273
0.258148 0.162384 0.086273
0.267365 0.171600 0.086273
0.276642 0.180878 0.086273
0.285889 0.190125 0.086273
0.295105 0.199341 0.086273
0.304352 0.208588 0.086273
0.313629 0.217834 0.086273
0.322845 0.227081 0.095398
0.332092 0.236328 0.104645
0.341339 0.245575 0.113922
0.350616 0.254822 0.123169
0.359833 0.264069 0.132385
0.369080 0.273315 0.141632
0.378326 0.282562 0.150909
0.387573 0.291779 0.160126
0.396820 0.301056 0.169373
0.406067 0.310303 0.178619
0.415283 0.319519 0.187836
0.424530 0.328766 0.197113
0.433807 0.338013 0.206360
0.178497 0.095947 0.086273
0.177551 0.095398 0.086273
0.176575 0.094849 0.086273
0.175659 0.094299 0.086273
0.174683 0.093750 0.086273
0.189087 0.102112 0.086273
0.203461 0.110443 0.086273
0.215027 0.119263 0.086273
0.224274 0.128510 0.086273
0.233521 0.137756 0.086273
0.242767 0.146973 0.086273
0.252014 0.156250 0.086273
0.261261 0.165497 0.086273
0.270477 0.174713 0.086273
0.279755 0.183960 0.086273
0.289001 0.193237 0.086273
0.298218 0.202454 0.086273
0.307465 0.211700 0.086273
0.316711 0.220947 0.089294
0.325958 0.230164 0.098511
0.335205 0.239441 0.107758
0.344452 0.248688 0.117004
0.353668 0.257904 0.126251
0.362946 0.267151 0.135498
0.372192 0.276428 0.144745
0.381439 0.285675 0.153992
0.390656 0.294891 0.163239
0.399933 0.304138 0.172485
0.409180 0.313385 0.181732
0.418396 0.322632 0.190948
0.427643 0.331879 0.200226
0.436890 0.341125 0.209473
0.446136 0.350342 0.218689
0.455383 0.359619 0.227936
0.221161 0.125397 0.086273
0.220581 0.124817 0.086273
0.219971 0.124207 0.086273
0.219330 0.123566 0.086273
0.218750 0.122986 0.086273
0.218140 0.122345 0.086273
0.227386 0.131622 0.086273
0.236603 0.140839 0.086273
0.245850 0.150085 0.086273
0.255127 0.159332 0.086273
0.264374 0.168610 0.086273
0.273590 0.177826 0.086273
0.282837 0.187073 0.086273
0.292114 0.196320 0.086273
0.301331 0.205536 0.086273
0.310577 0.214813 0.086273
0.319824 0.224060 0.092407
0.329041 0.233276 0.101624
0.338318 0.242523 0.110870
0.347565 0.251801 0.120117
0.356781 0.261017 0.129333
0.366028 0.270264 0.138611
0.375275 0.279510 0.147858
0.384521 0.288757 0.157074
0.393768 0.298004 0.166321
0.403015 0.307251 0.175598
0.412262 0.316498 0.184845
0.421509 0.325745 0.194061
0.430756 0.334991 0.203308
0.440002 0.344238 0.212555
0.449219 0.353455 0.221802
0.458496 0.362701 0.231049
0.467743 0.371979 0.240295
0.476959 0.381195 0.249512
0.252625 0.156860 0.086273
0.252014 0.156250 0.086273
0.251404 0.155640 0.086273
0.250793 0.155029 0.086273
0.250183 0.154419 0.086273
0.249573 0.153809 0.086273
0.248962 0.153198 0.086273
0.258209 0.162445 0.086273
0.267426 0.171661 0.086273
0.276703 0.180939 0.086273
0.285950 0.190186 0.086273
0.295197 0.199432 0.086273
0.304413 0.208649 0.086273
0.313690 0.217896 0.086273
0.322937 0.227173 0.095490
0.332153 0.236389 0.104706
0.341400 0.245636 0.113983
0.350647 0.254852 0.123199
0.359894 0.264130 0.132446
0.369141 0.273376 0.141693
0.378387 0.282623 0.150970
0.387634 0.291840 0.160187
0.396881 0.301117 0.169434
0.406128 0.310364 0.178680
0.415344 0.319580 0.187897
0.424591 0.328827 0.197174
0.433868 0.338104 0.206421
0.443115 0.347351 0.215668
0.452332 0.356567 0.224884
0.461578 0.365814 0.234161
0.470856 0.375061 0.243408
0.480072 0.384308 0.252625
0.489319 0.393555 0.261871
0.498566 0.402802 0.271149
0.284058 0.188293 0.086273
0.283478 0.187683 0.086273
0.282837 0.187073 0.086273
0.282257 0.186493 0.086273
0.281616 0.185852 0.086273
0.281006 0.185242 0.086273
0.280426 0.184662 0.086273
0.279816 0.184021 0.086273
0.289062 0.193298 0.086273
0.298279 0.202515 0.086273
0.307526 0.211761 0.086273
0.316772 0.221008 0.089355
0.326050 0.230286 0.098602
0.335266 0.239502 0.107819
0.344513 0.248749 0.117065
0.353760 0.257996 0.126343
0.363007 0.267212 0.135559
0.372253 0.276489 0.144806
0.381470 0.285706 0.154022
0.390717 0.294952 0.163300
0.399994 0.304199 0.172546
0.409241 0.313477 0.181793
0.418457 0.322693 0.191010
0.427704 0.331940 0.200287
0.436951 0.341187 0.209534
0.446198 0.350403 0.218750
0.455444 0.359680 0.227997
0.464691 0.368927 0.237244
0.473938 0.378174 0.246521
0.483185 0.387390 0.255737
0.492432 0.396667 0.264984
0.501678 0.405914 0.274231
0.510895 0.415131 0.283478
0.520172 0.424377 0.292725
0.315521 0.219727 0.088074
0.314880 0.219116 0.087463
0.314301 0.218536 0.086853
0.313690 0.217896 0.086273
0.313080 0.217316 0.086273
0.312469 0.216705 0.086273
0.311859 0.216095 0.086273
0.311249 0.215485 0.086273
0.310638 0.214874 0.086273
0.319885 0.224121 0.092468
0.329102 0.233337 0.101685
0.338379 0.242584 0.110931
0.347626 0.251862 0.120178
0.356873 0.261108 0.129425
0.366089 0.270325 0.138672
0.375366 0.279572 0.147919
0.384613 0.288849 0.157166
0.393829 0.298065 0.166382
0.403076 0.307312 0.175659
0.412292 0.316528 0.184875
0.421570 0.325806 0.194122
0.430817 0.335052 0.203369
0.440063 0.344299 0.212646
0.449280 0.353516 0.221863
0.458557 0.362762 0.231110
0.467804 0.372040 0.240356
0.477020 0.381256 0.249573
0.486267 0.390503 0.258850
0.495544 0.399750 0.268097
0.504791 0.409027 0.277344
0.514008 0.418243 0.286560
0.523254 0.427490 0.295837
0.532501 0.436737 0.305084
0.541748 0.445984 0.314301
0.346954 0.251190 0.119537
0.346344 0.250580 0.118896
0.345734 0.249969 0.118286
0.345123 0.249359 0.117706
0.344513 0.248749 0.117065
0.343933 0.248169 0.116486
0.343292 0.247528 0.115875
0.342682 0.246918 0.115234
0.342102 0.246338 0.114655
0.341461 0.245697 0.114044
0.350739 0.254944 0.123291
0.359955 0.264191 0.132507
0.369202 0.273438 0.141754
0.378448 0.282684 0.151031
0.387726 0.291931 0.160278
0.396942 0.301178 0.169495
0.406189 0.310425 0.178741
0.415405 0.319641 0.187958
0.424652 0.328888 0.197235
0.433929 0.338165 0.206482
0.443146 0.347382 0.215698
0.452393 0.356628 0.224945
0.461639 0.365875 0.234222
0.470917 0.375122 0.243469
0.480133 0.384369 0.252686
0.489380 0.393616 0.261932
0.498627 0.402863 0.271210
0.507874 0.412079 0.280426
0.517120 0.421356 0.289673
0.526367 0.430603 0.298920
0.535614 0.439850 0.308197
0.544830 0.449066 0.317413
0.554108 0.458344 0.326660
0.563354 0.467590 0.335907
0.378387 0.282623 0.150970
0.377808 0.282043 0.150360
0.377197 0.281403 0.149750
0.376556 0.280792 0.149139
0.375977 0.280212 0.148529
0.375366 0.279572 0.147919
0.374756 0.278992 0.147339
0.374146 0.278381 0.146698
0.373505 0.277740 0.146088
0.372925 0.277161 0.145477
0.372314 0.276550 0.144867
0.381561 0.285797 0.154114
0.390778 0.295013 0.163361
0.400055 0.304260 0.172607
0.409302 0.313538 0.181854
0.418549 0.322784 0.191101
0.427765 0.332001 0.200348
0.437012 0.341248 0.209595
0.446259 0.350494 0.218811
0.455505 0.359741 0.228058
0.464752 0.368988 0.237305
0.473969 0.378204 0.246552
0.483246 0.387451 0.255798
0.492493 0.396729 0.265045
0.501740 0.405975 0.274292
0.510956 0.415192 0.283539
0.520233 0.424438 0.292786
0.529480 0.433716 0.302032
0.538696 0.442932 0.311249
0.547943 0.452179 0.320526
0.557220 0.461426 0.329773
0.566467 0.470673 0.339020
0.575684 0.479919 0.348236
0.584930 0.489166 0.357483
0.409851 0.314087 0.182404
0.409241 0.313477 0.181793
0.408630 0.312866 0.181213
0.408020 0.312256 0.180573
0.407410 0.311615 0.179962
0.406799 0.311035 0.179382
0.406189 0.310425 0.178741
0.405609 0.309845 0.178162
0.404968 0.309204 0.177551
0.404358 0.308594 0.176910
0.403778 0.308014 0.176331
0.403137 0.307373 0.175720
0.412415 0.316620 0.184967
0.421631 0.325867 0.194183
0.430878 0.335114 0.203430
0.440125 0.344360 0.212708
0.449402 0.353607 0.221954
0.458618 0.362823 0.231171
0.467865 0.372101 0.240417
0.477081 0.381317 0.249634
0.486328 0.390564 0.258911
0.495605 0.399811 0.268158
0.504822 0.409058 0.277374
0.514069 0.418304 0.286621
0.523315 0.427551 0.295898
0.532593 0.436798 0.305145
0.541809 0.446045 0.314362
0.551056 0.455292 0.323608
0.560303 0.464539 0.332886
0.569519 0.473755 0.342102
0.578796 0.483002 0.351349
0.588043 0.492279 0.360596
0.597290 0.501526 0.369873
0.606506 0.510742 0.379089
0.441315 0.345551 0.213867
0.440704 0.344910 0.213257
0.440063 0.344299 0.212646
0.439484 0.343719 0.212036
0.438843 0.343079 0.211426
0.438232 0.342468 0.210785
0.437653 0.341888 0.210205
0.437012 0.341248 0.209595
0.436432 0.340668 0.208984
0.435822 0.340057 0.208374
0.435181 0.339417 0.207764
0.434601 0.338837 0.207153
0.433990 0.338226 0.206543
0.443237 0.347473 0.215790
0.452454 0.356689 0.225037
0.461700 0.365936 0.234283
0.470978 0.375183 0.243530
0.480194 0.384430 0.252747
0.489441 0.393677 0.261993
0.498688 0.402924 0.271271
0.507935 0.412140 0.280487
0.517181 0.421417 0.289734
0.526428 0.430664 0.298981
0.535645 0.439880 0.308228
0.544891 0.449127 0.317474
0.554169 0.458405 0.326721
0.563416 0.467651 0.335968
0.572632 0.476868 0.345184
0.581879 0.486115 0.354462
0.591156 0.495392 0.363708
0.600372 0.504608 0.372925
0.609619 0.513855 0.382172
0.618866 0.523102 0.391449
0.628143 0.532349 0.400696
0.472748 0.376953 0.245300
0.472137 0.376373 0.244720
0.471527 0.375763 0.244080
0.470917 0.375122 0.243469
0.470306 0.374542 0.242889
0.469696 0.373932 0.242249
0.469086 0.373291 0.241638
0.468475 0.372711 0.241058
0.467865 0.372101 0.240417
0.467285 0.371490 0.239838
0.466644 0.370880 0.239227
0.466034 0.370270 0.238586
0.465454 0.369659 0.238007
0.464813 0.369049 0.237366
0.474060 0.378296 0.246643
0.483307 0.387543 0.255859
0.492554 0.396790 0.265106
0.501801 0.406036 0.274353
0.511017 0.415253 0.283600
0.520294 0.424500 0.292847
0.529541 0.433777 0.302094
0.538757 0.442993 0.311310
0.548004 0.452240 0.320587
0.557281 0.461487 0.329834
0.566498 0.470734 0.339050
0.575745 0.479980 0.348297
0.584991 0.489227 0.357544
0.594238 0.498474 0.366821
0.603485 0.507690 0.376038
0.612732 0.516968 0.385284
0.621979 0.526215 0.394531
0.631195 0.535431 0.403778
0.640472 0.544678 0.413025
0.649719 0.553955 0.422272
0.504181 0.408417 0.276764
0.503571 0.407806 0.276123
0.502991 0.407227 0.275543
0.502350 0.406586 0.274933
0.501740 0.405975 0.274292
0.501160 0.405396 0.273712
0.500519 0.404755 0.273102
0.499908 0.404144 0.272461
0.499329 0.403564 0.271881
0.498688 0.402924 0.271271
0.498108 0.402344 0.270660
0.497498 0.401733 0.270050
0.496857 0.401093 0.269440
0.496277 0.400513 0.268829
0.495667 0.399872 0.268219
0.504913 0.409149 0.277466
0.514130 0.418365 0.286682
0.523376 0.427612 0.295959
0.532654 0.436859 0.305206
0.541870 0.446106 0.314423
0.551117 0.455353 0.323669
0.560364 0.464600 0.332947
0.569611 0.473816 0.342163
0.578857 0.483063 0.351410
0.588104 0.492340 0.360657
0.597321 0.501556 0.369904
0.606567 0.510803 0.379150
0.615845 0.520050 0.388397
0.625092 0.529327 0.397644
0.634308 0.538544 0.406860
0.643555 0.547791 0.416138
0.652832 0.557037 0.425385
0.662048 0.566284 0.434601
0.671295 0.575531 0.443848
0.535645 0.439880 0.308228
0.535034 0.439270 0.307587
0.534424 0.438629 0.306976
0.533813 0.438049 0.306396
0.533203 0.437439 0.305756
0.532593 0.436798 0.305145
0.531982 0.436218 0.304565
0.531372 0.435608 0.303925
0.530731 0.434967 0.303314
0.530151 0.434387 0.302704
0.529541 0.433777 0.302094
0.528931 0.433167 0.301514
0.528320 0.432556 0.300873
0.527710 0.431946 0.300262
0.527130 0.431335 0.299683
0.526489 0.430725 0.299042
0.535736 0.439972 0.308319
0.544952 0.449188 0.317535
0.554230 0.458466 0.326782
0.563477 0.467712 0.336029
0.572693 0.476929 0.345276
0.581940 0.486176 0.354523
0.591217 0.495453 0.363770
0.600433 0.504669 0.372986
0.609680 0.513916 0.382233
0.618927 0.523163 0.391510
0.628174 0.532379 0.400726
0.637421 0.541656 0.409973
0.646667 0.550903 0.419220
0.655914 0.560150 0.428497
0.665161 0.569366 0.437714
0.674408 0.578644 0.446960
0.683655 0.587891 0.456207
0.692871 0.597107 0.465454
0.567078 0.471313 0.339630
0.566498 0.470734 0.339050
0.565857 0.470093 0.338440
0.565247 0.469482 0.337799
0.564667 0.468872 0.337219
0.564026 0.468262 0.336609
0.563416 0.467651 0.335968
0.562836 0.467041 0.335388
0.562195 0.466431 0.334778
0.561584 0.465820 0.334137
0.561005 0.465210 0.333557
0.560364 0.464600 0.332947
0.559784 0.464020 0.332336
0.559174 0.463379 0.331726
0.558533 0.462769 0.331116
0.557953 0.462189 0.330505
0.557343 0.461548 0.329895
0.566559 0.470795 0.339111
0.575806 0.480042 0.348358
0.585052 0.489288 0.357605
0.594299 0.498535 0.366882
0.603546 0.507782 0.376099
0.612793 0.517029 0.385345
0.622040 0.526276 0.394592
0.631256 0.535492 0.403839
0.640533 0.544739 0.413086
0.649780 0.554016 0.422333
0.658997 0.563232 0.431549
0.668243 0.572479 0.440826
0.677521 0.581726 0.450073
0.686768 0.591003 0.459320
0.695984 0.600220 0.468536
0.705231 0.609467 0.477814
0.714478 0.618713 0.487061
0.598511 0.502747 0.371063
0.597870 0.502106 0.370453
0.597290 0.501526 0.369873
0.596680 0.500916 0.369232
0.596039 0.500275 0.368622
0.595459 0.499695 0.368011
0.594849 0.499084 0.367401
0.594208 0.498444 0.366791
0.593628 0.497864 0.366180
0.593018 0.497223 0.365570
0.592377 0.496613 0.364960
0.591797 0.496033 0.364349
0.591187 0.495422 0.363739
0.590576 0.494812 0.363159
0.589966 0.494202 0.362518
0.589355 0.493591 0.361908
0.588745 0.492981 0.361328
0.588135 0.492371 0.360687
0.597382 0.501617 0.369965
0.606598 0.510834 0.379181
0.615875 0.520081 0.388428
0.625122 0.529358 0.397675
0.634369 0.538605 0.406921
0.643585 0.547821 0.416168
0.652863 0.557068 0.425415
0.662109 0.566345 0.434662
0.671326 0.575562 0.443878
0.680573 0.584808 0.453156
0.689850 0.594055 0.462402
0.699066 0.603302 0.471619
0.708313 0.612549 0.480865
0.717560 0.621796 0.490143
0.726807 0.631042 0.499390
0.736053 0.640259 0.508606
0.629944 0.534149 0.402496
0.629333 0.533569 0.401917
0.628723 0.532959 0.401276
0.628143 0.532349 0.400696
0.627502 0.531738 0.400085
0.626892 0.531128 0.399445
0.626312 0.530518 0.398865
0.625671 0.529907 0.398254
0.625061 0.529297 0.397614
0.624451 0.528687 0.397034
0.623840 0.528076 0.396393
0.623230 0.527466 0.395782
0.622620 0.526855 0.395203
0.622009 0.526245 0.394562
0.621429 0.525665 0.393982
0.620789 0.525024 0.393372
0.620178 0.524414 0.392731
0.619598 0.523834 0.392151
0.618958 0.523193 0.391541
0.628235 0.532440 0.400787
0.637451 0.541687 0.410004
0.646698 0.550934 0.419250
0.655945 0.560181 0.428528
0.665222 0.569427 0.437775
0.674438 0.578674 0.446991
0.683685 0.587921 0.456238
0.692932 0.597168 0.465515
0.702148 0.606384 0.474731
0.711426 0.615662 0.483978
0.720673 0.624908 0.493225
0.729889 0.634125 0.502441
0.739136 0.643372 0.511719
0.748413 0.652618 0.520966
0.757660 0.661896 0.530212
0.661377 0.565613 0.433960
0.660767 0.565002 0.433319
0.660187 0.564423 0.432739
0.659546 0.563782 0.432129
0.658966 0.563202 0.431519
0.658356 0.562561 0.430908
0.657715 0.561951 0.430298
0.657135 0.561371 0.429688
0.656525 0.560730 0.429077
0.655884 0.560120 0.428467
0.655304 0.559540 0.427856
0.654694 0.558899 0.427246
0.654053 0.558289 0.426636
0.653473 0.557709 0.426025
0.652863 0.557068 0.425415
0.652252 0.556488 0.424835
0.651642 0.555878 0.424194
0.651031 0.555237 0.423584
0.650421 0.554657 0.422974
0.649811 0.554047 0.422363
0.659058 0.563293 0.431610
0.668274 0.572510 0.440857
0.677551 0.581757 0.450104
0.686798 0.591034 0.459351
0.696045 0.600281 0.468597
0.705261 0.609497 0.477844
0.714508 0.618744 0.487091
0.723785 0.628021 0.496338
0.733002 0.637238 0.505554
0.742249 0.646484 0.514801
0.751495 0.655731 0.524078
0.760742 0.664948 0.533295
0.769989 0.674225 0.542542
0.779236 0.683472 0.551788
0.692841 0.597076 0.465424
0.692230 0.596466 0.464783
0.691620 0.595825 0.464172
0.691010 0.595245 0.463593
0.690399 0.594635 0.462952
0.689789 0.594025 0.462372
0.689178 0.593414 0.461731
0.688568 0.592804 0.461121
0.687958 0.592194 0.460541
0.687347 0.591583 0.459900
0.686737 0.590973 0.459290
0.686127 0.590363 0.458710
0.685516 0.589752 0.458069
0.684906 0.589142 0.457458
0.684296 0.588531 0.456879
0.683685 0.587921 0.456238
0.683105 0.587341 0.455658
0.682465 0.586700 0.455048
0.681854 0.586090 0.454407
0.681274 0.585510 0.453827
0.680634 0.584869 0.453217
0.689911 0.594116 0.462463
0.699127 0.603363 0.471680
0.708374 0.612610 0.480927
0.717621 0.621857 0.490204
0.726898 0.631104 0.499451
0.736115 0.640320 0.508667
0.745361 0.649597 0.517914
0.754608 0.658844 0.527191
0.763824 0.668060 0.536407
0.773102 0.677307 0.545654
0.782349 0.686584 0.554901
0.791565 0.695801 0.564117
0.800812 0.705048 0.573395
0.724274 0.628510 0.496826
0.723694 0.627899 0.496246
0.723053 0.627289 0.495636
0.722443 0.626678 0.494995
0.721863 0.626068 0.494415
0.721222 0.625458 0.493805
0.720642 0.624878 0.493195
0.720032 0.624237 0.492584
0.719391 0.623627 0.491974
0.718811 0.623047 0.491364
0.718201 0.622406 0.490753
0.717560 0.621796 0.490143
0.716980 0.621216 0.489532
0.716339 0.620575 0.488922
0.715729 0.619965 0.488281
0.715149 0.619385 0.487701
0.714508 0.618744 0.487091
0.713928 0.618164 0.486481
0.713318 0.617554 0.485870
0.712708 0.616913 0.485260
0.712097 0.616333 0.484650
0.711487 0.615723 0.484039
0.720734 0.624969 0.493286
0.729950 0.634186 0.502533
0.739197 0.643433 0.511780
0.748474 0.652679 0.521027
0.757721 0.661957 0.530273
0.766937 0.671173 0.539490
0.776184 0.680420 0.548767
0.785461 0.689667 0.558014
0.794678 0.698914 0.567230
0.803925 0.708160 0.576477
0.813171 0.717407 0.585754
0.822388 0.726624 0.594971
0.755737 0.659973 0.528290
0.755096 0.659332 0.527679
0.754517 0.658752 0.527069
0.753906 0.658142 0.526459
0.753265 0.657501 0.525848
0.752686 0.656921 0.525238
0.752075 0.656311 0.524628
0.751465 0.655701 0.524048
0.750854 0.655090 0.523407
0.750244 0.654449 0.522797
0.749634 0.653870 0.522217
0.749023 0.653259 0.521576
0.748413 0.652618 0.520966
0.747803 0.652039 0.520386
0.747192 0.651428 0.519745
0.746582 0.650787 0.519135
0.745972 0.650208 0.518555
0.745361 0.649597 0.517914
0.744781 0.648987 0.517334
0.744141 0.648376 0.516724
0.743530 0.647766 0.516083
0.742950 0.647156 0.515503
0.742310 0.646545 0.514862
0.751556 0.655792 0.524139
0.760803 0.665039 0.533356
0.770050 0.674286 0.542603
0.779297 0.683533 0.551849
0.788544 0.692780 0.561127
0.797791 0.701996 0.570343
0.807037 0.711273 0.579590
0.816284 0.720520 0.588837
0.825500 0.729736 0.598083
0.834778 0.738983 0.607330
0.844025 0.748260 0.616577
0.787201 0.691406 0.559753
0.786560 0.690796 0.559113
0.785950 0.690186 0.558502
0.785370 0.689575 0.557922
0.784729 0.688965 0.557312
0.784119 0.688354 0.556671
0.783539 0.687744 0.556091
0.782898 0.687134 0.555481
0.782318 0.686554 0.554871
0.781677 0.685913 0.554260
0.781067 0.685303 0.553619
0.780487 0.684723 0.553040
0.779846 0.684082 0.552429
0.779236 0.683472 0.551788
0.778656 0.682892 0.551208
0.778015 0.682251 0.550598
0.777405 0.681641 0.549957
0.776825 0.681061 0.549377
0.776184 0.680420 0.548767
0.775604 0.679840 0.548157
0.774994 0.679230 0.547546
0.774353 0.678589 0.546936
0.773773 0.678009 0.546326
0.773163 0.677368 0.545715
0.782410 0.686646 0.554962
0.791626 0.695862 0.564178
0.800873 0.705109 0.573456
0.810150 0.714355 0.582703
0.819397 0.723633 0.591949
0.828613 0.732849 0.601166
0.837860 0.742096 0.610443
0.847137 0.751343 0.619690
0.856354 0.760559 0.628906
0.865601 0.769836 0.638153
0.818604 0.722839 0.591187
0.818024 0.722260 0.590576
0.817413 0.721649 0.589966
0.816772 0.721008 0.589355
0.816193 0.720428 0.588745
0.815582 0.719788 0.588135
0.814941 0.719177 0.587524
0.814362 0.718597 0.586914
0.813751 0.717957 0.586304
0.813141 0.717377 0.585724
0.812531 0.716766 0.585083
0.811920 0.716125 0.584473
0.811310 0.715546 0.583893
0.810699 0.714935 0.583252
0.810089 0.714294 0.582642
0.809479 0.713715 0.582062
0.808868 0.713104 0.581421
0.808228 0.712463 0.580811
0.807648 0.711884 0.580200
0.807037 0.711273 0.579590
0.806427 0.710663 0.579010
0.805817 0.710052 0.578369
0.805206 0.709442 0.577759
0.804626 0.708832 0.577179
0.803986 0.708221 0.576538
0.813232 0.717468 0.585815
0.822449 0.726685 0.595032
0.831726 0.735962 0.604279
0.840973 0.745209 0.613525
0.850220 0.754456 0.622803
0.859436 0.763672 0.632019
0.868713 0.772949 0.641266
0.877960 0.782196 0.650513
0.887177 0.791412 0.659729
0.850067 0.754303 0.622620
0.849457 0.753693 0.622009
0.848877 0.753082 0.621429
0.848236 0.752472 0.620789
0.847626 0.751862 0.620178
0.847015 0.751251 0.619598
0.846405 0.750641 0.618958
0.845795 0.750031 0.618347
0.845184 0.749420 0.617767
0.844574 0.748810 0.617126
0.843994 0.748230 0.616547
0.843353 0.747589 0.615936
0.842743 0.746979 0.615295
0.842163 0.746368 0.614716
0.841522 0.745758 0.614105
0.840912 0.745148 0.613464
0.840332 0.744537 0.612885
0.839691 0.743927 0.612274
0.839081 0.743317 0.611633
0.838501 0.742706 0.611053
0.837860 0.742096 0.610443
0.837280 0.741516 0.609833
0.836670 0.740875 0.609222
0.836029 0.740265 0.608612
0.835449 0.739685 0.608002
0.834839 0.739044 0.607391
0.844086 0.748322 0.616638
0.853302 0.757538 0.625854
0.862549 0.766785 0.635132
0.871796 0.776031 0.644379
0.881073 0.785309 0.653625
