other luts/实验工艺系列/蛋白银盐法2.cube
#Created by: Adobe Photoshop Export Color Lookup Plugin
#Copyright: (C) Copyright 2026 汉图
TITLE "实验工艺"
#LUT size
LUT_3D_SIZE 7
#data domain
#LUT data points
DOMAIN_MIN 0.000000 0.000000 0.000000
DOMAIN_MAX 0.909091 0.909091 0.909091
0.086273 0.086273 0.086273
0.086273 0.086273 0.086273
0.126526 0.086273 0.086273
0.198608 0.107605 0.086273
0.248840 0.153076 0.086273
0.295044 0.199280 0.086273
0.341278 0.245514 0.113861
0.221161 0.125397 0.086273
0.218140 0.122345 0.086273
0.264374 0.168610 0.086273
0.310577 0.214813 0.086273
0.356781 0.261017 0.129333
0.403015 0.307251 0.175598
0.449219 0.353455 0.221802
0.378387 0.282623 0.150970
0.375366 0.279572 0.147919
0.372314 0.276550 0.144867
0.418549 0.322784 0.191101
0.464752 0.368988 0.237305
0.510956 0.415192 0.283539
0.557220 0.461426 0.329773
0.535645 0.439880 0.308228
0.532593 0.436798 0.305145
0.529541 0.433777 0.302094
0.526489 0.430725 0.299042
0.572693 0.476929 0.345276
0.618927 0.523163 0.391510
0.665161 0.569366 0.437714
0.692841 0.597076 0.465424
0.689789 0.594025 0.462372
0.686737 0.590973 0.459290
0.683685 0.587921 0.456238
0.680634 0.584869 0.453217
0.726898 0.631104 0.499451
0.773102 0.677307 0.545654
0.850067 0.754303 0.622620
0.847015 0.751251 0.619598
0.843994 0.748230 0.616547
0.840912 0.745148 0.613464
0.837860 0.742096 0.610443
0.834839 0.739044 0.607391
0.881073 0.785309 0.653625
1.000000 0.912842 0.792969
1.000000 0.909271 0.784454
1.000000 0.905701 0.775970
0.998169 0.902405 0.770721
0.995087 0.899323 0.767670
0.992065 0.896271 0.764618
0.989014 0.893250 0.761566
0.086273 0.086273 0.086273
0.086273 0.086273 0.086273
0.086273 0.086273 0.086273
0.126526 0.086273 0.086273
0.198547 0.107574 0.086273
0.248840 0.153076 0.086273
0.295044 0.199280 0.086273
0.086273 0.086273 0.086273
0.218140 0.122345 0.086273
0.264374 0.168610 0.086273
0.310577 0.214813 0.086273
0.356781 0.261017 0.129333
0.403015 0.307251 0.175598
0.449219 0.353455 0.221802
0.221161 0.125397 0.086273
0.375366 0.279572 0.147919
0.372314 0.276550 0.144867
0.418549 0.322784 0.191101
0.464752 0.368988 0.237305
0.510956 0.415192 0.283539
0.557220 0.461426 0.329773
0.378387 0.282623 0.150970
0.532593 0.436798 0.305145
0.529541 0.433777 0.302094
0.526489 0.430725 0.299042
0.572693 0.476929 0.345276
0.618927 0.523163 0.391510
0.665161 0.569366 0.437714
0.535614 0.439850 0.308197
0.689789 0.594025 0.462372
0.686737 0.590973 0.459290
0.683685 0.587921 0.456238
0.680634 0.584869 0.453217
0.726898 0.631104 0.499451
0.773102 0.677307 0.545654
0.692841 0.597076 0.465424
0.847015 0.751251 0.619598
0.843994 0.748230 0.616547
0.840912 0.745148 0.613464
0.837860 0.742096 0.610443
0.834839 0.739044 0.607391
0.881073 0.785309 0.653625
0.850067 0.754303 0.622620
1.000000 0.909271 0.784454
1.000000 0.905701 0.775970
0.998169 0.902405 0.770721
0.995087 0.899323 0.767670
0.992065 0.896271 0.764618
0.989014 0.893250 0.761566
0.086273 0.086273 0.086273
0.086273 0.086273 0.086273
0.086273 0.086273 0.086273
0.086273 0.086273 0.086273
0.126526 0.086273 0.086273
0.198547 0.107574 0.086273
0.248840 0.153076 0.086273
0.086273 0.086273 0.086273
0.218140 0.122345 0.086273
0.218140 0.122345 0.086273
0.264374 0.168610 0.086273
0.310577 0.214813 0.086273
0.356781 0.261017 0.129333
0.403015 0.307251 0.175598
0.086273 0.086273 0.086273
0.218140 0.122345 0.086273
0.372314 0.276550 0.144867
0.418549 0.322784 0.191101
0.464752 0.368988 0.237305
0.510956 0.415192 0.283539
0.557220 0.461426 0.329773
0.221161 0.125397 0.086273
0.375366 0.279572 0.147919
0.529541 0.433777 0.302094
0.526489 0.430725 0.299042
0.572693 0.476929 0.345276
0.618927 0.523163 0.391510
0.665161 0.569366 0.437714
0.378357 0.282593 0.150940
0.532532 0.436768 0.305115
0.686737 0.590973 0.459290
0.683685 0.587921 0.456238
0.680634 0.584869 0.453217
0.726898 0.631104 0.499451
0.773102 0.677307 0.545654
0.535614 0.439850 0.308197
0.689789 0.594025 0.462372
0.843994 0.748230 0.616547
0.840912 0.745148 0.613464
0.837860 0.742096 0.610443
0.834839 0.739044 0.607391
0.881073 0.785309 0.653625
0.692841 0.597076 0.465424
0.847015 0.751251 0.619598
1.000000 0.905701 0.775970
0.998169 0.902405 0.770721
0.995087 0.899323 0.767670
0.992065 0.896271 0.764618
0.989014 0.893250 0.761566
0.086273 0.086273 0.086273
0.086273 0.086273 0.086273
0.086273 0.086273 0.086273
0.086273 0.086273 0.086273
0.086273 0.086273 0.086273
0.126526 0.086273 0.086273
0.198547 0.107574 0.086273
0.086273 0.086273 0.086273
0.218140 0.122345 0.086273
0.218140 0.122345 0.086273
0.218140 0.122345 0.086273
0.264343 0.168579 0.086273
0.310577 0.214813 0.086273
0.356781 0.261017 0.129333
0.086273 0.086273 0.086273
0.218140 0.122345 0.086273
0.372314 0.276550 0.144867
0.372314 0.276550 0.144867
0.418518 0.322754 0.191071
0.464752 0.368988 0.237305
0.510956 0.415192 0.283539
0.086273 0.086273 0.086273
0.218140 0.122345 0.086273
0.372314 0.276550 0.144867
0.526489 0.430725 0.299042
0.572693 0.476929 0.345276
0.618927 0.523163 0.391510
0.665161 0.569366 0.437714
0.221130 0.125366 0.086273
0.375336 0.279541 0.147888
0.529510 0.433746 0.302063
0.683685 0.587921 0.456238
0.680634 0.584869 0.453217
0.726898 0.631104 0.499451
0.773102 0.677307 0.545654
0.378357 0.282593 0.150940
0.532532 0.436768 0.305115
0.686737 0.590973 0.459290
0.840912 0.745148 0.613464
0.837860 0.742096 0.610443
0.834839 0.739044 0.607391
0.881073 0.785309 0.653625
0.535614 0.439850 0.308197
0.689789 0.594025 0.462372
0.843994 0.748230 0.616547
0.998169 0.902405 0.770721
0.995087 0.899323 0.767670
0.992065 0.896271 0.764618
0.989014 0.893250 0.761566
0.086273 0.086273 0.086273
0.086273 0.086273 0.086273
0.086273 0.086273 0.086273
0.086273 0.086273 0.086273
0.086273 0.086273 0.086273
0.086273 0.086273 0.086273
0.126526 0.086273 0.086273
0.086273 0.086273 0.086273
0.218140 0.122345 0.086273
0.218140 0.122345 0.086273
0.218140 0.122345 0.086273
0.218140 0.122345 0.086273
0.264374 0.168610 0.086273
0.310577 0.214813 0.086273
0.086273 0.086273 0.086273
0.218140 0.122345 0.086273
0.372314 0.276550 0.144867
0.372314 0.276550 0.144867
0.372314 0.276550 0.144867
0.418549 0.322784 0.191101
0.464752 0.368988 0.237305
0.086273 0.086273 0.086273
0.218140 0.122345 0.086273
0.372314 0.276550 0.144867
0.526489 0.430725 0.299042
0.526489 0.430725 0.299042
0.572723 0.476959 0.345306
0.618927 0.523163 0.391510
0.086273 0.086273 0.086273
0.218140 0.122345 0.086273
0.372314 0.276550 0.144867
0.526489 0.430725 0.299042
0.680634 0.584869 0.453217
0.726898 0.631104 0.499451
0.773102 0.677307 0.545654
0.221161 0.125397 0.086273
0.375366 0.279572 0.147919
0.529541 0.433777 0.302094
0.683716 0.587952 0.456268
0.837860 0.742096 0.610443
0.834839 0.739044 0.607391
0.881073 0.785309 0.653625
0.378387 0.282623 0.150970
0.532593 0.436798 0.305145
0.686768 0.591003 0.459320
0.840942 0.745178 0.613495
0.995087 0.899323 0.767670
0.992065 0.896271 0.764618
0.989014 0.893250 0.761566
0.086273 0.086273 0.086273
0.086273 0.086273 0.086273
0.086273 0.086273 0.086273
0.086273 0.086273 0.086273
0.086273 0.086273 0.086273
0.086273 0.086273 0.086273
0.086273 0.086273 0.086273
0.086273 0.086273 0.086273
0.218140 0.122345 0.086273
0.218140 0.122345 0.086273
0.218140 0.122345 0.086273
0.218140 0.122345 0.086273
0.218140 0.122345 0.086273
0.264374 0.168610 0.086273
0.086273 0.086273 0.086273
0.218140 0.122345 0.086273
0.372314 0.276550 0.144867
0.372314 0.276550 0.144867
0.372314 0.276550 0.144867
0.372314 0.276550 0.144867
0.418549 0.322784 0.191101
0.086273 0.086273 0.086273
0.218140 0.122345 0.086273
0.372314 0.276550 0.144867
0.526489 0.430725 0.299042
0.526489 0.430725 0.299042
0.526489 0.430725 0.299042
0.572723 0.476959 0.345306
0.086273 0.086273 0.086273
0.218140 0.122345 0.086273
0.372314 0.276550 0.144867
0.526489 0.430725 0.299042
0.680634 0.584869 0.453217
0.680634 0.584869 0.453217
0.726898 0.631104 0.499451
0.086273 0.086273 0.086273
0.218140 0.122345 0.086273
0.372314 0.276550 0.144867
0.526489 0.430725 0.299042
0.680634 0.584869 0.453217
0.834839 0.739044 0.607391
0.881073 0.785309 0.653625
0.221161 0.125397 0.086273
0.375366 0.279572 0.147919
0.529541 0.433777 0.302094
0.683716 0.587952 0.456268
0.837860 0.742096 0.610443
0.992065 0.896271 0.764618
0.989014 0.893250 0.761566
0.086273 0.086273 0.086273
0.086273 0.086273 0.086273
0.086273 0.086273 0.086273
0.086273 0.086273 0.086273
0.086273 0.086273 0.086273
0.086273 0.086273 0.086273
0.086273 0.086273 0.086273
0.086273 0.086273 0.086273
0.218140 0.122345 0.086273
0.218140 0.122345 0.086273
0.218140 0.122345 0.086273
0.218140 0.122345 0.086273
0.218140 0.122345 0.086273
0.218140 0.122345 0.086273
0.086273 0.086273 0.086273
0.218140 0.122345 0.086273
0.372314 0.276550 0.144867
0.372314 0.276550 0.144867
0.372314 0.276550 0.144867
0.372314 0.276550 0.144867
0.372314 0.276550 0.144867
0.086273 0.086273 0.086273
0.218140 0.122345 0.086273
0.372314 0.276550 0.144867
0.526489 0.430725 0.299042
0.526489 0.430725 0.299042
0.526489 0.430725 0.299042
0.526489 0.430725 0.299042
0.086273 0.086273 0.086273
0.218140 0.122345 0.086273
0.372314 0.276550 0.144867
0.526489 0.430725 0.299042
0.680634 0.584869 0.453217
0.680634 0.584869 0.453217
0.680634 0.584869 0.453217
0.086273 0.086273 0.086273
0.218140 0.122345 0.086273
0.372314 0.276550 0.144867
0.526489 0.430725 0.299042
0.680634 0.584869 0.453217
0.834839 0.739044 0.607391
0.834839 0.739044 0.607391
0.086273 0.086273 0.086273
0.218140 0.122345 0.086273
0.372314 0.276550 0.144867
0.526489 0.430725 0.299042
0.680634 0.584869 0.453217
0.834839 0.739044 0.607391
0.989014 0.893250 0.761566
