other luts/实验工艺系列/蛋白银盐法3.cube
#Created by: Adobe Photoshop Export Color Lookup Plugin
#Copyright: (C) Copyright 2026 汉图
TITLE "实验工艺"
#LUT size
LUT_3D_SIZE 34
#data domain
DOMAIN_MIN 0.0 0.0 0.0
DOMAIN_MAX 1.0 1.0 1.0
#LUT data points
0.086273 0.086273 0.086273
0.086273 0.086273 0.086273
0.086273 0.086273 0.086273
0.086273 0.086273 0.086273
0.086273 0.086273 0.086273
0.093353 0.086273 0.086273
0.102570 0.086273 0.086273
0.111816 0.086273 0.086273
0.121094 0.086273 0.086273
0.130310 0.086273 0.086273
0.139557 0.086273 0.086273
0.148804 0.086273 0.086273
0.158051 0.086273 0.086273
0.167297 0.086273 0.086273
0.176544 0.086273 0.086273
0.185791 0.093994 0.090027
0.195038 0.103241 0.099243
0.204285 0.112488 0.108521
0.213501 0.121704 0.117737
0.222748 0.130951 0.126984
0.232025 0.140228 0.136230
0.241272 0.149475 0.145477
0.250488 0.158691 0.154724
0.259735 0.167938 0.163971
0.268982 0.177185 0.173218
0.278229 0.186432 0.182434
0.287476 0.195679 0.191711
0.296722 0.204926 0.200958
0.305939 0.214142 0.210175
0.315216 0.223419 0.219421
0.324463 0.232666 0.228699
0.333710 0.241913 0.237946
0.342926 0.251129 0.247162
0.352173 0.260406 0.256409
0.086273 0.086273 0.086273
0.086273 0.086273 0.086273
0.087219 0.086273 0.086273
0.096436 0.086273 0.086273
0.105682 0.086273 0.086273
0.114929 0.086273 0.086273
0.124207 0.086273 0.086273
0.133423 0.086273 0.086273
0.142670 0.086273 0.086273
0.151917 0.086273 0.086273
0.161133 0.086273 0.086273
0.170410 0.086273 0.086273
0.179657 0.087860 0.086273
0.188873 0.097076 0.093109
0.198120 0.106323 0.102356
0.207397 0.115601 0.111603
0.216644 0.124847 0.120880
0.225861 0.134064 0.130096
0.235107 0.143311 0.139343
0.244324 0.152557 0.148560
0.253601 0.161804 0.157806
0.262848 0.171051 0.167084
0.272095 0.180298 0.176331
0.281311 0.189514 0.185547
0.290588 0.198792 0.194794
0.299835 0.208038 0.204071
0.309052 0.217255 0.213287
0.318298 0.226501 0.222534
0.327545 0.235779 0.231781
0.336792 0.244995 0.241028
0.346039 0.254242 0.250275
0.355286 0.263489 0.259521
0.364532 0.272766 0.268768
0.373779 0.281982 0.278015
0.109985 0.086273 0.086273
0.109406 0.086273 0.086273
0.108795 0.086273 0.086273
0.118042 0.086273 0.086273
0.127258 0.086273 0.086273
0.136505 0.086273 0.086273
0.145782 0.086273 0.086273
0.155029 0.086273 0.086273
0.164246 0.086273 0.086273
0.173492 0.086273 0.086273
0.182770 0.090973 0.086975
0.191986 0.100189 0.096222
0.201233 0.109436 0.105469
0.210480 0.118683 0.114716
0.219696 0.127930 0.123932
0.228973 0.137177 0.133209
0.238220 0.146423 0.142456
0.247437 0.155640 0.151672
0.256683 0.164917 0.160919
0.265961 0.174164 0.170197
0.275177 0.183380 0.179413
0.284424 0.192627 0.188660
0.293671 0.201874 0.197906
0.302948 0.211151 0.207153
0.312164 0.220367 0.216400
0.321411 0.229614 0.225647
0.330658 0.238861 0.234894
0.339905 0.248108 0.244110
0.349152 0.257355 0.253387
0.358398 0.266602 0.262634
0.367615 0.275818 0.271851
0.376862 0.285065 0.281097
0.386139 0.294342 0.290375
0.395386 0.303589 0.299622
0.141449 0.086273 0.086273
0.140839 0.086273 0.086273
0.140259 0.086273 0.086273
0.139618 0.086273 0.086273
0.148865 0.086273 0.086273
0.158112 0.086273 0.086273
0.167358 0.086273 0.086273
0.176605 0.086273 0.086273
0.185852 0.094055 0.090088
0.195099 0.103302 0.099304
0.204346 0.112549 0.108582
0.213593 0.121796 0.117828
0.222809 0.131012 0.127045
0.232086 0.140289 0.136292
0.241333 0.149536 0.145569
0.250549 0.158752 0.154785
0.259796 0.167999 0.164032
0.269043 0.177246 0.173279
0.278290 0.186493 0.182495
0.287537 0.195740 0.191772
0.296783 0.204987 0.201019
0.306000 0.214203 0.210236
0.315277 0.223480 0.219482
0.324524 0.232727 0.228760
0.333771 0.241974 0.238007
0.342987 0.251190 0.247223
0.352264 0.260468 0.256470
0.361511 0.269714 0.265717
0.370728 0.278931 0.274963
0.379974 0.288177 0.284210
0.389221 0.297424 0.293457
0.398468 0.306671 0.302673
0.407715 0.315918 0.311951
0.416962 0.325165 0.321198
0.172913 0.086273 0.086273
0.172302 0.086273 0.086273
0.171661 0.086273 0.086273
0.171082 0.086273 0.086273
0.170471 0.086273 0.086273
0.179718 0.087921 0.086273
0.188934 0.097137 0.093170
0.198181 0.106384 0.102417
0.207458 0.115662 0.111664
0.216705 0.124908 0.120941
0.225922 0.134125 0.130157
0.235168 0.143372 0.139404
0.244446 0.152649 0.148651
0.253662 0.161865 0.157867
0.262909 0.171112 0.167145
0.272156 0.180359 0.176392
0.281372 0.189575 0.185608
0.290649 0.198853 0.194855
0.299896 0.208099 0.204132
0.309113 0.217316 0.213348
0.318359 0.226562 0.222595
0.327637 0.235840 0.231842
0.336853 0.245056 0.241089
0.346100 0.254303 0.250336
0.355347 0.263550 0.259583
0.364594 0.272827 0.268829
0.373840 0.282043 0.278076
0.383087 0.291290 0.287323
0.392334 0.300537 0.296570
0.401550 0.309784 0.305786
0.410828 0.319031 0.315033
0.420074 0.328278 0.324310
0.429291 0.337494 0.333527
0.438538 0.346741 0.342773
0.204346 0.112549 0.108582
0.203735 0.111938 0.107971
0.203125 0.111328 0.107361
0.202515 0.110718 0.106750
0.201935 0.110107 0.106140
0.201294 0.109497 0.105530
0.210541 0.118744 0.114777
0.219757 0.127991 0.123993
0.229034 0.137238 0.133270
0.238281 0.146484 0.142517
0.247528 0.155731 0.151764
0.256744 0.164978 0.160980
0.266022 0.174225 0.170258
0.275269 0.183472 0.179504
0.284485 0.192688 0.188721
0.293732 0.201965 0.197968
0.303009 0.211212 0.207214
0.312225 0.220428 0.216461
0.321472 0.229675 0.225708
0.330719 0.238922 0.234955
0.339966 0.248169 0.244171
0.349213 0.257416 0.253448
0.358459 0.266663 0.262695
0.367676 0.275879 0.271912
0.376923 0.285156 0.281158
0.386200 0.294403 0.290436
0.395447 0.303650 0.299683
0.404663 0.312866 0.308899
0.413910 0.322113 0.318146
0.423187 0.331390 0.327393
0.432404 0.340607 0.336639
0.441650 0.349854 0.345886
0.450897 0.359100 0.355133
0.460144 0.368347 0.364349
0.235809 0.144012 0.140015
0.235168 0.143372 0.139404
0.234589 0.142792 0.138824
0.233978 0.142181 0.138184
0.233337 0.141541 0.137573
0.232758 0.140961 0.136993
0.232147 0.140350 0.136353
0.241394 0.149597 0.145630
0.250610 0.158813 0.154846
0.259857 0.168060 0.164093
0.269104 0.177338 0.173340
0.278381 0.186584 0.182617
0.287598 0.195801 0.191833
0.296844 0.205048 0.201080
0.306091 0.214294 0.210327
0.315338 0.223541 0.219543
0.324585 0.232788 0.228821
0.333801 0.242004 0.238037
0.343048 0.251251 0.247284
0.352325 0.260529 0.256531
0.361572 0.269775 0.265808
0.370789 0.278992 0.275024
0.380035 0.288239 0.284271
0.389282 0.297485 0.293518
0.398529 0.306732 0.302734
0.407776 0.315979 0.312012
0.417023 0.325226 0.321259
0.426270 0.334473 0.330505
0.435516 0.343719 0.339722
0.444763 0.352966 0.348999
0.454010 0.362213 0.358246
0.463226 0.371429 0.367462
0.472504 0.380707 0.376709
0.481750 0.389954 0.385986
0.267212 0.175415 0.171448
0.266632 0.174835 0.170868
0.266022 0.174225 0.170258
0.265411 0.173615 0.169647
0.264801 0.173004 0.169037
0.264191 0.172394 0.168427
0.263580 0.171783 0.167816
0.262970 0.171173 0.167206
0.272217 0.180420 0.176453
0.281433 0.189636 0.185669
0.290710 0.198914 0.194916
0.299957 0.208160 0.204193
0.309204 0.217407 0.213440
0.318420 0.226624 0.222656
0.327698 0.235901 0.231903
0.336945 0.245148 0.241180
0.346161 0.254364 0.250397
0.355408 0.263611 0.259644
0.364655 0.272858 0.268860
0.373901 0.282104 0.278137
0.383148 0.291351 0.287384
0.392395 0.300598 0.296631
0.401611 0.309845 0.305847
0.410889 0.319092 0.315094
0.420135 0.328339 0.324371
0.429352 0.337555 0.333588
0.438599 0.346802 0.342834
0.447876 0.356079 0.352081
0.457123 0.365326 0.361359
0.466339 0.374542 0.370575
0.475586 0.383789 0.379822
0.484833 0.393066 0.389069
0.494080 0.402283 0.398315
0.503326 0.411530 0.407562
0.298676 0.206879 0.202911
0.298065 0.206268 0.202301
0.297455 0.205688 0.201691
0.296844 0.205048 0.201080
0.296265 0.204468 0.200500
0.295624 0.203827 0.199860
0.295013 0.203217 0.199249
0.294434 0.202637 0.198669
0.293793 0.202026 0.198029
0.303070 0.211273 0.207275
0.312286 0.220490 0.216522
0.321533 0.229736 0.225769
0.330780 0.238983 0.235016
0.340057 0.248260 0.244263
0.349274 0.257477 0.253510
0.358521 0.266724 0.262756
0.367767 0.275970 0.272003
0.376984 0.285217 0.281219
0.386261 0.294464 0.290497
0.395477 0.303680 0.299713
0.404724 0.312927 0.308960
0.413971 0.322205 0.318207
0.423248 0.331451 0.327454
0.432465 0.340668 0.336700
0.441711 0.349915 0.345947
0.450958 0.359161 0.355194
0.460205 0.368408 0.364410
0.469452 0.377655 0.373688
0.478699 0.386902 0.382935
0.487946 0.396149 0.392181
0.497162 0.405396 0.401398
0.506439 0.414642 0.410675
0.515686 0.423889 0.419922
0.524902 0.433105 0.429138
0.330139 0.238342 0.234375
0.329529 0.237732 0.233734
0.328888 0.237091 0.233124
0.328308 0.236511 0.232544
0.327698 0.235901 0.231903
0.327087 0.235291 0.231323
0.326477 0.234680 0.230713
0.325867 0.234070 0.230072
0.325256 0.233459 0.229492
0.324646 0.232849 0.228882
0.333893 0.242096 0.238129
0.343109 0.251312 0.247345
0.352386 0.260590 0.256592
0.361633 0.269836 0.265869
0.370880 0.279083 0.275116
0.380096 0.288300 0.284332
0.389343 0.297577 0.293579
0.398590 0.306793 0.302826
0.407837 0.316040 0.312073
0.417084 0.325287 0.321320
0.426300 0.334503 0.330536
0.435577 0.343781 0.339813
0.444824 0.353027 0.349060
0.454071 0.362274 0.358307
0.463287 0.371490 0.367523
0.472565 0.380768 0.376770
0.481812 0.390015 0.386047
0.491028 0.399231 0.395264
0.500275 0.408478 0.404510
0.509552 0.417755 0.413757
0.518799 0.427002 0.423035
0.528015 0.436218 0.432251
0.537262 0.445465 0.441498
0.546509 0.454712 0.450745
0.361572 0.269775 0.265808
0.360962 0.269165 0.265198
0.360352 0.268555 0.264587
0.359741 0.267944 0.263977
0.359131 0.267334 0.263367
0.358521 0.266724 0.262756
0.357941 0.266144 0.262177
0.357300 0.265503 0.261536
0.356689 0.264893 0.260925
0.356110 0.264313 0.260345
0.355469 0.263672 0.259705
0.364746 0.272949 0.268951
0.373962 0.282166 0.278198
0.383209 0.291412 0.287445
0.392456 0.300659 0.296692
0.401733 0.309937 0.305939
0.410950 0.319153 0.315155
0.420197 0.328400 0.324432
0.429413 0.337616 0.333649
0.438660 0.346863 0.342896
0.447937 0.356140 0.352142
0.457153 0.365356 0.361389
0.466400 0.374603 0.370636
0.475647 0.383850 0.379883
0.484924 0.393127 0.389130
0.494141 0.402344 0.398376
0.503387 0.411591 0.407623
0.512634 0.420837 0.416870
0.521851 0.430084 0.426086
0.531128 0.439331 0.435333
0.540375 0.448578 0.444611
0.549622 0.457825 0.453857
0.558838 0.467041 0.463074
0.568115 0.476318 0.472321
0.393036 0.301239 0.297241
0.392395 0.300598 0.296631
0.391815 0.300018 0.296051
0.391174 0.299408 0.295410
0.390564 0.298767 0.294800
0.389984 0.298187 0.294220
0.389343 0.297577 0.293579
0.388763 0.296967 0.292999
0.388153 0.296356 0.292389
0.387543 0.295715 0.291748
0.386932 0.295135 0.291168
0.386322 0.294525 0.290558
0.395569 0.303772 0.299805
0.404785 0.312988 0.309021
0.414032 0.322266 0.318268
0.423309 0.331512 0.327515
0.432556 0.340759 0.336792
0.441772 0.349976 0.346008
0.451019 0.359222 0.355255
0.460266 0.368469 0.364471
0.469513 0.377716 0.373749
0.478760 0.386963 0.382996
0.487976 0.396179 0.392212
0.497223 0.405457 0.401459
0.506500 0.414703 0.410736
0.515747 0.423950 0.419983
0.524963 0.433167 0.429199
0.534210 0.442444 0.438446
0.543488 0.451691 0.447723
0.552704 0.460907 0.456940
0.561951 0.470154 0.466187
0.571198 0.479431 0.475433
0.580475 0.488678 0.484680
0.589691 0.497894 0.493927
0.424469 0.332672 0.328705
0.423859 0.332062 0.328094
0.423248 0.331451 0.327454
0.422638 0.330841 0.326874
0.422028 0.330231 0.326263
0.421417 0.329620 0.325653
0.420807 0.329010 0.325043
0.420197 0.328400 0.324432
0.419617 0.327820 0.323822
0.418976 0.327179 0.323212
0.418365 0.326569 0.322601
0.417786 0.325989 0.321991
0.417145 0.325348 0.321381
0.426392 0.334625 0.330627
0.435638 0.343842 0.339874
0.444885 0.353088 0.349121
0.454132 0.362335 0.358368
0.463348 0.371552 0.367584
0.472626 0.380829 0.376831
0.481873 0.390076 0.386108
0.491089 0.399292 0.395325
0.500336 0.408539 0.404572
0.509613 0.417816 0.413818
0.518829 0.427032 0.423065
0.528076 0.436279 0.432312
0.537323 0.445526 0.441559
0.546570 0.454773 0.450806
0.555817 0.464020 0.460052
0.565063 0.473267 0.469299
0.574310 0.482513 0.478546
0.583527 0.491730 0.487762
0.592804 0.501007 0.497009
0.602051 0.510254 0.506287
0.611298 0.519501 0.515533
0.455902 0.364105 0.360138
0.455322 0.363525 0.359558
0.454681 0.362915 0.358917
0.454071 0.362274 0.358307
0.453491 0.361694 0.357727
0.452850 0.361053 0.357086
0.452240 0.360443 0.356476
0.451660 0.359863 0.355896
0.451019 0.359222 0.355255
0.450439 0.358643 0.354675
0.449829 0.358032 0.354065
0.449188 0.357391 0.353424
0.448608 0.356812 0.352844
0.447998 0.356201 0.352234
0.457245 0.365448 0.361481
0.466461 0.374664 0.370697
0.475708 0.383911 0.379944
0.484985 0.393188 0.389191
0.494202 0.402405 0.398438
0.503448 0.411652 0.407684
0.512695 0.420898 0.416931
0.521942 0.430145 0.426147
0.531189 0.439392 0.435394
0.540436 0.448639 0.444672
0.549652 0.457855 0.453888
0.558899 0.467102 0.463135
0.568176 0.476379 0.472382
0.577423 0.485626 0.481659
0.586639 0.494843 0.490875
0.595886 0.504089 0.500122
0.605164 0.513367 0.509369
0.614380 0.522583 0.518616
0.623627 0.531830 0.527863
0.632874 0.541077 0.537109
0.487366 0.395569 0.391602
0.486755 0.394958 0.390961
0.486145 0.394348 0.390381
0.485535 0.393738 0.389771
0.484924 0.393127 0.389130
0.484314 0.392517 0.388550
0.483704 0.391907 0.387939
0.483063 0.391296 0.387299
0.482483 0.390686 0.386719
0.481873 0.390076 0.386108
0.481262 0.389496 0.385498
0.480652 0.388855 0.384888
0.480042 0.388245 0.384277
0.479462 0.387665 0.383667
0.478821 0.387024 0.383057
0.488068 0.396271 0.392303
0.497314 0.405518 0.401520
0.506561 0.414764 0.410797
0.515808 0.424011 0.420044
0.525024 0.433228 0.429260
0.534271 0.442505 0.438507
0.543549 0.451752 0.447784
0.552765 0.460968 0.457001
0.562012 0.470215 0.466248
0.571259 0.479492 0.475494
0.580505 0.488708 0.484711
0.589752 0.497955 0.493988
0.598999 0.507202 0.503235
0.608246 0.516449 0.512482
0.617493 0.525696 0.521698
0.626740 0.534943 0.530975
0.635986 0.544189 0.540222
0.645203 0.553406 0.549438
0.654449 0.562683 0.558685
0.518829 0.427032 0.423065
0.518188 0.426392 0.422424
0.517578 0.425781 0.421814
0.516998 0.425201 0.421204
0.516357 0.424561 0.420593
0.515747 0.423950 0.419983
0.515167 0.423370 0.419373
0.514526 0.422729 0.418762
0.513916 0.422119 0.418152
0.513336 0.421539 0.417572
0.512695 0.420898 0.416931
0.512115 0.420319 0.416351
0.511505 0.419708 0.415710
0.510864 0.419067 0.415100
0.510284 0.418488 0.414520
0.509674 0.417877 0.413879
0.518921 0.427124 0.423157
0.528137 0.436340 0.432373
0.537384 0.445587 0.441620
0.546631 0.454865 0.450867
0.555878 0.464081 0.460114
0.565125 0.473328 0.469360
0.574371 0.482574 0.478607
0.583588 0.491791 0.487823
0.592865 0.501068 0.497070
0.602112 0.510315 0.506348
0.611328 0.519531 0.515564
0.620575 0.528778 0.524811
0.629852 0.538055 0.534058
0.639099 0.547302 0.543335
0.648315 0.556519 0.552551
0.657562 0.565765 0.561798
0.666840 0.575012 0.571045
0.676056 0.584259 0.580292
0.550262 0.458466 0.454468
0.549652 0.457855 0.453888
0.549042 0.457245 0.453278
0.548401 0.456635 0.452637
0.547821 0.456024 0.452057
0.547211 0.455414 0.451447
0.546570 0.454773 0.450806
0.545990 0.454193 0.450226
0.545380 0.453583 0.449615
0.544739 0.452942 0.448975
0.544159 0.452362 0.448395
0.543549 0.451752 0.447784
0.542938 0.451141 0.447174
0.542328 0.450531 0.446564
0.541718 0.449921 0.445953
0.541107 0.449310 0.445343
0.540497 0.448700 0.444733
0.549713 0.457916 0.453949
0.558960 0.467163 0.463196
0.568237 0.476440 0.472473
0.577484 0.485687 0.481720
0.586700 0.494904 0.490936
0.595947 0.504150 0.500183
0.605225 0.513428 0.509430
0.614441 0.522644 0.518677
0.623688 0.531891 0.527924
0.632935 0.541138 0.537170
0.642181 0.550385 0.546387
0.651428 0.559631 0.555664
0.660675 0.568878 0.564911
0.669922 0.578125 0.574158
0.679169 0.587372 0.583374
0.688416 0.596619 0.592621
0.697662 0.605865 0.601898
0.581665 0.489868 0.485901
0.581055 0.489258 0.485291
0.580475 0.488678 0.484680
0.579834 0.488037 0.484070
0.579224 0.487427 0.483459
0.578644 0.486847 0.482849
0.578003 0.486206 0.482239
0.577393 0.485596 0.481628
0.576813 0.485016 0.481018
0.576172 0.484375 0.480408
0.575562 0.483765 0.479797
0.574951 0.483185 0.479187
0.574341 0.482544 0.478577
0.573761 0.481964 0.477997
0.573151 0.481323 0.477356
0.572510 0.480713 0.476746
0.571930 0.480133 0.476166
0.571289 0.479523 0.475525
0.580566 0.488770 0.484772
0.589783 0.497986 0.494019
0.599030 0.507233 0.503265
0.608276 0.516479 0.512512
0.617554 0.525757 0.521759
0.626770 0.534973 0.531006
0.636017 0.544220 0.540253
0.645264 0.553467 0.549500
0.654480 0.562714 0.558716
0.663757 0.571960 0.567993
0.673004 0.581207 0.577240
0.682220 0.590424 0.586456
0.691467 0.599701 0.595703
0.700745 0.608948 0.604980
0.709991 0.618195 0.614227
0.719208 0.627411 0.623444
0.613098 0.521301 0.517334
0.612518 0.520721 0.516754
0.611877 0.520081 0.516113
0.611298 0.519501 0.515533
0.610687 0.518890 0.514893
0.610046 0.518250 0.514282
0.609467 0.517670 0.513702
0.608856 0.517059 0.513062
0.608215 0.516418 0.512451
0.607635 0.515839 0.511871
0.607025 0.515228 0.511261
0.606384 0.514587 0.510620
0.605804 0.514008 0.510040
0.605194 0.513397 0.509399
0.604584 0.512787 0.508820
0.603973 0.512177 0.508209
0.603363 0.511566 0.507568
0.602753 0.510956 0.506989
0.602142 0.510345 0.506378
0.611389 0.519592 0.515625
0.620605 0.528809 0.524841
0.629883 0.538086 0.534088
0.639130 0.547333 0.543365
0.648376 0.556580 0.552612
0.657593 0.565796 0.561829
0.666870 0.575073 0.571075
0.676117 0.584320 0.580353
0.685333 0.593536 0.589569
0.694580 0.602783 0.598816
0.703827 0.612030 0.608063
0.713074 0.621277 0.617310
0.722321 0.630524 0.626556
0.731567 0.639771 0.635803
0.740814 0.649017 0.645050
0.644562 0.552765 0.548798
0.643951 0.552155 0.548157
0.643341 0.551544 0.547577
0.642731 0.550934 0.546967
0.642151 0.550354 0.546356
0.641510 0.549713 0.545746
0.640900 0.549103 0.545135
0.640289 0.548523 0.544525
0.639679 0.547882 0.543915
0.639069 0.547272 0.543304
0.638458 0.546661 0.542694
0.637848 0.546051 0.542084
0.637238 0.545441 0.541473
0.636627 0.544830 0.540863
0.636017 0.544220 0.540253
0.635437 0.543640 0.539673
0.634796 0.543030 0.539032
0.634186 0.542389 0.538422
0.633606 0.541809 0.537842
0.632965 0.541168 0.537201
0.642242 0.550446 0.546448
0.651459 0.559662 0.555695
0.660706 0.568909 0.564941
0.669952 0.578156 0.574188
0.679230 0.587433 0.583435
0.688446 0.596649 0.592651
0.697693 0.605896 0.601929
0.706940 0.615143 0.611176
0.716156 0.624359 0.620392
0.725433 0.633636 0.629639
0.734680 0.642883 0.638916
0.743896 0.652100 0.648132
0.753143 0.661346 0.657379
0.762421 0.670624 0.666626
0.676025 0.584229 0.580231
0.675385 0.583588 0.579620
0.674774 0.582977 0.579010
0.674194 0.582397 0.578400
0.673553 0.581757 0.577789
0.672974 0.581177 0.577209
0.672363 0.580566 0.576569
0.671722 0.579926 0.575958
0.671143 0.579346 0.575378
0.670532 0.578735 0.574738
0.669891 0.578094 0.574127
0.669312 0.577515 0.573547
0.668671 0.576904 0.572906
0.668060 0.576263 0.572296
0.667480 0.575684 0.571716
0.666870 0.575073 0.571075
0.666260 0.574463 0.570496
0.665649 0.573853 0.569885
0.665039 0.573242 0.569244
0.664429 0.572632 0.568665
0.663818 0.572021 0.568054
0.673065 0.581268 0.577301
0.682281 0.590485 0.586517
0.691528 0.599762 0.595764
0.700806 0.609009 0.605042
0.710052 0.618256 0.614288
0.719269 0.627472 0.623505
0.728516 0.636719 0.632751
0.737793 0.645996 0.641998
0.747009 0.655212 0.651245
0.756256 0.664459 0.660492
0.765503 0.673706 0.669739
0.774750 0.682953 0.678955
0.783997 0.692200 0.688232
0.707428 0.615662 0.611664
0.706848 0.615051 0.611084
0.706238 0.614441 0.610474
0.705597 0.613831 0.609833
0.705017 0.613220 0.609253
0.704407 0.612610 0.608643
0.703796 0.612000 0.608032
0.703186 0.611389 0.607422
0.702576 0.610779 0.606781
0.701965 0.610168 0.606201
0.701355 0.609558 0.605591
0.700745 0.608948 0.604980
0.700134 0.608337 0.604370
0.699524 0.607727 0.603760
0.698914 0.607117 0.603149
0.698303 0.606506 0.602539
0.697693 0.605896 0.601929
0.697113 0.605316 0.601318
0.696472 0.604675 0.600708
0.695862 0.604065 0.600098
0.695282 0.603485 0.599487
0.694641 0.602844 0.598877
0.703888 0.612122 0.608124
0.713135 0.621338 0.617371
0.722382 0.630585 0.626617
0.731628 0.639832 0.635864
0.740875 0.649109 0.645111
0.750122 0.658325 0.654327
0.759369 0.667572 0.663605
0.768616 0.676819 0.672852
0.777832 0.686035 0.682068
0.787109 0.695312 0.691315
0.796356 0.704559 0.700592
0.805573 0.713776 0.709808
0.738892 0.647095 0.643127
0.738281 0.646484 0.642517
0.737701 0.645905 0.641907
0.737061 0.645264 0.641296
0.736450 0.644653 0.640686
0.735870 0.644073 0.640076
0.735229 0.643433 0.639465
0.734650 0.642853 0.638885
0.734009 0.642242 0.638245
0.733398 0.641602 0.637634
0.732819 0.641022 0.637054
0.732178 0.640411 0.636414
0.731567 0.639771 0.635803
0.730988 0.639191 0.635223
0.730347 0.638550 0.634583
0.729736 0.637939 0.633972
0.729156 0.637360 0.633392
0.728516 0.636719 0.632751
0.727936 0.636139 0.632172
0.727325 0.635529 0.631561
0.726685 0.634888 0.630920
0.726105 0.634308 0.630341
0.725494 0.633698 0.629730
0.734741 0.642944 0.638977
0.743958 0.652161 0.648193
0.753204 0.661407 0.657440
0.762482 0.670685 0.666687
0.771729 0.679932 0.675964
0.780945 0.689148 0.685181
0.790192 0.698395 0.694427
0.799469 0.707672 0.703674
0.808685 0.716888 0.712921
0.817932 0.726135 0.722168
0.827179 0.735382 0.731415
0.770355 0.678558 0.674591
0.769745 0.677948 0.673981
0.769104 0.677307 0.673340
0.768524 0.676727 0.672760
0.767914 0.676117 0.672119
0.767273 0.675476 0.671509
0.766693 0.674896 0.670929
0.766083 0.674286 0.670288
0.765472 0.673676 0.669708
0.764862 0.673065 0.669098
0.764252 0.672455 0.668457
0.763641 0.671844 0.667877
0.763031 0.671234 0.667267
0.762421 0.670624 0.666626
0.761810 0.670013 0.666046
0.761200 0.669403 0.665436
0.760559 0.668793 0.664795
0.759979 0.668182 0.664215
0.759369 0.667572 0.663605
0.758789 0.666992 0.662994
0.758148 0.666351 0.662384
0.757538 0.665741 0.661774
0.756958 0.665161 0.661163
0.756317 0.664520 0.660553
0.765564 0.673767 0.669800
0.774811 0.683014 0.679016
0.784058 0.692261 0.688293
0.793304 0.701508 0.697540
0.802551 0.710754 0.706787
0.811768 0.720001 0.716003
0.821045 0.729248 0.725281
0.830292 0.738495 0.734528
0.839508 0.747711 0.743744
0.848755 0.756989 0.752991
0.801788 0.709991 0.706024
0.801208 0.709412 0.705414
0.800568 0.708771 0.704803
0.799957 0.708160 0.704193
0.799347 0.707581 0.703583
0.798737 0.706940 0.702972
0.798126 0.706329 0.702362
0.797516 0.705750 0.701752
0.796906 0.705109 0.701141
0.796326 0.704529 0.700562
0.795685 0.703888 0.699921
0.795074 0.703278 0.699310
0.794495 0.702698 0.698700
0.793854 0.702057 0.698090
0.793243 0.701447 0.697479
0.792664 0.700867 0.696899
0.792023 0.700226 0.696259
0.791412 0.699615 0.695648
0.790833 0.699036 0.695068
0.790192 0.698395 0.694427
0.789612 0.697815 0.693848
0.789001 0.697205 0.693207
0.788361 0.696564 0.692596
0.787781 0.695984 0.692017
0.787170 0.695374 0.691376
0.796417 0.704620 0.700653
0.805634 0.713837 0.709869
0.814880 0.723083 0.719116
0.824127 0.732361 0.728363
0.833405 0.741608 0.737640
0.842621 0.750824 0.746857
0.851868 0.760071 0.756104
0.861115 0.769348 0.765350
0.870361 0.778564 0.774597
0.833252 0.741455 0.737457
0.832611 0.740814 0.736847
0.832031 0.740234 0.736267
0.831421 0.739624 0.735626
0.830780 0.738983 0.735016
0.830200 0.738403 0.734436
0.829590 0.737793 0.733795
0.828949 0.737152 0.733185
0.828369 0.736572 0.732605
0.827759 0.735962 0.731964
0.827148 0.735352 0.731384
0.826538 0.734741 0.730774
0.825897 0.734131 0.730133
0.825317 0.733521 0.729553
0.824707 0.732910 0.728943
0.824066 0.732269 0.728302
0.823486 0.731689 0.727722
0.822876 0.731079 0.727112
0.822235 0.730438 0.726471
0.821655 0.729858 0.725891
0.821045 0.729248 0.725281
0.820435 0.728668 0.724670
0.819824 0.728027 0.724060
0.819214 0.727417 0.723450
0.818604 0.726807 0.722839
0.817993 0.726196 0.722229
0.827240 0.735443 0.731476
0.836487 0.744659 0.740692
0.845734 0.753937 0.749969
0.854980 0.763184 0.759216
0.864227 0.772430 0.768463
