other luts/实验工艺系列/蛋白银盐法1.cube
#Created by: Adobe Photoshop Export Color Lookup Plugin
#Copyright: (C) Copyright 2026 汉图
TITLE "实验工艺"
#LUT size
LUT_3D_SIZE 34
#data domain
DOMAIN_MIN 0.0 0.0 0.0
DOMAIN_MAX 1.0 1.0 1.0
#LUT data points
0.086273 0.086273 0.086273
0.086273 0.086273 0.086273
0.086273 0.086273 0.086273
0.086273 0.086273 0.086273
0.086273 0.086273 0.086273
0.086273 0.086273 0.086273
0.096008 0.086273 0.086273
0.114960 0.086273 0.086273
0.133942 0.086273 0.086273
0.152832 0.086273 0.086273
0.170868 0.086273 0.086273
0.180115 0.086273 0.086273
0.189331 0.086273 0.086273
0.198608 0.086273 0.086273
0.207855 0.086273 0.086273
0.217102 0.089417 0.086273
0.226318 0.098633 0.086273
0.235565 0.107880 0.086273
0.244812 0.117096 0.086273
0.254059 0.126373 0.086273
0.263306 0.135620 0.086273
0.272552 0.144867 0.086273
0.281799 0.154083 0.094208
0.291046 0.163361 0.103485
0.300293 0.172607 0.112732
0.309509 0.181824 0.121948
0.318787 0.191071 0.131195
0.328033 0.200348 0.140472
0.337250 0.209564 0.149689
0.346497 0.218811 0.158936
0.355774 0.228058 0.168182
0.365021 0.237305 0.177460
0.374237 0.246552 0.186676
0.383484 0.255798 0.195923
0.086273 0.086273 0.086273
0.086273 0.086273 0.086273
0.086273 0.086273 0.086273
0.086273 0.086273 0.086273
0.102386 0.086273 0.086273
0.121338 0.086273 0.086273
0.140320 0.086273 0.086273
0.159180 0.086273 0.086273
0.173981 0.086273 0.086273
0.183228 0.086273 0.086273
0.192444 0.086273 0.086273
0.201691 0.086273 0.086273
0.210968 0.086273 0.086273
0.220184 0.092499 0.086273
0.229431 0.101746 0.086273
0.238678 0.110992 0.086273
0.247955 0.120239 0.086273
0.257172 0.129456 0.086273
0.266418 0.138733 0.086273
0.275635 0.147949 0.088074
0.284882 0.157196 0.097321
0.294159 0.166443 0.106598
0.303406 0.175720 0.115845
0.312622 0.184937 0.125061
0.321869 0.194183 0.134308
0.331146 0.203430 0.143555
0.340363 0.212677 0.152802
0.349609 0.221924 0.162048
0.358856 0.231171 0.171295
0.368073 0.240387 0.180511
0.377350 0.249634 0.189789
0.386597 0.258911 0.199036
0.395844 0.268158 0.208282
0.405060 0.277374 0.217499
0.111237 0.086273 0.086273
0.110016 0.086273 0.086273
0.108765 0.086273 0.086273
0.127686 0.086273 0.086273
0.146576 0.086273 0.086273
0.165558 0.086273 0.086273
0.177063 0.086273 0.086273
0.186340 0.086273 0.086273
0.195557 0.086273 0.086273
0.204803 0.086273 0.086273
0.214050 0.086365 0.086273
0.223297 0.095581 0.086273
0.232544 0.104858 0.086273
0.241791 0.114105 0.086273
0.251007 0.123322 0.086273
0.260254 0.132568 0.086273
0.269531 0.141815 0.086273
0.278748 0.151062 0.091187
0.287994 0.160309 0.100433
0.297241 0.169556 0.109680
0.306488 0.178772 0.118896
0.315735 0.188049 0.128174
0.324982 0.197296 0.137421
0.334229 0.206543 0.146667
0.343445 0.215759 0.155884
0.352722 0.225037 0.165161
0.361969 0.234283 0.174408
0.371185 0.243500 0.183624
0.380432 0.252747 0.192871
0.389709 0.261993 0.202148
0.398926 0.271240 0.211365
0.408173 0.280487 0.220612
0.417419 0.289734 0.229858
0.426697 0.298981 0.239105
0.172760 0.086273 0.086273
0.172150 0.086273 0.086273
0.171539 0.086273 0.086273
0.170929 0.086273 0.086273
0.180176 0.086273 0.086273
0.189392 0.086273 0.086273
0.198669 0.086273 0.086273
0.207916 0.086273 0.086273
0.217163 0.089478 0.086273
0.226379 0.098694 0.086273
0.235626 0.107941 0.086273
0.244904 0.117218 0.086273
0.254120 0.126434 0.086273
0.263367 0.135681 0.086273
0.272614 0.144928 0.086273
0.281860 0.154144 0.094269
0.291107 0.163422 0.103546
0.300354 0.172668 0.112793
0.309570 0.181885 0.122009
0.318848 0.191132 0.131256
0.328094 0.200409 0.140533
0.337311 0.209625 0.149750
0.346558 0.218872 0.158997
0.355835 0.228119 0.168243
0.365082 0.237366 0.177521
0.374298 0.246613 0.186737
0.383545 0.255859 0.195984
0.392792 0.265106 0.205231
0.402039 0.274323 0.214478
0.411285 0.283600 0.223724
0.420532 0.292847 0.232971
0.429749 0.302063 0.242188
0.439026 0.311310 0.251434
0.448273 0.320587 0.260712
0.204224 0.086273 0.086273
0.203583 0.086273 0.086273
0.202972 0.086273 0.086273
0.202393 0.086273 0.086273
0.201752 0.086273 0.086273
0.211029 0.086273 0.086273
0.220245 0.092560 0.086273
0.229492 0.101807 0.086273
0.238739 0.111053 0.086273
0.248016 0.120300 0.086273
0.257233 0.129517 0.086273
0.266479 0.138794 0.086273
0.275726 0.148041 0.088165
0.284943 0.157257 0.097382
0.294220 0.166504 0.106659
0.303467 0.175781 0.115906
0.312683 0.184998 0.125122
0.321930 0.194244 0.134369
0.331207 0.203491 0.143616
0.340424 0.212738 0.152863
0.349670 0.221985 0.162109
0.358917 0.231232 0.171356
0.368164 0.240448 0.180573
0.377411 0.249695 0.189850
0.386658 0.258972 0.199097
0.395905 0.268219 0.208344
0.405121 0.277435 0.217560
0.414398 0.286682 0.226837
0.423645 0.295959 0.236084
0.432861 0.305176 0.245300
0.442108 0.314423 0.254547
0.451385 0.323669 0.263824
0.460602 0.332916 0.273041
0.469849 0.342163 0.282288
0.235626 0.107941 0.086273
0.235046 0.107361 0.086273
0.234436 0.106750 0.086273
0.233795 0.106110 0.086273
0.233215 0.105530 0.086273
0.232605 0.104919 0.086273
0.241852 0.114166 0.086273
0.251068 0.123383 0.086273
0.260345 0.132629 0.086273
0.269592 0.141876 0.086273
0.278839 0.151154 0.091278
0.288055 0.160370 0.100494
0.297302 0.169617 0.109741
0.306580 0.178864 0.119019
0.315796 0.188110 0.128235
0.325043 0.197357 0.137482
0.334290 0.206604 0.146729
0.343536 0.215820 0.155945
0.352783 0.225098 0.165222
0.362030 0.234344 0.174469
0.371246 0.243561 0.183685
0.380493 0.252808 0.192932
0.389771 0.262085 0.202209
0.398987 0.271301 0.211426
0.408234 0.280548 0.220673
0.417480 0.289795 0.229919
0.426758 0.299042 0.239197
0.435974 0.308289 0.248413
0.445221 0.317535 0.257660
0.454468 0.326782 0.266907
0.463715 0.335999 0.276123
0.472961 0.345276 0.285400
0.482208 0.354523 0.294647
0.491425 0.363739 0.303864
0.267090 0.139404 0.086273
0.266479 0.138794 0.086273
0.265900 0.138184 0.086273
0.265259 0.137573 0.086273
0.264648 0.136963 0.086273
0.264069 0.136353 0.086273
0.263428 0.135742 0.086273
0.272675 0.144989 0.086273
0.281921 0.154236 0.094360
0.291168 0.163483 0.103607
0.300415 0.172729 0.112854
0.309662 0.181976 0.122101
0.318909 0.191193 0.131317
0.328156 0.200470 0.140594
0.337402 0.209717 0.149841
0.346619 0.218933 0.159058
0.355896 0.228180 0.168304
0.365112 0.237396 0.177551
0.374359 0.246674 0.186798
0.383606 0.255920 0.196045
0.392853 0.265167 0.205292
0.402100 0.274384 0.214539
0.411346 0.283661 0.223785
0.420593 0.292908 0.233032
0.429810 0.302124 0.242249
0.439087 0.311371 0.251495
0.448334 0.320648 0.260773
0.457581 0.329895 0.270020
0.466797 0.339111 0.279236
0.476074 0.348358 0.288483
0.485321 0.357605 0.297760
0.494537 0.366852 0.306976
0.503784 0.376099 0.316223
0.513031 0.385345 0.325470
0.298523 0.170837 0.110962
0.297943 0.170258 0.110382
0.297302 0.169617 0.109741
0.296722 0.169037 0.109161
0.296112 0.168427 0.108551
0.295471 0.167786 0.107910
0.294891 0.167206 0.107330
0.294281 0.166565 0.106720
0.303528 0.175842 0.115967
0.312744 0.185059 0.125183
0.321991 0.194305 0.134430
0.331268 0.203552 0.143677
0.340515 0.212830 0.152954
0.349731 0.222046 0.162170
0.358978 0.231293 0.171417
0.368256 0.240540 0.180664
0.377472 0.249756 0.189911
0.386719 0.259033 0.199158
0.395935 0.268250 0.208374
0.405182 0.277496 0.217621
0.414459 0.286743 0.226898
0.423706 0.296021 0.236145
0.432922 0.305237 0.245361
0.442169 0.314484 0.254608
0.451447 0.323730 0.263885
0.460663 0.332977 0.273102
0.469910 0.342224 0.282349
0.479156 0.351471 0.291595
0.488434 0.360718 0.300842
0.497650 0.369965 0.310089
0.506897 0.379211 0.319336
0.516144 0.388458 0.328583
0.525391 0.397675 0.337799
0.534637 0.406921 0.347076
0.329987 0.202301 0.142426
0.329376 0.201660 0.141785
0.328766 0.201080 0.141205
0.328156 0.200470 0.140594
0.327545 0.199860 0.139984
0.326935 0.199249 0.139374
0.326324 0.198639 0.138763
0.325745 0.198029 0.138153
0.325104 0.197418 0.137543
0.334351 0.206665 0.146790
0.343597 0.215881 0.156006
0.352844 0.225159 0.165283
0.362091 0.234406 0.174530
0.371338 0.243652 0.183777
0.380585 0.252869 0.192993
0.389832 0.262146 0.202271
0.399078 0.271393 0.211517
0.408295 0.280609 0.220734
0.417572 0.289856 0.229980
0.426788 0.299072 0.239227
0.436035 0.308350 0.248474
0.445282 0.317596 0.257721
0.454529 0.326843 0.266968
0.463776 0.336060 0.276215
0.473022 0.345337 0.285461
0.482269 0.354584 0.294708
0.491486 0.363800 0.303925
0.500732 0.373047 0.313171
0.510010 0.382324 0.322449
0.519257 0.391571 0.331696
0.528473 0.400787 0.340912
0.537720 0.410034 0.350159
0.546997 0.419281 0.359436
0.556213 0.428528 0.368652
0.361450 0.233734 0.173889
0.360809 0.233124 0.173248
0.360199 0.232513 0.172638
0.359619 0.231903 0.172028
0.358978 0.231293 0.171417
0.358398 0.230713 0.170837
0.357788 0.230072 0.170227
0.357147 0.229462 0.169586
0.356567 0.228882 0.169006
0.355957 0.228241 0.168396
0.365204 0.237518 0.177643
0.374420 0.246735 0.186859
0.383667 0.255981 0.196106
0.392914 0.265228 0.205353
0.402191 0.274506 0.214630
0.411407 0.283722 0.223846
0.420654 0.292969 0.233093
0.429871 0.302185 0.242310
0.439148 0.311432 0.251556
0.448395 0.320709 0.260834
0.457611 0.329926 0.270050
0.466858 0.339172 0.279297
0.476135 0.348419 0.288544
0.485382 0.357697 0.297821
0.494598 0.366913 0.307037
0.503845 0.376160 0.316284
0.513092 0.385406 0.325531
0.522339 0.394623 0.334778
0.531586 0.403900 0.344025
0.540833 0.413147 0.353271
0.550079 0.422394 0.362518
0.559326 0.431610 0.371765
0.568573 0.440887 0.381012
0.577820 0.450134 0.390259
0.392853 0.265167 0.205292
0.392273 0.264587 0.204712
0.391663 0.263977 0.204102
0.391022 0.263336 0.203461
0.390442 0.262756 0.202881
0.389832 0.262146 0.202271
0.389221 0.261536 0.201660
0.388611 0.260925 0.201050
0.388000 0.260315 0.200439
0.387390 0.259705 0.199829
0.386780 0.259094 0.199219
0.396027 0.268341 0.208466
0.405243 0.277557 0.217682
0.414520 0.286804 0.226959
0.423767 0.296082 0.236206
0.433014 0.305328 0.245453
0.442230 0.314545 0.254669
0.451508 0.323792 0.263947
0.460724 0.333038 0.273163
0.469971 0.342285 0.282410
0.479218 0.351532 0.291656
0.488464 0.360748 0.300873
0.497711 0.370026 0.310150
0.506958 0.379272 0.319397
0.516205 0.388519 0.328644
0.525452 0.397736 0.337860
0.534698 0.406982 0.347137
0.543945 0.416260 0.356384
0.553162 0.425476 0.365601
0.562408 0.434723 0.374847
0.571686 0.443970 0.384125
0.580933 0.453247 0.393372
0.590149 0.462463 0.402588
0.599396 0.471710 0.411835
0.424316 0.296631 0.236755
0.423706 0.296021 0.236145
0.423126 0.295410 0.235535
0.422485 0.294800 0.234924
0.421875 0.294189 0.234314
0.421295 0.293579 0.233704
0.420654 0.292969 0.233093
0.420074 0.292389 0.232513
0.419434 0.291748 0.231873
0.418823 0.291138 0.231262
0.418243 0.290558 0.230682
0.417633 0.289917 0.230042
0.426880 0.299164 0.239319
0.436096 0.308411 0.248535
0.445343 0.317657 0.257782
0.454590 0.326904 0.267029
0.463867 0.336151 0.276306
0.473083 0.345398 0.285522
0.482330 0.354645 0.294769
0.491547 0.363861 0.303986
0.500824 0.373108 0.313232
0.510071 0.382385 0.322510
0.519287 0.391602 0.331726
0.528534 0.400848 0.340973
0.537811 0.410095 0.350220
0.547058 0.419342 0.359497
0.556274 0.428589 0.368713
0.565521 0.437836 0.377960
0.574768 0.447083 0.387207
0.584015 0.456299 0.396454
0.593262 0.465576 0.405701
0.602509 0.474823 0.414948
0.611755 0.484070 0.424194
0.620972 0.493286 0.433411
0.455780 0.328094 0.268219
0.455170 0.327454 0.267609
0.454529 0.326843 0.266968
0.453949 0.326263 0.266388
0.453339 0.325653 0.265778
0.452698 0.325012 0.265137
0.452118 0.324432 0.264557
0.451508 0.323792 0.263947
0.450897 0.323212 0.263336
0.450287 0.322601 0.262726
0.449677 0.321960 0.262115
0.449066 0.321381 0.261505
0.448456 0.320770 0.260895
0.457703 0.330017 0.270142
0.466919 0.339233 0.279358
0.476196 0.348480 0.288635
0.485443 0.357758 0.297882
0.494659 0.366974 0.307098
0.503906 0.376221 0.316345
0.513153 0.385468 0.325592
0.522400 0.394714 0.334839
0.531647 0.403961 0.344086
0.540894 0.413208 0.353333
0.550110 0.422424 0.362549
0.559387 0.431671 0.371826
0.568634 0.440948 0.381073
0.577881 0.450195 0.390320
0.587097 0.459412 0.399536
0.596375 0.468658 0.408783
0.605621 0.477936 0.418060
0.614838 0.487152 0.427277
0.624084 0.496399 0.436523
0.633362 0.505646 0.445770
0.642609 0.514893 0.455048
0.487213 0.359528 0.299652
0.486633 0.358917 0.299042
0.485992 0.358307 0.298431
0.485382 0.357697 0.297821
0.484772 0.357086 0.297211
0.484161 0.356476 0.296600
0.483551 0.355865 0.295990
0.482941 0.355255 0.295380
0.482330 0.354645 0.294769
0.481750 0.354065 0.294189
0.481110 0.353424 0.293549
0.480499 0.352814 0.292938
0.479919 0.352234 0.292358
0.479279 0.351593 0.291718
0.488556 0.360840 0.300964
0.497772 0.370087 0.310211
0.507019 0.379333 0.319458
0.516266 0.388580 0.328705
0.525513 0.397797 0.337921
0.534760 0.407043 0.347198
0.544006 0.416321 0.356445
0.553223 0.425537 0.365662
0.562469 0.434784 0.374908
0.571747 0.444031 0.384186
0.580963 0.453278 0.393402
0.590210 0.462524 0.402649
0.599457 0.471771 0.411896
0.608734 0.481018 0.421143
0.617950 0.490265 0.430389
0.627197 0.499512 0.439636
0.636444 0.508759 0.448883
0.645691 0.517975 0.458099
0.654938 0.527252 0.467377
0.664185 0.536499 0.476624
0.518677 0.390961 0.331116
0.518036 0.390350 0.330475
0.517456 0.389771 0.329895
0.516846 0.389130 0.329254
0.516205 0.388519 0.328644
0.515625 0.387939 0.328064
0.515015 0.387299 0.327423
0.514374 0.386688 0.326813
0.513794 0.386108 0.326233
0.513153 0.385468 0.325592
0.512573 0.384888 0.325012
0.511963 0.384277 0.324402
0.511353 0.383636 0.323761
0.510742 0.383057 0.323181
0.510132 0.382446 0.322571
0.519379 0.391693 0.331818
0.528595 0.400909 0.341034
0.537872 0.410156 0.350281
0.547119 0.419403 0.359558
0.556335 0.428650 0.368774
0.565582 0.437897 0.378021
0.574829 0.447144 0.387268
0.584076 0.456360 0.396515
0.593323 0.465637 0.405762
0.602570 0.474884 0.415009
0.611786 0.484100 0.424225
0.621063 0.493347 0.433502
0.630310 0.502625 0.442749
0.639557 0.511871 0.451996
0.648773 0.521088 0.461212
0.658051 0.530334 0.470459
0.667297 0.539612 0.479736
0.676514 0.548828 0.488953
0.685760 0.558075 0.498199
0.550110 0.422424 0.362549
0.549500 0.421814 0.361938
0.548889 0.421173 0.361328
0.548279 0.420593 0.360718
0.547668 0.419983 0.360107
0.547058 0.419342 0.359497
0.546448 0.418762 0.358887
0.545837 0.418152 0.358276
0.545227 0.417511 0.357635
0.544617 0.416931 0.357056
0.544006 0.416321 0.356445
0.543427 0.415710 0.355865
0.542786 0.415100 0.355225
0.542175 0.414490 0.354614
0.541595 0.413879 0.354034
0.540955 0.413269 0.353394
0.550232 0.422516 0.362640
0.559448 0.431763 0.371887
0.568695 0.441010 0.381134
0.577942 0.450256 0.390381
0.587158 0.459473 0.399597
0.596436 0.468719 0.408875
0.605682 0.477997 0.418121
0.614899 0.487213 0.427338
0.624146 0.496460 0.436584
0.633423 0.505707 0.445831
0.642639 0.514954 0.455078
0.651886 0.524200 0.464325
0.661133 0.533447 0.473572
0.670380 0.542694 0.482819
0.679626 0.551910 0.492065
0.688873 0.561188 0.501312
0.698120 0.570435 0.510559
0.707336 0.579651 0.519775
0.581543 0.453857 0.393982
0.580963 0.453278 0.393402
0.580353 0.452637 0.392761
0.579712 0.452026 0.392151
0.579132 0.451447 0.391571
0.578491 0.450806 0.390930
0.577881 0.450195 0.390320
0.577301 0.449615 0.389740
0.576660 0.448975 0.389099
0.576050 0.448364 0.388489
0.575470 0.447784 0.387909
0.574829 0.447144 0.387268
0.574249 0.446564 0.386688
0.573639 0.445953 0.386078
0.572998 0.445312 0.385437
0.572418 0.444733 0.384857
0.571808 0.444092 0.384247
0.581024 0.453339 0.393463
0.590271 0.462585 0.402710
0.599518 0.471832 0.411957
0.608795 0.481079 0.421204
0.618011 0.490326 0.430450
0.627258 0.499573 0.439697
0.636505 0.508820 0.448944
0.645752 0.518036 0.458160
0.654999 0.527313 0.467438
0.664246 0.536560 0.476685
0.673462 0.545776 0.485901
0.682709 0.555023 0.495148
0.691986 0.564270 0.504425
0.701233 0.573547 0.513672
0.710449 0.582764 0.522888
0.719696 0.592010 0.532135
0.728973 0.601257 0.541412
0.612976 0.485291 0.425415
0.612366 0.484650 0.424805
0.611755 0.484070 0.424194
0.611145 0.483459 0.423584
0.610535 0.482819 0.422943
0.609924 0.482239 0.422363
0.609314 0.481628 0.421753
0.608704 0.480988 0.421112
0.608093 0.480408 0.420532
0.607483 0.479797 0.419922
0.606873 0.479156 0.419281
0.606262 0.478577 0.418701
0.605652 0.477966 0.418091
0.605072 0.477356 0.417480
0.604431 0.476746 0.416870
0.603821 0.476135 0.416260
0.603241 0.475525 0.415649
0.602600 0.474915 0.415039
0.611847 0.484161 0.424286
0.621094 0.493378 0.433533
0.630341 0.502655 0.442780
0.639587 0.511902 0.452026
0.648834 0.521149 0.461273
0.658081 0.530365 0.470490
0.667328 0.539642 0.479767
0.676575 0.548889 0.489014
0.685791 0.558105 0.498230
0.695068 0.567352 0.507477
0.704315 0.576599 0.516754
0.713531 0.585846 0.525970
0.722778 0.595093 0.535217
0.732025 0.604340 0.544464
0.741302 0.613586 0.553741
0.750519 0.622833 0.562958
0.644409 0.516724 0.456848
0.643799 0.516113 0.456238
0.643188 0.515503 0.455627
0.642609 0.514893 0.455048
0.641968 0.514282 0.454407
0.641357 0.513672 0.453796
0.640778 0.513062 0.453217
0.640137 0.512451 0.452576
0.639526 0.511841 0.451965
0.638947 0.511261 0.451385
0.638306 0.510620 0.450745
0.637695 0.510010 0.450134
0.637115 0.509399 0.449554
0.636475 0.508789 0.448914
0.635895 0.508209 0.448334
0.635284 0.507568 0.447723
0.634644 0.506958 0.447083
0.634064 0.506378 0.446503
0.633453 0.505737 0.445892
0.642700 0.515015 0.455139
0.651917 0.524231 0.464355
0.661163 0.533478 0.473602
0.670410 0.542725 0.482849
0.679688 0.552002 0.492126
0.688904 0.561218 0.501343
0.698151 0.570465 0.510590
0.707397 0.579712 0.519836
0.716644 0.588928 0.529053
0.725891 0.598206 0.538330
0.735138 0.607452 0.547577
0.744354 0.616669 0.556793
0.753632 0.625916 0.566040
0.762878 0.635193 0.575317
0.772125 0.644440 0.584564
0.675873 0.548157 0.488281
0.675232 0.547546 0.487671
0.674652 0.546967 0.487091
0.674042 0.546326 0.486450
0.673431 0.545746 0.485870
0.672821 0.545135 0.485260
0.672211 0.544495 0.484619
0.671600 0.543915 0.484039
0.670990 0.543304 0.483429
0.670349 0.542664 0.482788
0.669769 0.542084 0.482208
0.669159 0.541473 0.481598
0.668518 0.540833 0.480957
0.667938 0.540253 0.480377
0.667328 0.539642 0.479767
0.666748 0.539032 0.479156
0.666107 0.538422 0.478546
0.665497 0.537811 0.477936
0.664886 0.537201 0.477325
0.664276 0.536591 0.476715
0.673523 0.545837 0.485962
0.682739 0.555054 0.495178
0.692017 0.564301 0.504456
0.701263 0.573578 0.513702
0.710510 0.582825 0.522949
0.719727 0.592041 0.532166
0.729004 0.601288 0.541443
0.738251 0.610565 0.550690
0.747467 0.619781 0.559906
0.756714 0.629028 0.569153
0.765991 0.638275 0.578400
0.775208 0.647522 0.587646
0.784454 0.656769 0.596893
0.793701 0.666016 0.606140
0.707306 0.579620 0.519745
0.706696 0.579010 0.519135
0.706085 0.578369 0.518524
0.705475 0.577789 0.517914
0.704865 0.577179 0.517303
0.704285 0.576569 0.516724
0.703644 0.575958 0.516083
0.703033 0.575348 0.515472
0.702454 0.574738 0.514862
0.701813 0.574127 0.514252
0.701202 0.573517 0.513641
0.700623 0.572906 0.513031
0.699982 0.572296 0.512421
0.699371 0.571686 0.511810
0.698792 0.571075 0.511230
0.698151 0.570465 0.510590
0.697571 0.569885 0.510010
0.696960 0.569244 0.509369
0.696320 0.568634 0.508759
0.695740 0.568054 0.508179
0.695129 0.567413 0.507538
0.704376 0.576660 0.516815
0.713593 0.585907 0.526031
0.722839 0.595154 0.535278
0.732086 0.604401 0.544525
0.741364 0.613647 0.553802
0.750580 0.622894 0.563019
0.759827 0.632141 0.572266
0.769073 0.641388 0.581512
0.778320 0.650604 0.590729
0.787567 0.659882 0.600006
0.796814 0.669128 0.609253
0.806030 0.678345 0.618469
0.815308 0.687592 0.627716
0.738739 0.611053 0.551178
0.738159 0.610474 0.550598
0.737549 0.609833 0.549957
0.736908 0.609222 0.549347
0.736328 0.608643 0.548767
0.735687 0.608002 0.548126
0.735107 0.607422 0.547546
0.734497 0.606781 0.546936
0.733856 0.606171 0.546295
0.733276 0.605591 0.545715
0.732666 0.604980 0.545105
0.732025 0.604340 0.544464
0.731445 0.603760 0.543884
0.730835 0.603149 0.543274
0.730194 0.602509 0.542633
0.729614 0.601929 0.542053
0.729004 0.601288 0.541443
0.728394 0.600708 0.540833
0.727783 0.600098 0.540222
0.727173 0.599457 0.539612
0.726562 0.598877 0.539001
0.725952 0.598267 0.538391
0.735199 0.607513 0.547638
0.744415 0.616730 0.556854
0.753693 0.625977 0.566132
0.762939 0.635254 0.575378
0.772186 0.644501 0.584625
0.781403 0.653717 0.593842
0.790680 0.662964 0.603088
0.799927 0.672241 0.612366
0.809143 0.681458 0.621582
0.818390 0.690704 0.630829
0.827637 0.699951 0.640076
0.836884 0.709167 0.649323
0.770203 0.642517 0.582642
0.769592 0.641876 0.582031
0.768982 0.641296 0.581421
0.768372 0.640686 0.580811
0.767761 0.640045 0.580170
0.767151 0.639465 0.579590
0.766541 0.638855 0.578979
0.765961 0.638245 0.578369
0.765320 0.637634 0.577759
0.764709 0.637024 0.577148
0.764130 0.636414 0.576538
0.763489 0.635803 0.575928
0.762878 0.635193 0.575317
0.762268 0.634583 0.574707
0.761658 0.633972 0.574097
0.761047 0.633362 0.573486
0.760437 0.632751 0.572876
0.759827 0.632141 0.572266
0.759247 0.631561 0.571686
0.758606 0.630920 0.571045
0.757996 0.630310 0.570435
0.757416 0.629730 0.569855
0.756775 0.629089 0.569214
0.766052 0.638336 0.578461
0.775269 0.647583 0.587708
0.784515 0.656830 0.596954
0.793762 0.666077 0.606201
0.803040 0.675323 0.615448
0.812256 0.684540 0.624695
0.821503 0.693817 0.633942
0.830750 0.703064 0.643188
0.839966 0.712280 0.652405
0.849243 0.721527 0.661682
0.858490 0.730804 0.670929
0.801666 0.673981 0.614105
0.801025 0.673340 0.613464
0.800415 0.672729 0.612854
0.799835 0.672119 0.612274
0.799194 0.671509 0.611633
0.798584 0.670898 0.611023
0.798004 0.670288 0.610443
0.797363 0.669678 0.609802
0.796783 0.669098 0.609222
0.796173 0.668457 0.608612
0.795532 0.667847 0.607971
0.794952 0.667267 0.607391
0.794342 0.666626 0.606750
0.793701 0.666016 0.606140
0.793121 0.665436 0.605560
0.792511 0.664795 0.604950
0.791870 0.664185 0.604309
0.791290 0.663605 0.603729
0.790680 0.662964 0.603088
0.790070 0.662384 0.602509
0.789459 0.661774 0.601898
0.788849 0.661133 0.601257
0.788239 0.660553 0.600677
0.787628 0.659943 0.600067
0.796875 0.669189 0.609314
0.806091 0.678406 0.618530
0.815369 0.687653 0.627777
0.824615 0.696930 0.637054
0.833862 0.706177 0.646301
0.843079 0.715393 0.655518
0.852356 0.724640 0.664764
0.861603 0.733887 0.674042
0.870819 0.743134 0.683258
0.880066 0.752380 0.692505
0.833099 0.705383 0.645508
0.832489 0.704803 0.644928
0.831879 0.704193 0.644318
0.831268 0.703552 0.643677
0.830658 0.702972 0.643097
0.830048 0.702362 0.642487
0.829407 0.701721 0.641846
0.828827 0.701141 0.641266
0.828217 0.700531 0.640656
0.827606 0.699921 0.640045
0.826996 0.699310 0.639435
0.826385 0.698669 0.638824
0.825775 0.698090 0.638214
0.825165 0.697479 0.637604
0.824554 0.696869 0.636993
0.823944 0.696259 0.636383
0.823334 0.695648 0.635773
0.822723 0.695007 0.635162
0.822113 0.694427 0.634552
0.821503 0.693817 0.633942
0.820923 0.693207 0.633362
0.820282 0.692596 0.632721
0.819672 0.691986 0.632111
0.819092 0.691376 0.631531
0.818451 0.690765 0.630890
0.827728 0.700012 0.640137
0.836945 0.709259 0.649384
0.846191 0.718506 0.658630
0.855438 0.727753 0.667877
0.864685 0.737000 0.677124
0.873932 0.746216 0.686371
0.883179 0.755493 0.695618
0.892426 0.764740 0.704865
0.901642 0.773956 0.714081
0.864532 0.736847 0.676971
0.863922 0.736237 0.676361
0.863342 0.735626 0.675781
0.862701 0.735016 0.675140
0.862091 0.734406 0.674530
0.861511 0.733795 0.673950
0.860870 0.733185 0.673309
0.860260 0.732574 0.672699
0.859680 0.731964 0.672089
0.859039 0.731354 0.671478
0.858459 0.730774 0.670898
0.857849 0.730133 0.670258
0.857208 0.729523 0.669647
0.856628 0.728943 0.669067
0.855988 0.728302 0.668427
0.855377 0.727692 0.667816
0.854797 0.727112 0.667236
0.854156 0.726471 0.666595
0.853546 0.725861 0.665985
0.852966 0.725281 0.665405
0.852356 0.724640 0.664764
0.851746 0.724060 0.664185
0.851135 0.723450 0.663574
0.850494 0.722809 0.662933
0.849915 0.722229 0.662354
0.849304 0.721588 0.661743
0.858551 0.730865 0.670990
0.867767 0.740082 0.680206
0.877014 0.749329 0.689453
0.886292 0.758575 0.698700
0.895538 0.767853 0.707977
