other luts/实验工艺系列/蛋白银盐法3.cube
#Created by: Adobe Photoshop Export Color Lookup Plugin
#Copyright: (C) Copyright 2026 汉图
TITLE "实验工艺"
#LUT size
LUT_3D_SIZE 7
#data domain
#LUT data points
DOMAIN_MIN 0.000000 0.000000 0.000000
DOMAIN_MAX 0.909091 0.909091 0.909091
0.086273 0.086273 0.086273
0.093353 0.086273 0.086273
0.139557 0.086273 0.086273
0.185791 0.093994 0.090027
0.232025 0.140228 0.136230
0.278229 0.186432 0.182434
0.324463 0.232666 0.228699
0.204346 0.112549 0.108582
0.201294 0.109497 0.105530
0.247528 0.155731 0.151764
0.293732 0.201965 0.197968
0.339966 0.248169 0.244171
0.386200 0.294403 0.290436
0.432404 0.340607 0.336639
0.361572 0.269775 0.265808
0.358521 0.266724 0.262756
0.355469 0.263672 0.259705
0.401733 0.309937 0.305939
0.447937 0.356140 0.352142
0.494141 0.402344 0.398376
0.540375 0.448578 0.444611
0.518829 0.427032 0.423065
0.515747 0.423950 0.419983
0.512695 0.420898 0.416931
0.509674 0.417877 0.413879
0.555878 0.464081 0.460114
0.602112 0.510315 0.506348
0.648315 0.556519 0.552551
0.676025 0.584229 0.580231
0.672974 0.581177 0.577209
0.669891 0.578094 0.574127
0.666870 0.575073 0.571075
0.663818 0.572021 0.568054
0.710052 0.618256 0.614288
0.756256 0.664459 0.660492
0.833252 0.741455 0.737457
0.830200 0.738403 0.734436
0.827148 0.735352 0.731384
0.824066 0.732269 0.728302
0.821045 0.729248 0.725281
0.817993 0.726196 0.722229
0.864227 0.772430 0.768463
0.990479 0.898682 0.894684
0.987427 0.895630 0.891663
0.984375 0.892578 0.888611
0.981323 0.889526 0.885559
0.978271 0.886475 0.882507
0.975220 0.883423 0.879456
0.972168 0.880371 0.876404
0.086273 0.086273 0.086273
0.086273 0.086273 0.086273
0.093353 0.086273 0.086273
0.139557 0.086273 0.086273
0.185760 0.093964 0.089996
0.232025 0.140228 0.136230
0.278229 0.186432 0.182434
0.086273 0.086273 0.086273
0.201294 0.109497 0.105530
0.247528 0.155731 0.151764
0.293732 0.201965 0.197968
0.339966 0.248169 0.244171
0.386200 0.294403 0.290436
0.432404 0.340607 0.336639
0.204346 0.112549 0.108582
0.358521 0.266724 0.262756
0.355469 0.263672 0.259705
0.401733 0.309937 0.305939
0.447937 0.356140 0.352142
0.494141 0.402344 0.398376
0.540375 0.448578 0.444611
0.361572 0.269775 0.265808
0.515747 0.423950 0.419983
0.512695 0.420898 0.416931
0.509674 0.417877 0.413879
0.555878 0.464081 0.460114
0.602112 0.510315 0.506348
0.648315 0.556519 0.552551
0.518799 0.427002 0.423035
0.672974 0.581177 0.577209
0.669891 0.578094 0.574127
0.666870 0.575073 0.571075
0.663818 0.572021 0.568054
0.710052 0.618256 0.614288
0.756256 0.664459 0.660492
0.676025 0.584229 0.580231
0.830200 0.738403 0.734436
0.827148 0.735352 0.731384
0.824066 0.732269 0.728302
0.821045 0.729248 0.725281
0.817993 0.726196 0.722229
0.864227 0.772430 0.768463
0.833252 0.741455 0.737457
0.987427 0.895630 0.891663
0.984375 0.892578 0.888611
0.981323 0.889526 0.885559
0.978271 0.886475 0.882507
0.975220 0.883423 0.879456
0.972168 0.880371 0.876404
0.086273 0.086273 0.086273
0.086273 0.086273 0.086273
0.086273 0.086273 0.086273
0.093353 0.086273 0.086273
0.139557 0.086273 0.086273
0.185760 0.093964 0.089996
0.232025 0.140228 0.136230
0.086273 0.086273 0.086273
0.201294 0.109497 0.105530
0.201294 0.109497 0.105530
0.247528 0.155731 0.151764
0.293732 0.201965 0.197968
0.339966 0.248169 0.244171
0.386200 0.294403 0.290436
0.086273 0.086273 0.086273
0.201294 0.109497 0.105530
0.355469 0.263672 0.259705
0.401733 0.309937 0.305939
0.447937 0.356140 0.352142
0.494141 0.402344 0.398376
0.540375 0.448578 0.444611
0.204346 0.112549 0.108582
0.358521 0.266724 0.262756
0.512695 0.420898 0.416931
0.509674 0.417877 0.413879
0.555878 0.464081 0.460114
0.602112 0.510315 0.506348
0.648315 0.556519 0.552551
0.361542 0.269745 0.265778
0.515717 0.423920 0.419952
0.669891 0.578094 0.574127
0.666870 0.575073 0.571075
0.663818 0.572021 0.568054
0.710052 0.618256 0.614288
0.756256 0.664459 0.660492
0.518799 0.427002 0.423035
0.672974 0.581177 0.577209
0.827148 0.735352 0.731384
0.824066 0.732269 0.728302
0.821045 0.729248 0.725281
0.817993 0.726196 0.722229
0.864227 0.772430 0.768463
0.676025 0.584229 0.580231
0.830200 0.738403 0.734436
0.984375 0.892578 0.888611
0.981323 0.889526 0.885559
0.978271 0.886475 0.882507
0.975220 0.883423 0.879456
0.972168 0.880371 0.876404
0.086273 0.086273 0.086273
0.086273 0.086273 0.086273
0.086273 0.086273 0.086273
0.086273 0.086273 0.086273
0.093323 0.086273 0.086273
0.139557 0.086273 0.086273
0.185760 0.093964 0.089996
0.086273 0.086273 0.086273
0.201294 0.109497 0.105530
0.201294 0.109497 0.105530
0.201294 0.109497 0.105530
0.247498 0.155701 0.151733
0.293732 0.201965 0.197968
0.339966 0.248169 0.244171
0.086273 0.086273 0.086273
0.201294 0.109497 0.105530
0.355469 0.263672 0.259705
0.355469 0.263672 0.259705
0.401703 0.309906 0.305908
0.447937 0.356140 0.352142
0.494141 0.402344 0.398376
0.086273 0.086273 0.086273
0.201294 0.109497 0.105530
0.355469 0.263672 0.259705
0.509674 0.417877 0.413879
0.555878 0.464081 0.460114
0.602112 0.510315 0.506348
0.648315 0.556519 0.552551
0.204315 0.112518 0.108551
0.358490 0.266693 0.262726
0.512665 0.420868 0.416901
0.666870 0.575073 0.571075
0.663818 0.572021 0.568054
0.710052 0.618256 0.614288
0.756256 0.664459 0.660492
0.361542 0.269745 0.265778
0.515717 0.423920 0.419952
0.669891 0.578094 0.574127
0.824066 0.732269 0.728302
0.821045 0.729248 0.725281
0.817993 0.726196 0.722229
0.864227 0.772430 0.768463
0.518799 0.427002 0.423035
0.672974 0.581177 0.577209
0.827148 0.735352 0.731384
0.981323 0.889526 0.885559
0.978271 0.886475 0.882507
0.975220 0.883423 0.879456
0.972168 0.880371 0.876404
0.086273 0.086273 0.086273
0.086273 0.086273 0.086273
0.086273 0.086273 0.086273
0.086273 0.086273 0.086273
0.086273 0.086273 0.086273
0.093353 0.086273 0.086273
0.139557 0.086273 0.086273
0.086273 0.086273 0.086273
0.201294 0.109497 0.105530
0.201294 0.109497 0.105530
0.201294 0.109497 0.105530
0.201294 0.109497 0.105530
0.247528 0.155731 0.151764
0.293732 0.201965 0.197968
0.086273 0.086273 0.086273
0.201294 0.109497 0.105530
0.355469 0.263672 0.259705
0.355469 0.263672 0.259705
0.355469 0.263672 0.259705
0.401733 0.309937 0.305939
0.447937 0.356140 0.352142
0.086273 0.086273 0.086273
0.201294 0.109497 0.105530
0.355469 0.263672 0.259705
0.509674 0.417877 0.413879
0.509674 0.417877 0.413879
0.555908 0.464111 0.460144
0.602112 0.510315 0.506348
0.086273 0.086273 0.086273
0.201294 0.109497 0.105530
0.355469 0.263672 0.259705
0.509674 0.417877 0.413879
0.663818 0.572021 0.568054
0.710052 0.618256 0.614288
0.756256 0.664459 0.660492
0.204346 0.112549 0.108582
0.358521 0.266724 0.262756
0.512695 0.420898 0.416931
0.666901 0.575104 0.571106
0.821045 0.729248 0.725281
0.817993 0.726196 0.722229
0.864227 0.772430 0.768463
0.361572 0.269775 0.265808
0.515747 0.423950 0.419983
0.669922 0.578125 0.574158
0.824097 0.732330 0.728333
0.978271 0.886475 0.882507
0.975220 0.883423 0.879456
0.972168 0.880371 0.876404
0.086273 0.086273 0.086273
0.086273 0.086273 0.086273
0.086273 0.086273 0.086273
0.086273 0.086273 0.086273
0.086273 0.086273 0.086273
0.086273 0.086273 0.086273
0.093353 0.086273 0.086273
0.086273 0.086273 0.086273
0.201294 0.109497 0.105530
0.201294 0.109497 0.105530
0.201294 0.109497 0.105530
0.201294 0.109497 0.105530
0.201294 0.109497 0.105530
0.247528 0.155731 0.151764
0.086273 0.086273 0.086273
0.201294 0.109497 0.105530
0.355469 0.263672 0.259705
0.355469 0.263672 0.259705
0.355469 0.263672 0.259705
0.355469 0.263672 0.259705
0.401733 0.309937 0.305939
0.086273 0.086273 0.086273
0.201294 0.109497 0.105530
0.355469 0.263672 0.259705
0.509674 0.417877 0.413879
0.509674 0.417877 0.413879
0.509674 0.417877 0.413879
0.555908 0.464111 0.460144
0.086273 0.086273 0.086273
0.201294 0.109497 0.105530
0.355469 0.263672 0.259705
0.509674 0.417877 0.413879
0.663818 0.572021 0.568054
0.663818 0.572021 0.568054
0.710052 0.618256 0.614288
0.086273 0.086273 0.086273
0.201294 0.109497 0.105530
0.355469 0.263672 0.259705
0.509674 0.417877 0.413879
0.663818 0.572021 0.568054
0.817993 0.726196 0.722229
0.864227 0.772430 0.768463
0.204346 0.112549 0.108582
0.358521 0.266724 0.262756
0.512695 0.420898 0.416931
0.666901 0.575104 0.571106
0.821045 0.729248 0.725281
0.975220 0.883423 0.879456
0.972168 0.880371 0.876404
0.086273 0.086273 0.086273
0.086273 0.086273 0.086273
0.086273 0.086273 0.086273
0.086273 0.086273 0.086273
0.086273 0.086273 0.086273
0.086273 0.086273 0.086273
0.086273 0.086273 0.086273
0.086273 0.086273 0.086273
0.201294 0.109497 0.105530
0.201294 0.109497 0.105530
0.201294 0.109497 0.105530
0.201294 0.109497 0.105530
0.201294 0.109497 0.105530
0.201294 0.109497 0.105530
0.086273 0.086273 0.086273
0.201294 0.109497 0.105530
0.355469 0.263672 0.259705
0.355469 0.263672 0.259705
0.355469 0.263672 0.259705
0.355469 0.263672 0.259705
0.355469 0.263672 0.259705
0.086273 0.086273 0.086273
0.201294 0.109497 0.105530
0.355469 0.263672 0.259705
0.509674 0.417877 0.413879
0.509674 0.417877 0.413879
0.509674 0.417877 0.413879
0.509674 0.417877 0.413879
0.086273 0.086273 0.086273
0.201294 0.109497 0.105530
0.355469 0.263672 0.259705
0.509674 0.417877 0.413879
0.663818 0.572021 0.568054
0.663818 0.572021 0.568054
0.663818 0.572021 0.568054
0.086273 0.086273 0.086273
0.201294 0.109497 0.105530
0.355469 0.263672 0.259705
0.509674 0.417877 0.413879
0.663818 0.572021 0.568054
0.817993 0.726196 0.722229
0.817993 0.726196 0.722229
0.086273 0.086273 0.086273
0.201294 0.109497 0.105530
0.355469 0.263672 0.259705
0.509674 0.417877 0.413879
0.663818 0.572021 0.568054
0.817993 0.726196 0.722229
0.972168 0.880371 0.876404
