other luts/实验工艺系列/蛋白银盐法1.cube
#Created by: Adobe Photoshop Export Color Lookup Plugin
#Copyright: (C) Copyright 2026 汉图
TITLE "实验工艺"
#LUT size
LUT_3D_SIZE 7
#data domain
#LUT data points
DOMAIN_MIN 0.000000 0.000000 0.000000
DOMAIN_MAX 0.909091 0.909091 0.909091
0.086273 0.086273 0.086273
0.086273 0.086273 0.086273
0.170868 0.086273 0.086273
0.217102 0.089417 0.086273
0.263306 0.135620 0.086273
0.309509 0.181824 0.121948
0.355774 0.228058 0.168182
0.235626 0.107941 0.086273
0.232605 0.104919 0.086273
0.278839 0.151154 0.091278
0.325043 0.197357 0.137482
0.371246 0.243561 0.183685
0.417480 0.289795 0.229919
0.463715 0.335999 0.276123
0.392853 0.265167 0.205292
0.389832 0.262146 0.202271
0.386780 0.259094 0.199219
0.433014 0.305328 0.245453
0.479218 0.351532 0.291656
0.525452 0.397736 0.337860
0.571686 0.443970 0.384125
0.550110 0.422424 0.362549
0.547058 0.419342 0.359497
0.544006 0.416321 0.356445
0.540955 0.413269 0.353394
0.587158 0.459473 0.399597
0.633423 0.505707 0.445831
0.679626 0.551910 0.492065
0.707306 0.579620 0.519745
0.704285 0.576569 0.516724
0.701202 0.573517 0.513641
0.698151 0.570465 0.510590
0.695129 0.567413 0.507538
0.741364 0.613647 0.553802
0.787567 0.659882 0.600006
0.864532 0.736847 0.676971
0.861511 0.733795 0.673950
0.858459 0.730774 0.670898
0.855377 0.727692 0.667816
0.852356 0.724640 0.664764
0.849304 0.721588 0.661743
0.895538 0.767853 0.707977
1.000000 0.901306 0.855011
1.000000 0.897247 0.849060
1.000000 0.893219 0.843109
1.000000 0.889130 0.837158
1.000000 0.885071 0.831146
1.000000 0.881012 0.825195
1.000000 0.876953 0.819275
0.086273 0.086273 0.086273
0.086273 0.086273 0.086273
0.086273 0.086273 0.086273
0.170868 0.086273 0.086273
0.217072 0.089386 0.086273
0.263306 0.135620 0.086273
0.309509 0.181824 0.121948
0.086273 0.086273 0.086273
0.232605 0.104919 0.086273
0.278839 0.151154 0.091278
0.325043 0.197357 0.137482
0.371246 0.243561 0.183685
0.417480 0.289795 0.229919
0.463715 0.335999 0.276123
0.235626 0.107941 0.086273
0.389832 0.262146 0.202271
0.386780 0.259094 0.199219
0.433014 0.305328 0.245453
0.479218 0.351532 0.291656
0.525452 0.397736 0.337860
0.571686 0.443970 0.384125
0.392853 0.265167 0.205292
0.547058 0.419342 0.359497
0.544006 0.416321 0.356445
0.540955 0.413269 0.353394
0.587158 0.459473 0.399597
0.633423 0.505707 0.445831
0.679626 0.551910 0.492065
0.550079 0.422394 0.362518
0.704285 0.576569 0.516724
0.701202 0.573517 0.513641
0.698151 0.570465 0.510590
0.695129 0.567413 0.507538
0.741364 0.613647 0.553802
0.787567 0.659882 0.600006
0.707306 0.579620 0.519745
0.861511 0.733795 0.673950
0.858459 0.730774 0.670898
0.855377 0.727692 0.667816
0.852356 0.724640 0.664764
0.849304 0.721588 0.661743
0.895538 0.767853 0.707977
0.864532 0.736847 0.676971
1.000000 0.897247 0.849060
1.000000 0.893219 0.843109
1.000000 0.889130 0.837158
1.000000 0.885071 0.831146
1.000000 0.881012 0.825195
1.000000 0.876953 0.819275
0.086273 0.086273 0.086273
0.086273 0.086273 0.086273
0.086273 0.086273 0.086273
0.086273 0.086273 0.086273
0.170868 0.086273 0.086273
0.217072 0.089386 0.086273
0.263306 0.135620 0.086273
0.086273 0.086273 0.086273
0.232605 0.104919 0.086273
0.232605 0.104919 0.086273
0.278839 0.151154 0.091278
0.325043 0.197357 0.137482
0.371246 0.243561 0.183685
0.417480 0.289795 0.229919
0.086273 0.086273 0.086273
0.232605 0.104919 0.086273
0.386780 0.259094 0.199219
0.433014 0.305328 0.245453
0.479218 0.351532 0.291656
0.525452 0.397736 0.337860
0.571686 0.443970 0.384125
0.235626 0.107941 0.086273
0.389832 0.262146 0.202271
0.544006 0.416321 0.356445
0.540955 0.413269 0.353394
0.587158 0.459473 0.399597
0.633423 0.505707 0.445831
0.679626 0.551910 0.492065
0.392822 0.265137 0.205261
0.547028 0.419312 0.359467
0.701202 0.573517 0.513641
0.698151 0.570465 0.510590
0.695129 0.567413 0.507538
0.741364 0.613647 0.553802
0.787567 0.659882 0.600006
0.550079 0.422394 0.362518
0.704285 0.576569 0.516724
0.858459 0.730774 0.670898
0.855377 0.727692 0.667816
0.852356 0.724640 0.664764
0.849304 0.721588 0.661743
0.895538 0.767853 0.707977
0.707306 0.579620 0.519745
0.861511 0.733795 0.673950
1.000000 0.893219 0.843109
1.000000 0.889130 0.837158
1.000000 0.885071 0.831146
1.000000 0.881012 0.825195
1.000000 0.876953 0.819275
0.086273 0.086273 0.086273
0.086273 0.086273 0.086273
0.086273 0.086273 0.086273
0.086273 0.086273 0.086273
0.086273 0.086273 0.086273
0.170868 0.086273 0.086273
0.217072 0.089386 0.086273
0.086273 0.086273 0.086273
0.232605 0.104919 0.086273
0.232605 0.104919 0.086273
0.232605 0.104919 0.086273
0.278809 0.151123 0.091248
0.325043 0.197357 0.137482
0.371246 0.243561 0.183685
0.086273 0.086273 0.086273
0.232605 0.104919 0.086273
0.386780 0.259094 0.199219
0.386780 0.259094 0.199219
0.432983 0.305298 0.245422
0.479218 0.351532 0.291656
0.525452 0.397736 0.337860
0.086273 0.086273 0.086273
0.232605 0.104919 0.086273
0.386780 0.259094 0.199219
0.540955 0.413269 0.353394
0.587158 0.459473 0.399597
0.633423 0.505707 0.445831
0.679626 0.551910 0.492065
0.235596 0.107910 0.086273
0.389801 0.262115 0.202240
0.543976 0.416290 0.356415
0.698151 0.570465 0.510590
0.695129 0.567413 0.507538
0.741364 0.613647 0.553802
0.787567 0.659882 0.600006
0.392822 0.265137 0.205261
0.547028 0.419312 0.359467
0.701202 0.573517 0.513641
0.855377 0.727692 0.667816
0.852356 0.724640 0.664764
0.849304 0.721588 0.661743
0.895538 0.767853 0.707977
0.550079 0.422394 0.362518
0.704285 0.576569 0.516724
0.858459 0.730774 0.670898
1.000000 0.889130 0.837158
1.000000 0.885071 0.831146
1.000000 0.881012 0.825195
1.000000 0.876953 0.819275
0.086273 0.086273 0.086273
0.086273 0.086273 0.086273
0.086273 0.086273 0.086273
0.086273 0.086273 0.086273
0.086273 0.086273 0.086273
0.086273 0.086273 0.086273
0.170868 0.086273 0.086273
0.086273 0.086273 0.086273
0.232605 0.104919 0.086273
0.232605 0.104919 0.086273
0.232605 0.104919 0.086273
0.232605 0.104919 0.086273
0.278839 0.151154 0.091278
0.325043 0.197357 0.137482
0.086273 0.086273 0.086273
0.232605 0.104919 0.086273
0.386780 0.259094 0.199219
0.386780 0.259094 0.199219
0.386780 0.259094 0.199219
0.433014 0.305328 0.245453
0.479218 0.351532 0.291656
0.086273 0.086273 0.086273
0.232605 0.104919 0.086273
0.386780 0.259094 0.199219
0.540955 0.413269 0.353394
0.540955 0.413269 0.353394
0.587189 0.459503 0.399628
0.633423 0.505707 0.445831
0.086273 0.086273 0.086273
0.232605 0.104919 0.086273
0.386780 0.259094 0.199219
0.540955 0.413269 0.353394
0.695129 0.567413 0.507538
0.741364 0.613647 0.553802
0.787567 0.659882 0.600006
0.235626 0.107941 0.086273
0.389832 0.262146 0.202271
0.544006 0.416321 0.356445
0.698181 0.570496 0.510620
0.852356 0.724640 0.664764
0.849304 0.721588 0.661743
0.895538 0.767853 0.707977
0.392853 0.265167 0.205292
0.547058 0.419342 0.359497
0.701233 0.573547 0.513672
0.855408 0.727722 0.667847
1.000000 0.885071 0.831146
1.000000 0.881012 0.825195
1.000000 0.876953 0.819275
0.086273 0.086273 0.086273
0.086273 0.086273 0.086273
0.086273 0.086273 0.086273
0.086273 0.086273 0.086273
0.086273 0.086273 0.086273
0.086273 0.086273 0.086273
0.086273 0.086273 0.086273
0.086273 0.086273 0.086273
0.232605 0.104919 0.086273
0.232605 0.104919 0.086273
0.232605 0.104919 0.086273
0.232605 0.104919 0.086273
0.232605 0.104919 0.086273
0.278839 0.151154 0.091278
0.086273 0.086273 0.086273
0.232605 0.104919 0.086273
0.386780 0.259094 0.199219
0.386780 0.259094 0.199219
0.386780 0.259094 0.199219
0.386780 0.259094 0.199219
0.433014 0.305328 0.245453
0.086273 0.086273 0.086273
0.232605 0.104919 0.086273
0.386780 0.259094 0.199219
0.540955 0.413269 0.353394
0.540955 0.413269 0.353394
0.540955 0.413269 0.353394
0.587189 0.459503 0.399628
0.086273 0.086273 0.086273
0.232605 0.104919 0.086273
0.386780 0.259094 0.199219
0.540955 0.413269 0.353394
0.695129 0.567413 0.507538
0.695129 0.567413 0.507538
0.741364 0.613647 0.553802
0.086273 0.086273 0.086273
0.232605 0.104919 0.086273
0.386780 0.259094 0.199219
0.540955 0.413269 0.353394
0.695129 0.567413 0.507538
0.849304 0.721588 0.661743
0.895538 0.767853 0.707977
0.235626 0.107941 0.086273
0.389832 0.262146 0.202271
0.544006 0.416321 0.356445
0.698181 0.570496 0.510620
0.852356 0.724640 0.664764
1.000000 0.881012 0.825195
1.000000 0.876953 0.819275
0.086273 0.086273 0.086273
0.086273 0.086273 0.086273
0.086273 0.086273 0.086273
0.086273 0.086273 0.086273
0.086273 0.086273 0.086273
0.086273 0.086273 0.086273
0.086273 0.086273 0.086273
0.086273 0.086273 0.086273
0.232605 0.104919 0.086273
0.232605 0.104919 0.086273
0.232605 0.104919 0.086273
0.232605 0.104919 0.086273
0.232605 0.104919 0.086273
0.232605 0.104919 0.086273
0.086273 0.086273 0.086273
0.232605 0.104919 0.086273
0.386780 0.259094 0.199219
0.386780 0.259094 0.199219
0.386780 0.259094 0.199219
0.386780 0.259094 0.199219
0.386780 0.259094 0.199219
0.086273 0.086273 0.086273
0.232605 0.104919 0.086273
0.386780 0.259094 0.199219
0.540955 0.413269 0.353394
0.540955 0.413269 0.353394
0.540955 0.413269 0.353394
0.540955 0.413269 0.353394
0.086273 0.086273 0.086273
0.232605 0.104919 0.086273
0.386780 0.259094 0.199219
0.540955 0.413269 0.353394
0.695129 0.567413 0.507538
0.695129 0.567413 0.507538
0.695129 0.567413 0.507538
0.086273 0.086273 0.086273
0.232605 0.104919 0.086273
0.386780 0.259094 0.199219
0.540955 0.413269 0.353394
0.695129 0.567413 0.507538
0.849304 0.721588 0.661743
0.849304 0.721588 0.661743
0.086273 0.086273 0.086273
0.232605 0.104919 0.086273
0.386780 0.259094 0.199219
0.540955 0.413269 0.353394
0.695129 0.567413 0.507538
0.849304 0.721588 0.661743
1.000000 0.876953 0.819275
