other luts/实验工艺系列/蛋白银盐法1.cube
#Created by: Adobe Photoshop Export Color Lookup Plugin
#Copyright: (C) Copyright 2026 汉图
TITLE "实验工艺"
#LUT size
LUT_3D_SIZE 4
#data domain
DOMAIN_MIN 0.0 0.0 0.0
DOMAIN_MAX 1.0 1.0 1.0
#LUT data points
0.086273 0.086273 0.086273
0.180115 0.086273 0.086273
0.281799 0.154083 0.094208
0.383484 0.255798 0.195923
0.424316 0.296631 0.236755
0.417633 0.289917 0.230042
0.519287 0.391602 0.331726
0.620972 0.493286 0.433411
0.770203 0.642517 0.582642
0.763489 0.635803 0.575928
0.756775 0.629089 0.569214
0.858490 0.730804 0.670929
1.000000 1.000000 1.000000
1.000000 1.000000 1.000000
1.000000 1.000000 1.000000
1.000000 1.000000 1.000000
0.086273 0.086273 0.086273
0.086273 0.086273 0.086273
0.180084 0.086273 0.086273
0.281799 0.154083 0.094208
0.086273 0.086273 0.086273
0.417633 0.289917 0.230042
0.519287 0.391602 0.331726
0.620972 0.493286 0.433411
0.424286 0.296600 0.236725
0.763489 0.635803 0.575928
0.756775 0.629089 0.569214
0.858490 0.730804 0.670929
0.770203 0.642517 0.582642
1.000000 1.000000 1.000000
1.000000 1.000000 1.000000
1.000000 1.000000 1.000000
0.086273 0.086273 0.086273
0.086273 0.086273 0.086273
0.086273 0.086273 0.086273
0.180115 0.086273 0.086273
0.086273 0.086273 0.086273
0.417633 0.289917 0.230042
0.417633 0.289917 0.230042
0.519318 0.391632 0.331757
0.086273 0.086273 0.086273
0.417633 0.289917 0.230042
0.756775 0.629089 0.569214
0.858490 0.730804 0.670929
0.424316 0.296631 0.236755
0.763519 0.635834 0.575958
1.000000 1.000000 1.000000
1.000000 1.000000 1.000000
0.086273 0.086273 0.086273
0.086273 0.086273 0.086273
0.086273 0.086273 0.086273
0.086273 0.086273 0.086273
0.086273 0.086273 0.086273
0.417633 0.289917 0.230042
0.417633 0.289917 0.230042
0.417633 0.289917 0.230042
0.086273 0.086273 0.086273
0.417633 0.289917 0.230042
0.756775 0.629089 0.569214
0.756775 0.629089 0.569214
0.086273 0.086273 0.086273
0.417633 0.289917 0.230042
0.756775 0.629089 0.569214
1.000000 1.000000 1.000000
