other luts/实验工艺系列/蛋白银盐法3.cube
#Created by: Adobe Photoshop Export Color Lookup Plugin
#Copyright: (C) Copyright 2026 汉图
TITLE "实验工艺"
#LUT size
LUT_3D_SIZE 4
#data domain
DOMAIN_MIN 0.0 0.0 0.0
DOMAIN_MAX 1.0 1.0 1.0
#LUT data points
0.086273 0.086273 0.086273
0.148804 0.086273 0.086273
0.250488 0.158691 0.154724
0.352173 0.260406 0.256409
0.393036 0.301239 0.297241
0.386322 0.294525 0.290558
0.487976 0.396179 0.392212
0.589691 0.497894 0.493927
0.738892 0.647095 0.643127
0.732178 0.640411 0.636414
0.725494 0.633698 0.629730
0.827179 0.735382 0.731415
1.000000 1.000000 1.000000
1.000000 1.000000 1.000000
1.000000 1.000000 1.000000
1.000000 1.000000 1.000000
0.086273 0.086273 0.086273
0.086273 0.086273 0.086273
0.148773 0.086273 0.086273
0.250488 0.158691 0.154724
0.086273 0.086273 0.086273
0.386322 0.294525 0.290558
0.487976 0.396179 0.392212
0.589691 0.497894 0.493927
0.393005 0.301208 0.297211
0.732178 0.640411 0.636414
0.725494 0.633698 0.629730
0.827179 0.735382 0.731415
0.738892 0.647095 0.643127
1.000000 1.000000 1.000000
1.000000 1.000000 1.000000
1.000000 1.000000 1.000000
0.086273 0.086273 0.086273
0.086273 0.086273 0.086273
0.086273 0.086273 0.086273
0.148804 0.086273 0.086273
0.086273 0.086273 0.086273
0.386322 0.294525 0.290558
0.386322 0.294525 0.290558
0.488007 0.396210 0.392242
0.086273 0.086273 0.086273
0.386322 0.294525 0.290558
0.725494 0.633698 0.629730
0.827179 0.735382 0.731415
0.393036 0.301239 0.297241
0.732208 0.640442 0.636444
1.000000 1.000000 1.000000
1.000000 1.000000 1.000000
0.086273 0.086273 0.086273
0.086273 0.086273 0.086273
0.086273 0.086273 0.086273
0.086273 0.086273 0.086273
0.086273 0.086273 0.086273
0.386322 0.294525 0.290558
0.386322 0.294525 0.290558
0.386322 0.294525 0.290558
0.086273 0.086273 0.086273
0.386322 0.294525 0.290558
0.725494 0.633698 0.629730
0.725494 0.633698 0.629730
0.086273 0.086273 0.086273
0.386322 0.294525 0.290558
0.725494 0.633698 0.629730
1.000000 1.000000 1.000000
