other luts/实验工艺系列/蛋白银盐法2.cube
#Created by: Adobe Photoshop Export Color Lookup Plugin
#Copyright: (C) Copyright 2026 汉图
TITLE "实验工艺"
#LUT size
LUT_3D_SIZE 4
#data domain
DOMAIN_MIN 0.0 0.0 0.0
DOMAIN_MAX 1.0 1.0 1.0
#LUT data points
0.086273 0.086273 0.086273
0.140961 0.086273 0.086273
0.267303 0.171539 0.086273
0.369019 0.273254 0.141571
0.409851 0.314087 0.182404
0.403137 0.307373 0.175720
0.504822 0.409058 0.277374
0.606506 0.510742 0.379089
0.755737 0.659973 0.528290
0.749023 0.653259 0.521576
0.742310 0.646545 0.514862
0.844025 0.748260 0.616577
1.000000 1.000000 1.000000
1.000000 1.000000 1.000000
1.000000 1.000000 1.000000
1.000000 1.000000 1.000000
0.086273 0.086273 0.086273
0.086273 0.086273 0.086273
0.140900 0.086273 0.086273
0.267303 0.171539 0.086273
0.086273 0.086273 0.086273
0.403137 0.307373 0.175720
0.504822 0.409058 0.277374
0.606506 0.510742 0.379089
0.409821 0.314056 0.182373
0.749023 0.653259 0.521576
0.742310 0.646545 0.514862
0.844025 0.748260 0.616577
0.755737 0.659973 0.528290
1.000000 1.000000 1.000000
1.000000 1.000000 1.000000
1.000000 1.000000 1.000000
0.086273 0.086273 0.086273
0.086273 0.086273 0.086273
0.086273 0.086273 0.086273
0.140961 0.086273 0.086273
0.086273 0.086273 0.086273
0.403137 0.307373 0.175720
0.403137 0.307373 0.175720
0.504852 0.409088 0.277405
0.086273 0.086273 0.086273
0.403137 0.307373 0.175720
0.742310 0.646545 0.514862
0.844025 0.748260 0.616577
0.409851 0.314087 0.182404
0.749054 0.653290 0.521606
1.000000 1.000000 1.000000
1.000000 1.000000 1.000000
0.086273 0.086273 0.086273
0.086273 0.086273 0.086273
0.086273 0.086273 0.086273
0.086273 0.086273 0.086273
0.086273 0.086273 0.086273
0.403137 0.307373 0.175720
0.403137 0.307373 0.175720
0.403137 0.307373 0.175720
0.086273 0.086273 0.086273
0.403137 0.307373 0.175720
0.742310 0.646545 0.514862
0.742310 0.646545 0.514862
0.086273 0.086273 0.086273
0.403137 0.307373 0.175720
0.742310 0.646545 0.514862
1.000000 1.000000 1.000000
