other luts/实验工艺系列/达盖尔银版法2.cube
#Created by: Adobe Photoshop Export Color Lookup Plugin
#Copyright: (C) Copyright 2026 汉图
TITLE "实验工艺"
#LUT size
LUT_3D_SIZE 7
#data domain
#LUT data points
DOMAIN_MIN 0.000000 0.000000 0.000000
DOMAIN_MAX 0.909091 0.909091 0.909091
0.086273 0.086273 0.086273
0.086273 0.086273 0.086273
0.086273 0.091095 0.086273
0.121368 0.137329 0.086273
0.167572 0.183533 0.086273
0.213776 0.229736 0.125977
0.260010 0.275970 0.172241
0.139893 0.155853 0.086273
0.136871 0.152832 0.086273
0.183105 0.199066 0.095306
0.229309 0.245270 0.141510
0.275513 0.291473 0.187714
0.321747 0.337708 0.233978
0.367950 0.383911 0.280182
0.297119 0.313080 0.209351
0.294098 0.310059 0.206299
0.291046 0.307007 0.203247
0.337280 0.353241 0.249481
0.383484 0.399445 0.295685
0.429688 0.445648 0.341919
0.475952 0.491913 0.388153
0.454376 0.470337 0.366608
0.451294 0.467285 0.363525
0.448273 0.464233 0.360474
0.445221 0.461182 0.357422
0.491425 0.507385 0.403656
0.537659 0.553619 0.449890
0.583893 0.599854 0.496094
0.611572 0.627533 0.523804
0.608521 0.624512 0.520752
0.605469 0.621429 0.517670
0.602417 0.618378 0.514618
0.599365 0.615326 0.511597
0.645630 0.661591 0.557831
0.691833 0.707794 0.604034
0.768799 0.784760 0.681030
0.765747 0.781708 0.677979
0.762726 0.778687 0.674927
0.759644 0.775604 0.671844
0.756592 0.772552 0.668823
0.753571 0.769531 0.665771
0.799805 0.815765 0.712006
0.926025 0.941986 0.838226
0.922974 0.938934 0.835205
0.919952 0.935913 0.832153
0.916901 0.932861 0.829102
0.913818 0.929779 0.826050
0.910797 0.926758 0.822998
0.907745 0.923706 0.819946
0.086273 0.086273 0.086273
0.086273 0.086273 0.086273
0.086273 0.086273 0.086273
0.086273 0.091095 0.086273
0.121338 0.137299 0.086273
0.167572 0.183533 0.086273
0.213776 0.229736 0.125977
0.086273 0.086273 0.086273
0.136871 0.152832 0.086273
0.183105 0.199066 0.095306
0.229309 0.245270 0.141510
0.275513 0.291473 0.187714
0.321747 0.337708 0.233978
0.367950 0.383911 0.280182
0.139893 0.155853 0.086273
0.294098 0.310059 0.206299
0.291046 0.307007 0.203247
0.337280 0.353241 0.249481
0.383484 0.399445 0.295685
0.429688 0.445648 0.341919
0.475952 0.491913 0.388153
0.297119 0.313080 0.209351
0.451294 0.467285 0.363525
0.448273 0.464233 0.360474
0.445221 0.461182 0.357422
0.491425 0.507385 0.403656
0.537659 0.553619 0.449890
0.583893 0.599854 0.496094
0.454346 0.470306 0.366577
0.608521 0.624512 0.520752
0.605469 0.621429 0.517670
0.602417 0.618378 0.514618
0.599365 0.615326 0.511597
0.645630 0.661591 0.557831
0.691833 0.707794 0.604034
0.611572 0.627533 0.523804
0.765747 0.781708 0.677979
0.762726 0.778687 0.674927
0.759644 0.775604 0.671844
0.756592 0.772552 0.668823
0.753571 0.769531 0.665771
0.799805 0.815765 0.712006
0.768799 0.784760 0.681030
0.922974 0.938934 0.835205
0.919952 0.935913 0.832153
0.916901 0.932861 0.829102
0.913818 0.929779 0.826050
0.910797 0.926758 0.822998
0.907745 0.923706 0.819946
0.086273 0.086273 0.086273
0.086273 0.086273 0.086273
0.086273 0.086273 0.086273
0.086273 0.086273 0.086273
0.086273 0.091095 0.086273
0.121338 0.137299 0.086273
0.167572 0.183533 0.086273
0.086273 0.086273 0.086273
0.136871 0.152832 0.086273
0.136871 0.152832 0.086273
0.183105 0.199066 0.095306
0.229309 0.245270 0.141510
0.275513 0.291473 0.187714
0.321747 0.337708 0.233978
0.086273 0.086273 0.086273
0.136871 0.152832 0.086273
0.291046 0.307007 0.203247
0.337280 0.353241 0.249481
0.383484 0.399445 0.295685
0.429688 0.445648 0.341919
0.475952 0.491913 0.388153
0.139893 0.155853 0.086273
0.294098 0.310059 0.206299
0.448273 0.464233 0.360474
0.445221 0.461182 0.357422
0.491425 0.507385 0.403656
0.537659 0.553619 0.449890
0.583893 0.599854 0.496094
0.297089 0.313049 0.209320
0.451263 0.467255 0.363495
0.605469 0.621429 0.517670
0.602417 0.618378 0.514618
0.599365 0.615326 0.511597
0.645630 0.661591 0.557831
0.691833 0.707794 0.604034
0.454346 0.470306 0.366577
0.608521 0.624512 0.520752
0.762726 0.778687 0.674927
0.759644 0.775604 0.671844
0.756592 0.772552 0.668823
0.753571 0.769531 0.665771
0.799805 0.815765 0.712006
0.611572 0.627533 0.523804
0.765747 0.781708 0.677979
0.919952 0.935913 0.832153
0.916901 0.932861 0.829102
0.913818 0.929779 0.826050
0.910797 0.926758 0.822998
0.907745 0.923706 0.819946
0.086273 0.086273 0.086273
0.086273 0.086273 0.086273
0.086273 0.086273 0.086273
0.086273 0.086273 0.086273
0.086273 0.086273 0.086273
0.086273 0.091095 0.086273
0.121338 0.137299 0.086273
0.086273 0.086273 0.086273
0.136871 0.152832 0.086273
0.136871 0.152832 0.086273
0.136871 0.152832 0.086273
0.183075 0.199036 0.095276
0.229309 0.245270 0.141510
0.275513 0.291473 0.187714
0.086273 0.086273 0.086273
0.136871 0.152832 0.086273
0.291046 0.307007 0.203247
0.291046 0.307007 0.203247
0.337250 0.353210 0.249451
0.383484 0.399445 0.295685
0.429688 0.445648 0.341919
0.086273 0.086273 0.086273
0.136871 0.152832 0.086273
0.291046 0.307007 0.203247
0.445221 0.461182 0.357422
0.491425 0.507385 0.403656
0.537659 0.553619 0.449890
0.583893 0.599854 0.496094
0.139862 0.155823 0.086273
0.294067 0.310028 0.206268
0.448242 0.464203 0.360443
0.602417 0.618378 0.514618
0.599365 0.615326 0.511597
0.645630 0.661591 0.557831
0.691833 0.707794 0.604034
0.297089 0.313049 0.209320
0.451263 0.467255 0.363495
0.605469 0.621429 0.517670
0.759644 0.775604 0.671844
0.756592 0.772552 0.668823
0.753571 0.769531 0.665771
0.799805 0.815765 0.712006
0.454346 0.470306 0.366577
0.608521 0.624512 0.520752
0.762726 0.778687 0.674927
0.916901 0.932861 0.829102
0.913818 0.929779 0.826050
0.910797 0.926758 0.822998
0.907745 0.923706 0.819946
0.086273 0.086273 0.086273
0.086273 0.086273 0.086273
0.086273 0.086273 0.086273
0.086273 0.086273 0.086273
0.086273 0.086273 0.086273
0.086273 0.086273 0.086273
0.086273 0.091095 0.086273
0.086273 0.086273 0.086273
0.136871 0.152832 0.086273
0.136871 0.152832 0.086273
0.136871 0.152832 0.086273
0.136871 0.152832 0.086273
0.183105 0.199066 0.095306
0.229309 0.245270 0.141510
0.086273 0.086273 0.086273
0.136871 0.152832 0.086273
0.291046 0.307007 0.203247
0.291046 0.307007 0.203247
0.291046 0.307007 0.203247
0.337280 0.353241 0.249481
0.383484 0.399445 0.295685
0.086273 0.086273 0.086273
0.136871 0.152832 0.086273
0.291046 0.307007 0.203247
0.445221 0.461182 0.357422
0.445221 0.461182 0.357422
0.491455 0.507416 0.403687
0.537659 0.553619 0.449890
0.086273 0.086273 0.086273
0.136871 0.152832 0.086273
0.291046 0.307007 0.203247
0.445221 0.461182 0.357422
0.599365 0.615326 0.511597
0.645630 0.661591 0.557831
0.691833 0.707794 0.604034
0.139893 0.155853 0.086273
0.294098 0.310059 0.206299
0.448273 0.464233 0.360474
0.602448 0.618408 0.514648
0.756592 0.772552 0.668823
0.753571 0.769531 0.665771
0.799805 0.815765 0.712006
0.297119 0.313080 0.209351
0.451294 0.467285 0.363525
0.605499 0.621460 0.517700
0.759674 0.775635 0.671875
0.913818 0.929779 0.826050
0.910797 0.926758 0.822998
0.907745 0.923706 0.819946
0.086273 0.086273 0.086273
0.086273 0.086273 0.086273
0.086273 0.086273 0.086273
0.086273 0.086273 0.086273
0.086273 0.086273 0.086273
0.086273 0.086273 0.086273
0.086273 0.086273 0.086273
0.086273 0.086273 0.086273
0.136871 0.152832 0.086273
0.136871 0.152832 0.086273
0.136871 0.152832 0.086273
0.136871 0.152832 0.086273
0.136871 0.152832 0.086273
0.183105 0.199066 0.095306
0.086273 0.086273 0.086273
0.136871 0.152832 0.086273
0.291046 0.307007 0.203247
0.291046 0.307007 0.203247
0.291046 0.307007 0.203247
0.291046 0.307007 0.203247
0.337280 0.353241 0.249481
0.086273 0.086273 0.086273
0.136871 0.152832 0.086273
0.291046 0.307007 0.203247
0.445221 0.461182 0.357422
0.445221 0.461182 0.357422
0.445221 0.461182 0.357422
0.491455 0.507416 0.403687
0.086273 0.086273 0.086273
0.136871 0.152832 0.086273
0.291046 0.307007 0.203247
0.445221 0.461182 0.357422
0.599365 0.615326 0.511597
0.599365 0.615326 0.511597
0.645630 0.661591 0.557831
0.086273 0.086273 0.086273
0.136871 0.152832 0.086273
0.291046 0.307007 0.203247
0.445221 0.461182 0.357422
0.599365 0.615326 0.511597
0.753571 0.769531 0.665771
0.799805 0.815765 0.712006
0.139893 0.155853 0.086273
0.294098 0.310059 0.206299
0.448273 0.464233 0.360474
0.602448 0.618408 0.514648
0.756592 0.772552 0.668823
0.910797 0.926758 0.822998
0.907745 0.923706 0.819946
0.086273 0.086273 0.086273
0.086273 0.086273 0.086273
0.086273 0.086273 0.086273
0.086273 0.086273 0.086273
0.086273 0.086273 0.086273
0.086273 0.086273 0.086273
0.086273 0.086273 0.086273
0.086273 0.086273 0.086273
0.136871 0.152832 0.086273
0.136871 0.152832 0.086273
0.136871 0.152832 0.086273
0.136871 0.152832 0.086273
0.136871 0.152832 0.086273
0.136871 0.152832 0.086273
0.086273 0.086273 0.086273
0.136871 0.152832 0.086273
0.291046 0.307007 0.203247
0.291046 0.307007 0.203247
0.291046 0.307007 0.203247
0.291046 0.307007 0.203247
0.291046 0.307007 0.203247
0.086273 0.086273 0.086273
0.136871 0.152832 0.086273
0.291046 0.307007 0.203247
0.445221 0.461182 0.357422
0.445221 0.461182 0.357422
0.445221 0.461182 0.357422
0.445221 0.461182 0.357422
0.086273 0.086273 0.086273
0.136871 0.152832 0.086273
0.291046 0.307007 0.203247
0.445221 0.461182 0.357422
0.599365 0.615326 0.511597
0.599365 0.615326 0.511597
0.599365 0.615326 0.511597
0.086273 0.086273 0.086273
0.136871 0.152832 0.086273
0.291046 0.307007 0.203247
0.445221 0.461182 0.357422
0.599365 0.615326 0.511597
0.753571 0.769531 0.665771
0.753571 0.769531 0.665771
0.086273 0.086273 0.086273
0.136871 0.152832 0.086273
0.291046 0.307007 0.203247
0.445221 0.461182 0.357422
0.599365 0.615326 0.511597
0.753571 0.769531 0.665771
0.907745 0.923706 0.819946
