other luts/实验工艺系列/达盖尔银版法1.cube
#Created by: Adobe Photoshop Export Color Lookup Plugin
#Copyright: (C) Copyright 2026 汉图
TITLE "实验工艺"
#LUT size
LUT_3D_SIZE 7
#data domain
#LUT data points
DOMAIN_MIN 0.000000 0.000000 0.000000
DOMAIN_MAX 0.909091 0.909091 0.909091
0.086273 0.086273 0.086273
0.086273 0.086273 0.086273
0.099487 0.086273 0.086273
0.158081 0.128204 0.086273
0.206787 0.174866 0.086273
0.252991 0.221069 0.086273
0.299225 0.267303 0.111664
0.179138 0.147186 0.086273
0.176086 0.144165 0.086273
0.222321 0.190399 0.086273
0.268524 0.236603 0.086273
0.314728 0.282806 0.127167
0.360962 0.329041 0.173401
0.407196 0.375244 0.219604
0.336365 0.304413 0.148773
0.333313 0.301392 0.145752
0.330261 0.298340 0.142700
0.376495 0.344574 0.188934
0.422699 0.390778 0.235138
0.468903 0.436981 0.281342
0.515167 0.483246 0.327576
0.493622 0.461670 0.306030
0.490540 0.458618 0.302979
0.487488 0.455566 0.299927
0.484436 0.452515 0.296875
0.530640 0.498718 0.343079
0.576904 0.544952 0.389313
0.623108 0.591187 0.435547
0.650787 0.618866 0.463226
0.647766 0.615845 0.460205
0.644684 0.612762 0.457123
0.641632 0.609711 0.454071
0.638580 0.606659 0.451019
0.684845 0.652924 0.497253
0.731049 0.699127 0.543488
0.808014 0.776093 0.620453
0.804993 0.773071 0.617432
0.801941 0.770020 0.614380
0.798859 0.766937 0.611298
0.795807 0.763885 0.608246
0.792786 0.760864 0.605225
0.839020 0.807098 0.651459
0.965240 0.933319 0.777679
0.962219 0.930298 0.774658
0.959167 0.927246 0.771606
0.956116 0.924194 0.768555
0.953033 0.921112 0.765472
0.950012 0.918091 0.762451
0.946960 0.915039 0.759399
0.086273 0.086273 0.086273
0.086273 0.086273 0.086273
0.086273 0.086273 0.086273
0.099487 0.086273 0.086273
0.158051 0.128174 0.086273
0.206787 0.174866 0.086273
0.252991 0.221069 0.086273
0.086273 0.086273 0.086273
0.176086 0.144165 0.086273
0.222321 0.190399 0.086273
0.268524 0.236603 0.086273
0.314728 0.282806 0.127167
0.360962 0.329041 0.173401
0.407196 0.375244 0.219604
0.179138 0.147186 0.086273
0.333313 0.301392 0.145752
0.330261 0.298340 0.142700
0.376495 0.344574 0.188934
0.422699 0.390778 0.235138
0.468903 0.436981 0.281342
0.515167 0.483246 0.327576
0.336365 0.304413 0.148773
0.490540 0.458618 0.302979
0.487488 0.455566 0.299927
0.484436 0.452515 0.296875
0.530640 0.498718 0.343079
0.576904 0.544952 0.389313
0.623108 0.591187 0.435547
0.493591 0.461639 0.306000
0.647766 0.615845 0.460205
0.644684 0.612762 0.457123
0.641632 0.609711 0.454071
0.638580 0.606659 0.451019
0.684845 0.652924 0.497253
0.731049 0.699127 0.543488
0.650787 0.618866 0.463226
0.804993 0.773071 0.617432
0.801941 0.770020 0.614380
0.798859 0.766937 0.611298
0.795807 0.763885 0.608246
0.792786 0.760864 0.605225
0.839020 0.807098 0.651459
0.808014 0.776093 0.620453
0.962219 0.930298 0.774658
0.959167 0.927246 0.771606
0.956116 0.924194 0.768555
0.953033 0.921112 0.765472
0.950012 0.918091 0.762451
0.946960 0.915039 0.759399
0.086273 0.086273 0.086273
0.086273 0.086273 0.086273
0.086273 0.086273 0.086273
0.086273 0.086273 0.086273
0.099487 0.086273 0.086273
0.158051 0.128174 0.086273
0.206787 0.174866 0.086273
0.086273 0.086273 0.086273
0.176086 0.144165 0.086273
0.176086 0.144165 0.086273
0.222321 0.190399 0.086273
0.268524 0.236603 0.086273
0.314728 0.282806 0.127167
0.360962 0.329041 0.173401
0.086273 0.086273 0.086273
0.176086 0.144165 0.086273
0.330261 0.298340 0.142700
0.376495 0.344574 0.188934
0.422699 0.390778 0.235138
0.468903 0.436981 0.281342
0.515167 0.483246 0.327576
0.179138 0.147186 0.086273
0.333313 0.301392 0.145752
0.487488 0.455566 0.299927
0.484436 0.452515 0.296875
0.530640 0.498718 0.343079
0.576904 0.544952 0.389313
0.623108 0.591187 0.435547
0.336334 0.304382 0.148743
0.490509 0.458588 0.302948
0.644684 0.612762 0.457123
0.641632 0.609711 0.454071
0.638580 0.606659 0.451019
0.684845 0.652924 0.497253
0.731049 0.699127 0.543488
0.493591 0.461639 0.306000
0.647766 0.615845 0.460205
0.801941 0.770020 0.614380
0.798859 0.766937 0.611298
0.795807 0.763885 0.608246
0.792786 0.760864 0.605225
0.839020 0.807098 0.651459
0.650787 0.618866 0.463226
0.804993 0.773071 0.617432
0.959167 0.927246 0.771606
0.956116 0.924194 0.768555
0.953033 0.921112 0.765472
0.950012 0.918091 0.762451
0.946960 0.915039 0.759399
0.086273 0.086273 0.086273
0.086273 0.086273 0.086273
0.086273 0.086273 0.086273
0.086273 0.086273 0.086273
0.086273 0.086273 0.086273
0.099487 0.086273 0.086273
0.158051 0.128174 0.086273
0.086273 0.086273 0.086273
0.176086 0.144165 0.086273
0.176086 0.144165 0.086273
0.176086 0.144165 0.086273
0.222290 0.190369 0.086273
0.268524 0.236603 0.086273
0.314728 0.282806 0.127167
0.086273 0.086273 0.086273
0.176086 0.144165 0.086273
0.330261 0.298340 0.142700
0.330261 0.298340 0.142700
0.376465 0.344543 0.188904
0.422699 0.390778 0.235138
0.468903 0.436981 0.281342
0.086273 0.086273 0.086273
0.176086 0.144165 0.086273
0.330261 0.298340 0.142700
0.484436 0.452515 0.296875
0.530640 0.498718 0.343079
0.576904 0.544952 0.389313
0.623108 0.591187 0.435547
0.179108 0.147156 0.086273
0.333282 0.301361 0.145721
0.487457 0.455536 0.299896
0.641632 0.609711 0.454071
0.638580 0.606659 0.451019
0.684845 0.652924 0.497253
0.731049 0.699127 0.543488
0.336334 0.304382 0.148743
0.490509 0.458588 0.302948
0.644684 0.612762 0.457123
0.798859 0.766937 0.611298
0.795807 0.763885 0.608246
0.792786 0.760864 0.605225
0.839020 0.807098 0.651459
0.493591 0.461639 0.306000
0.647766 0.615845 0.460205
0.801941 0.770020 0.614380
0.956116 0.924194 0.768555
0.953033 0.921112 0.765472
0.950012 0.918091 0.762451
0.946960 0.915039 0.759399
0.086273 0.086273 0.086273
0.086273 0.086273 0.086273
0.086273 0.086273 0.086273
0.086273 0.086273 0.086273
0.086273 0.086273 0.086273
0.086273 0.086273 0.086273
0.099487 0.086273 0.086273
0.086273 0.086273 0.086273
0.176086 0.144165 0.086273
0.176086 0.144165 0.086273
0.176086 0.144165 0.086273
0.176086 0.144165 0.086273
0.222321 0.190399 0.086273
0.268524 0.236603 0.086273
0.086273 0.086273 0.086273
0.176086 0.144165 0.086273
0.330261 0.298340 0.142700
0.330261 0.298340 0.142700
0.330261 0.298340 0.142700
0.376495 0.344574 0.188934
0.422699 0.390778 0.235138
0.086273 0.086273 0.086273
0.176086 0.144165 0.086273
0.330261 0.298340 0.142700
0.484436 0.452515 0.296875
0.484436 0.452515 0.296875
0.530670 0.498749 0.343109
0.576904 0.544952 0.389313
0.086273 0.086273 0.086273
0.176086 0.144165 0.086273
0.330261 0.298340 0.142700
0.484436 0.452515 0.296875
0.638580 0.606659 0.451019
0.684845 0.652924 0.497253
0.731049 0.699127 0.543488
0.179138 0.147186 0.086273
0.333313 0.301392 0.145752
0.487488 0.455566 0.299927
0.641663 0.609741 0.454102
0.795807 0.763885 0.608246
0.792786 0.760864 0.605225
0.839020 0.807098 0.651459
0.336365 0.304413 0.148773
0.490540 0.458618 0.302979
0.644714 0.612793 0.457153
0.798889 0.766968 0.611328
0.953033 0.921112 0.765472
0.950012 0.918091 0.762451
0.946960 0.915039 0.759399
0.086273 0.086273 0.086273
0.086273 0.086273 0.086273
0.086273 0.086273 0.086273
0.086273 0.086273 0.086273
0.086273 0.086273 0.086273
0.086273 0.086273 0.086273
0.086273 0.086273 0.086273
0.086273 0.086273 0.086273
0.176086 0.144165 0.086273
0.176086 0.144165 0.086273
0.176086 0.144165 0.086273
0.176086 0.144165 0.086273
0.176086 0.144165 0.086273
0.222321 0.190399 0.086273
0.086273 0.086273 0.086273
0.176086 0.144165 0.086273
0.330261 0.298340 0.142700
0.330261 0.298340 0.142700
0.330261 0.298340 0.142700
0.330261 0.298340 0.142700
0.376495 0.344574 0.188934
0.086273 0.086273 0.086273
0.176086 0.144165 0.086273
0.330261 0.298340 0.142700
0.484436 0.452515 0.296875
0.484436 0.452515 0.296875
0.484436 0.452515 0.296875
0.530670 0.498749 0.343109
0.086273 0.086273 0.086273
0.176086 0.144165 0.086273
0.330261 0.298340 0.142700
0.484436 0.452515 0.296875
0.638580 0.606659 0.451019
0.638580 0.606659 0.451019
0.684845 0.652924 0.497253
0.086273 0.086273 0.086273
0.176086 0.144165 0.086273
0.330261 0.298340 0.142700
0.484436 0.452515 0.296875
0.638580 0.606659 0.451019
0.792786 0.760864 0.605225
0.839020 0.807098 0.651459
0.179138 0.147186 0.086273
0.333313 0.301392 0.145752
0.487488 0.455566 0.299927
0.641663 0.609741 0.454102
0.795807 0.763885 0.608246
0.950012 0.918091 0.762451
0.946960 0.915039 0.759399
0.086273 0.086273 0.086273
0.086273 0.086273 0.086273
0.086273 0.086273 0.086273
0.086273 0.086273 0.086273
0.086273 0.086273 0.086273
0.086273 0.086273 0.086273
0.086273 0.086273 0.086273
0.086273 0.086273 0.086273
0.176086 0.144165 0.086273
0.176086 0.144165 0.086273
0.176086 0.144165 0.086273
0.176086 0.144165 0.086273
0.176086 0.144165 0.086273
0.176086 0.144165 0.086273
0.086273 0.086273 0.086273
0.176086 0.144165 0.086273
0.330261 0.298340 0.142700
0.330261 0.298340 0.142700
0.330261 0.298340 0.142700
0.330261 0.298340 0.142700
0.330261 0.298340 0.142700
0.086273 0.086273 0.086273
0.176086 0.144165 0.086273
0.330261 0.298340 0.142700
0.484436 0.452515 0.296875
0.484436 0.452515 0.296875
0.484436 0.452515 0.296875
0.484436 0.452515 0.296875
0.086273 0.086273 0.086273
0.176086 0.144165 0.086273
0.330261 0.298340 0.142700
0.484436 0.452515 0.296875
0.638580 0.606659 0.451019
0.638580 0.606659 0.451019
0.638580 0.606659 0.451019
0.086273 0.086273 0.086273
0.176086 0.144165 0.086273
0.330261 0.298340 0.142700
0.484436 0.452515 0.296875
0.638580 0.606659 0.451019
0.792786 0.760864 0.605225
0.792786 0.760864 0.605225
0.086273 0.086273 0.086273
0.176086 0.144165 0.086273
0.330261 0.298340 0.142700
0.484436 0.452515 0.296875
0.638580 0.606659 0.451019
0.792786 0.760864 0.605225
0.946960 0.915039 0.759399
