other luts/实验工艺系列/达盖尔银版法1.cube
#Created by: Adobe Photoshop Export Color Lookup Plugin
#Copyright: (C) Copyright 2026 汉图
TITLE "实验工艺"
#LUT size
LUT_3D_SIZE 34
#data domain
DOMAIN_MIN 0.0 0.0 0.0
DOMAIN_MAX 1.0 1.0 1.0
#LUT data points
0.086273 0.086273 0.086273
0.086273 0.086273 0.086273
0.086273 0.086273 0.086273
0.086273 0.086273 0.086273
0.086273 0.086273 0.086273
0.086273 0.086273 0.086273
0.086273 0.086273 0.086273
0.086273 0.086273 0.086273
0.086273 0.086273 0.086273
0.087799 0.086273 0.086273
0.099487 0.086273 0.086273
0.111237 0.089325 0.086273
0.122925 0.098999 0.086273
0.134613 0.108734 0.086273
0.146362 0.118439 0.086273
0.158081 0.128204 0.086273
0.169739 0.137878 0.086273
0.179077 0.147125 0.086273
0.188293 0.156372 0.086273
0.197540 0.165619 0.086273
0.206787 0.174866 0.086273
0.216034 0.184113 0.086273
0.225281 0.193359 0.086273
0.234528 0.202606 0.086273
0.243774 0.211853 0.086273
0.252991 0.221069 0.086273
0.262268 0.230347 0.086273
0.271515 0.239594 0.086273
0.280731 0.248810 0.093170
0.289978 0.258057 0.102417
0.299225 0.267303 0.111664
0.308502 0.276581 0.120941
0.317719 0.285797 0.130157
0.326965 0.295044 0.139404
0.086273 0.086273 0.086273
0.086273 0.086273 0.086273
0.086273 0.086273 0.086273
0.086273 0.086273 0.086273
0.086273 0.086273 0.086273
0.086273 0.086273 0.086273
0.086273 0.086273 0.086273
0.091736 0.086273 0.086273
0.103455 0.086273 0.086273
0.115143 0.092590 0.086273
0.126862 0.102264 0.086273
0.138580 0.112000 0.086273
0.150269 0.121704 0.086273
0.161987 0.131439 0.086273
0.172913 0.140991 0.086273
0.182159 0.150238 0.086273
0.191406 0.159485 0.086273
0.200653 0.168732 0.086273
0.209900 0.177979 0.086273
0.219116 0.187195 0.086273
0.228363 0.196442 0.086273
0.237640 0.205719 0.086273
0.246887 0.214966 0.086273
0.256104 0.224182 0.086273
0.265350 0.233429 0.086273
0.274628 0.242706 0.087036
0.283844 0.251923 0.096283
0.293091 0.261169 0.105530
0.302338 0.270416 0.114777
0.311554 0.279633 0.123993
0.320831 0.288910 0.133270
0.330078 0.298157 0.142517
0.339325 0.307404 0.151764
0.348541 0.316620 0.160980
0.086273 0.086273 0.086273
0.086273 0.086273 0.086273
0.086273 0.086273 0.086273
0.086273 0.086273 0.086273
0.086273 0.086273 0.086273
0.095642 0.086273 0.086273
0.107391 0.086273 0.086273
0.119110 0.095825 0.086273
0.130768 0.105530 0.086273
0.142517 0.115234 0.086273
0.154236 0.125000 0.086273
0.165894 0.134674 0.086273
0.176025 0.144104 0.086273
0.185272 0.153351 0.086273
0.194489 0.162567 0.086273
0.203735 0.171814 0.086273
0.213013 0.181091 0.086273
0.222229 0.190308 0.086273
0.231476 0.199554 0.086273
0.240723 0.208801 0.086273
0.249969 0.218018 0.086273
0.259216 0.227295 0.086273
0.268463 0.236542 0.086273
0.277710 0.245789 0.090149
0.286957 0.255005 0.099365
0.296204 0.264282 0.108643
0.305450 0.273529 0.117889
0.314667 0.282745 0.127106
0.323944 0.291992 0.136353
0.333191 0.301270 0.145630
0.342407 0.310486 0.154846
0.351654 0.319733 0.164093
0.360901 0.328979 0.173340
0.370178 0.338257 0.182617
0.101929 0.086273 0.086273
0.101105 0.086273 0.086273
0.100372 0.086273 0.086273
0.099609 0.086273 0.086273
0.111298 0.089386 0.086273
0.123016 0.099060 0.086273
0.134705 0.108795 0.086273
0.146423 0.118500 0.086273
0.158173 0.128265 0.086273
0.169830 0.137939 0.086273
0.179138 0.147186 0.086273
0.188385 0.156464 0.086273
0.197601 0.165680 0.086273
0.206848 0.174927 0.086273
0.216125 0.184174 0.086273
0.225342 0.193420 0.086273
0.234589 0.202667 0.086273
0.243835 0.211914 0.086273
0.253052 0.221130 0.086273
0.262329 0.230408 0.086273
0.271576 0.239655 0.086273
0.280792 0.248871 0.093231
0.290039 0.258118 0.102478
0.299316 0.267365 0.111725
0.308563 0.276642 0.121002
0.317780 0.285858 0.130219
0.327026 0.295105 0.139465
0.336273 0.304352 0.148712
0.345520 0.313599 0.157959
0.354767 0.322845 0.167206
0.364014 0.332092 0.176453
0.373230 0.341309 0.185669
0.382507 0.350586 0.194916
0.391754 0.359833 0.204193
0.141754 0.114624 0.086273
0.140961 0.113983 0.086273
0.140198 0.113312 0.086273
0.139435 0.112701 0.086273
0.138672 0.112061 0.086273
0.150360 0.121796 0.086273
0.162048 0.131500 0.086273
0.172974 0.141052 0.086273
0.182220 0.150299 0.086273
0.191498 0.159546 0.086273
0.200714 0.168793 0.086273
0.209961 0.178040 0.086273
0.219208 0.187286 0.086273
0.228424 0.196503 0.086273
0.237701 0.205780 0.086273
0.246948 0.215027 0.086273
0.256165 0.224243 0.086273
0.265411 0.233490 0.086273
0.274689 0.242767 0.087097
0.283905 0.251984 0.096344
0.293152 0.261230 0.105591
0.302399 0.270477 0.114838
0.311615 0.279724 0.124054
0.320892 0.288971 0.133331
0.330139 0.298218 0.142578
0.339386 0.307465 0.151825
0.348602 0.316681 0.161041
0.357880 0.325958 0.170319
0.367126 0.335205 0.179565
0.376343 0.344421 0.188782
0.385590 0.353668 0.198029
0.394867 0.362946 0.207275
0.404083 0.372162 0.216522
0.413330 0.381409 0.225769
0.179138 0.147186 0.086273
0.178528 0.146606 0.086273
0.177917 0.145996 0.086273
0.177277 0.145355 0.086273
0.176697 0.144775 0.086273
0.176086 0.144165 0.086273
0.185333 0.153412 0.086273
0.194550 0.162628 0.086273
0.203796 0.171875 0.086273
0.213074 0.181152 0.086273
0.222321 0.190399 0.086273
0.231537 0.199615 0.086273
0.240784 0.208862 0.086273
0.250061 0.218140 0.086273
0.259277 0.227356 0.086273
0.268524 0.236603 0.086273
0.277771 0.245850 0.090210
0.287018 0.255096 0.099426
0.296265 0.264343 0.108704
0.305511 0.273590 0.117950
0.314728 0.282806 0.127167
0.324005 0.292053 0.136414
0.333252 0.301331 0.145691
0.342468 0.310547 0.154907
0.351715 0.319794 0.164154
0.360962 0.329041 0.173401
0.370239 0.338318 0.182678
0.379456 0.347534 0.191895
0.388702 0.356781 0.201141
0.397949 0.366028 0.210388
0.407196 0.375244 0.219604
0.416443 0.384521 0.228882
0.425690 0.393768 0.238129
0.434906 0.402985 0.247345
0.210571 0.178650 0.086273
0.209961 0.178040 0.086273
0.209381 0.177460 0.086273
0.208740 0.176819 0.086273
0.208130 0.176208 0.086273
0.207550 0.175629 0.086273
0.206909 0.174988 0.086273
0.216187 0.184235 0.086273
0.225403 0.193481 0.086273
0.234650 0.202728 0.086273
0.243896 0.211975 0.086273
0.253143 0.221222 0.086273
0.262390 0.230469 0.086273
0.271637 0.239716 0.086273
0.280884 0.248962 0.093323
0.290100 0.258179 0.102539
0.299377 0.267426 0.111786
0.308594 0.276672 0.121033
0.317841 0.285919 0.130280
0.327087 0.295166 0.139526
0.336365 0.304413 0.148773
0.345581 0.313660 0.158020
0.354828 0.322906 0.167267
0.364075 0.332153 0.176514
0.373291 0.341370 0.185730
0.382568 0.350647 0.195007
0.391815 0.359894 0.204254
0.401062 0.369141 0.213501
0.410278 0.378357 0.222717
0.419556 0.387634 0.231995
0.428802 0.396881 0.241241
0.438019 0.406097 0.250458
0.447266 0.415344 0.259705
0.456512 0.424591 0.268951
0.242004 0.210083 0.086273
0.241425 0.209503 0.086273
0.240784 0.208862 0.086273
0.240204 0.208282 0.086273
0.239594 0.207672 0.086273
0.238953 0.207031 0.086273
0.238373 0.206451 0.086273
0.237762 0.205841 0.086273
0.247009 0.215088 0.086273
0.256226 0.224304 0.086273
0.265472 0.233551 0.086273
0.274750 0.242828 0.087189
0.283997 0.252075 0.096436
0.293213 0.261292 0.105652
0.302460 0.270538 0.114899
0.311737 0.279816 0.124176
0.320953 0.289032 0.133392
0.330200 0.298279 0.142639
0.339417 0.307495 0.151855
0.348663 0.316742 0.161102
0.357941 0.326019 0.170380
0.367188 0.335266 0.179626
0.376404 0.344482 0.188843
0.385651 0.353729 0.198090
0.394928 0.363007 0.207336
0.404144 0.372223 0.216583
0.413391 0.381470 0.225830
0.422638 0.390717 0.235077
0.431915 0.399994 0.244324
0.441132 0.409210 0.253571
0.450378 0.418457 0.262817
0.459625 0.427704 0.272064
0.468842 0.436920 0.281281
0.478119 0.446198 0.290558
0.273468 0.241547 0.086273
0.272858 0.240936 0.086273
0.272247 0.240326 0.086273
0.271637 0.239716 0.086273
0.271057 0.239105 0.086273
0.270416 0.238495 0.086273
0.269806 0.237885 0.086273
0.269196 0.237274 0.086273
0.268585 0.236664 0.086273
0.277832 0.245911 0.090271
0.287079 0.255157 0.099487
0.296326 0.264404 0.108765
0.305573 0.273651 0.118011
0.314819 0.282898 0.127258
0.324066 0.292145 0.136475
0.333313 0.301392 0.145752
0.342560 0.310638 0.154999
0.351776 0.319855 0.164215
0.361023 0.329102 0.173462
0.370270 0.338348 0.182709
0.379517 0.347595 0.191956
0.388763 0.356842 0.201202
0.398010 0.366089 0.210449
0.407257 0.375336 0.219666
0.416504 0.384583 0.228943
0.425751 0.393829 0.238190
0.434967 0.403046 0.247406
0.444244 0.412292 0.256653
0.453491 0.421570 0.265930
0.462738 0.430817 0.275177
0.471954 0.440033 0.284393
0.481201 0.449280 0.293640
0.490479 0.458557 0.302917
0.499695 0.467773 0.312134
0.304932 0.273010 0.117371
0.304291 0.272369 0.116730
0.303680 0.271759 0.116119
0.303101 0.271179 0.115540
0.302460 0.270538 0.114899
0.301880 0.269958 0.114319
0.301270 0.269348 0.113678
0.300629 0.268707 0.113068
0.300049 0.268127 0.112488
0.299438 0.267517 0.111847
0.308685 0.276764 0.121124
0.317902 0.285980 0.130341
0.327148 0.295227 0.139587
0.336426 0.304474 0.148834
0.345673 0.313751 0.158112
0.354889 0.322968 0.167328
0.364136 0.332214 0.176575
0.373352 0.341431 0.185791
0.382629 0.350708 0.195068
0.391876 0.359955 0.204315
0.401093 0.369171 0.213531
0.410339 0.378418 0.222778
0.419617 0.387695 0.232056
0.428864 0.396942 0.241302
0.438080 0.406158 0.250519
0.447327 0.415405 0.259766
0.456604 0.424652 0.269012
0.465820 0.433899 0.278259
0.475067 0.443146 0.287506
0.484314 0.452393 0.296753
0.493591 0.461639 0.306000
0.502808 0.470886 0.315247
0.512054 0.480133 0.324493
0.521301 0.489380 0.333740
0.336365 0.304413 0.148773
0.335754 0.303833 0.148193
0.335144 0.303223 0.147583
0.334503 0.302582 0.146942
0.333923 0.302002 0.146362
0.333313 0.301392 0.145752
0.332703 0.300781 0.145142
0.332092 0.300171 0.144531
0.331482 0.299561 0.143921
0.330872 0.298950 0.143311
0.330261 0.298340 0.142700
0.339508 0.307587 0.151947
0.348755 0.316803 0.161163
0.358002 0.326080 0.170441
0.367249 0.335327 0.179688
0.376495 0.344574 0.188934
0.385712 0.353790 0.198151
0.394989 0.363068 0.207428
0.404205 0.372284 0.216644
0.413452 0.381531 0.225891
0.422699 0.390778 0.235138
0.431946 0.400024 0.244354
0.441193 0.409271 0.253632
0.450439 0.418518 0.262878
0.459686 0.427765 0.272125
0.468903 0.436981 0.281342
0.478180 0.446259 0.290619
0.487427 0.455505 0.299866
0.496643 0.464722 0.309082
0.505890 0.473969 0.318329
0.515167 0.483246 0.327576
0.524414 0.492493 0.336853
0.533630 0.501709 0.346069
0.542877 0.510956 0.355316
0.367798 0.335876 0.180237
0.367188 0.335266 0.179626
0.366608 0.334686 0.179016
0.365967 0.334045 0.178406
0.365356 0.333435 0.177795
0.364777 0.332855 0.177185
0.364136 0.332214 0.176575
0.363556 0.331635 0.175995
0.362946 0.330994 0.175354
0.362305 0.330383 0.174744
0.361725 0.329803 0.174164
0.361084 0.329163 0.173523
0.370361 0.338440 0.182800
0.379578 0.347656 0.192017
0.388824 0.356903 0.201263
0.398071 0.366150 0.210510
0.407349 0.375427 0.219757
0.416565 0.384644 0.229004
0.425812 0.393890 0.238251
0.435028 0.403107 0.247467
0.444305 0.412384 0.256714
0.453552 0.421631 0.265991
0.462769 0.430847 0.275208
0.472015 0.440094 0.284454
0.481262 0.449371 0.293701
0.490540 0.458618 0.302979
0.499756 0.467834 0.312195
0.509003 0.477081 0.321442
0.518250 0.486328 0.330688
0.527496 0.495575 0.339935
0.536743 0.504822 0.349182
0.545990 0.514069 0.358429
0.555237 0.523315 0.367676
0.564484 0.532532 0.376892
0.399261 0.367340 0.211700
0.398651 0.366730 0.211090
0.398010 0.366089 0.210449
0.397430 0.365509 0.209869
0.396820 0.364899 0.209259
0.396179 0.364258 0.208618
0.395599 0.363678 0.208038
0.394989 0.363068 0.207428
0.394379 0.362457 0.206818
0.393768 0.361847 0.206207
0.393158 0.361237 0.205566
0.392548 0.360626 0.204987
0.391937 0.360016 0.204376
0.401184 0.369263 0.213623
0.410400 0.378479 0.222839
0.419678 0.387756 0.232117
0.428925 0.397003 0.241364
0.438141 0.406219 0.250580
0.447388 0.415466 0.259827
0.456665 0.424713 0.269073
0.465881 0.433960 0.278320
0.475128 0.443207 0.287567
0.484375 0.452454 0.296814
0.493622 0.461670 0.306030
0.502869 0.470947 0.315308
0.512115 0.480194 0.324554
0.521362 0.489441 0.333801
0.530579 0.498657 0.343018
0.539856 0.507935 0.352295
0.549103 0.517181 0.361542
0.558319 0.526398 0.370758
0.567566 0.535645 0.380005
0.576843 0.544891 0.389252
0.586090 0.554169 0.398529
0.430695 0.398773 0.243134
0.430115 0.398193 0.242523
0.429474 0.397552 0.241913
0.428864 0.396942 0.241302
0.428284 0.396332 0.240692
0.427643 0.395721 0.240082
0.427032 0.395111 0.239471
0.426422 0.394501 0.238861
0.425812 0.393890 0.238251
0.425232 0.393311 0.237671
0.424591 0.392670 0.237030
0.423981 0.392059 0.236420
0.423401 0.391479 0.235840
0.422760 0.390839 0.235199
0.432037 0.400116 0.244476
0.441254 0.409332 0.253693
0.450500 0.418579 0.262939
0.459747 0.427826 0.272186
0.468994 0.437042 0.281403
0.478241 0.446320 0.290680
0.487488 0.455566 0.299927
0.496704 0.464783 0.309143
0.505951 0.474030 0.318390
0.515228 0.483307 0.327667
0.524445 0.492523 0.336884
0.533691 0.501770 0.346130
0.542938 0.511017 0.355377
0.552216 0.520294 0.364655
0.561432 0.529510 0.373871
0.570679 0.538757 0.383118
0.579926 0.548004 0.392365
0.589172 0.557251 0.401581
0.598419 0.566498 0.410858
0.607666 0.575745 0.420105
0.462158 0.430237 0.274597
0.461517 0.429596 0.273956
0.460938 0.429016 0.273376
0.460327 0.428406 0.272766
0.459686 0.427765 0.272125
0.459106 0.427185 0.271545
0.458496 0.426575 0.270905
0.457855 0.425934 0.270294
0.457275 0.425354 0.269714
0.456665 0.424713 0.269073
0.456055 0.424133 0.268494
0.455444 0.423523 0.267883
0.454834 0.422882 0.267242
0.454224 0.422302 0.266663
0.453613 0.421692 0.266052
0.462860 0.430939 0.275299
0.472076 0.440155 0.284515
0.481323 0.449432 0.293762
0.490601 0.458679 0.303040
0.499817 0.467896 0.312256
0.509064 0.477142 0.321503
0.518311 0.486389 0.330750
0.527557 0.495636 0.339996
0.536804 0.504883 0.349243
0.546051 0.514130 0.358490
0.555267 0.523346 0.367706
0.564545 0.532623 0.376953
0.573792 0.541870 0.386230
0.583038 0.551117 0.395477
0.592255 0.560333 0.404694
0.601532 0.569611 0.413940
0.610779 0.578857 0.423218
0.619995 0.588074 0.432434
0.629242 0.597321 0.441681
0.493622 0.461670 0.306030
0.492981 0.461060 0.305420
0.492371 0.460449 0.304810
0.491760 0.459839 0.304199
0.491150 0.459229 0.303589
0.490540 0.458618 0.302979
0.489929 0.458008 0.302368
0.489319 0.457397 0.301758
0.488708 0.456787 0.301147
0.488098 0.456177 0.300537
0.487488 0.455566 0.299927
0.486908 0.454987 0.299347
0.486267 0.454346 0.298706
0.485657 0.453735 0.298096
0.485077 0.453156 0.297485
0.484436 0.452515 0.296875
0.493713 0.461792 0.306122
0.502930 0.471008 0.315369
0.512177 0.480255 0.324615
0.521423 0.489502 0.333862
0.530640 0.498718 0.343079
0.539917 0.507996 0.352356
0.549164 0.517242 0.361603
0.558380 0.526459 0.370819
0.567627 0.535706 0.380066
0.576904 0.544952 0.389313
0.586121 0.554199 0.398560
0.595367 0.563446 0.407806
0.604614 0.572693 0.417053
0.613892 0.581940 0.426300
0.623108 0.591187 0.435547
0.632355 0.600433 0.444794
0.641602 0.609680 0.454041
0.650848 0.618896 0.463257
0.525024 0.493103 0.337463
0.524445 0.492523 0.336884
0.523834 0.491913 0.336243
0.523193 0.491272 0.335632
0.522614 0.490692 0.335052
0.522003 0.490051 0.334412
0.521362 0.489441 0.333801
0.520782 0.488861 0.333221
0.520172 0.488220 0.332581
0.519531 0.487610 0.331970
0.518951 0.487030 0.331390
0.518311 0.486389 0.330750
0.517731 0.485809 0.330170
0.517120 0.485199 0.329559
0.516479 0.484558 0.328918
0.515900 0.483978 0.328339
0.515289 0.483368 0.327728
0.524506 0.492584 0.336945
0.533752 0.501831 0.346191
0.543030 0.511078 0.355438
0.552277 0.520355 0.364716
0.561493 0.529572 0.373932
0.570740 0.538818 0.383179
0.579987 0.548065 0.392426
0.589233 0.557312 0.401672
0.598480 0.566559 0.410919
0.607727 0.575806 0.420166
0.616943 0.585022 0.429382
0.626190 0.594269 0.438629
0.635468 0.603546 0.447906
0.644714 0.612793 0.457153
0.653931 0.622009 0.466370
0.663177 0.631256 0.475616
0.672455 0.640533 0.484894
0.556458 0.524536 0.368896
0.555847 0.523926 0.368286
0.555237 0.523315 0.367676
0.554626 0.522705 0.367065
0.554016 0.522095 0.366455
0.553406 0.521484 0.365845
0.552795 0.520874 0.365234
0.552185 0.520264 0.364594
0.551575 0.519653 0.364014
0.550964 0.519043 0.363403
0.550354 0.518433 0.362762
0.549744 0.517822 0.362183
0.549133 0.517212 0.361572
0.548553 0.516602 0.360962
0.547913 0.515991 0.360352
0.547302 0.515381 0.359741
0.546692 0.514771 0.359131
0.546082 0.514160 0.358521
0.555328 0.523407 0.367767
0.564575 0.532654 0.376984
0.573822 0.541901 0.386261
0.583069 0.551147 0.395508
0.592316 0.560394 0.404755
0.601562 0.569641 0.413971
0.610809 0.578888 0.423248
0.620056 0.588135 0.432495
0.629272 0.597351 0.441711
0.638519 0.606598 0.450958
0.647797 0.615875 0.460236
0.657013 0.625092 0.469452
0.666260 0.634338 0.478699
0.675507 0.643585 0.487946
0.684784 0.652863 0.497192
0.694000 0.662079 0.506439
0.587891 0.555969 0.400330
0.587311 0.555359 0.399719
0.586670 0.554749 0.399109
0.586090 0.554169 0.398529
0.585449 0.553528 0.397888
0.584839 0.552917 0.397278
0.584259 0.552338 0.396698
0.583618 0.551697 0.396057
0.583008 0.551086 0.395447
0.582428 0.550507 0.394867
0.581787 0.549866 0.394226
0.581177 0.549255 0.393616
0.580597 0.548676 0.393036
0.579956 0.548035 0.392395
0.579376 0.547455 0.391815
0.578766 0.546844 0.391174
0.578125 0.546204 0.390564
0.577545 0.545624 0.389984
0.576935 0.545013 0.389343
0.586182 0.554260 0.398621
0.595398 0.563477 0.407837
0.604645 0.572723 0.417084
0.613922 0.581970 0.426331
0.623169 0.591248 0.435608
0.632385 0.600464 0.444824
0.641632 0.609711 0.454071
0.650909 0.618958 0.463318
0.660126 0.628204 0.472565
0.669373 0.637451 0.481812
0.678619 0.646698 0.491058
0.687836 0.655914 0.500275
0.697113 0.665192 0.509552
0.706360 0.674438 0.518799
0.715607 0.683685 0.528046
0.619354 0.587433 0.431793
0.618713 0.586792 0.431152
0.618134 0.586212 0.430573
0.617523 0.585602 0.429932
0.616913 0.584991 0.429352
0.616302 0.584381 0.428741
0.615692 0.583771 0.428101
0.615082 0.583160 0.427521
0.614471 0.582550 0.426910
0.613861 0.581909 0.426270
0.613251 0.581329 0.425690
0.612640 0.580719 0.425079
0.612000 0.580078 0.424438
0.611420 0.579498 0.423859
0.610809 0.578888 0.423248
0.610199 0.578278 0.422638
0.609589 0.577667 0.422028
0.608978 0.577057 0.421417
0.608368 0.576447 0.420807
0.607758 0.575836 0.420197
0.617004 0.585083 0.429443
0.626251 0.594299 0.438660
0.635498 0.603577 0.447937
0.644745 0.612823 0.457184
0.653992 0.622070 0.466431
0.663208 0.631287 0.475647
0.672485 0.640564 0.484924
0.681732 0.649811 0.494171
0.690948 0.659027 0.503387
0.700195 0.668274 0.512634
0.709473 0.677551 0.521912
0.718689 0.686768 0.531128
0.727936 0.696014 0.540375
0.737183 0.705261 0.549622
0.650787 0.618866 0.463226
0.650177 0.618256 0.462616
0.649567 0.617645 0.462006
0.648956 0.617035 0.461395
0.648346 0.616425 0.460785
0.647766 0.615845 0.460205
0.647125 0.615204 0.459564
0.646515 0.614594 0.458954
0.645935 0.614014 0.458374
0.645294 0.613373 0.457733
0.644684 0.612762 0.457123
0.644104 0.612183 0.456512
0.643463 0.611542 0.455902
0.642853 0.610931 0.455292
0.642273 0.610352 0.454681
0.641632 0.609711 0.454071
0.641052 0.609131 0.453491
0.640442 0.608490 0.452850
0.639801 0.607880 0.452240
0.639221 0.607300 0.451660
0.638580 0.606659 0.451019
0.647858 0.615936 0.460297
0.657074 0.625153 0.469513
0.666321 0.634399 0.478760
0.675568 0.643646 0.488007
0.684845 0.652924 0.497253
0.694061 0.662140 0.506500
0.703308 0.671387 0.515747
0.712555 0.680634 0.524994
0.721802 0.689880 0.534210
0.731049 0.699127 0.543488
0.740295 0.708374 0.552734
0.749512 0.717590 0.561951
0.758789 0.726868 0.571198
0.682220 0.650299 0.494659
0.681641 0.649719 0.494080
0.681030 0.649109 0.493439
0.680389 0.648468 0.492828
0.679810 0.647888 0.492249
0.679199 0.647247 0.491608
0.678589 0.646667 0.491028
0.677979 0.646057 0.490417
0.677338 0.645416 0.489777
0.676758 0.644836 0.489197
0.676147 0.644226 0.488586
0.675507 0.643585 0.487946
0.674927 0.643005 0.487366
0.674316 0.642395 0.486755
0.673676 0.641754 0.486115
0.673096 0.641174 0.485535
0.672485 0.640564 0.484924
0.671875 0.639954 0.484314
0.671265 0.639343 0.483704
0.670654 0.638733 0.483063
0.670044 0.638123 0.482483
0.669434 0.637512 0.481873
0.678680 0.646759 0.491119
0.687897 0.655975 0.500336
0.697174 0.665253 0.509613
0.706421 0.674500 0.518860
0.715668 0.683746 0.528107
0.724884 0.692963 0.537323
0.734161 0.702209 0.546570
0.743408 0.711487 0.555847
0.752625 0.720703 0.565063
0.761871 0.729950 0.574310
0.771149 0.739197 0.583557
0.780365 0.748444 0.592804
0.713684 0.681763 0.526123
0.713074 0.681152 0.525513
0.712463 0.680542 0.524902
0.711853 0.679932 0.524292
0.711243 0.679321 0.523682
0.710632 0.678711 0.523071
0.710022 0.678101 0.522461
0.709442 0.677521 0.521851
0.708801 0.676880 0.521240
0.708191 0.676270 0.520630
0.707611 0.675690 0.520020
0.706970 0.675049 0.519409
0.706360 0.674438 0.518799
0.705780 0.673828 0.518188
0.705139 0.673218 0.517578
0.704529 0.672607 0.516968
0.703918 0.671997 0.516357
0.703308 0.671387 0.515747
0.702728 0.670807 0.515167
0.702087 0.670166 0.514526
0.701477 0.669556 0.513916
0.700897 0.668976 0.513336
0.700256 0.668335 0.512695
0.709534 0.677612 0.521973
0.718750 0.686829 0.531189
0.727997 0.696075 0.540436
0.737244 0.705322 0.549683
0.746521 0.714569 0.558929
0.755737 0.723816 0.568176
0.764984 0.733063 0.577423
0.774231 0.742310 0.586670
0.783447 0.751526 0.595886
0.792725 0.760803 0.605164
0.801971 0.770050 0.614410
0.745148 0.713226 0.557587
0.744507 0.712585 0.556946
0.743896 0.711975 0.556335
0.743317 0.711395 0.555756
0.742676 0.710754 0.555115
0.742065 0.710144 0.554504
0.741486 0.709564 0.553925
0.740845 0.708923 0.553284
0.740265 0.708344 0.552704
0.739655 0.707733 0.552094
0.739014 0.707092 0.551453
0.738434 0.706512 0.550873
0.737823 0.705902 0.550262
0.737183 0.705261 0.549622
0.736603 0.704681 0.549042
0.735992 0.704071 0.548401
0.735352 0.703430 0.547791
0.734772 0.702850 0.547211
0.734161 0.702209 0.546570
0.733551 0.701630 0.545990
0.732941 0.701019 0.545380
0.732330 0.700378 0.544739
0.731720 0.699799 0.544159
0.731110 0.699188 0.543549
0.740356 0.708435 0.552795
0.749573 0.717651 0.562012
0.758850 0.726929 0.571259
0.768097 0.736176 0.580536
0.777344 0.745422 0.589783
0.786560 0.754639 0.598999
0.795807 0.763885 0.608246
0.805084 0.773163 0.617523
0.814301 0.782379 0.626740
0.823547 0.791626 0.635986
0.776581 0.744629 0.589020
0.775970 0.744049 0.588409
0.775360 0.743439 0.587799
0.774750 0.742828 0.587158
0.774139 0.742218 0.586578
0.773529 0.741608 0.585968
0.772919 0.740967 0.585327
0.772308 0.740387 0.584747
0.771698 0.739777 0.584137
0.771118 0.739166 0.583527
0.770477 0.738556 0.582916
0.769867 0.737946 0.582306
0.769257 0.737335 0.581696
0.768646 0.736725 0.581085
0.768036 0.736115 0.580475
0.767426 0.735504 0.579865
0.766815 0.734894 0.579254
0.766205 0.734283 0.578644
0.765594 0.733673 0.578033
0.764984 0.733063 0.577423
0.764404 0.732483 0.576843
0.763763 0.731842 0.576202
0.763153 0.731232 0.575592
0.762573 0.730652 0.574982
0.761932 0.730011 0.574371
0.771210 0.739288 0.583618
0.780426 0.748505 0.592865
0.789673 0.757751 0.602112
0.798920 0.766998 0.611359
0.808167 0.776245 0.620605
0.817413 0.785492 0.629852
0.826660 0.794739 0.639099
0.835907 0.803986 0.648346
0.845123 0.813202 0.657562
0.808014 0.776093 0.620453
0.807404 0.775482 0.619843
0.806824 0.774902 0.619263
0.806183 0.774261 0.618622
0.805573 0.773651 0.618011
0.804993 0.773071 0.617432
0.804352 0.772430 0.616791
0.803741 0.771820 0.616180
0.803162 0.771240 0.615601
0.802521 0.770599 0.614960
0.801941 0.770020 0.614380
0.801331 0.769409 0.613739
0.800690 0.768768 0.613129
0.800110 0.768188 0.612549
0.799500 0.767548 0.611908
0.798859 0.766937 0.611298
0.798279 0.766357 0.610718
0.797668 0.765717 0.610077
0.797028 0.765106 0.609467
0.796448 0.764526 0.608887
0.795807 0.763885 0.608246
0.795227 0.763306 0.607666
0.794617 0.762695 0.607056
0.793976 0.762054 0.606415
0.793396 0.761475 0.605835
0.792786 0.760864 0.605225
0.802032 0.770111 0.614471
0.811249 0.779327 0.623688
0.820526 0.788574 0.632935
0.829773 0.797852 0.642212
0.839020 0.807098 0.651459
