other luts/实验工艺系列/达盖尔银版法2.cube
#Created by: Adobe Photoshop Export Color Lookup Plugin
#Copyright: (C) Copyright 2026 汉图
TITLE "实验工艺"
#LUT size
LUT_3D_SIZE 4
#data domain
DOMAIN_MIN 0.0 0.0 0.0
DOMAIN_MAX 1.0 1.0 1.0
#LUT data points
0.086273 0.086273 0.086273
0.086273 0.100342 0.086273
0.186066 0.202026 0.098267
0.287750 0.303711 0.199951
0.328583 0.344543 0.240784
0.321869 0.337830 0.234100
0.423553 0.439514 0.335754
0.525238 0.541199 0.437469
0.674469 0.690430 0.586670
0.667755 0.683716 0.579956
0.661041 0.677002 0.573273
0.762756 0.778717 0.674957
1.000000 1.000000 1.000000
1.000000 1.000000 1.000000
1.000000 1.000000 1.000000
1.000000 1.000000 1.000000
0.086273 0.086273 0.086273
0.086273 0.086273 0.086273
0.086273 0.100311 0.086273
0.186066 0.202026 0.098267
0.086273 0.086273 0.086273
0.321869 0.337830 0.234100
0.423553 0.439514 0.335754
0.525238 0.541199 0.437469
0.328552 0.344513 0.240753
0.667755 0.683716 0.579956
0.661041 0.677002 0.573273
0.762756 0.778717 0.674957
0.674469 0.690430 0.586670
1.000000 1.000000 1.000000
1.000000 1.000000 1.000000
1.000000 1.000000 1.000000
0.086273 0.086273 0.086273
0.086273 0.086273 0.086273
0.086273 0.086273 0.086273
0.086273 0.100342 0.086273
0.086273 0.086273 0.086273
0.321869 0.337830 0.234100
0.321869 0.337830 0.234100
0.423584 0.439545 0.335785
0.086273 0.086273 0.086273
0.321869 0.337830 0.234100
0.661041 0.677002 0.573273
0.762756 0.778717 0.674957
0.328583 0.344543 0.240784
0.667786 0.683746 0.579987
1.000000 1.000000 1.000000
1.000000 1.000000 1.000000
0.086273 0.086273 0.086273
0.086273 0.086273 0.086273
0.086273 0.086273 0.086273
0.086273 0.086273 0.086273
0.086273 0.086273 0.086273
0.321869 0.337830 0.234100
0.321869 0.337830 0.234100
0.321869 0.337830 0.234100
0.086273 0.086273 0.086273
0.321869 0.337830 0.234100
0.661041 0.677002 0.573273
0.661041 0.677002 0.573273
0.086273 0.086273 0.086273
0.321869 0.337830 0.234100
0.661041 0.677002 0.573273
1.000000 1.000000 1.000000
