other luts/实验工艺系列/达盖尔银版法2.cube
#Created by: Adobe Photoshop Export Color Lookup Plugin
#Copyright: (C) Copyright 2026 汉图
TITLE "实验工艺"
#LUT size
LUT_3D_SIZE 34
#data domain
DOMAIN_MIN 0.0 0.0 0.0
DOMAIN_MAX 1.0 1.0 1.0
#LUT data points
0.086273 0.086273 0.086273
0.086273 0.086273 0.086273
0.086273 0.086273 0.086273
0.086273 0.086273 0.086273
0.086273 0.086273 0.086273
0.086273 0.086273 0.086273
0.086273 0.086273 0.086273
0.086273 0.086273 0.086273
0.086273 0.086273 0.086273
0.086273 0.086273 0.086273
0.086273 0.091095 0.086273
0.086273 0.100342 0.086273
0.093597 0.109558 0.086273
0.102844 0.118805 0.086273
0.112122 0.128082 0.086273
0.121368 0.137329 0.086273
0.130585 0.146545 0.086273
0.139832 0.155792 0.086273
0.149078 0.165039 0.086273
0.158325 0.174286 0.086273
0.167572 0.183533 0.086273
0.176819 0.192780 0.089050
0.186066 0.202026 0.098267
0.195312 0.211273 0.107513
0.204559 0.220520 0.116760
0.213776 0.229736 0.125977
0.223022 0.238983 0.135254
0.232300 0.248260 0.144501
0.241516 0.257477 0.153717
0.250763 0.266724 0.162964
0.260010 0.275970 0.172241
0.269287 0.285248 0.181488
0.278503 0.294464 0.190704
0.287750 0.303711 0.199951
0.086273 0.086273 0.086273
0.086273 0.086273 0.086273
0.086273 0.086273 0.086273
0.086273 0.086273 0.086273
0.086273 0.086273 0.086273
0.086273 0.086273 0.086273
0.086273 0.086273 0.086273
0.086273 0.086273 0.086273
0.086273 0.094177 0.086273
0.087494 0.103455 0.086273
0.096710 0.112671 0.086273
0.105957 0.121918 0.086273
0.115204 0.131165 0.086273
0.124451 0.140411 0.086273
0.133698 0.149658 0.086273
0.142944 0.158905 0.086273
0.152191 0.168152 0.086273
0.161438 0.177399 0.086273
0.170685 0.186646 0.086273
0.179901 0.195862 0.092102
0.189148 0.205109 0.101379
0.198395 0.214386 0.110626
0.207672 0.223633 0.119873
0.216888 0.232849 0.129089
0.226135 0.242096 0.138367
0.235382 0.251343 0.147614
0.244629 0.260590 0.156830
0.253876 0.269836 0.166077
0.263123 0.279083 0.175323
0.272339 0.288300 0.184570
0.281586 0.297577 0.193817
0.290863 0.306824 0.203064
0.300110 0.316071 0.212311
0.309326 0.325287 0.221558
0.086273 0.086273 0.086273
0.086273 0.086273 0.086273
0.086273 0.086273 0.086273
0.086273 0.086273 0.086273
0.086273 0.086273 0.086273
0.086273 0.088043 0.086273
0.086273 0.097290 0.086273
0.090576 0.106567 0.086273
0.099823 0.115784 0.086273
0.109070 0.125031 0.086273
0.118317 0.134277 0.086273
0.127533 0.143494 0.086273
0.136810 0.152771 0.086273
0.146057 0.162018 0.086273
0.155273 0.171234 0.086273
0.164520 0.180481 0.086273
0.173767 0.189758 0.086273
0.183014 0.198975 0.095215
0.192261 0.208221 0.104462
0.201508 0.217468 0.113739
0.210724 0.226685 0.122955
0.220001 0.235962 0.132202
0.229248 0.245209 0.141449
0.238495 0.254456 0.150696
0.247711 0.263672 0.159943
0.256989 0.272949 0.169189
0.266235 0.282196 0.178436
0.275452 0.291412 0.187653
0.284698 0.300659 0.196930
0.293976 0.309937 0.206177
0.303192 0.319153 0.215393
0.312439 0.328400 0.224640
0.321686 0.337646 0.233887
0.330933 0.346893 0.243164
0.086273 0.092987 0.086273
0.086273 0.092377 0.086273
0.086273 0.091766 0.086273
0.086273 0.091156 0.086273
0.086273 0.100403 0.086273
0.093658 0.109619 0.086273
0.102905 0.118866 0.086273
0.112183 0.128143 0.086273
0.121429 0.137390 0.086273
0.130646 0.146606 0.086273
0.139893 0.155853 0.086273
0.149170 0.165131 0.086273
0.158386 0.174347 0.086273
0.167633 0.183594 0.086273
0.176880 0.192841 0.089111
0.186127 0.202087 0.098328
0.195374 0.211334 0.107574
0.204620 0.220581 0.116821
0.213837 0.229797 0.126038
0.223083 0.239044 0.135315
0.232361 0.248322 0.144562
0.241577 0.257538 0.153778
0.250824 0.266785 0.163025
0.260071 0.276031 0.172302
0.269348 0.285309 0.181549
0.278564 0.294525 0.190765
0.287811 0.303772 0.200012
0.297058 0.313019 0.209290
0.306305 0.322266 0.218506
0.315552 0.331512 0.227753
0.324799 0.340759 0.237000
0.334015 0.349976 0.246246
0.343262 0.359222 0.255493
0.352539 0.368500 0.264740
0.108490 0.124451 0.086273
0.107849 0.123810 0.086273
0.107239 0.123199 0.086273
0.106659 0.122620 0.086273
0.106018 0.121979 0.086273
0.115265 0.131226 0.086273
0.124512 0.140472 0.086273
0.133759 0.149719 0.086273
0.143005 0.158966 0.086273
0.152252 0.168213 0.086273
0.161499 0.177460 0.086273
0.170746 0.186707 0.086273
0.179993 0.195953 0.092194
0.189209 0.205170 0.101440
0.198486 0.214447 0.110687
0.207733 0.223694 0.119934
0.216949 0.232910 0.129150
0.226196 0.242157 0.138428
0.235443 0.251404 0.147675
0.244690 0.260651 0.156891
0.253937 0.269897 0.166138
0.263184 0.279144 0.175385
0.272400 0.288361 0.184631
0.281677 0.297638 0.193878
0.290924 0.306885 0.203125
0.300171 0.316132 0.212372
0.309387 0.325348 0.221619
0.318634 0.334625 0.230865
0.327911 0.343872 0.240112
0.337128 0.353088 0.249329
0.346375 0.362335 0.258606
0.355621 0.371613 0.267853
0.364868 0.380829 0.277069
0.374115 0.390076 0.286316
0.139893 0.155853 0.086273
0.139313 0.155273 0.086273
0.138702 0.154663 0.086273
0.138062 0.154022 0.086273
0.137482 0.153442 0.086273
0.136871 0.152832 0.086273
0.146118 0.162079 0.086273
0.155334 0.171295 0.086273
0.164581 0.180542 0.086273
0.173859 0.189819 0.086273
0.183105 0.199066 0.095306
0.192322 0.208282 0.104523
0.201569 0.217529 0.113800
0.210815 0.226807 0.123047
0.220062 0.236023 0.132263
0.229309 0.245270 0.141510
0.238556 0.254517 0.150787
0.247772 0.263733 0.160004
0.257050 0.273010 0.169250
0.266296 0.282257 0.178497
0.275513 0.291473 0.187714
0.284760 0.300720 0.196991
0.294037 0.309998 0.206238
0.303253 0.319214 0.215454
0.312500 0.328461 0.224701
0.321747 0.337708 0.233978
0.330994 0.346954 0.243225
0.340240 0.356201 0.252441
0.349487 0.365448 0.261688
0.358734 0.374695 0.270935
0.367950 0.383911 0.280182
0.377228 0.393188 0.289429
0.386475 0.402435 0.298676
0.395691 0.411652 0.307892
0.171356 0.187317 0.086273
0.170746 0.186707 0.086273
0.170166 0.186127 0.086273
0.169525 0.185486 0.086273
0.168915 0.184875 0.086273
0.168304 0.184296 0.086273
0.167694 0.183655 0.086273
0.176941 0.192902 0.089172
0.186188 0.202148 0.098389
0.195435 0.211395 0.107635
0.204681 0.220642 0.116882
0.213928 0.229889 0.126160
0.223145 0.239105 0.135376
0.232422 0.248383 0.144623
0.241669 0.257629 0.153870
0.250885 0.266846 0.163086
0.260132 0.276093 0.172363
0.269379 0.285339 0.181580
0.278625 0.294586 0.190826
0.287872 0.303833 0.200073
0.297119 0.313080 0.209351
0.306366 0.322327 0.218567
0.315613 0.331573 0.227814
0.324860 0.340820 0.237061
0.334076 0.350037 0.246307
0.343323 0.359283 0.255554
0.352600 0.368561 0.264801
0.361847 0.377808 0.274048
0.371063 0.387024 0.283264
0.380310 0.396271 0.292542
0.389587 0.405548 0.301788
0.398804 0.414764 0.311005
0.408051 0.424011 0.320251
0.417297 0.433258 0.329529
0.202789 0.218750 0.114990
0.202209 0.218170 0.114410
0.201569 0.217529 0.113800
0.200989 0.216949 0.113190
0.200378 0.216339 0.112579
0.199738 0.215698 0.111938
0.199158 0.215118 0.111359
0.198547 0.214508 0.110748
0.207794 0.223755 0.119995
0.217010 0.232971 0.129211
0.226257 0.242218 0.138489
0.235504 0.251465 0.147736
0.244781 0.260742 0.156982
0.253998 0.269958 0.166199
0.263245 0.279205 0.175446
0.272491 0.288452 0.184723
0.281738 0.297699 0.193939
0.290985 0.306946 0.203186
0.300201 0.316162 0.212402
0.309448 0.325409 0.221680
0.318726 0.334686 0.230927
0.327972 0.343933 0.240173
0.337189 0.353149 0.249390
0.346436 0.362396 0.258667
0.355713 0.371674 0.267914
0.364929 0.380890 0.277130
0.374176 0.390137 0.286377
0.383423 0.399384 0.295624
0.392670 0.408630 0.304901
0.401917 0.417877 0.314117
0.411163 0.427124 0.323364
0.420410 0.436371 0.332611
0.429626 0.445587 0.341858
0.438873 0.454865 0.351105
0.234253 0.250214 0.146454
0.233612 0.249573 0.145844
0.233032 0.248993 0.145233
0.232422 0.248383 0.144623
0.231812 0.247772 0.144043
0.231201 0.247162 0.143402
0.230591 0.246552 0.142792
0.229980 0.245941 0.142212
0.229370 0.245331 0.141571
0.238617 0.254578 0.150848
0.247833 0.263824 0.160065
0.257111 0.273071 0.169312
0.266357 0.282318 0.178558
0.275604 0.291565 0.187805
0.284821 0.300781 0.197052
0.294098 0.310059 0.206299
0.303345 0.319305 0.215546
0.312561 0.328522 0.224762
0.321808 0.337769 0.234039
0.331024 0.347015 0.243256
0.340302 0.356262 0.252502
0.349548 0.365509 0.261749
0.358795 0.374756 0.271027
0.368011 0.383972 0.280243
0.377289 0.393250 0.289490
0.386536 0.402496 0.298737
0.395752 0.411713 0.307953
0.404999 0.420959 0.317230
0.414276 0.430237 0.326477
0.423523 0.439484 0.335724
0.432739 0.448700 0.344940
0.441986 0.457947 0.354218
0.451233 0.467194 0.363464
0.460480 0.476440 0.372681
0.265686 0.281677 0.177917
0.265076 0.281036 0.177277
0.264465 0.280426 0.176666
0.263885 0.279846 0.176086
0.263245 0.279205 0.175446
0.262665 0.278625 0.174866
0.262054 0.278015 0.174255
0.261414 0.277374 0.173615
0.260834 0.276794 0.173035
0.260193 0.276154 0.172424
0.269470 0.285431 0.181671
0.278687 0.294647 0.190887
0.287933 0.303894 0.200134
0.297180 0.313141 0.209412
0.306458 0.322418 0.218658
0.315674 0.331635 0.227875
0.324921 0.340881 0.237122
0.334137 0.350098 0.246368
0.343384 0.359344 0.255615
0.352661 0.368622 0.264862
0.361877 0.377838 0.274078
0.371124 0.387085 0.283325
0.380371 0.396332 0.292603
0.389648 0.405609 0.301849
0.398865 0.414825 0.311066
0.408112 0.424072 0.320312
0.417358 0.433319 0.329590
0.426605 0.442566 0.338806
0.435852 0.451813 0.348053
0.445099 0.461060 0.357300
0.454346 0.470306 0.366577
0.463593 0.479553 0.375793
0.472839 0.488800 0.385040
0.482086 0.498047 0.394287
0.297119 0.313080 0.209351
0.296539 0.312500 0.208740
0.295929 0.311890 0.208130
0.295288 0.311249 0.207520
0.294708 0.310669 0.206909
0.294098 0.310059 0.206299
0.293488 0.309448 0.205719
0.292877 0.308838 0.205078
0.292267 0.308228 0.204468
0.291656 0.307617 0.203857
0.291046 0.307007 0.203247
0.300293 0.316254 0.212494
0.309509 0.325470 0.221741
0.318787 0.334747 0.230988
0.328033 0.343994 0.240234
0.337280 0.353241 0.249481
0.346497 0.362457 0.258728
0.355774 0.371735 0.267975
0.364990 0.380951 0.277191
0.374237 0.390198 0.286438
0.383484 0.399445 0.295685
0.392700 0.408661 0.304932
0.401978 0.417938 0.314178
0.411224 0.427185 0.323425
0.420471 0.436432 0.332672
0.429688 0.445648 0.341919
0.438965 0.454926 0.351166
0.448212 0.464172 0.360413
0.457428 0.473389 0.369629
0.466675 0.482635 0.378906
0.475952 0.491913 0.388153
0.485199 0.501160 0.397400
0.494415 0.510376 0.406616
0.503662 0.519623 0.415894
0.328583 0.344543 0.240784
0.327972 0.343933 0.240173
0.327362 0.343323 0.239594
0.326752 0.342712 0.238953
0.326141 0.342102 0.238342
0.325531 0.341492 0.237762
0.324921 0.340881 0.237122
0.324341 0.340302 0.236542
0.323700 0.339661 0.235931
0.323090 0.339050 0.235291
0.322510 0.338470 0.234711
0.321869 0.337830 0.234100
0.331146 0.347107 0.243347
0.340363 0.356323 0.252563
0.349609 0.365570 0.261810
0.358856 0.374817 0.271088
0.368134 0.384094 0.280334
0.377350 0.393311 0.289551
0.386597 0.402557 0.298798
0.395813 0.411774 0.308044
0.405060 0.421021 0.317291
0.414337 0.430298 0.326538
0.423553 0.439514 0.335754
0.432800 0.448761 0.345001
0.442047 0.458008 0.354279
0.451294 0.467285 0.363525
0.460541 0.476501 0.372742
0.469788 0.485748 0.381989
0.479034 0.494995 0.391266
0.488251 0.504211 0.400482
0.497528 0.513489 0.409729
0.506775 0.522736 0.418976
0.516022 0.531982 0.428253
0.525238 0.541199 0.437469
0.360046 0.376007 0.272247
0.359436 0.375397 0.271637
0.358795 0.374756 0.271027
0.358215 0.374176 0.270416
0.357574 0.373535 0.269806
0.356964 0.372925 0.269165
0.356384 0.372345 0.268585
0.355774 0.371735 0.267975
0.355164 0.371124 0.267365
0.354553 0.370514 0.266754
0.353912 0.369904 0.266144
0.353333 0.369293 0.265533
0.352722 0.368683 0.264923
0.361969 0.377930 0.274170
0.371185 0.387146 0.283417
0.380432 0.396393 0.292664
0.389709 0.405670 0.301910
0.398926 0.414886 0.311127
0.408173 0.424133 0.320374
0.417419 0.433380 0.329651
0.426666 0.442627 0.338867
0.435913 0.451874 0.348114
0.445160 0.461121 0.357361
0.454376 0.470337 0.366608
0.463654 0.479614 0.375854
0.472900 0.488861 0.385101
0.482147 0.498108 0.394348
0.491364 0.507324 0.403595
0.500610 0.516571 0.412842
0.509888 0.525848 0.422089
0.519104 0.535065 0.431305
0.528351 0.544312 0.440552
0.537598 0.553558 0.449829
0.546875 0.562836 0.459076
0.391479 0.407440 0.303680
0.390869 0.406830 0.303101
0.390259 0.406219 0.302460
0.389648 0.405609 0.301849
0.389038 0.404999 0.301270
0.388428 0.404388 0.300629
0.387817 0.403778 0.300018
0.387207 0.403168 0.299438
0.386597 0.402557 0.298798
0.386017 0.401978 0.298218
0.385376 0.401337 0.297607
0.384766 0.400726 0.296967
0.384186 0.400146 0.296387
0.383545 0.399506 0.295746
0.392792 0.408752 0.305023
0.402039 0.417999 0.314240
0.411285 0.427246 0.323486
0.420532 0.436493 0.332733
0.429749 0.445709 0.341980
0.439026 0.454987 0.351227
0.448273 0.464233 0.360474
0.457489 0.473450 0.369690
0.466736 0.482697 0.378967
0.476013 0.491974 0.388214
0.485229 0.501190 0.397430
0.494476 0.510437 0.406677
0.503723 0.519684 0.415955
0.512970 0.528931 0.425201
0.522217 0.538177 0.434418
0.531464 0.547424 0.443665
0.540710 0.556671 0.452911
0.549927 0.565887 0.462158
0.559204 0.575165 0.471405
0.568451 0.584412 0.480652
0.422913 0.438873 0.335144
0.422302 0.438263 0.334503
0.421722 0.437683 0.333923
0.421082 0.437042 0.333313
0.420471 0.436432 0.332672
0.419891 0.435852 0.332092
0.419250 0.435211 0.331482
0.418640 0.434601 0.330841
0.418060 0.434021 0.330261
0.417419 0.433380 0.329651
0.416840 0.432800 0.329041
0.416229 0.432190 0.328430
0.415588 0.431549 0.327820
0.415009 0.430969 0.327209
0.414398 0.430359 0.326599
0.423645 0.439606 0.335846
0.432861 0.448822 0.345062
0.442108 0.458069 0.354340
0.451385 0.467346 0.363586
0.460602 0.476562 0.372803
0.469849 0.485809 0.382050
0.479095 0.495056 0.391327
0.488312 0.504303 0.400543
0.497589 0.513550 0.409790
0.506836 0.522797 0.419037
0.516052 0.532013 0.428284
0.525299 0.541290 0.437531
0.534576 0.550537 0.446777
0.543823 0.559784 0.456024
0.553040 0.569000 0.465271
0.562286 0.578247 0.474518
0.571564 0.587524 0.483765
0.580780 0.596741 0.492981
0.590027 0.605988 0.502228
0.454376 0.470337 0.366608
0.453766 0.469727 0.365967
0.453156 0.469116 0.365356
0.452545 0.468506 0.364777
0.451935 0.467896 0.364136
0.451294 0.467285 0.363525
0.450714 0.466675 0.362946
0.450104 0.466064 0.362305
0.449493 0.465454 0.361694
0.448883 0.464844 0.361084
0.448273 0.464233 0.360474
0.447693 0.463654 0.359894
0.447052 0.463013 0.359253
0.446442 0.462402 0.358643
0.445831 0.461823 0.358063
0.445221 0.461182 0.357422
0.454468 0.470428 0.366699
0.463715 0.479675 0.375916
0.472961 0.488922 0.385162
0.482208 0.498169 0.394409
0.491425 0.507385 0.403656
0.500671 0.516632 0.412903
0.509949 0.525909 0.422150
0.519165 0.535126 0.431366
0.528412 0.544373 0.440613
0.537659 0.553619 0.449890
0.546906 0.562866 0.459106
0.556152 0.572113 0.468353
0.565399 0.581360 0.477600
0.574646 0.590607 0.486877
0.583893 0.599854 0.496094
0.593140 0.609100 0.505341
0.602386 0.618347 0.514587
0.611603 0.627563 0.523834
0.485809 0.501770 0.398010
0.485229 0.501190 0.397430
0.484589 0.500549 0.396820
0.483978 0.499939 0.396179
0.483398 0.499359 0.395599
0.482758 0.498718 0.394989
0.482147 0.498108 0.394348
0.481567 0.497528 0.393768
0.480927 0.496887 0.393158
0.480316 0.496277 0.392517
0.479736 0.495697 0.391937
0.479095 0.495056 0.391327
0.478516 0.494476 0.390717
0.477905 0.493866 0.390106
0.477264 0.493225 0.389496
0.476685 0.492645 0.388885
0.476074 0.492035 0.388275
0.485291 0.501251 0.397491
0.494537 0.510498 0.406738
0.503784 0.519745 0.416016
0.513031 0.528992 0.425262
0.522278 0.538239 0.434479
0.531525 0.547485 0.443726
0.540771 0.556732 0.452972
0.549988 0.565948 0.462219
0.559265 0.575226 0.471466
0.568512 0.584473 0.480713
0.577728 0.593689 0.489929
0.586975 0.602936 0.499207
0.596252 0.612213 0.508453
0.605499 0.621460 0.517700
0.614716 0.630676 0.526917
0.623962 0.639923 0.536194
0.633240 0.649200 0.545441
0.517242 0.533203 0.429443
0.516602 0.532593 0.428833
0.516022 0.531982 0.428253
0.515411 0.531372 0.427612
0.514771 0.530731 0.427002
0.514191 0.530151 0.426392
0.513580 0.529541 0.425781
0.512939 0.528900 0.425171
0.512360 0.528320 0.424561
0.511749 0.527710 0.423950
0.511108 0.527069 0.423340
0.510529 0.526489 0.422729
0.509918 0.525879 0.422119
0.509308 0.525269 0.421539
0.508698 0.524658 0.420898
0.508087 0.524048 0.420288
0.507477 0.523438 0.419708
0.506866 0.522827 0.419067
0.516113 0.532074 0.428345
0.525330 0.541321 0.437561
0.534607 0.550568 0.446808
0.543854 0.559814 0.456055
0.553101 0.569061 0.465332
0.562317 0.578278 0.474548
0.571594 0.587555 0.483795
0.580841 0.596802 0.493042
0.590057 0.606018 0.502258
0.599304 0.615265 0.511536
0.608551 0.624542 0.520782
0.617798 0.633759 0.529999
0.627045 0.643005 0.539246
0.636292 0.652252 0.548523
0.645538 0.661530 0.557770
0.654785 0.670746 0.566986
0.548676 0.564636 0.460876
0.548065 0.564026 0.460297
0.547455 0.563416 0.459656
0.546875 0.562836 0.459076
0.546234 0.562195 0.458466
0.545624 0.561584 0.457825
0.545044 0.561005 0.457245
0.544403 0.560364 0.456635
0.543793 0.559753 0.455994
0.543213 0.559174 0.455414
0.542572 0.558533 0.454773
0.541962 0.557922 0.454163
0.541382 0.557343 0.453583
0.540741 0.556702 0.452942
0.540161 0.556122 0.452362
0.539551 0.555511 0.451752
0.538910 0.554871 0.451111
0.538330 0.554291 0.450531
0.537689 0.553650 0.449921
0.546967 0.562927 0.459167
0.556183 0.572144 0.468384
0.565430 0.581390 0.477631
0.574677 0.590637 0.486908
0.583954 0.599915 0.496155
0.593170 0.609131 0.505371
0.602417 0.618378 0.514618
0.611664 0.627625 0.523895
0.620880 0.636841 0.533112
0.630157 0.646118 0.542358
0.639404 0.655365 0.551605
0.648621 0.664581 0.560822
0.657867 0.673828 0.570099
0.667145 0.683105 0.579346
0.676392 0.692352 0.588593
0.580109 0.596069 0.492340
0.579498 0.595459 0.491699
0.578918 0.594879 0.491119
0.578278 0.594238 0.490509
0.577698 0.593658 0.489899
0.577087 0.593048 0.489288
0.576447 0.592407 0.488678
0.575867 0.591827 0.488068
0.575256 0.591217 0.487457
0.574615 0.590576 0.486847
0.574036 0.589996 0.486237
0.573425 0.589386 0.485626
0.572784 0.588745 0.485016
0.572205 0.588165 0.484406
0.571594 0.587555 0.483795
0.570984 0.586945 0.483215
0.570374 0.586334 0.482574
0.569763 0.585724 0.481964
0.569153 0.585114 0.481354
0.568542 0.584503 0.480743
0.577789 0.593750 0.489990
0.587006 0.602966 0.499237
0.596283 0.612244 0.508484
0.605530 0.621490 0.517731
0.614777 0.630737 0.526978
0.623993 0.639954 0.536224
0.633270 0.649231 0.545471
0.642517 0.658478 0.554718
0.651733 0.667694 0.563934
0.660980 0.676941 0.573212
0.670227 0.686188 0.582458
0.679474 0.695435 0.591675
0.688721 0.704681 0.600922
0.697968 0.713928 0.610168
0.611572 0.627533 0.523804
0.610962 0.626923 0.523163
0.610352 0.626312 0.522552
0.609741 0.625702 0.521973
0.609131 0.625092 0.521332
0.608521 0.624512 0.520752
0.607910 0.623871 0.520111
0.607300 0.623260 0.519501
0.606689 0.622650 0.518921
0.606079 0.622040 0.518280
0.605469 0.621429 0.517670
0.604889 0.620819 0.517090
0.604248 0.620209 0.516449
0.603638 0.619598 0.515839
0.603027 0.618988 0.515259
0.602417 0.618378 0.514618
0.601837 0.617798 0.514038
0.601196 0.617157 0.513428
0.600586 0.616547 0.512787
0.600006 0.615967 0.512207
0.599365 0.615326 0.511597
0.608643 0.624603 0.520844
0.617859 0.633820 0.530060
0.627106 0.643066 0.539307
0.636353 0.652313 0.548584
0.645630 0.661591 0.557831
0.654846 0.670807 0.567047
0.664093 0.680054 0.576294
0.673340 0.689301 0.585571
0.682556 0.698517 0.594788
0.691833 0.707794 0.604034
0.701080 0.717041 0.613281
0.710297 0.726257 0.622498
0.719543 0.735504 0.631775
0.643005 0.658966 0.555206
0.642426 0.658386 0.554626
0.641785 0.657745 0.554016
0.641174 0.657135 0.553375
0.640594 0.656555 0.552795
0.639954 0.655914 0.552185
0.639374 0.655334 0.551575
0.638763 0.654724 0.550964
0.638123 0.654083 0.550354
0.637543 0.653503 0.549744
0.636932 0.652893 0.549133
0.636292 0.652252 0.548523
0.635712 0.651672 0.547913
0.635101 0.651062 0.547302
0.634460 0.650421 0.546661
0.633881 0.649841 0.546082
0.633270 0.649231 0.545471
0.632660 0.648621 0.544861
0.632050 0.648010 0.544250
0.631409 0.647400 0.543640
0.630829 0.646790 0.543060
0.630219 0.646179 0.542419
0.639465 0.655426 0.551666
0.648682 0.664642 0.560913
0.657928 0.673889 0.570160
0.667206 0.683167 0.579407
0.676453 0.692413 0.588654
0.685669 0.701630 0.597870
0.694916 0.710876 0.607147
0.704193 0.720154 0.616394
0.713409 0.729370 0.625610
0.722656 0.738617 0.634857
0.731903 0.747864 0.644135
0.741150 0.757111 0.653351
0.674469 0.690430 0.586670
0.673828 0.689789 0.586060
0.673248 0.689209 0.585449
0.672638 0.688599 0.584839
0.671997 0.687958 0.584229
0.671417 0.687378 0.583618
0.670807 0.686768 0.583008
0.670197 0.686157 0.582428
0.669586 0.685547 0.581787
0.668976 0.684937 0.581177
0.668365 0.684326 0.580597
0.667755 0.683716 0.579956
0.667145 0.683105 0.579346
0.666534 0.682495 0.578766
0.665924 0.681885 0.578125
0.665314 0.681274 0.577515
0.664703 0.680664 0.576935
0.664093 0.680054 0.576294
0.663513 0.679474 0.575714
0.662872 0.678833 0.575104
0.662262 0.678223 0.574463
0.661682 0.677643 0.573883
0.661041 0.677002 0.573273
0.670288 0.686249 0.582520
0.679535 0.695496 0.591736
0.688782 0.704742 0.600983
0.698029 0.713989 0.610229
0.707275 0.723236 0.619507
0.716522 0.732483 0.628723
0.725769 0.741730 0.637970
0.735016 0.750977 0.647217
0.744232 0.760193 0.656464
0.753510 0.769470 0.665710
0.762756 0.778717 0.674957
0.705933 0.721893 0.618134
0.705292 0.721252 0.617523
0.704681 0.720642 0.616882
0.704102 0.720062 0.616302
0.703461 0.719421 0.615692
0.702850 0.718811 0.615051
0.702271 0.718231 0.614471
0.701630 0.717590 0.613861
0.701050 0.717010 0.613251
0.700409 0.716370 0.612640
0.699799 0.715759 0.612000
0.699219 0.715179 0.611420
0.698578 0.714539 0.610809
0.697968 0.713928 0.610168
0.697388 0.713348 0.609589
0.696747 0.712738 0.608978
0.696136 0.712097 0.608337
0.695557 0.711517 0.607758
0.694916 0.710876 0.607147
0.694336 0.710297 0.606537
0.693726 0.709686 0.605927
0.693085 0.709045 0.605316
0.692505 0.708466 0.604706
0.691895 0.707855 0.604095
0.701141 0.717102 0.613342
0.710358 0.726318 0.622559
0.719604 0.735565 0.631836
0.728882 0.744843 0.641083
0.738129 0.754089 0.650330
0.747345 0.763306 0.659546
0.756592 0.772552 0.668823
0.765869 0.781830 0.678070
0.775085 0.791046 0.687286
0.784332 0.800293 0.696533
0.737335 0.753296 0.649567
0.736755 0.752716 0.648956
0.736145 0.752106 0.648346
0.735504 0.751465 0.647736
0.734924 0.750885 0.647125
0.734314 0.750275 0.646515
0.733673 0.749634 0.645905
0.733093 0.749054 0.645294
0.732483 0.748444 0.644684
0.731873 0.747833 0.644104
0.731262 0.747223 0.643463
0.730652 0.746613 0.642853
0.730042 0.746002 0.642273
0.729431 0.745392 0.641632
0.728821 0.744781 0.641022
0.728210 0.744171 0.640442
0.727600 0.743561 0.639801
0.726990 0.742950 0.639191
0.726379 0.742340 0.638580
0.725769 0.741730 0.637970
0.725189 0.741150 0.637390
0.724548 0.740509 0.636749
0.723938 0.739899 0.636139
0.723328 0.739319 0.635559
0.722717 0.738678 0.634949
0.731964 0.747925 0.644196
0.741211 0.757172 0.653412
0.750458 0.766418 0.662659
0.759705 0.775665 0.671906
0.768951 0.784912 0.681183
0.778168 0.794128 0.690399
0.787445 0.803406 0.699646
0.796692 0.812653 0.708893
0.805908 0.821869 0.718109
0.768799 0.784760 0.681030
0.768188 0.784149 0.680389
0.767609 0.783569 0.679810
0.766968 0.782928 0.679199
0.766357 0.782318 0.678558
0.765747 0.781708 0.677979
0.765137 0.781097 0.677338
0.764526 0.780487 0.676727
0.763916 0.779877 0.676147
0.763306 0.779266 0.675507
0.762726 0.778687 0.674927
0.762085 0.778046 0.674316
0.761475 0.777435 0.673676
0.760895 0.776855 0.673096
0.760254 0.776215 0.672485
0.759644 0.775604 0.671844
0.759064 0.775024 0.671265
0.758423 0.774384 0.670654
0.757812 0.773773 0.670013
0.757233 0.773193 0.669434
0.756592 0.772552 0.668823
0.756012 0.771973 0.668213
0.755402 0.771362 0.667603
0.754761 0.770721 0.666992
0.754181 0.770142 0.666382
0.753571 0.769531 0.665771
0.762817 0.778778 0.675018
0.772034 0.787994 0.684235
0.781281 0.797241 0.693512
0.790558 0.806488 0.702759
0.799805 0.815765 0.712006
