other luts/实验工艺系列/达盖尔银版法1.cube
#Created by: Adobe Photoshop Export Color Lookup Plugin
#Copyright: (C) Copyright 2026 汉图
TITLE "实验工艺"
#LUT size
LUT_3D_SIZE 4
#data domain
DOMAIN_MIN 0.0 0.0 0.0
DOMAIN_MAX 1.0 1.0 1.0
#LUT data points
0.086273 0.086273 0.086273
0.111237 0.089325 0.086273
0.225281 0.193359 0.086273
0.326965 0.295044 0.139404
0.367798 0.335876 0.180237
0.361084 0.329163 0.173523
0.462769 0.430847 0.275208
0.564484 0.532532 0.376892
0.713684 0.681763 0.526123
0.706970 0.675049 0.519409
0.700256 0.668335 0.512695
0.801971 0.770050 0.614410
1.000000 1.000000 1.000000
1.000000 1.000000 1.000000
1.000000 1.000000 1.000000
1.000000 1.000000 1.000000
0.086273 0.086273 0.086273
0.086273 0.086273 0.086273
0.111206 0.089294 0.086273
0.225281 0.193359 0.086273
0.086273 0.086273 0.086273
0.361084 0.329163 0.173523
0.462769 0.430847 0.275208
0.564484 0.532532 0.376892
0.367767 0.335846 0.180206
0.706970 0.675049 0.519409
0.700256 0.668335 0.512695
0.801971 0.770050 0.614410
0.713684 0.681763 0.526123
1.000000 1.000000 1.000000
1.000000 1.000000 1.000000
1.000000 1.000000 1.000000
0.086273 0.086273 0.086273
0.086273 0.086273 0.086273
0.086273 0.086273 0.086273
0.111237 0.089325 0.086273
0.086273 0.086273 0.086273
0.361084 0.329163 0.173523
0.361084 0.329163 0.173523
0.462799 0.430878 0.275238
0.086273 0.086273 0.086273
0.361084 0.329163 0.173523
0.700256 0.668335 0.512695
0.801971 0.770050 0.614410
0.367798 0.335876 0.180237
0.707001 0.675079 0.519440
1.000000 1.000000 1.000000
1.000000 1.000000 1.000000
0.086273 0.086273 0.086273
0.086273 0.086273 0.086273
0.086273 0.086273 0.086273
0.086273 0.086273 0.086273
0.086273 0.086273 0.086273
0.361084 0.329163 0.173523
0.361084 0.329163 0.173523
0.361084 0.329163 0.173523
0.086273 0.086273 0.086273
0.361084 0.329163 0.173523
0.700256 0.668335 0.512695
0.700256 0.668335 0.512695
0.086273 0.086273 0.086273
0.361084 0.329163 0.173523
0.700256 0.668335 0.512695
1.000000 1.000000 1.000000
