other luts/实验工艺系列/铂金印相1.cube
#Created by: Adobe Photoshop Export Color Lookup Plugin
#Copyright: (C) Copyright 2026 汉图
TITLE "实验工艺"
#LUT size
LUT_3D_SIZE 7
#data domain
#LUT data points
DOMAIN_MIN 0.000000 0.000000 0.000000
DOMAIN_MAX 0.909091 0.909091 0.909091
0.215698 0.215698 0.215698
0.215698 0.215698 0.215698
0.223206 0.215698 0.215698
0.287323 0.215698 0.215698
0.332001 0.246826 0.215698
0.373077 0.287903 0.215698
0.414215 0.329041 0.215698
0.307373 0.222229 0.215698
0.304657 0.219513 0.215698
0.345795 0.260651 0.215698
0.386902 0.301727 0.215698
0.427979 0.342834 0.225739
0.469116 0.383942 0.266846
0.510193 0.425049 0.307953
0.447205 0.362061 0.244965
0.444489 0.359344 0.242249
0.441803 0.356628 0.239532
0.482910 0.397736 0.280640
0.524017 0.438843 0.321747
0.565125 0.479919 0.362823
0.606201 0.521057 0.403961
0.587036 0.501892 0.384796
0.584320 0.499146 0.382050
0.581635 0.496429 0.379333
0.578918 0.493744 0.376648
0.619995 0.534851 0.417755
0.661133 0.575958 0.458862
0.702209 0.617035 0.499939
0.726837 0.641693 0.524597
0.724152 0.638977 0.521881
0.721405 0.636261 0.519165
0.718689 0.633545 0.516449
0.716003 0.630829 0.513733
0.757111 0.671936 0.554871
0.798187 0.713043 0.595947
0.866669 0.781494 0.664398
0.863983 0.778778 0.661682
0.861267 0.776093 0.658997
0.858521 0.773346 0.656250
0.855835 0.770630 0.653564
0.853119 0.767944 0.650848
0.894226 0.809052 0.691956
1.000000 0.922485 0.815887
1.000000 0.919312 0.808319
1.000000 0.916138 0.800781
0.998352 0.913208 0.796112
0.995636 0.910461 0.793365
0.992920 0.907776 0.790680
0.990204 0.905060 0.787964
0.215698 0.215698 0.215698
0.215698 0.215698 0.215698
0.215698 0.215698 0.215698
0.223206 0.215698 0.215698
0.287262 0.215698 0.215698
0.332001 0.246826 0.215698
0.373077 0.287903 0.215698
0.215698 0.215698 0.215698
0.304657 0.219513 0.215698
0.345795 0.260651 0.215698
0.386902 0.301727 0.215698
0.427979 0.342834 0.225739
0.469116 0.383942 0.266846
0.510193 0.425049 0.307953
0.307373 0.222229 0.215698
0.444489 0.359344 0.242249
0.441803 0.356628 0.239532
0.482910 0.397736 0.280640
0.524017 0.438843 0.321747
0.565125 0.479919 0.362823
0.606201 0.521057 0.403961
0.447205 0.362061 0.244965
0.584320 0.499146 0.382050
0.581635 0.496429 0.379333
0.578918 0.493744 0.376648
0.619995 0.534851 0.417755
0.661133 0.575958 0.458862
0.702209 0.617035 0.499939
0.587006 0.501862 0.384766
0.724152 0.638977 0.521881
0.721405 0.636261 0.519165
0.718689 0.633545 0.516449
0.716003 0.630829 0.513733
0.757111 0.671936 0.554871
0.798187 0.713043 0.595947
0.726837 0.641693 0.524597
0.863983 0.778778 0.661682
0.861267 0.776093 0.658997
0.858521 0.773346 0.656250
0.855835 0.770630 0.653564
0.853119 0.767944 0.650848
0.894226 0.809052 0.691956
0.866669 0.781494 0.664398
1.000000 0.919312 0.808319
1.000000 0.916138 0.800781
0.998352 0.913208 0.796112
0.995636 0.910461 0.793365
0.992920 0.907776 0.790680
0.990204 0.905060 0.787964
0.215698 0.215698 0.215698
0.215698 0.215698 0.215698
0.215698 0.215698 0.215698
0.215698 0.215698 0.215698
0.223206 0.215698 0.215698
0.287262 0.215698 0.215698
0.332001 0.246826 0.215698
0.215698 0.215698 0.215698
0.304657 0.219513 0.215698
0.304657 0.219513 0.215698
0.345795 0.260651 0.215698
0.386902 0.301727 0.215698
0.427979 0.342834 0.225739
0.469116 0.383942 0.266846
0.215698 0.215698 0.215698
0.304657 0.219513 0.215698
0.441803 0.356628 0.239532
0.482910 0.397736 0.280640
0.524017 0.438843 0.321747
0.565125 0.479919 0.362823
0.606201 0.521057 0.403961
0.307373 0.222229 0.215698
0.444489 0.359344 0.242249
0.581635 0.496429 0.379333
0.578918 0.493744 0.376648
0.619995 0.534851 0.417755
0.661133 0.575958 0.458862
0.702209 0.617035 0.499939
0.447174 0.362030 0.244934
0.584290 0.499115 0.382019
0.721405 0.636261 0.519165
0.718689 0.633545 0.516449
0.716003 0.630829 0.513733
0.757111 0.671936 0.554871
0.798187 0.713043 0.595947
0.587006 0.501862 0.384766
0.724152 0.638977 0.521881
0.861267 0.776093 0.658997
0.858521 0.773346 0.656250
0.855835 0.770630 0.653564
0.853119 0.767944 0.650848
0.894226 0.809052 0.691956
0.726837 0.641693 0.524597
0.863983 0.778778 0.661682
1.000000 0.916138 0.800781
0.998352 0.913208 0.796112
0.995636 0.910461 0.793365
0.992920 0.907776 0.790680
0.990204 0.905060 0.787964
0.215698 0.215698 0.215698
0.215698 0.215698 0.215698
0.215698 0.215698 0.215698
0.215698 0.215698 0.215698
0.215698 0.215698 0.215698
0.223206 0.215698 0.215698
0.287262 0.215698 0.215698
0.215698 0.215698 0.215698
0.304657 0.219513 0.215698
0.304657 0.219513 0.215698
0.304657 0.219513 0.215698
0.345764 0.260620 0.215698
0.386902 0.301727 0.215698
0.427979 0.342834 0.225739
0.215698 0.215698 0.215698
0.304657 0.219513 0.215698
0.441803 0.356628 0.239532
0.441803 0.356628 0.239532
0.482880 0.397705 0.280609
0.524017 0.438843 0.321747
0.565125 0.479919 0.362823
0.215698 0.215698 0.215698
0.304657 0.219513 0.215698
0.441803 0.356628 0.239532
0.578918 0.493744 0.376648
0.619995 0.534851 0.417755
0.661133 0.575958 0.458862
0.702209 0.617035 0.499939
0.307343 0.222198 0.215698
0.444489 0.359314 0.242218
0.581604 0.496399 0.379303
0.718689 0.633545 0.516449
0.716003 0.630829 0.513733
0.757111 0.671936 0.554871
0.798187 0.713043 0.595947
0.447174 0.362030 0.244934
0.584290 0.499115 0.382019
0.721405 0.636261 0.519165
0.858521 0.773346 0.656250
0.855835 0.770630 0.653564
0.853119 0.767944 0.650848
0.894226 0.809052 0.691956
0.587006 0.501862 0.384766
0.724152 0.638977 0.521881
0.861267 0.776093 0.658997
0.998352 0.913208 0.796112
0.995636 0.910461 0.793365
0.992920 0.907776 0.790680
0.990204 0.905060 0.787964
0.215698 0.215698 0.215698
0.215698 0.215698 0.215698
0.215698 0.215698 0.215698
0.215698 0.215698 0.215698
0.215698 0.215698 0.215698
0.215698 0.215698 0.215698
0.223206 0.215698 0.215698
0.215698 0.215698 0.215698
0.304657 0.219513 0.215698
0.304657 0.219513 0.215698
0.304657 0.219513 0.215698
0.304657 0.219513 0.215698
0.345795 0.260651 0.215698
0.386902 0.301727 0.215698
0.215698 0.215698 0.215698
0.304657 0.219513 0.215698
0.441803 0.356628 0.239532
0.441803 0.356628 0.239532
0.441803 0.356628 0.239532
0.482910 0.397736 0.280640
0.524017 0.438843 0.321747
0.215698 0.215698 0.215698
0.304657 0.219513 0.215698
0.441803 0.356628 0.239532
0.578918 0.493744 0.376648
0.578918 0.493744 0.376648
0.620026 0.534851 0.417755
0.661133 0.575958 0.458862
0.215698 0.215698 0.215698
0.304657 0.219513 0.215698
0.441803 0.356628 0.239532
0.578918 0.493744 0.376648
0.716003 0.630829 0.513733
0.757111 0.671936 0.554871
0.798187 0.713043 0.595947
0.307373 0.222229 0.215698
0.444489 0.359344 0.242249
0.581635 0.496429 0.379333
0.718719 0.633575 0.516479
0.855835 0.770630 0.653564
0.853119 0.767944 0.650848
0.894226 0.809052 0.691956
0.447205 0.362061 0.244965
0.584320 0.499146 0.382050
0.721436 0.636261 0.519165
0.858551 0.773376 0.656281
0.995636 0.910461 0.793365
0.992920 0.907776 0.790680
0.990204 0.905060 0.787964
0.215698 0.215698 0.215698
0.215698 0.215698 0.215698
0.215698 0.215698 0.215698
0.215698 0.215698 0.215698
0.215698 0.215698 0.215698
0.215698 0.215698 0.215698
0.215698 0.215698 0.215698
0.215698 0.215698 0.215698
0.304657 0.219513 0.215698
0.304657 0.219513 0.215698
0.304657 0.219513 0.215698
0.304657 0.219513 0.215698
0.304657 0.219513 0.215698
0.345795 0.260651 0.215698
0.215698 0.215698 0.215698
0.304657 0.219513 0.215698
0.441803 0.356628 0.239532
0.441803 0.356628 0.239532
0.441803 0.356628 0.239532
0.441803 0.356628 0.239532
0.482910 0.397736 0.280640
0.215698 0.215698 0.215698
0.304657 0.219513 0.215698
0.441803 0.356628 0.239532
0.578918 0.493744 0.376648
0.578918 0.493744 0.376648
0.578918 0.493744 0.376648
0.620026 0.534851 0.417755
0.215698 0.215698 0.215698
0.304657 0.219513 0.215698
0.441803 0.356628 0.239532
0.578918 0.493744 0.376648
0.716003 0.630829 0.513733
0.716003 0.630829 0.513733
0.757111 0.671936 0.554871
0.215698 0.215698 0.215698
0.304657 0.219513 0.215698
0.441803 0.356628 0.239532
0.578918 0.493744 0.376648
0.716003 0.630829 0.513733
0.853119 0.767944 0.650848
0.894226 0.809052 0.691956
0.307373 0.222229 0.215698
0.444489 0.359344 0.242249
0.581635 0.496429 0.379333
0.718719 0.633575 0.516479
0.855835 0.770630 0.653564
0.992920 0.907776 0.790680
0.990204 0.905060 0.787964
0.215698 0.215698 0.215698
0.215698 0.215698 0.215698
0.215698 0.215698 0.215698
0.215698 0.215698 0.215698
0.215698 0.215698 0.215698
0.215698 0.215698 0.215698
0.215698 0.215698 0.215698
0.215698 0.215698 0.215698
0.304657 0.219513 0.215698
0.304657 0.219513 0.215698
0.304657 0.219513 0.215698
0.304657 0.219513 0.215698
0.304657 0.219513 0.215698
0.304657 0.219513 0.215698
0.215698 0.215698 0.215698
0.304657 0.219513 0.215698
0.441803 0.356628 0.239532
0.441803 0.356628 0.239532
0.441803 0.356628 0.239532
0.441803 0.356628 0.239532
0.441803 0.356628 0.239532
0.215698 0.215698 0.215698
0.304657 0.219513 0.215698
0.441803 0.356628 0.239532
0.578918 0.493744 0.376648
0.578918 0.493744 0.376648
0.578918 0.493744 0.376648
0.578918 0.493744 0.376648
0.215698 0.215698 0.215698
0.304657 0.219513 0.215698
0.441803 0.356628 0.239532
0.578918 0.493744 0.376648
0.716003 0.630829 0.513733
0.716003 0.630829 0.513733
0.716003 0.630829 0.513733
0.215698 0.215698 0.215698
0.304657 0.219513 0.215698
0.441803 0.356628 0.239532
0.578918 0.493744 0.376648
0.716003 0.630829 0.513733
0.853119 0.767944 0.650848
0.853119 0.767944 0.650848
0.215698 0.215698 0.215698
0.304657 0.219513 0.215698
0.441803 0.356628 0.239532
0.578918 0.493744 0.376648
0.716003 0.630829 0.513733
0.853119 0.767944 0.650848
0.990204 0.905060 0.787964
