other luts/实验工艺系列/铂金印相2.cube
#Created by: Adobe Photoshop Export Color Lookup Plugin
#Copyright: (C) Copyright 2026 汉图
TITLE "实验工艺"
#LUT size
LUT_3D_SIZE 4
#data domain
DOMAIN_MIN 0.0 0.0 0.0
DOMAIN_MAX 1.0 1.0 1.0
#LUT data points
0.156281 0.156281 0.156281
0.204865 0.156281 0.156281
0.272736 0.189178 0.156311
0.352570 0.251495 0.205750
0.387573 0.280701 0.230804
0.381744 0.275757 0.226532
0.474670 0.356018 0.298157
0.575714 0.446411 0.381622
0.736725 0.593903 0.520874
0.729218 0.586945 0.514252
0.721741 0.580017 0.507629
0.838409 0.688477 0.611145
1.000000 1.000000 1.000000
1.000000 1.000000 1.000000
1.000000 1.000000 1.000000
1.000000 1.000000 1.000000
0.156281 0.156281 0.156281
0.156281 0.156281 0.156281
0.204803 0.156281 0.156281
0.272736 0.189178 0.156311
0.156281 0.156281 0.156281
0.381744 0.275757 0.226532
0.474670 0.356018 0.298157
0.575714 0.446411 0.381622
0.387543 0.280670 0.230774
0.729218 0.586945 0.514252
0.721741 0.580017 0.507629
0.838409 0.688477 0.611145
0.736725 0.593903 0.520874
1.000000 1.000000 1.000000
1.000000 1.000000 1.000000
1.000000 1.000000 1.000000
0.156281 0.156281 0.156281
0.156281 0.156281 0.156281
0.156281 0.156281 0.156281
0.204865 0.156281 0.156281
0.156281 0.156281 0.156281
0.381744 0.275757 0.226532
0.381744 0.275757 0.226532
0.474731 0.356049 0.298187
0.156281 0.156281 0.156281
0.381744 0.275757 0.226532
0.721741 0.580017 0.507629
0.838409 0.688477 0.611145
0.387573 0.280701 0.230804
0.729248 0.587006 0.514282
1.000000 1.000000 1.000000
1.000000 1.000000 1.000000
0.156281 0.156281 0.156281
0.156281 0.156281 0.156281
0.156281 0.156281 0.156281
0.156281 0.156281 0.156281
0.156281 0.156281 0.156281
0.381744 0.275757 0.226532
0.381744 0.275757 0.226532
0.381744 0.275757 0.226532
0.156281 0.156281 0.156281
0.381744 0.275757 0.226532
0.721741 0.580017 0.507629
0.721741 0.580017 0.507629
0.156281 0.156281 0.156281
0.381744 0.275757 0.226532
0.721741 0.580017 0.507629
1.000000 1.000000 1.000000
