other luts/实验工艺系列/铂金印相1.cube
#Created by: Adobe Photoshop Export Color Lookup Plugin
#Copyright: (C) Copyright 2026 汉图
TITLE "实验工艺"
#LUT size
LUT_3D_SIZE 34
#data domain
DOMAIN_MIN 0.0 0.0 0.0
DOMAIN_MAX 1.0 1.0 1.0
#LUT data points
0.215698 0.215698 0.215698
0.215698 0.215698 0.215698
0.215698 0.215698 0.215698
0.215698 0.215698 0.215698
0.215698 0.215698 0.215698
0.215698 0.215698 0.215698
0.215698 0.215698 0.215698
0.215698 0.215698 0.215698
0.215698 0.215698 0.215698
0.215698 0.215698 0.215698
0.223206 0.215698 0.215698
0.236053 0.215698 0.215698
0.248810 0.215698 0.215698
0.261658 0.215698 0.215698
0.274475 0.215698 0.215698
0.287323 0.215698 0.215698
0.299103 0.215698 0.215698
0.307312 0.222168 0.215698
0.315521 0.230377 0.215698
0.323761 0.238586 0.215698
0.332001 0.246826 0.215698
0.340210 0.255066 0.215698
0.348419 0.263245 0.215698
0.356659 0.271484 0.215698
0.364899 0.279694 0.215698
0.373077 0.287903 0.215698
0.381317 0.296143 0.215698
0.389526 0.304382 0.215698
0.397736 0.312592 0.215698
0.405975 0.320801 0.215698
0.414215 0.329041 0.215698
0.422424 0.337280 0.220184
0.430634 0.345490 0.228394
0.438873 0.353699 0.236603
0.215698 0.215698 0.215698
0.215698 0.215698 0.215698
0.215698 0.215698 0.215698
0.215698 0.215698 0.215698
0.215698 0.215698 0.215698
0.215698 0.215698 0.215698
0.215698 0.215698 0.215698
0.215698 0.215698 0.215698
0.227539 0.215698 0.215698
0.240356 0.215698 0.215698
0.253113 0.215698 0.215698
0.265961 0.215698 0.215698
0.278778 0.215698 0.215698
0.291565 0.215698 0.215698
0.301849 0.216705 0.215698
0.310089 0.224915 0.215698
0.318329 0.233154 0.215698
0.326508 0.241364 0.215698
0.334747 0.249603 0.215698
0.342957 0.257782 0.215698
0.351196 0.266022 0.215698
0.359436 0.274231 0.215698
0.367645 0.282471 0.215698
0.375854 0.290680 0.215698
0.384064 0.298889 0.215698
0.392303 0.307129 0.215698
0.400513 0.315338 0.215698
0.408722 0.323578 0.215698
0.416962 0.331818 0.215698
0.425171 0.339996 0.222900
0.433411 0.348236 0.231140
0.441620 0.356476 0.239380
0.449860 0.364685 0.247589
0.458069 0.372894 0.255798
0.215698 0.215698 0.215698
0.215698 0.215698 0.215698
0.215698 0.215698 0.215698
0.215698 0.215698 0.215698
0.215698 0.215698 0.215698
0.218994 0.215698 0.215698
0.231812 0.215698 0.215698
0.244629 0.215698 0.215698
0.257416 0.215698 0.215698
0.270264 0.215698 0.215698
0.283081 0.215698 0.215698
0.295868 0.215698 0.215698
0.304626 0.219452 0.215698
0.312836 0.227692 0.215698
0.321045 0.235901 0.215698
0.329285 0.244110 0.215698
0.337524 0.252350 0.215698
0.345734 0.260559 0.215698
0.353943 0.268768 0.215698
0.362183 0.277008 0.215698
0.370392 0.285187 0.215698
0.378601 0.293427 0.215698
0.386841 0.301666 0.215698
0.395050 0.309906 0.215698
0.403259 0.318115 0.215698
0.411499 0.326324 0.215698
0.419739 0.334564 0.217468
0.427917 0.342773 0.225677
0.436157 0.351013 0.233917
0.444397 0.359222 0.242126
0.452606 0.367401 0.250336
0.460846 0.375641 0.258545
0.469055 0.383881 0.266785
0.477264 0.392120 0.275024
0.225830 0.215698 0.215698
0.224976 0.215698 0.215698
0.224152 0.215698 0.215698
0.223297 0.215698 0.215698
0.236145 0.215698 0.215698
0.248932 0.215698 0.215698
0.261749 0.215698 0.215698
0.274567 0.215698 0.215698
0.287415 0.215698 0.215698
0.299164 0.215698 0.215698
0.307373 0.222229 0.215698
0.315613 0.230438 0.215698
0.323822 0.238647 0.215698
0.332031 0.246887 0.215698
0.340271 0.255127 0.215698
0.348480 0.263306 0.215698
0.356720 0.271545 0.215698
0.364960 0.279755 0.215698
0.373138 0.287964 0.215698
0.381378 0.296204 0.215698
0.389587 0.304413 0.215698
0.397797 0.312622 0.215698
0.406036 0.320862 0.215698
0.414246 0.329102 0.215698
0.422485 0.337341 0.220245
0.430695 0.345520 0.228424
0.438934 0.353760 0.236664
0.447144 0.362000 0.244904
0.455353 0.370178 0.253082
0.463593 0.378418 0.261322
0.471832 0.386627 0.269531
0.480011 0.394836 0.277740
0.488220 0.403076 0.285980
0.496460 0.411316 0.294220
0.269440 0.215698 0.215698
0.268585 0.215698 0.215698
0.267731 0.215698 0.215698
0.266907 0.215698 0.215698
0.266052 0.215698 0.215698
0.278839 0.215698 0.215698
0.291626 0.215698 0.215698
0.301910 0.216736 0.215698
0.310150 0.224976 0.215698
0.318359 0.233215 0.215698
0.326569 0.241425 0.215698
0.334808 0.249634 0.215698
0.343048 0.257874 0.215698
0.351257 0.266083 0.215698
0.359467 0.274292 0.215698
0.367706 0.282532 0.215698
0.375916 0.290710 0.215698
0.384125 0.298950 0.215698
0.392365 0.307190 0.215698
0.400543 0.315399 0.215698
0.408783 0.323639 0.215698
0.417023 0.331848 0.215698
0.425232 0.340057 0.222961
0.433441 0.348297 0.231201
0.441681 0.356537 0.239441
0.449921 0.364746 0.247650
0.458130 0.372925 0.255859
0.466370 0.381165 0.264069
0.474579 0.389404 0.272308
0.482758 0.397614 0.280518
0.490997 0.405823 0.288727
0.499237 0.414062 0.296967
0.507446 0.422272 0.305176
0.515656 0.430511 0.313416
0.307373 0.222229 0.215698
0.306854 0.221680 0.215698
0.306305 0.221130 0.215698
0.305756 0.220581 0.215698
0.305237 0.220062 0.215698
0.304657 0.219513 0.215698
0.312897 0.227753 0.215698
0.321106 0.235931 0.215698
0.329346 0.244171 0.215698
0.337555 0.252411 0.215698
0.345795 0.260651 0.215698
0.354004 0.268829 0.215698
0.362244 0.277069 0.215698
0.370483 0.285278 0.215698
0.378662 0.293488 0.215698
0.386902 0.301727 0.215698
0.395111 0.309937 0.215698
0.403320 0.318146 0.215698
0.411560 0.326385 0.215698
0.419769 0.334625 0.217529
0.427979 0.342834 0.225739
0.436218 0.351044 0.233948
0.444458 0.359283 0.242188
0.452667 0.367462 0.250397
0.460876 0.375702 0.258606
0.469116 0.383942 0.266846
0.477325 0.392151 0.275055
0.485535 0.400360 0.283264
0.493744 0.408600 0.291504
0.501984 0.416840 0.299744
0.510193 0.425049 0.307953
0.518433 0.433258 0.316162
0.526672 0.441498 0.324402
0.534851 0.449707 0.332611
0.335358 0.250183 0.215698
0.334808 0.249634 0.215698
0.334290 0.249115 0.215698
0.333740 0.248566 0.215698
0.333160 0.248016 0.215698
0.332672 0.247467 0.215698
0.332092 0.246948 0.215698
0.340332 0.255157 0.215698
0.348541 0.263367 0.215698
0.356781 0.271606 0.215698
0.364990 0.279816 0.215698
0.373230 0.288055 0.215698
0.381439 0.296234 0.215698
0.389648 0.304474 0.215698
0.397888 0.312714 0.215698
0.406067 0.320923 0.215698
0.414307 0.329163 0.215698
0.422516 0.337341 0.220245
0.430756 0.345581 0.228485
0.438965 0.353821 0.236725
0.447205 0.362061 0.244965
0.455414 0.370239 0.253143
0.463654 0.378448 0.261383
0.471893 0.386688 0.269592
0.480072 0.394897 0.277802
0.488281 0.403137 0.286041
0.496521 0.411346 0.294250
0.504761 0.419586 0.302490
0.512970 0.427795 0.310699
0.521179 0.436035 0.318939
0.529419 0.444275 0.327179
0.537628 0.452454 0.335358
0.545868 0.460693 0.343597
0.554077 0.468903 0.351807
0.363312 0.278137 0.215698
0.362762 0.277618 0.215698
0.362244 0.277069 0.215698
0.361694 0.276550 0.215698
0.361176 0.275970 0.215698
0.360596 0.275452 0.215698
0.360077 0.274902 0.215698
0.359528 0.274353 0.215698
0.367767 0.282593 0.215698
0.375977 0.290771 0.215698
0.384186 0.299011 0.215698
0.392426 0.307251 0.215698
0.400635 0.315460 0.215698
0.408844 0.323669 0.215698
0.417084 0.331909 0.215698
0.425293 0.340149 0.223053
0.433502 0.348358 0.231262
0.441742 0.356567 0.239471
0.449951 0.364777 0.247681
0.458191 0.372986 0.255920
0.466400 0.381226 0.264130
0.474640 0.389465 0.272369
0.482819 0.397644 0.280548
0.491058 0.405884 0.288788
0.499268 0.414124 0.297028
0.507477 0.422333 0.305237
0.515717 0.430573 0.313477
0.523956 0.438782 0.321686
0.532196 0.447021 0.329926
0.540375 0.455231 0.338135
0.548615 0.463440 0.346375
0.556854 0.471680 0.354584
0.565063 0.479858 0.362762
0.573273 0.488098 0.371002
0.391266 0.306122 0.215698
0.390747 0.305542 0.215698
0.390198 0.305054 0.215698
0.389648 0.304474 0.215698
0.389130 0.303986 0.215698
0.388580 0.303406 0.215698
0.388031 0.302856 0.215698
0.387482 0.302338 0.215698
0.386963 0.301758 0.215698
0.395172 0.309998 0.215698
0.403381 0.318207 0.215698
0.411591 0.326447 0.215698
0.419830 0.334686 0.217590
0.428070 0.342896 0.225800
0.436279 0.351105 0.234009
0.444489 0.359344 0.242249
0.452728 0.367554 0.250488
0.460938 0.375763 0.258667
0.469177 0.383972 0.266907
0.477356 0.392181 0.275085
0.485596 0.400421 0.283325
0.493805 0.408661 0.291565
0.502045 0.416870 0.299774
0.510254 0.425079 0.307983
0.518494 0.433319 0.316223
0.526703 0.441559 0.324463
0.534912 0.449768 0.332672
0.543152 0.457977 0.340881
0.551392 0.466217 0.349121
0.559601 0.474426 0.357330
0.567810 0.482635 0.365540
0.576050 0.490875 0.373779
0.584259 0.499084 0.381989
0.592468 0.507294 0.390198
0.419281 0.334076 0.216980
0.418701 0.333557 0.216461
0.418152 0.332977 0.215881
0.417633 0.332458 0.215698
0.417084 0.331909 0.215698
0.416565 0.331360 0.215698
0.415985 0.330841 0.215698
0.415436 0.330261 0.215698
0.414917 0.329773 0.215698
0.414368 0.329193 0.215698
0.422607 0.337433 0.220337
0.430786 0.345642 0.228546
0.439026 0.353882 0.236786
0.447266 0.362091 0.244995
0.455505 0.370331 0.253235
0.463715 0.378510 0.261444
0.471924 0.386749 0.269653
0.480133 0.394958 0.277863
0.488342 0.403168 0.286072
0.496582 0.411407 0.294312
0.504791 0.419617 0.302521
0.513000 0.427856 0.310760
0.521240 0.436096 0.319000
0.529480 0.444305 0.327209
0.537689 0.452515 0.335419
0.545898 0.460754 0.343658
0.554138 0.468964 0.351868
0.562347 0.477173 0.360077
0.570587 0.485382 0.368286
0.578796 0.493622 0.376526
0.587006 0.501862 0.384766
0.595215 0.510071 0.392975
0.603455 0.518280 0.401184
0.611694 0.526520 0.409424
0.447205 0.362061 0.244965
0.446686 0.361511 0.244415
0.446136 0.360962 0.243866
0.445587 0.360413 0.243317
0.445068 0.359863 0.242767
0.444489 0.359344 0.242249
0.443970 0.358795 0.241699
0.443420 0.358246 0.241180
0.442871 0.357697 0.240601
0.442352 0.357178 0.240082
0.441803 0.356628 0.239532
0.450012 0.364868 0.247772
0.458221 0.373047 0.255981
0.466461 0.381287 0.264191
0.474701 0.389496 0.272430
0.482910 0.397736 0.280640
0.491119 0.405945 0.288849
0.499329 0.414185 0.297089
0.507538 0.422394 0.305298
0.515778 0.430603 0.313507
0.524017 0.438843 0.321747
0.532196 0.447052 0.329956
0.540436 0.455292 0.338196
0.548676 0.463501 0.346405
0.556915 0.471741 0.354645
0.565125 0.479919 0.362823
0.573334 0.488159 0.371063
0.581573 0.496399 0.379303
0.589752 0.504578 0.387482
0.597992 0.512817 0.395721
0.606201 0.521057 0.403961
0.614441 0.529297 0.412201
0.622650 0.537506 0.420410
0.630890 0.545715 0.428619
0.475189 0.390015 0.272919
0.474640 0.389465 0.272369
0.474091 0.388947 0.271851
0.473541 0.388367 0.271271
0.472992 0.387848 0.270752
0.472473 0.387299 0.270203
0.471924 0.386749 0.269653
0.471405 0.386230 0.269135
0.470856 0.385681 0.268585
0.470306 0.385132 0.268036
0.469757 0.384613 0.267517
0.469238 0.384033 0.266968
0.477448 0.392273 0.275177
0.485657 0.400482 0.283386
0.493866 0.408691 0.291595
0.502106 0.416931 0.299835
0.510315 0.425171 0.308075
0.518524 0.433380 0.316284
0.526764 0.441620 0.324524
0.534973 0.449799 0.332703
0.543213 0.458038 0.340942
0.551422 0.466278 0.349182
0.559631 0.474457 0.357361
0.567871 0.482697 0.365601
0.576111 0.490906 0.373810
0.584320 0.499146 0.382050
0.592499 0.507355 0.390259
0.600739 0.515594 0.398499
0.608978 0.523804 0.406708
0.617188 0.532013 0.414917
0.625427 0.540253 0.423157
0.633636 0.548492 0.431396
0.641876 0.556702 0.439636
0.650085 0.564911 0.447815
0.503174 0.417969 0.300873
0.502594 0.417450 0.300354
0.502045 0.416870 0.299774
0.501526 0.416351 0.299286
0.500977 0.415802 0.298706
0.500427 0.415253 0.298157
0.499908 0.414734 0.297638
0.499329 0.414185 0.297089
0.498840 0.413666 0.296570
0.498260 0.413116 0.296021
0.497742 0.412537 0.295441
0.497192 0.412018 0.294922
0.496643 0.411469 0.294373
0.504852 0.419708 0.302612
0.513062 0.427917 0.310822
0.521301 0.436127 0.319031
0.529541 0.444366 0.327271
0.537720 0.452576 0.335480
0.545959 0.460815 0.343719
0.554199 0.469025 0.351929
0.562408 0.477203 0.360138
0.570648 0.485443 0.368347
0.578857 0.493683 0.376587
0.587036 0.501892 0.384796
0.595276 0.510101 0.393005
0.603516 0.518341 0.401245
0.611725 0.526581 0.409485
0.619934 0.534790 0.417694
0.628174 0.543030 0.425934
0.636414 0.551239 0.434143
0.644623 0.559448 0.442352
0.652832 0.567657 0.450592
0.661072 0.575897 0.458801
0.669312 0.584106 0.467010
0.531097 0.445923 0.328857
0.530579 0.445404 0.328308
0.530029 0.444855 0.327759
0.529480 0.444305 0.327209
0.528961 0.443787 0.326691
0.528412 0.443237 0.326141
0.527832 0.442688 0.325592
0.527344 0.442139 0.325073
0.526764 0.441620 0.324524
0.526245 0.441071 0.323975
0.525696 0.440521 0.323425
0.525116 0.439972 0.322876
0.524628 0.439453 0.322357
0.524048 0.438904 0.321808
0.532288 0.447144 0.330048
0.540497 0.455322 0.338226
0.548737 0.463562 0.346466
0.556946 0.471802 0.354706
0.565155 0.479980 0.362885
0.573395 0.488220 0.371124
0.581635 0.496429 0.379333
0.589813 0.504639 0.387543
0.598022 0.512878 0.395782
0.606262 0.521118 0.404022
0.614471 0.529327 0.412231
0.622711 0.537537 0.420441
0.630951 0.545776 0.428680
0.639160 0.554016 0.436920
0.647369 0.562195 0.445129
0.655609 0.570435 0.453339
0.663849 0.578644 0.461548
0.672028 0.586853 0.469757
0.680267 0.595093 0.477997
0.688477 0.603333 0.486237
0.559082 0.473907 0.356812
0.558533 0.473358 0.356262
0.558014 0.472839 0.355743
0.557434 0.472290 0.355194
0.556915 0.471741 0.354645
0.556366 0.471222 0.354126
0.555817 0.470642 0.353546
0.555267 0.470123 0.353027
0.554749 0.469574 0.352478
0.554199 0.469025 0.351929
0.553650 0.468506 0.351410
0.553131 0.467926 0.350861
0.552551 0.467407 0.350311
0.552032 0.466858 0.349762
0.551483 0.466339 0.349243
0.559723 0.474548 0.357452
0.567932 0.482727 0.365662
0.576172 0.490967 0.373871
0.584381 0.499207 0.382111
0.592560 0.507416 0.390320
0.600800 0.515625 0.398529
0.609039 0.523865 0.406769
0.617249 0.532074 0.414978
0.625458 0.540314 0.423218
0.633698 0.548553 0.431458
0.641907 0.556732 0.439636
0.650146 0.564972 0.447876
0.658356 0.573181 0.456116
0.666595 0.581421 0.464325
0.674805 0.589630 0.472534
0.683014 0.597839 0.480743
0.691254 0.606079 0.488983
0.699432 0.614288 0.497192
0.707672 0.622528 0.505432
0.587036 0.501892 0.384796
0.586517 0.501343 0.384247
0.585938 0.500793 0.383698
0.585449 0.500244 0.383148
0.584869 0.499725 0.382629
0.584320 0.499146 0.382050
0.583801 0.498627 0.381531
0.583221 0.498077 0.380981
0.582703 0.497528 0.380432
0.582153 0.497009 0.379913
0.581635 0.496429 0.379333
0.581085 0.495941 0.378845
0.580536 0.495361 0.378265
0.579987 0.494812 0.377747
0.579468 0.494293 0.377197
0.578918 0.493744 0.376648
0.587128 0.501953 0.384857
0.595337 0.510162 0.393066
0.603546 0.518402 0.401306
0.611786 0.526642 0.409546
0.619995 0.534851 0.417755
0.628235 0.543060 0.425964
0.636475 0.551300 0.434204
0.644653 0.559509 0.442413
0.652893 0.567719 0.450653
0.661133 0.575958 0.458862
0.669342 0.584137 0.467041
0.677551 0.592377 0.475281
0.685791 0.600616 0.483521
0.694000 0.608856 0.491760
0.702209 0.617035 0.499939
0.710449 0.625275 0.508179
0.718658 0.633514 0.516418
0.726868 0.641724 0.524628
0.615021 0.529816 0.412750
0.614471 0.529327 0.412231
0.613922 0.528748 0.411652
0.613373 0.528229 0.411133
0.612854 0.527679 0.410583
0.612305 0.527130 0.410034
0.611725 0.526581 0.409485
0.611237 0.526031 0.408966
0.610657 0.525513 0.408417
0.610107 0.524933 0.407837
0.609589 0.524414 0.407349
0.609039 0.523865 0.406769
0.608521 0.523346 0.406250
0.607971 0.522797 0.405701
0.607422 0.522247 0.405151
0.606873 0.521729 0.404633
0.606323 0.521149 0.404053
0.614532 0.529358 0.412262
0.622772 0.537598 0.420502
0.630981 0.545837 0.428741
0.639221 0.554077 0.436981
0.647430 0.562256 0.445160
0.655670 0.570496 0.453400
0.663879 0.578705 0.461609
0.672089 0.586914 0.469818
0.680328 0.595154 0.478058
0.688538 0.603363 0.486267
0.696747 0.611572 0.494476
0.704956 0.619812 0.502716
0.713196 0.628052 0.510956
0.721436 0.636261 0.519165
0.729645 0.644470 0.527374
0.737885 0.652710 0.535614
0.746094 0.660919 0.543854
0.642944 0.557800 0.440704
0.642395 0.557220 0.440125
0.641876 0.556702 0.439636
0.641327 0.556152 0.439056
0.640778 0.555603 0.438507
0.640228 0.555084 0.437988
0.639679 0.554504 0.437408
0.639130 0.553986 0.436890
0.638611 0.553436 0.436340
0.638062 0.552887 0.435791
0.637512 0.552338 0.435242
0.636993 0.551819 0.434723
0.636444 0.551270 0.434174
0.635895 0.550751 0.433655
0.635376 0.550201 0.433105
0.634796 0.549652 0.432556
0.634277 0.549103 0.432007
0.633728 0.548553 0.431458
0.641968 0.556793 0.439697
0.650177 0.565002 0.447906
0.658386 0.573212 0.456146
0.666626 0.581451 0.464355
0.674866 0.589661 0.472565
0.683044 0.597870 0.480774
0.691284 0.606110 0.489014
0.699493 0.614349 0.497253
0.707703 0.622559 0.505463
0.715942 0.630768 0.513672
0.724182 0.639008 0.521912
0.732361 0.647217 0.530121
0.740601 0.655426 0.538361
0.748840 0.663666 0.546570
0.757080 0.671875 0.554810
0.765259 0.680084 0.562988
0.670898 0.585724 0.468628
0.670380 0.585205 0.468109
0.669830 0.584656 0.467560
0.669312 0.584106 0.467010
0.668732 0.583588 0.466492
0.668182 0.583008 0.465912
0.667664 0.582489 0.465424
0.667114 0.581940 0.464844
0.666565 0.581390 0.464294
0.666046 0.580872 0.463776
0.665466 0.580322 0.463226
0.664948 0.579773 0.462677
0.664398 0.579254 0.462158
0.663879 0.578674 0.461578
0.663330 0.578156 0.461060
0.662781 0.577606 0.460510
0.662231 0.577057 0.459961
0.661682 0.576538 0.459442
0.661163 0.575989 0.458893
0.669403 0.584198 0.467102
0.677582 0.592407 0.475311
0.685822 0.600647 0.483551
0.694031 0.608856 0.491760
0.702271 0.617096 0.500000
0.710480 0.625305 0.508209
0.718689 0.633545 0.516449
0.726929 0.641785 0.524689
0.735138 0.649963 0.532867
0.743378 0.658203 0.541107
0.751587 0.666412 0.549347
0.759796 0.674622 0.557526
0.768036 0.682861 0.565765
0.776245 0.691071 0.573975
0.784485 0.699310 0.582214
0.698883 0.613708 0.496613
0.698334 0.613159 0.496063
0.697784 0.612610 0.495514
0.697235 0.612091 0.494995
0.696716 0.611542 0.494446
0.696167 0.610992 0.493896
0.695618 0.610443 0.493347
0.695099 0.609924 0.492828
0.694550 0.609375 0.492279
0.693970 0.608826 0.491730
0.693481 0.608276 0.491211
0.692902 0.607758 0.490662
0.692352 0.607178 0.490082
0.691833 0.606659 0.489563
0.691284 0.606110 0.489014
0.690765 0.605591 0.488495
0.690186 0.605042 0.487946
0.689667 0.604462 0.487396
0.689117 0.603973 0.486877
0.688568 0.603394 0.486298
0.696777 0.611633 0.494537
0.704987 0.619843 0.502747
0.713226 0.628082 0.510986
0.721466 0.636292 0.519196
0.729706 0.644531 0.527435
0.737885 0.652740 0.535645
0.746124 0.660950 0.543884
0.754364 0.669189 0.552094
0.762573 0.677368 0.560303
0.770782 0.685608 0.568512
0.779022 0.693848 0.576752
0.787201 0.702057 0.584961
0.795441 0.710266 0.593170
0.803680 0.718506 0.601410
0.726837 0.641693 0.524597
0.726288 0.641113 0.524017
0.725739 0.640564 0.523499
0.725220 0.640045 0.522949
0.724670 0.639496 0.522400
0.724152 0.638977 0.521881
0.723572 0.638428 0.521332
0.723053 0.637878 0.520782
0.722504 0.637360 0.520264
0.721985 0.636780 0.519684
0.721405 0.636261 0.519165
0.720886 0.635712 0.518616
0.720337 0.635162 0.518066
0.719757 0.634613 0.517517
0.719269 0.634064 0.516998
0.718689 0.633545 0.516449
0.718170 0.632996 0.515900
0.717621 0.632477 0.515381
0.717072 0.631897 0.514801
0.716553 0.631378 0.514282
0.716003 0.630829 0.513733
0.724213 0.639069 0.521973
0.732422 0.647278 0.530182
0.740662 0.655487 0.538391
0.748901 0.663727 0.546631
0.757111 0.671936 0.554871
0.765320 0.680145 0.563049
0.773560 0.688385 0.571289
0.781769 0.696594 0.579498
0.789978 0.704803 0.587708
0.798187 0.713043 0.595947
0.806427 0.721283 0.604187
0.814636 0.729492 0.612396
0.822876 0.737701 0.620605
0.754791 0.669617 0.552521
0.754272 0.669098 0.552002
0.753723 0.668549 0.551453
0.753174 0.667999 0.550903
0.752655 0.667480 0.550385
0.752075 0.666931 0.549835
0.751587 0.666382 0.549316
0.751007 0.665863 0.548767
0.750458 0.665283 0.548187
0.749939 0.664764 0.547668
0.749359 0.664215 0.547119
0.748840 0.663666 0.546570
0.748291 0.663147 0.546051
0.747772 0.662567 0.545471
0.747192 0.662048 0.544952
0.746674 0.661499 0.544403
0.746124 0.660950 0.543884
0.745605 0.660431 0.543335
0.745056 0.659882 0.542786
0.744507 0.659332 0.542236
0.743958 0.658783 0.541687
0.743408 0.658264 0.541168
0.751648 0.666473 0.549408
0.759857 0.674683 0.557587
0.768097 0.682892 0.565826
0.776306 0.691132 0.574036
0.784546 0.699371 0.582275
0.792725 0.707581 0.590485
0.800964 0.715790 0.598694
0.809204 0.724030 0.606934
0.817413 0.732239 0.615143
0.825623 0.740479 0.623383
0.833862 0.748718 0.631622
0.842072 0.756897 0.639801
0.782776 0.697601 0.580505
0.782227 0.697052 0.579956
0.781677 0.696533 0.579437
0.781158 0.695984 0.578888
0.780579 0.695435 0.578339
0.780090 0.694885 0.577789
0.779510 0.694366 0.577271
0.778992 0.693817 0.576721
0.778442 0.693268 0.576172
0.777863 0.692719 0.575623
0.777374 0.692169 0.575104
0.776794 0.691650 0.574554
0.776245 0.691071 0.573975
0.775726 0.690582 0.573486
0.775177 0.690002 0.572906
0.774628 0.689453 0.572357
0.774109 0.688934 0.571838
0.773560 0.688385 0.571289
0.773010 0.687866 0.570770
0.772461 0.687286 0.570190
0.771912 0.686737 0.569672
0.771393 0.686218 0.569122
0.770844 0.685669 0.568573
0.779083 0.693909 0.576813
0.787262 0.702087 0.584991
0.795502 0.710327 0.593231
0.803711 0.718567 0.601471
0.811951 0.726807 0.609711
0.820160 0.735016 0.617920
0.828400 0.743225 0.626129
0.836639 0.751465 0.634369
0.844818 0.759644 0.642578
0.853058 0.767883 0.650787
0.861298 0.776093 0.659027
0.810760 0.725586 0.608490
0.810181 0.725037 0.607941
0.809662 0.724457 0.607391
0.809113 0.723969 0.606873
0.808563 0.723389 0.606293
0.808014 0.722870 0.605774
0.807465 0.722321 0.605225
0.806946 0.721771 0.604675
0.806396 0.721252 0.604156
0.805878 0.720673 0.603577
0.805298 0.720154 0.603058
0.804779 0.719604 0.602509
0.804230 0.719055 0.601990
0.803680 0.718506 0.601410
0.803162 0.717987 0.600891
0.802612 0.717438 0.600342
0.802032 0.716888 0.599792
0.801514 0.716370 0.599274
0.800964 0.715790 0.598694
0.800446 0.715271 0.598175
0.799896 0.714722 0.597626
0.799347 0.714172 0.597076
0.798828 0.713654 0.596558
0.798248 0.713104 0.596008
0.806488 0.721313 0.604218
0.814697 0.729523 0.612427
0.822937 0.737762 0.620667
0.831146 0.746002 0.628906
0.839386 0.754242 0.637146
0.847595 0.762421 0.645325
0.855835 0.770630 0.653564
0.864044 0.778870 0.661774
0.872253 0.787079 0.669983
0.880463 0.795319 0.678223
0.838684 0.753540 0.636444
0.838165 0.752991 0.635895
0.837616 0.752472 0.635376
0.837067 0.751892 0.634796
0.836548 0.751373 0.634277
0.835968 0.750824 0.633728
0.835449 0.750244 0.633179
0.834900 0.749756 0.632660
0.834351 0.749176 0.632080
0.833832 0.748688 0.631592
0.833282 0.748108 0.631012
0.832733 0.747559 0.630463
0.832214 0.747040 0.629944
0.831665 0.746490 0.629395
0.831116 0.745941 0.628845
0.830566 0.745392 0.628296
0.830017 0.744843 0.627777
0.829468 0.744293 0.627197
0.828949 0.743774 0.626678
0.828400 0.743225 0.626129
0.827850 0.742706 0.625610
0.827332 0.742157 0.625061
0.826752 0.741608 0.624512
0.826263 0.741058 0.623962
0.825684 0.740540 0.623444
0.833923 0.748749 0.631653
0.842133 0.756958 0.639862
0.850342 0.765167 0.648102
0.858582 0.773407 0.656311
0.866821 0.781616 0.664551
0.875000 0.789825 0.672729
0.883240 0.798065 0.680969
0.891449 0.806305 0.689209
0.899658 0.814514 0.697418
0.866669 0.781494 0.664398
0.866119 0.780945 0.663879
0.865570 0.780426 0.663330
0.865051 0.779877 0.662781
0.864471 0.779327 0.662231
0.863983 0.778778 0.661682
0.863403 0.778259 0.661163
0.862854 0.777679 0.660583
0.862335 0.777161 0.660095
0.861786 0.776611 0.659515
0.861267 0.776093 0.658997
0.860718 0.775543 0.658447
0.860138 0.774994 0.657898
0.859619 0.774475 0.657379
0.859070 0.773895 0.656799
0.858521 0.773346 0.656250
0.858002 0.772827 0.655731
0.857452 0.772278 0.655182
0.856903 0.771729 0.654633
0.856354 0.771210 0.654114
0.855835 0.770630 0.653564
0.855286 0.770142 0.653046
0.854736 0.769562 0.652466
0.854187 0.769043 0.651947
0.853638 0.768494 0.651398
0.853119 0.767944 0.650848
0.861359 0.776154 0.659088
0.869537 0.784363 0.667267
0.877777 0.792603 0.675507
0.885986 0.800842 0.683746
0.894226 0.809052 0.691956
