other luts/实验工艺系列/铂金印相2.cube
#Created by: Adobe Photoshop Export Color Lookup Plugin
#Copyright: (C) Copyright 2026 汉图
TITLE "实验工艺"
#LUT size
LUT_3D_SIZE 7
#data domain
#LUT data points
DOMAIN_MIN 0.000000 0.000000 0.000000
DOMAIN_MAX 0.909091 0.909091 0.909091
0.156281 0.156281 0.156281
0.156281 0.156281 0.156281
0.194580 0.156281 0.156281
0.228424 0.159088 0.156281
0.259491 0.179718 0.156281
0.293365 0.204498 0.167725
0.329681 0.232910 0.190308
0.240509 0.166809 0.156281
0.238525 0.165497 0.156281
0.270599 0.187622 0.156281
0.305328 0.213684 0.174835
0.342407 0.243195 0.198792
0.381622 0.275665 0.226471
0.422791 0.310760 0.257324
0.360504 0.258026 0.211273
0.357910 0.255890 0.209473
0.355316 0.253754 0.207672
0.395264 0.287201 0.236450
0.437042 0.323059 0.268372
0.480591 0.361237 0.302887
0.525757 0.401459 0.339874
0.504547 0.382446 0.322357
0.501495 0.379791 0.319885
0.498535 0.377136 0.317474
0.495544 0.374542 0.315094
0.541290 0.415344 0.352722
0.588562 0.458008 0.392517
0.637268 0.502380 0.434143
0.667145 0.529755 0.460022
0.663818 0.526703 0.457123
0.660461 0.523621 0.454254
0.657196 0.520660 0.451416
0.653961 0.517639 0.448547
0.704529 0.564117 0.492523
0.756378 0.612122 0.538177
0.845581 0.695129 0.617554
0.841980 0.691772 0.614319
0.838379 0.688416 0.611145
0.834778 0.685089 0.607880
0.831268 0.681732 0.604675
0.827637 0.678406 0.601471
0.882446 0.729614 0.650635
1.000000 0.885773 0.822662
1.000000 0.880951 0.815430
1.000000 0.876190 0.808197
1.000000 0.871338 0.800964
1.000000 0.866608 0.793762
1.000000 0.861847 0.786621
1.000000 0.857086 0.779480
0.156281 0.156281 0.156281
0.156281 0.156281 0.156281
0.156281 0.156281 0.156281
0.194580 0.156281 0.156281
0.228394 0.159058 0.156281
0.259491 0.179718 0.156281
0.293365 0.204498 0.167725
0.156281 0.156281 0.156281
0.238525 0.165497 0.156281
0.270599 0.187622 0.156281
0.305328 0.213684 0.174835
0.342407 0.243195 0.198792
0.381622 0.275665 0.226471
0.422791 0.310760 0.257324
0.240509 0.166809 0.156281
0.357910 0.255890 0.209473
0.355316 0.253754 0.207672
0.395264 0.287201 0.236450
0.437042 0.323059 0.268372
0.480591 0.361237 0.302887
0.525757 0.401459 0.339874
0.360504 0.258026 0.211273
0.501495 0.379791 0.319885
0.498535 0.377136 0.317474
0.495544 0.374542 0.315094
0.541290 0.415344 0.352722
0.588562 0.458008 0.392517
0.637268 0.502380 0.434143
0.504517 0.382416 0.322327
0.663818 0.526703 0.457123
0.660461 0.523621 0.454254
0.657196 0.520660 0.451416
0.653961 0.517639 0.448547
0.704529 0.564117 0.492523
0.756378 0.612122 0.538177
0.667145 0.529755 0.460022
0.841980 0.691772 0.614319
0.838379 0.688416 0.611145
0.834778 0.685089 0.607880
0.831268 0.681732 0.604675
0.827637 0.678406 0.601471
0.882446 0.729614 0.650635
0.845581 0.695129 0.617554
1.000000 0.880951 0.815430
1.000000 0.876190 0.808197
1.000000 0.871338 0.800964
1.000000 0.866608 0.793762
1.000000 0.861847 0.786621
1.000000 0.857086 0.779480
0.156281 0.156281 0.156281
0.156281 0.156281 0.156281
0.156281 0.156281 0.156281
0.156281 0.156281 0.156281
0.194580 0.156281 0.156281
0.228394 0.159058 0.156281
0.259491 0.179718 0.156281
0.156281 0.156281 0.156281
0.238525 0.165497 0.156281
0.238525 0.165497 0.156281
0.270599 0.187622 0.156281
0.305328 0.213684 0.174835
0.342407 0.243195 0.198792
0.381622 0.275665 0.226471
0.156281 0.156281 0.156281
0.238525 0.165497 0.156281
0.355316 0.253754 0.207672
0.395264 0.287201 0.236450
0.437042 0.323059 0.268372
0.480591 0.361237 0.302887
0.525757 0.401459 0.339874
0.240509 0.166809 0.156281
0.357910 0.255890 0.209473
0.498535 0.377136 0.317474
0.495544 0.374542 0.315094
0.541290 0.415344 0.352722
0.588562 0.458008 0.392517
0.637268 0.502380 0.434143
0.360474 0.257996 0.211243
0.501465 0.379761 0.319855
0.660461 0.523621 0.454254
0.657196 0.520660 0.451416
0.653961 0.517639 0.448547
0.704529 0.564117 0.492523
0.756378 0.612122 0.538177
0.504517 0.382416 0.322327
0.663818 0.526703 0.457123
0.838379 0.688416 0.611145
0.834778 0.685089 0.607880
0.831268 0.681732 0.604675
0.827637 0.678406 0.601471
0.882446 0.729614 0.650635
0.667145 0.529755 0.460022
0.841980 0.691772 0.614319
1.000000 0.876190 0.808197
1.000000 0.871338 0.800964
1.000000 0.866608 0.793762
1.000000 0.861847 0.786621
1.000000 0.857086 0.779480
0.156281 0.156281 0.156281
0.156281 0.156281 0.156281
0.156281 0.156281 0.156281
0.156281 0.156281 0.156281
0.156281 0.156281 0.156281
0.194580 0.156281 0.156281
0.228394 0.159058 0.156281
0.156281 0.156281 0.156281
0.238525 0.165497 0.156281
0.238525 0.165497 0.156281
0.238525 0.165497 0.156281
0.270569 0.187622 0.156281
0.305328 0.213684 0.174835
0.342407 0.243195 0.198792
0.156281 0.156281 0.156281
0.238525 0.165497 0.156281
0.355316 0.253754 0.207672
0.355316 0.253754 0.207672
0.395233 0.287170 0.236450
0.437042 0.323059 0.268372
0.480591 0.361237 0.302887
0.156281 0.156281 0.156281
0.238525 0.165497 0.156281
0.355316 0.253754 0.207672
0.495544 0.374542 0.315094
0.541290 0.415344 0.352722
0.588562 0.458008 0.392517
0.637268 0.502380 0.434143
0.240509 0.166809 0.156281
0.357880 0.255859 0.209442
0.498505 0.377106 0.317444
0.657196 0.520660 0.451416
0.653961 0.517639 0.448547
0.704529 0.564117 0.492523
0.756378 0.612122 0.538177
0.360474 0.257996 0.211243
0.501465 0.379761 0.319855
0.660461 0.523621 0.454254
0.834778 0.685089 0.607880
0.831268 0.681732 0.604675
0.827637 0.678406 0.601471
0.882446 0.729614 0.650635
0.504517 0.382416 0.322327
0.663818 0.526703 0.457123
0.838379 0.688416 0.611145
1.000000 0.871338 0.800964
1.000000 0.866608 0.793762
1.000000 0.861847 0.786621
1.000000 0.857086 0.779480
0.156281 0.156281 0.156281
0.156281 0.156281 0.156281
0.156281 0.156281 0.156281
0.156281 0.156281 0.156281
0.156281 0.156281 0.156281
0.156281 0.156281 0.156281
0.194580 0.156281 0.156281
0.156281 0.156281 0.156281
0.238525 0.165497 0.156281
0.238525 0.165497 0.156281
0.238525 0.165497 0.156281
0.238525 0.165497 0.156281
0.270599 0.187622 0.156281
0.305328 0.213684 0.174835
0.156281 0.156281 0.156281
0.238525 0.165497 0.156281
0.355316 0.253754 0.207672
0.355316 0.253754 0.207672
0.355316 0.253754 0.207672
0.395264 0.287201 0.236450
0.437042 0.323059 0.268372
0.156281 0.156281 0.156281
0.238525 0.165497 0.156281
0.355316 0.253754 0.207672
0.495544 0.374542 0.315094
0.495544 0.374542 0.315094
0.541321 0.415375 0.352722
0.588562 0.458008 0.392517
0.156281 0.156281 0.156281
0.238525 0.165497 0.156281
0.355316 0.253754 0.207672
0.495544 0.374542 0.315094
0.653961 0.517639 0.448547
0.704529 0.564117 0.492523
0.756378 0.612122 0.538177
0.240509 0.166809 0.156281
0.357910 0.255890 0.209473
0.498535 0.377136 0.317474
0.657227 0.520691 0.451447
0.831268 0.681732 0.604675
0.827637 0.678406 0.601471
0.882446 0.729614 0.650635
0.360504 0.258026 0.211273
0.501495 0.379791 0.319885
0.660492 0.523651 0.454254
0.834808 0.685120 0.607910
1.000000 0.866608 0.793762
1.000000 0.861847 0.786621
1.000000 0.857086 0.779480
0.156281 0.156281 0.156281
0.156281 0.156281 0.156281
0.156281 0.156281 0.156281
0.156281 0.156281 0.156281
0.156281 0.156281 0.156281
0.156281 0.156281 0.156281
0.156281 0.156281 0.156281
0.156281 0.156281 0.156281
0.238525 0.165497 0.156281
0.238525 0.165497 0.156281
0.238525 0.165497 0.156281
0.238525 0.165497 0.156281
0.238525 0.165497 0.156281
0.270599 0.187622 0.156281
0.156281 0.156281 0.156281
0.238525 0.165497 0.156281
0.355316 0.253754 0.207672
0.355316 0.253754 0.207672
0.355316 0.253754 0.207672
0.355316 0.253754 0.207672
0.395264 0.287201 0.236450
0.156281 0.156281 0.156281
0.238525 0.165497 0.156281
0.355316 0.253754 0.207672
0.495544 0.374542 0.315094
0.495544 0.374542 0.315094
0.495544 0.374542 0.315094
0.541321 0.415375 0.352722
0.156281 0.156281 0.156281
0.238525 0.165497 0.156281
0.355316 0.253754 0.207672
0.495544 0.374542 0.315094
0.653961 0.517639 0.448547
0.653961 0.517639 0.448547
0.704529 0.564117 0.492523
0.156281 0.156281 0.156281
0.238525 0.165497 0.156281
0.355316 0.253754 0.207672
0.495544 0.374542 0.315094
0.653961 0.517639 0.448547
0.827637 0.678406 0.601471
0.882446 0.729614 0.650635
0.240509 0.166809 0.156281
0.357910 0.255890 0.209473
0.498535 0.377136 0.317474
0.657227 0.520691 0.451447
0.831268 0.681732 0.604675
1.000000 0.861847 0.786621
1.000000 0.857086 0.779480
0.156281 0.156281 0.156281
0.156281 0.156281 0.156281
0.156281 0.156281 0.156281
0.156281 0.156281 0.156281
0.156281 0.156281 0.156281
0.156281 0.156281 0.156281
0.156281 0.156281 0.156281
0.156281 0.156281 0.156281
0.238525 0.165497 0.156281
0.238525 0.165497 0.156281
0.238525 0.165497 0.156281
0.238525 0.165497 0.156281
0.238525 0.165497 0.156281
0.238525 0.165497 0.156281
0.156281 0.156281 0.156281
0.238525 0.165497 0.156281
0.355316 0.253754 0.207672
0.355316 0.253754 0.207672
0.355316 0.253754 0.207672
0.355316 0.253754 0.207672
0.355316 0.253754 0.207672
0.156281 0.156281 0.156281
0.238525 0.165497 0.156281
0.355316 0.253754 0.207672
0.495544 0.374542 0.315094
0.495544 0.374542 0.315094
0.495544 0.374542 0.315094
0.495544 0.374542 0.315094
0.156281 0.156281 0.156281
0.238525 0.165497 0.156281
0.355316 0.253754 0.207672
0.495544 0.374542 0.315094
0.653961 0.517639 0.448547
0.653961 0.517639 0.448547
0.653961 0.517639 0.448547
0.156281 0.156281 0.156281
0.238525 0.165497 0.156281
0.355316 0.253754 0.207672
0.495544 0.374542 0.315094
0.653961 0.517639 0.448547
0.827637 0.678406 0.601471
0.827637 0.678406 0.601471
0.156281 0.156281 0.156281
0.238525 0.165497 0.156281
0.355316 0.253754 0.207672
0.495544 0.374542 0.315094
0.653961 0.517639 0.448547
0.827637 0.678406 0.601471
1.000000 0.857086 0.779480
