other luts/实验工艺系列/铂金印相2.cube
#Created by: Adobe Photoshop Export Color Lookup Plugin
#Copyright: (C) Copyright 2026 汉图
TITLE "实验工艺"
#LUT size
LUT_3D_SIZE 34
#data domain
DOMAIN_MIN 0.0 0.0 0.0
DOMAIN_MAX 1.0 1.0 1.0
#LUT data points
0.156281 0.156281 0.156281
0.156281 0.156281 0.156281
0.156281 0.156281 0.156281
0.156281 0.156281 0.156281
0.156281 0.156281 0.156281
0.156281 0.156281 0.156281
0.159882 0.156281 0.156281
0.167572 0.156281 0.156281
0.175934 0.156281 0.156281
0.184937 0.156281 0.156281
0.194580 0.156281 0.156281
0.204865 0.156281 0.156281
0.211243 0.156281 0.156281
0.216858 0.156281 0.156281
0.222565 0.156281 0.156281
0.228424 0.159088 0.156281
0.234375 0.162842 0.156281
0.240479 0.166809 0.156281
0.246704 0.170929 0.156281
0.253021 0.175232 0.156281
0.259491 0.179718 0.156281
0.266083 0.184357 0.156281
0.272736 0.189178 0.156311
0.279480 0.194092 0.159943
0.286377 0.199249 0.163727
0.293365 0.204498 0.167725
0.300415 0.209930 0.171936
0.307648 0.215485 0.176270
0.314880 0.221161 0.180756
0.322266 0.226990 0.185455
0.329681 0.232910 0.190308
0.337280 0.239014 0.195312
0.344879 0.245209 0.200470
0.352570 0.251495 0.205750
0.156281 0.156281 0.156281
0.156281 0.156281 0.156281
0.156281 0.156281 0.156281
0.156281 0.156281 0.156281
0.162384 0.156281 0.156281
0.170319 0.156281 0.156281
0.178894 0.156281 0.156281
0.188141 0.156281 0.156281
0.197968 0.156281 0.156281
0.207611 0.156281 0.156281
0.213104 0.156281 0.156281
0.218719 0.156281 0.156281
0.224518 0.156677 0.156281
0.230408 0.160309 0.156281
0.236420 0.164124 0.156281
0.242584 0.168152 0.156281
0.248871 0.172363 0.156281
0.255188 0.176727 0.156281
0.261719 0.181274 0.156281
0.268280 0.185913 0.156281
0.274994 0.190826 0.157471
0.281799 0.195831 0.161194
0.288757 0.201019 0.165070
0.295746 0.206329 0.169098
0.302856 0.211761 0.173340
0.310059 0.217377 0.177734
0.317352 0.223114 0.182312
0.324738 0.228973 0.187073
0.332214 0.234955 0.191956
0.339783 0.241028 0.196991
0.347473 0.247284 0.202209
0.355164 0.253632 0.207581
0.363037 0.260101 0.213074
0.370880 0.266663 0.218689
0.165985 0.156281 0.156281
0.165466 0.156281 0.156281
0.164978 0.156281 0.156281
0.173096 0.156281 0.156281
0.181915 0.156281 0.156281
0.191376 0.156281 0.156281
0.201416 0.156281 0.156281
0.209473 0.156281 0.156281
0.214996 0.156281 0.156281
0.220673 0.156281 0.156281
0.226501 0.157867 0.156281
0.232391 0.161591 0.156281
0.238464 0.165466 0.156281
0.244690 0.169556 0.156281
0.250977 0.173828 0.156281
0.257355 0.178223 0.156281
0.263916 0.182831 0.156281
0.270508 0.187561 0.156281
0.277252 0.192505 0.158722
0.284119 0.197540 0.162476
0.291046 0.202759 0.166382
0.298096 0.208130 0.170502
0.305267 0.213654 0.174805
0.312500 0.219269 0.179260
0.319794 0.225067 0.183899
0.327240 0.230927 0.188690
0.334778 0.237000 0.193634
0.342346 0.243134 0.198730
0.350037 0.249451 0.203979
0.357788 0.255768 0.209412
0.365631 0.262299 0.214905
0.373566 0.268921 0.220612
0.381592 0.275635 0.226410
0.389648 0.282440 0.232361
0.196655 0.156281 0.156281
0.195953 0.156281 0.156281
0.195343 0.156281 0.156281
0.194672 0.156281 0.156281
0.204926 0.156281 0.156281
0.211304 0.156281 0.156281
0.216888 0.156281 0.156281
0.222595 0.156281 0.156281
0.228485 0.159119 0.156281
0.234406 0.162872 0.156281
0.240509 0.166809 0.156281
0.246765 0.170959 0.156281
0.253082 0.175262 0.156281
0.259552 0.179749 0.156281
0.266144 0.184418 0.156281
0.272766 0.189178 0.156311
0.279541 0.194153 0.159943
0.286438 0.199280 0.163757
0.293427 0.204529 0.167755
0.300476 0.209961 0.171936
0.307678 0.215515 0.176300
0.314941 0.221161 0.180786
0.322327 0.227020 0.185486
0.329742 0.232941 0.190338
0.337311 0.239044 0.195343
0.344910 0.245239 0.200470
0.352631 0.251556 0.205780
0.360443 0.257965 0.211243
0.368317 0.264526 0.216797
0.376221 0.271149 0.222534
0.384247 0.277893 0.228363
0.392365 0.284729 0.234344
0.400574 0.291718 0.240448
0.408844 0.298767 0.246704
0.220306 0.156281 0.156281
0.219940 0.156281 0.156281
0.219543 0.156281 0.156281
0.219147 0.156281 0.156281
0.218781 0.156281 0.156281
0.224548 0.156677 0.156281
0.230438 0.160339 0.156281
0.236450 0.164154 0.156281
0.242615 0.168182 0.156281
0.248901 0.172394 0.156281
0.255249 0.176758 0.156281
0.261749 0.181274 0.156281
0.268372 0.186005 0.156281
0.275024 0.190857 0.157501
0.281860 0.195862 0.161194
0.288757 0.201050 0.165100
0.295776 0.206329 0.169128
0.302887 0.211823 0.173370
0.310120 0.217407 0.177795
0.317413 0.223114 0.182343
0.324768 0.229004 0.187103
0.332275 0.234985 0.191986
0.339844 0.241089 0.197021
0.347504 0.247345 0.202271
0.355225 0.253693 0.207581
0.363068 0.260132 0.213074
0.370941 0.266724 0.218719
0.378906 0.273407 0.224487
0.386993 0.280212 0.230377
0.395142 0.287079 0.236389
0.403351 0.294098 0.242523
0.411591 0.301147 0.248810
0.419983 0.308350 0.255127
0.428436 0.315643 0.261658
0.240509 0.166809 0.156281
0.240143 0.166565 0.156281
0.239716 0.166290 0.156281
0.239288 0.166016 0.156281
0.238922 0.165771 0.156281
0.238525 0.165497 0.156281
0.244690 0.169586 0.156281
0.251007 0.173828 0.156281
0.257385 0.178253 0.156281
0.263947 0.182831 0.156281
0.270599 0.187622 0.156281
0.277283 0.192505 0.158752
0.284149 0.197571 0.162476
0.291138 0.202820 0.166443
0.298157 0.208160 0.170532
0.305328 0.213684 0.174835
0.312531 0.219299 0.179291
0.319855 0.225098 0.183929
0.327271 0.230988 0.188721
0.334839 0.237030 0.193665
0.342407 0.243195 0.198792
0.350067 0.249451 0.204010
0.357849 0.255829 0.209442
0.365692 0.262329 0.214966
0.373627 0.268982 0.220642
0.381622 0.275665 0.226471
0.389740 0.282501 0.232391
0.397888 0.289398 0.238434
0.406097 0.296478 0.244629
0.414429 0.303558 0.250946
0.422791 0.310760 0.257324
0.431274 0.318085 0.263855
0.439789 0.325470 0.270477
0.448364 0.332947 0.277222
0.262177 0.181580 0.156281
0.261749 0.181274 0.156281
0.261322 0.181000 0.156281
0.260895 0.180664 0.156281
0.260468 0.180389 0.156281
0.260040 0.180084 0.156281
0.259613 0.179779 0.156281
0.266144 0.184448 0.156281
0.272827 0.189240 0.156342
0.279602 0.194183 0.159973
0.286499 0.199341 0.163788
0.293488 0.204590 0.167786
0.300507 0.209991 0.171967
0.307709 0.215576 0.176331
0.315033 0.221252 0.180847
0.322357 0.227081 0.185516
0.329773 0.232971 0.190399
0.337341 0.239075 0.195343
0.344971 0.245270 0.200531
0.352661 0.251587 0.205811
0.360504 0.258026 0.211273
0.368347 0.264557 0.216858
0.376282 0.271179 0.222565
0.384308 0.277954 0.228424
0.392426 0.284790 0.234375
0.400635 0.291779 0.240479
0.408875 0.298798 0.246704
0.417206 0.305969 0.253052
0.425659 0.313202 0.259491
0.434113 0.320557 0.266083
0.442657 0.327972 0.272766
0.451263 0.335480 0.279480
0.459991 0.343109 0.286377
0.468719 0.350800 0.293396
0.285065 0.198242 0.162964
0.284668 0.197937 0.162750
0.284149 0.197571 0.162476
0.283752 0.197266 0.162262
0.283264 0.196899 0.161987
0.282837 0.196594 0.161743
0.282349 0.196228 0.161499
0.281891 0.195892 0.161255
0.288818 0.201080 0.165100
0.295837 0.206390 0.169159
0.302917 0.211853 0.173431
0.310181 0.217468 0.177795
0.317474 0.223175 0.182373
0.324829 0.229065 0.187103
0.332336 0.235016 0.192047
0.339905 0.241180 0.197083
0.347565 0.247406 0.202301
0.355255 0.253723 0.207611
0.363098 0.260162 0.213104
0.371002 0.266785 0.218719
0.378967 0.273468 0.224518
0.387024 0.280243 0.230438
0.395172 0.287109 0.236420
0.403381 0.294128 0.242584
0.411652 0.301208 0.248871
0.420044 0.308380 0.255188
0.428467 0.315674 0.261719
0.436981 0.323029 0.268311
0.445557 0.330505 0.274994
0.454193 0.338043 0.281799
0.462921 0.345703 0.288757
0.471680 0.353394 0.295746
0.480530 0.361176 0.302856
0.489441 0.369080 0.310059
0.309174 0.216675 0.177216
0.308685 0.216278 0.176910
0.308228 0.215942 0.176636
0.307709 0.215576 0.176331
0.307251 0.215210 0.176056
0.306763 0.214844 0.175751
0.306274 0.214447 0.175446
0.305817 0.214081 0.175171
0.305359 0.213684 0.174866
0.312592 0.219360 0.179321
0.319916 0.225128 0.183960
0.327332 0.231049 0.188751
0.334839 0.237061 0.193726
0.342468 0.243256 0.198822
0.350128 0.249481 0.204071
0.357910 0.255890 0.209473
0.365753 0.262390 0.215027
0.373657 0.269012 0.220673
0.381683 0.275726 0.226501
0.389771 0.282532 0.232391
0.397949 0.289459 0.238464
0.406158 0.296509 0.244690
0.414459 0.303589 0.250977
0.422852 0.310822 0.257355
0.431305 0.318146 0.263916
0.439850 0.325531 0.270538
0.448425 0.333008 0.277252
0.457092 0.340607 0.284119
0.465790 0.348267 0.291077
0.474640 0.356018 0.298126
0.483521 0.363831 0.305267
0.492401 0.371765 0.312500
0.501434 0.379730 0.319824
0.510498 0.387787 0.327240
0.334320 0.236633 0.193359
0.333832 0.236267 0.192993
0.333313 0.235809 0.192688
0.332794 0.235443 0.192383
0.332336 0.235016 0.192047
0.331848 0.234650 0.191711
0.331329 0.234222 0.191406
0.330811 0.233826 0.191040
0.330383 0.233459 0.190735
0.329834 0.233032 0.190430
0.337402 0.239136 0.195404
0.345032 0.245331 0.200562
0.352722 0.251648 0.205872
0.360535 0.258057 0.211304
0.368439 0.264587 0.216888
0.376343 0.271240 0.222595
0.384369 0.277985 0.228485
0.392517 0.284851 0.234406
0.400665 0.291809 0.240509
0.408936 0.298859 0.246765
0.417236 0.306000 0.253082
0.425720 0.313263 0.259552
0.434143 0.320587 0.266144
0.442719 0.328033 0.272797
0.451324 0.335541 0.279541
0.460052 0.343170 0.286438
0.468781 0.350861 0.293457
0.477570 0.358582 0.300476
0.486481 0.366455 0.307678
0.495422 0.374451 0.314972
0.504517 0.382416 0.322327
0.513580 0.390533 0.329742
0.522705 0.398682 0.337311
0.531891 0.406921 0.344940
0.360504 0.258026 0.211273
0.359985 0.257599 0.210938
0.359436 0.257141 0.210571
0.358948 0.256744 0.210175
0.358429 0.256317 0.209808
0.357910 0.255890 0.209473
0.357391 0.255463 0.209106
0.356873 0.255035 0.208771
0.356354 0.254608 0.208405
0.355865 0.254211 0.208038
0.355316 0.253754 0.207672
0.363159 0.260254 0.213196
0.371063 0.266815 0.218781
0.378998 0.273499 0.224548
0.387085 0.280273 0.230438
0.395264 0.287201 0.236450
0.403442 0.294159 0.242615
0.411743 0.301270 0.248901
0.420074 0.308411 0.255249
0.428528 0.315735 0.261749
0.437042 0.323059 0.268372
0.445587 0.330536 0.275024
0.454254 0.338104 0.281860
0.462952 0.345734 0.288757
0.471741 0.353455 0.295807
0.480591 0.361237 0.302887
0.489532 0.369141 0.310120
0.498474 0.377075 0.317444
0.507477 0.385101 0.324768
0.516632 0.393280 0.332275
0.525757 0.401459 0.339874
0.535034 0.409729 0.347534
0.544281 0.418030 0.355225
0.553680 0.426483 0.363068
0.387573 0.280701 0.230804
0.387024 0.280243 0.230438
0.386536 0.279816 0.230042
0.385986 0.279327 0.229645
0.385468 0.278900 0.229248
0.384918 0.278442 0.228882
0.384369 0.277985 0.228485
0.383850 0.277557 0.228088
0.383331 0.277100 0.227722
0.382782 0.276642 0.227264
0.382263 0.276215 0.226929
0.381744 0.275757 0.226532
0.389862 0.282593 0.232452
0.398010 0.289520 0.238525
0.406189 0.296539 0.244690
0.414551 0.303650 0.251007
0.422943 0.310913 0.257416
0.431396 0.318207 0.263947
0.439880 0.325562 0.270599
0.448486 0.333038 0.277283
0.457153 0.340668 0.284149
0.465881 0.348358 0.291138
0.474670 0.356018 0.298157
0.483551 0.363861 0.305328
0.492462 0.371796 0.312531
0.501495 0.379791 0.319885
0.510559 0.387848 0.327271
0.519714 0.396027 0.334839
0.528839 0.404205 0.342407
0.538116 0.412476 0.350067
0.547424 0.420868 0.357849
0.556824 0.429352 0.365723
0.566223 0.437805 0.373657
0.575714 0.446411 0.381622
0.415588 0.304565 0.251801
0.415039 0.304108 0.251404
0.414459 0.303589 0.250977
0.413940 0.303162 0.250580
0.413361 0.302673 0.250122
0.412842 0.302216 0.249725
0.412292 0.301727 0.249298
0.411743 0.301270 0.248901
0.411224 0.300781 0.248474
0.410645 0.300323 0.248077
0.410065 0.299835 0.247620
0.409546 0.299377 0.247223
0.408997 0.298889 0.246826
0.417358 0.306061 0.253143
0.425751 0.313293 0.259613
0.434174 0.320648 0.266144
0.442780 0.328064 0.272827
0.451416 0.335602 0.279602
0.460114 0.343231 0.286499
0.468842 0.350891 0.293488
0.477631 0.358643 0.300507
0.486572 0.366516 0.307709
0.495483 0.374512 0.315033
0.504547 0.382446 0.322357
0.513611 0.390564 0.329773
0.522766 0.398773 0.337341
0.531982 0.406982 0.345001
0.541260 0.415314 0.352661
0.550598 0.423706 0.360504
0.559967 0.432159 0.368378
0.569427 0.440674 0.376282
0.578949 0.449310 0.384308
0.588501 0.458008 0.392487
0.598145 0.466736 0.400635
0.444427 0.329529 0.274139
0.443878 0.329041 0.273712
0.443298 0.328552 0.273285
0.442719 0.328033 0.272797
0.442200 0.327576 0.272369
0.441589 0.327057 0.271912
0.441040 0.326569 0.271484
0.440460 0.326080 0.271057
0.439880 0.325562 0.270599
0.439331 0.325104 0.270172
0.438782 0.324585 0.269714
0.438202 0.324127 0.269287
0.437653 0.323608 0.268860
0.437103 0.323120 0.268402
0.445648 0.330597 0.275116
0.454285 0.338135 0.281891
0.463013 0.345795 0.288818
0.471832 0.353516 0.295868
0.480652 0.361298 0.302917
0.489563 0.369171 0.310181
0.498535 0.377136 0.317474
0.507568 0.385162 0.324829
0.516693 0.393311 0.332336
0.525848 0.401550 0.339905
0.535034 0.409729 0.347565
0.544373 0.418091 0.355255
0.553741 0.426544 0.363129
0.563171 0.435059 0.371033
0.572632 0.443573 0.378967
0.582153 0.452209 0.387024
0.591736 0.460907 0.395203
0.601379 0.469666 0.403381
0.611115 0.478485 0.411652
0.620850 0.487396 0.420074
0.474060 0.355530 0.297668
0.473511 0.355011 0.297211
0.472931 0.354492 0.296783
0.472382 0.354004 0.296295
0.471741 0.353455 0.295807
0.471130 0.352936 0.295380
0.470581 0.352448 0.294891
0.469971 0.351898 0.294434
0.469452 0.351410 0.293976
0.468842 0.350891 0.293488
0.468323 0.350403 0.293030
0.467682 0.349854 0.292572
0.467102 0.349365 0.292114
0.466553 0.348846 0.291626
0.465942 0.348389 0.291199
0.474762 0.356079 0.298218
0.483612 0.363922 0.305359
0.492523 0.371857 0.312592
0.501556 0.379852 0.319946
0.510651 0.387909 0.327332
0.519745 0.396027 0.334839
0.528931 0.404266 0.342468
0.538177 0.412537 0.350128
0.547516 0.420929 0.357910
0.556854 0.429382 0.365753
0.566284 0.437836 0.373657
0.575775 0.446472 0.381683
0.585388 0.455139 0.389801
0.595001 0.463837 0.397980
0.604584 0.472565 0.406158
0.614380 0.481476 0.414459
0.624146 0.490417 0.422882
0.633972 0.499329 0.431305
0.643890 0.508423 0.439850
0.504547 0.382446 0.322357
0.503876 0.381897 0.321869
0.503296 0.381378 0.321381
0.502716 0.380859 0.320892
0.502106 0.380310 0.320404
0.501495 0.379791 0.319885
0.500946 0.379272 0.319397
0.500336 0.378754 0.318939
0.499695 0.378174 0.318420
0.499115 0.377686 0.317963
0.498535 0.377136 0.317474
0.497955 0.376648 0.317017
0.497345 0.376099 0.316528
0.496765 0.375549 0.316040
0.496185 0.375092 0.315552
0.495544 0.374542 0.315094
0.504608 0.382538 0.322418
0.513672 0.390625 0.329834
0.522827 0.398804 0.337402
0.532043 0.407043 0.345062
0.541290 0.415344 0.352722
0.550659 0.423767 0.360535
0.560028 0.432220 0.368439
0.569489 0.440735 0.376343
0.579010 0.449371 0.384369
0.588562 0.458008 0.392517
0.598175 0.466766 0.400665
0.607880 0.475555 0.408936
0.617645 0.484497 0.417267
0.627411 0.493378 0.425751
0.637268 0.502380 0.434143
0.647217 0.511475 0.442719
0.657166 0.520630 0.451355
0.667206 0.529785 0.460052
0.535645 0.410278 0.348022
0.535034 0.409729 0.347565
0.534454 0.409180 0.347015
0.533813 0.408600 0.346558
0.533234 0.408112 0.346039
0.532593 0.407532 0.345520
0.531982 0.406982 0.345001
0.531372 0.406464 0.344482
0.530792 0.405914 0.343994
0.530151 0.405365 0.343445
0.529572 0.404846 0.342987
0.528931 0.404266 0.342468
0.528320 0.403717 0.342010
0.527740 0.403198 0.341461
0.527100 0.402649 0.340973
0.526520 0.402130 0.340454
0.525879 0.401581 0.339935
0.535095 0.409790 0.347595
0.544434 0.418152 0.355316
0.553833 0.426605 0.363159
0.563202 0.435089 0.371094
0.572662 0.443604 0.378998
0.582214 0.452271 0.387085
0.591797 0.460968 0.395264
0.601440 0.469727 0.403442
0.611145 0.478516 0.411743
0.620911 0.487457 0.420105
0.630707 0.496368 0.428528
0.640594 0.505432 0.437042
0.650604 0.514557 0.445618
0.660492 0.523651 0.454254
0.670532 0.532867 0.462952
0.680695 0.542175 0.471741
0.690826 0.551544 0.480621
0.567505 0.438995 0.374695
0.566864 0.438354 0.374146
0.566223 0.437805 0.373657
0.565613 0.437225 0.373108
0.564941 0.436676 0.372589
0.564362 0.436127 0.372070
0.563751 0.435547 0.371521
0.563110 0.434998 0.371002
0.562500 0.434418 0.370483
0.561890 0.433868 0.369995
0.561218 0.433289 0.369415
0.560638 0.432770 0.368927
0.559998 0.432190 0.368408
0.559387 0.431671 0.367920
0.558746 0.431122 0.367371
0.558105 0.430481 0.366852
0.557526 0.429993 0.366302
0.556885 0.429413 0.365753
0.566345 0.437927 0.373718
0.575836 0.446472 0.381714
0.585419 0.455170 0.389832
0.595001 0.463837 0.398010
0.604675 0.472656 0.406189
0.614410 0.481506 0.414490
0.624176 0.490448 0.422913
0.634033 0.499420 0.431396
0.643890 0.508423 0.439880
0.653870 0.517548 0.448486
0.663849 0.526733 0.457153
0.673920 0.535950 0.465851
0.684052 0.545319 0.474670
0.694183 0.554657 0.483551
0.704437 0.564056 0.492462
0.714691 0.573517 0.501465
0.600037 0.468414 0.402252
0.599396 0.467865 0.401733
0.598755 0.467285 0.401184
0.598145 0.466736 0.400635
0.597504 0.466125 0.400116
0.596832 0.465515 0.399536
0.596252 0.464966 0.399048
0.595581 0.464355 0.398468
0.594940 0.463806 0.397949
0.594330 0.463226 0.397400
0.593689 0.462677 0.396851
0.593018 0.462036 0.396301
0.592407 0.461517 0.395813
0.591766 0.460938 0.395233
0.591156 0.460388 0.394684
0.590515 0.459808 0.394135
0.589844 0.459229 0.393585
0.589264 0.458679 0.393097
0.588593 0.458069 0.392548
0.598267 0.466827 0.400726
0.607910 0.475616 0.408966
0.617676 0.484528 0.417297
0.627472 0.493408 0.425751
0.637360 0.502441 0.434174
0.647247 0.511505 0.442749
0.657196 0.520660 0.451416
0.667236 0.529816 0.460114
0.677277 0.539062 0.468781
0.687439 0.548431 0.477631
0.697632 0.557770 0.486572
0.707855 0.567230 0.495453
0.718140 0.576721 0.504547
0.728485 0.586304 0.513611
0.738922 0.595917 0.522766
0.633270 0.498718 0.430725
0.632629 0.498108 0.430176
0.631958 0.497498 0.429596
0.631287 0.496948 0.429047
0.630676 0.496338 0.428497
0.630035 0.495758 0.427917
0.629333 0.495148 0.427368
0.628723 0.494598 0.426819
0.628082 0.493958 0.426239
0.627411 0.493378 0.425720
0.626770 0.492798 0.425140
0.626129 0.492157 0.424622
0.625427 0.491638 0.424011
0.624786 0.491028 0.423462
0.624176 0.490448 0.422913
0.623535 0.489868 0.422363
0.622894 0.489288 0.421814
0.622223 0.488647 0.421265
0.621613 0.488098 0.420715
0.620941 0.487488 0.420135
0.630798 0.496460 0.428589
0.640656 0.505463 0.437073
0.650604 0.514557 0.445648
0.660553 0.523682 0.454285
0.670624 0.532959 0.463013
0.680725 0.542206 0.471771
0.690857 0.551575 0.480652
0.701080 0.560944 0.489563
0.711304 0.570404 0.498505
0.721649 0.579926 0.507568
0.731995 0.589508 0.516693
0.742401 0.599152 0.525818
0.752838 0.608856 0.535034
0.763367 0.618622 0.544373
0.667145 0.529755 0.460022
0.666473 0.529083 0.459412
0.665833 0.528503 0.458832
0.665131 0.527924 0.458252
0.664459 0.527313 0.457703
0.663818 0.526703 0.457123
0.663177 0.526093 0.456573
0.662476 0.525452 0.455963
0.661835 0.524872 0.455444
0.661163 0.524261 0.454803
0.660461 0.523621 0.454254
0.659851 0.523071 0.453674
0.659180 0.522461 0.453094
0.658508 0.521881 0.452545
0.657837 0.521271 0.451996
0.657196 0.520660 0.451416
0.656555 0.520050 0.450836
0.655884 0.519470 0.450256
0.655212 0.518860 0.449677
0.654602 0.518250 0.449127
0.653961 0.517639 0.448547
0.663940 0.526794 0.457214
0.674011 0.536041 0.465912
0.684113 0.545349 0.474731
0.694275 0.554688 0.483612
0.704529 0.564117 0.492523
0.714783 0.573578 0.501526
0.725067 0.583130 0.510651
0.735474 0.592712 0.519745
0.745880 0.602356 0.528870
0.756378 0.612122 0.538177
0.766937 0.621887 0.547516
0.777466 0.631622 0.556854
0.788116 0.641571 0.566284
0.701599 0.561462 0.490021
0.700958 0.560883 0.489502
0.700256 0.560211 0.488861
0.699615 0.559601 0.488281
0.698944 0.558960 0.487701
0.698242 0.558350 0.487122
0.697601 0.557739 0.486542
0.696899 0.557098 0.485931
0.696198 0.556519 0.485321
0.695557 0.555878 0.484772
0.694885 0.555267 0.484161
0.694183 0.554657 0.483551
0.693542 0.554077 0.483032
0.692871 0.553406 0.482391
0.692169 0.552795 0.481781
0.691528 0.552185 0.481232
0.690857 0.551575 0.480652
0.690186 0.550995 0.480042
0.689484 0.550323 0.479492
0.688843 0.549713 0.478882
0.688202 0.549103 0.478302
0.687531 0.548492 0.477722
0.697723 0.557861 0.486633
0.707886 0.567261 0.495544
0.718231 0.576782 0.504578
0.728577 0.586365 0.513672
0.739014 0.595978 0.522827
0.749420 0.605621 0.532013
0.759888 0.615356 0.541290
0.770447 0.625122 0.550659
0.781067 0.634979 0.559998
0.791748 0.644928 0.569489
0.802368 0.654846 0.579010
0.813110 0.664795 0.588501
0.736725 0.593903 0.520874
0.736023 0.593231 0.520233
0.735382 0.592651 0.519684
0.734650 0.591980 0.519073
0.734009 0.591370 0.518433
0.733307 0.590729 0.517853
0.732574 0.590057 0.517242
0.731964 0.589478 0.516663
0.731232 0.588806 0.516022
0.730560 0.588196 0.515442
0.729889 0.587555 0.514832
0.729218 0.586945 0.514252
0.728485 0.586304 0.513611
0.727844 0.585724 0.513031
0.727142 0.585052 0.512421
0.726440 0.584412 0.511841
0.725769 0.583801 0.511230
0.725067 0.583130 0.510651
0.724426 0.582550 0.510010
0.723724 0.581879 0.509399
0.723083 0.581268 0.508820
0.722382 0.580627 0.508209
0.721741 0.580017 0.507629
0.732025 0.589539 0.516754
0.742432 0.599182 0.525848
0.752930 0.608917 0.535095
0.763458 0.618683 0.544434
0.774017 0.628479 0.553833
0.784607 0.638306 0.563202
0.795288 0.648224 0.572662
0.806030 0.658203 0.582214
0.816772 0.668213 0.591766
0.827606 0.678375 0.601440
0.838409 0.688477 0.611145
0.772461 0.627014 0.552399
0.771759 0.626373 0.551788
0.770996 0.625702 0.551178
0.770325 0.625031 0.550598
0.769623 0.624390 0.549927
0.768921 0.623718 0.549316
0.768280 0.623108 0.548706
0.767517 0.622437 0.548065
0.766876 0.621826 0.547485
0.766144 0.621155 0.546814
0.765472 0.620544 0.546234
0.764771 0.619934 0.545624
0.764099 0.619293 0.545013
0.763367 0.618622 0.544373
0.762665 0.617950 0.543793
0.761993 0.617310 0.543121
0.761230 0.616638 0.542511
0.760590 0.616058 0.541931
0.759888 0.615356 0.541290
0.759277 0.614777 0.540710
0.758545 0.614105 0.540070
0.757843 0.613464 0.539459
0.757172 0.612823 0.538849
0.756500 0.612183 0.538269
0.766968 0.621918 0.547546
0.777527 0.631744 0.556885
0.788177 0.641632 0.566345
0.798889 0.651611 0.575867
0.809601 0.661530 0.585449
0.820374 0.671600 0.595001
0.831268 0.681732 0.604675
0.842102 0.691864 0.614441
0.853027 0.702057 0.624176
0.863983 0.712311 0.634033
0.808746 0.660736 0.584656
0.808014 0.660095 0.584015
0.807312 0.659393 0.583405
0.806580 0.658752 0.582733
0.805908 0.658081 0.582092
0.805176 0.657410 0.581482
0.804443 0.656738 0.580811
0.803772 0.656128 0.580231
0.803070 0.655426 0.579559
0.802368 0.654846 0.578979
0.801636 0.654144 0.578339
0.800934 0.653534 0.577698
0.800232 0.652893 0.577087
0.799469 0.652191 0.576447
0.798798 0.651550 0.575775
0.798096 0.650909 0.575165
0.797394 0.650208 0.574554
0.796661 0.649536 0.573883
0.796021 0.648926 0.573303
0.795288 0.648224 0.572662
0.794647 0.647614 0.572083
0.793884 0.646973 0.571411
0.793213 0.646301 0.570801
0.792511 0.645630 0.570190
0.791779 0.644958 0.569580
0.802429 0.654938 0.579071
0.813202 0.664886 0.588593
0.824036 0.675018 0.598267
0.834869 0.685150 0.607941
0.845764 0.695282 0.617676
0.856689 0.705475 0.627472
0.867706 0.715790 0.637360
0.878754 0.726135 0.647278
0.889832 0.736481 0.657196
0.845581 0.695129 0.617554
0.844849 0.694427 0.616913
0.844177 0.693817 0.616272
0.843414 0.693085 0.615601
0.842712 0.692413 0.614960
0.841980 0.691772 0.614319
0.841278 0.691071 0.613678
0.840515 0.690399 0.613037
0.839844 0.689758 0.612427
0.839111 0.689056 0.611755
0.838379 0.688416 0.611145
0.837677 0.687775 0.610474
0.836914 0.687073 0.609833
0.836243 0.686462 0.609192
0.835510 0.685730 0.608551
0.834778 0.685089 0.607880
0.834076 0.684418 0.607239
0.833374 0.683746 0.606598
0.832642 0.683044 0.605927
0.831970 0.682434 0.605316
0.831268 0.681732 0.604675
0.830536 0.681061 0.604065
0.829803 0.680389 0.603394
0.829071 0.679688 0.602783
0.828400 0.679077 0.602142
0.827637 0.678406 0.601471
0.838501 0.688538 0.611237
0.849396 0.698700 0.620941
0.860413 0.708984 0.630798
0.871338 0.719269 0.640686
0.882446 0.729614 0.650635
