other luts/实验工艺系列/铂金印相1.cube
#Created by: Adobe Photoshop Export Color Lookup Plugin
#Copyright: (C) Copyright 2026 汉图
TITLE "实验工艺"
#LUT size
LUT_3D_SIZE 4
#data domain
DOMAIN_MIN 0.0 0.0 0.0
DOMAIN_MAX 1.0 1.0 1.0
#LUT data points
0.215698 0.215698 0.215698
0.236053 0.215698 0.215698
0.348419 0.263245 0.215698
0.438873 0.353699 0.236603
0.475189 0.390015 0.272919
0.469238 0.384033 0.266968
0.559631 0.474457 0.357361
0.650085 0.564911 0.447815
0.782776 0.697601 0.580505
0.776794 0.691650 0.574554
0.770844 0.685669 0.568573
0.861298 0.776093 0.659027
1.000000 1.000000 1.000000
1.000000 1.000000 1.000000
1.000000 1.000000 1.000000
1.000000 1.000000 1.000000
0.215698 0.215698 0.215698
0.215698 0.215698 0.215698
0.235992 0.215698 0.215698
0.348419 0.263245 0.215698
0.215698 0.215698 0.215698
0.469238 0.384033 0.266968
0.559631 0.474457 0.357361
0.650085 0.564911 0.447815
0.475159 0.389984 0.272888
0.776794 0.691650 0.574554
0.770844 0.685669 0.568573
0.861298 0.776093 0.659027
0.782776 0.697601 0.580505
1.000000 1.000000 1.000000
1.000000 1.000000 1.000000
1.000000 1.000000 1.000000
0.215698 0.215698 0.215698
0.215698 0.215698 0.215698
0.215698 0.215698 0.215698
0.236053 0.215698 0.215698
0.215698 0.215698 0.215698
0.469238 0.384033 0.266968
0.469238 0.384033 0.266968
0.559662 0.474487 0.357391
0.215698 0.215698 0.215698
0.469238 0.384033 0.266968
0.770844 0.685669 0.568573
0.861298 0.776093 0.659027
0.475189 0.390015 0.272919
0.776825 0.691681 0.574585
1.000000 1.000000 1.000000
1.000000 1.000000 1.000000
0.215698 0.215698 0.215698
0.215698 0.215698 0.215698
0.215698 0.215698 0.215698
0.215698 0.215698 0.215698
0.215698 0.215698 0.215698
0.469238 0.384033 0.266968
0.469238 0.384033 0.266968
0.469238 0.384033 0.266968
0.215698 0.215698 0.215698
0.469238 0.384033 0.266968
0.770844 0.685669 0.568573
0.770844 0.685669 0.568573
0.215698 0.215698 0.215698
0.469238 0.384033 0.266968
0.770844 0.685669 0.568573
1.000000 1.000000 1.000000
