kodak/Gold 100.cube
# Created by Adobe Lightroom plugin Export LUT (1.24.0)
# www.johnrellis.com/lightroom/exportlut.htm
# Preset: FCP - Kodak Gold 100 | 01
# Color profile: C:\Windows\System32\Spool\Drivers\Color\AdobeRGB1998.icc
LUT_3D_SIZE 8
DOMAIN_MIN 0.000000 0.000000 0.000000
DOMAIN_MAX 0.903226 0.903226 0.903226
0.000000 0.082429 0.000000
0.113283 0.078706 0.000000
0.392950 0.056214 0.000000
0.715846 0.000000 0.000000
0.936370 0.000000 0.000000
1.000000 0.009033 0.000000
1.000000 0.020081 0.000000
1.000000 0.000000 0.000000
0.000000 0.128115 0.000000
0.106294 0.131960 0.000000
0.358679 0.158206 0.000000
0.682734 0.192172 0.000000
0.920806 0.193973 0.000000
1.000000 0.175540 0.000000
1.000000 0.155947 0.000000
1.000000 0.097993 0.000000
0.000000 0.313024 0.026337
0.000000 0.315953 0.000000
0.354437 0.348394 0.000000
0.636011 0.370520 0.000000
0.882872 0.375311 0.000000
1.000000 0.346319 0.000000
1.000000 0.308141 0.000000
1.000000 0.257450 0.000000
0.000000 0.543023 0.066621
0.000000 0.546441 0.000000
0.255161 0.549279 0.000000
0.644526 0.641718 0.000000
0.890715 0.609155 0.000000
0.984497 0.507012 0.000000
1.000000 0.457038 0.000000
1.000000 0.397681 0.000000
0.000000 0.749477 0.083131
0.000000 0.751888 0.000000
0.000000 0.755917 0.000000
0.477546 0.779995 0.000000
0.824857 0.828061 0.000000
0.993042 0.738399 0.000000
1.000000 0.622187 0.000000
1.000000 0.532250 0.000000
0.000000 0.891051 0.094728
0.000000 0.895384 0.000000
0.000000 0.898222 0.000000
0.296117 0.893889 0.000000
0.627985 0.907530 0.000000
0.911650 0.918212 0.000000
1.000000 0.822232 0.000000
1.000000 0.699428 0.000000
0.000000 0.983551 0.096986
0.000000 0.984741 0.000000
0.000000 0.986755 0.000000
0.000000 0.982727 0.000000
0.439429 0.974517 0.000000
0.724666 0.977173 0.000000
0.958953 0.969299 0.000000
1.000000 0.874296 0.000000
0.000000 1.000000 0.153750
0.000000 1.000000 0.084169
0.000000 1.000000 0.000000
0.000000 1.000000 0.000000
0.216007 1.000000 0.000000
0.530083 1.000000 0.000000
0.777768 1.000000 0.000000
0.985565 1.000000 0.000000
0.000000 0.078950 0.112673
0.114717 0.065278 0.105959
0.379034 0.000000 0.085756
0.717556 0.000000 0.000000
0.937011 0.000000 0.000000
1.000000 0.000000 0.000000
1.000000 0.000000 0.000000
1.000000 0.000000 0.000000
0.000000 0.126406 0.104372
0.103151 0.128054 0.101564
0.371923 0.118502 0.076875
0.694057 0.099245 0.000000
0.925078 0.093294 0.000000
1.000000 0.091341 0.000000
1.000000 0.082307 0.000000
1.000000 0.050324 0.000000
0.000000 0.312566 0.158602
0.000000 0.324193 0.090974
0.352605 0.346685 0.000000
0.627863 0.339391 0.000000
0.886351 0.350561 0.000000
1.000000 0.320195 0.000000
1.000000 0.283635 0.000000
1.000000 0.247807 0.000000
0.000000 0.541894 0.186923
0.000000 0.550225 0.095277
0.222934 0.557214 0.000000
0.632105 0.628473 0.000000
0.874327 0.584710 0.000000
0.979217 0.492256 0.000000
1.000000 0.442908 0.000000
1.000000 0.393042 0.000000
0.000000 0.751217 0.198154
0.000000 0.752834 0.102907
0.000000 0.757656 0.000000
0.454902 0.772335 0.000000
0.817899 0.820676 0.000000
0.988434 0.728206 0.000000
1.000000 0.611170 0.000000
1.000000 0.530724 0.000000
0.000000 0.888579 0.190768
0.000000 0.890196 0.108309
0.000000 0.895262 0.000000
0.266209 0.891630 0.000000
0.617182 0.904845 0.000000
0.910521 0.916960 0.000000
1.000000 0.817716 0.000000
1.000000 0.697505 0.000000
0.000000 0.980133 0.177432
0.000000 0.980346 0.105287
0.000000 0.982971 0.000000
0.000000 0.981201 0.000000
0.426062 0.973724 0.000000
0.719631 0.975891 0.000000
0.959258 0.967681 0.000000
1.000000 0.872099 0.000000
0.000000 1.000000 0.163180
0.000000 1.000000 0.098238
0.000000 1.000000 0.000000
0.000000 1.000000 0.000000
0.217746 1.000000 0.000000
0.530999 1.000000 0.000000
0.778470 1.000000 0.000000
0.986419 1.000000 0.000000
0.084596 0.003754 0.338781
0.195560 0.000000 0.340429
0.355779 0.000000 0.323766
0.613245 0.000000 0.314031
0.921172 0.000000 0.258915
1.000000 0.123629 0.338720
1.000000 0.189303 0.305272
1.000000 0.099733 0.213291
0.000000 0.119448 0.339147
0.119020 0.089143 0.340673
0.355444 0.000000 0.324773
0.634577 0.000000 0.305333
0.927214 0.000000 0.263432
1.000000 0.207065 0.332525
1.000000 0.218692 0.290349
1.000000 0.147707 0.198795
0.000000 0.306035 0.319036
0.000000 0.310735 0.322850
0.330449 0.319707 0.317632
0.662013 0.335332 0.319554
0.908263 0.343847 0.306676
1.000000 0.340703 0.289372
1.000000 0.318303 0.252079
1.000000 0.257969 0.152499
0.000000 0.541985 0.366644
0.000000 0.553094 0.353796
0.155093 0.579370 0.261265
0.628168 0.622766 0.207279
0.861784 0.546899 0.211154
0.989563 0.492164 0.200778
1.000000 0.446082 0.169772
1.000000 0.382300 0.000000
0.000000 0.747677 0.375250
0.000000 0.754513 0.353613
0.000000 0.771695 0.228550
0.391485 0.774533 0.000000
0.819669 0.821408 0.000000
0.983948 0.712306 0.000000
1.000000 0.590448 0.000000
1.000000 0.513756 0.000000
0.000000 0.887968 0.357733
0.000000 0.890837 0.334691
0.000000 0.897246 0.201266
0.130282 0.898589 0.000000
0.587457 0.903075 0.000000
0.909636 0.915099 0.000000
1.000000 0.808621 0.000000
1.000000 0.681239 0.000000
0.000000 0.980560 0.331304
0.000000 0.981170 0.308446
0.000000 0.983276 0.169314
0.000000 0.985504 0.000000
0.381292 0.976867 0.000000
0.702998 0.976562 0.000000
0.960143 0.968322 0.000000
1.000000 0.865904 0.000000
0.000000 1.000000 0.299565
0.000000 1.000000 0.275914
0.000000 1.000000 0.125917
0.000000 1.000000 0.000000
0.097505 1.000000 0.000000
0.513054 1.000000 0.000000
0.778622 1.000000 0.000000
0.990692 1.000000 0.000000
0.144411 0.000000 0.574945
0.241459 0.000000 0.578637
0.434699 0.000000 0.585443
0.606226 0.000000 0.555291
0.769162 0.000000 0.479591
0.987274 0.000000 0.449592
1.000000 0.000000 0.442084
1.000000 0.427832 0.537926
0.000000 0.000000 0.582238
0.164309 0.000000 0.583917
0.413611 0.000000 0.588434
0.609674 0.000000 0.559136
0.773434 0.000000 0.474678
0.990082 0.000000 0.454780
1.000000 0.216922 0.473823
1.000000 0.510765 0.584741
0.000000 0.316167 0.568078
0.000000 0.300755 0.573022
0.297826 0.239475 0.586175
0.610590 0.167025 0.566400
0.829129 0.133913 0.501549
0.993530 0.371038 0.532769
1.000000 0.601465 0.648371
1.000000 0.588312 0.616571
0.000000 0.521141 0.547784
0.000000 0.526085 0.552117
0.144289 0.543114 0.562829
0.583795 0.570397 0.566949
0.848478 0.612909 0.599329
0.970001 0.635431 0.616052
1.000000 0.632685 0.608820
1.000000 0.582666 0.552117
0.000000 0.743587 0.569177
0.000000 0.748501 0.563622
0.000000 0.764034 0.541741
0.435615 0.781033 0.487831
0.810636 0.808194 0.503807
0.952056 0.717494 0.518547
1.000000 0.660304 0.500053
1.000000 0.602258 0.448066
0.000000 0.886351 0.536248
0.000000 0.890715 0.527825
0.000000 0.895628 0.493294
0.262455 0.900664 0.416602
0.556512 0.896757 0.325444
0.908995 0.911315 0.442420
1.000000 0.814603 0.446052
1.000000 0.688808 0.318822
0.000000 0.978363 0.490700
0.000000 0.979370 0.479561
0.000000 0.981109 0.443061
0.000000 0.983032 0.345129
0.349310 0.980987 0.151644
0.690639 0.974792 0.193790
0.960845 0.966522 0.313176
1.000000 0.865568 0.268986
0.000000 1.000000 0.444648
0.000000 1.000000 0.432319
0.000000 1.000000 0.388922
0.000000 1.000000 0.261601
0.000000 1.000000 0.000000
0.464118 1.000000 0.000000
0.761837 1.000000 0.000000
0.992523 1.000000 0.000000
0.186679 0.000000 0.768093
0.264897 0.000000 0.769863
0.436561 0.000000 0.773739
0.643091 0.000000 0.780819
0.801541 0.000000 0.741848
0.907469 0.000000 0.627863
1.000000 0.000000 0.559838
1.000000 0.000000 0.535332
0.000000 0.000000 0.770535
0.200320 0.000000 0.772610
0.410590 0.000000 0.775967
0.633021 0.000000 0.781491
0.802335 0.000000 0.743496
0.908080 0.000000 0.625452
1.000000 0.000000 0.564111
1.000000 0.158999 0.554711
0.000000 0.222568 0.768856
0.000000 0.200839 0.772641
0.294316 0.170840 0.775631
0.593347 0.000000 0.781125
0.801968 0.000000 0.747707
0.906249 0.000000 0.617914
1.000000 0.230655 0.600671
1.000000 0.480232 0.637537
0.000000 0.490700 0.750332
0.000000 0.486366 0.752804
0.000000 0.474495 0.761410
0.515465 0.469947 0.774350
0.794583 0.454627 0.755001
0.920195 0.478340 0.669490
1.000000 0.659785 0.735805
1.000000 0.764157 0.795193
0.000000 0.692958 0.729641
0.000000 0.696437 0.732235
0.000000 0.707851 0.739742
0.451148 0.731136 0.749966
0.770840 0.762203 0.758694
0.920195 0.801816 0.794125
0.991058 0.819608 0.809659
1.000000 0.807095 0.794278
0.000000 0.874662 0.720882
0.000000 0.876677 0.718074
0.000000 0.881315 0.705592
0.294530 0.884031 0.686305
0.649073 0.880522 0.674617
0.899260 0.897398 0.727626
0.987732 0.845151 0.734737
1.000000 0.791592 0.692775
0.000000 0.973236 0.658900
0.000000 0.973541 0.653346
0.000000 0.974304 0.634150
0.000000 0.972992 0.607538
0.502159 0.966888 0.580987
0.693385 0.961639 0.529747
0.958434 0.960143 0.671962
1.000000 0.888762 0.649470
0.000000 1.000000 0.596643
0.000000 1.000000 0.589502
0.000000 1.000000 0.565728
0.000000 1.000000 0.530175
0.279484 1.000000 0.470558
0.483284 1.000000 0.345830
0.766873 1.000000 0.383520
0.992126 0.997650 0.465339
0.211856 0.000000 0.889036
0.271244 0.000000 0.889464
0.413642 0.000000 0.890074
0.589014 0.000000 0.892668
0.779385 0.000000 0.894743
0.917479 0.000000 0.855528
0.993530 0.000000 0.733486
1.000000 0.000000 0.639246
0.133944 0.000000 0.887541
0.221347 0.000000 0.887785
0.388678 0.000000 0.888914
0.575921 0.000000 0.891295
0.774563 0.000000 0.893675
0.916106 0.000000 0.854978
0.992584 0.000000 0.731716
1.000000 0.000000 0.639918
0.000000 0.163363 0.888304
0.000000 0.152163 0.888457
0.294499 0.101839 0.889342
0.535393 0.000000 0.891203
0.758145 0.000000 0.893492
0.914702 0.000000 0.857359
0.990967 0.000000 0.729030
1.000000 0.000000 0.653529
0.000000 0.425605 0.878386
0.000000 0.414984 0.879423
0.000000 0.383337 0.884398
0.472633 0.398505 0.888090
0.730495 0.397498 0.890471
0.908782 0.371832 0.862150
0.984131 0.306340 0.734707
1.000000 0.491707 0.721920
0.000000 0.619318 0.864683
0.000000 0.618311 0.865537
0.000000 0.617029 0.868345
0.387945 0.633143 0.871763
0.702632 0.674922 0.876341
0.889830 0.675044 0.862699
0.970214 0.676326 0.795499
1.000000 0.803983 0.850217
0.000000 0.803647 0.847623
0.000000 0.805692 0.848997
0.000000 0.811429 0.851377
0.323369 0.823728 0.854490
0.665156 0.844144 0.858274
0.876310 0.871397 0.869230
0.966735 0.902007 0.897887
1.000000 0.908141 0.902617
0.000000 0.969329 0.834592
0.000000 0.969787 0.832853
0.000000 0.969360 0.825254
0.000000 0.966247 0.810361
0.537102 0.955718 0.798825
0.800107 0.942870 0.813779
0.954406 0.953613 0.858915
1.000000 0.920104 0.852781
0.000000 1.000000 0.757809
0.000000 1.000000 0.753780
0.000000 1.000000 0.740047
0.000000 1.000000 0.718227
0.373236 1.000000 0.708248
0.683253 1.000000 0.728878
0.809506 1.000000 0.698726
0.989746 0.991302 0.804532
0.227054 0.000000 0.963226
0.271824 0.000000 0.964019
0.389197 0.000000 0.963989
0.537835 0.000000 0.964385
0.701778 0.000000 0.964630
0.866026 0.000000 0.962463
0.989715 0.000000 0.927276
1.000000 0.000000 0.809934
0.176852 0.000000 0.960388
0.234470 0.000000 0.961089
0.367681 0.000000 0.961334
0.524651 0.000000 0.961547
0.693477 0.000000 0.961578
0.860990 0.000000 0.959228
0.985595 0.000000 0.923888
1.000000 0.000000 0.806058
0.000000 0.091066 0.961486
0.000000 0.072297 0.961425
0.292576 0.000000 0.961028
0.487709 0.000000 0.960937
0.673701 0.000000 0.960357
0.853758 0.000000 0.958892
0.984619 0.000000 0.925597
1.000000 0.000000 0.806577
0.000000 0.324956 0.959380
0.000000 0.315862 0.959350
0.119234 0.338476 0.958221
0.432868 0.330114 0.958343
0.646632 0.319738 0.957763
0.844572 0.320409 0.957641
0.979278 0.266545 0.928313
1.000000 0.145480 0.809598
0.000000 0.540887 0.947387
0.000000 0.538506 0.946960
0.000000 0.536156 0.946532
0.334142 0.539971 0.947845
0.624323 0.575586 0.947173
0.823606 0.592126 0.946899
0.962280 0.574212 0.925414
1.000000 0.507836 0.821164
0.000000 0.707942 0.937072
0.000000 0.707454 0.937224
0.000000 0.707668 0.937530
0.244297 0.716915 0.937713
0.585351 0.751034 0.936034
0.824338 0.807736 0.936584
0.945495 0.809934 0.928191
1.000000 0.801511 0.881926
0.000000 0.876951 0.926482
0.000000 0.878019 0.926970
0.000000 0.880766 0.927123
0.000000 0.887175 0.927062
0.541527 0.898314 0.925200
0.799008 0.914885 0.924956
0.938598 0.936126 0.934997
0.994446 0.956512 0.954314
0.000000 1.000000 0.916930
0.000000 1.000000 0.915221
0.000000 1.000000 0.910552
0.000000 1.000000 0.899901
0.348333 1.000000 0.886320
0.707393 0.999756 0.885008
0.886564 0.985657 0.896635
0.987488 0.987610 0.929290
0.235904 0.000000 1.000000
0.271031 0.000000 1.000000
0.366827 0.000000 1.000000
0.493172 0.000000 1.000000
0.634119 0.000000 1.000000
0.784360 0.000000 1.000000
0.927581 0.000000 1.000000
1.000000 0.000000 0.976226
0.201053 0.000000 1.000000
0.242588 0.000000 1.000000
0.349096 0.000000 1.000000
0.482063 0.000000 1.000000
0.627283 0.000000 1.000000
0.780026 0.000000 1.000000
0.924987 0.000000 1.000000
1.000000 0.000000 0.975067
0.000000 0.000000 1.000000
0.103090 0.000000 1.000000
0.285313 0.000000 1.000000
0.448035 0.000000 1.000000
0.607477 0.000000 1.000000
0.767788 0.000000 1.000000
0.919127 0.000000 1.000000
1.000000 0.000000 0.974762
0.000000 0.283665 1.000000
0.000000 0.281987 1.000000
0.157076 0.272099 1.000000
0.394934 0.257542 1.000000
0.578271 0.235508 1.000000
0.750576 0.207431 1.000000
0.910979 0.159426 1.000000
1.000000 0.000000 0.975128
0.000000 0.457618 1.000000
0.000000 0.454688 1.000000
0.000000 0.446998 1.000000
0.349462 0.483284 1.000000
0.554437 0.482490 1.000000
0.734890 0.486671 0.998444
0.902678 0.503716 0.996612
1.000000 0.467597 0.974640
0.000000 0.619806 0.996551
0.000000 0.618524 0.996246
0.000000 0.616632 0.995514
0.071687 0.623804 0.994354
0.508354 0.657404 0.991943
0.750240 0.718196 0.988708
0.900420 0.747951 0.987976
1.000000 0.742580 0.975219
0.000000 0.772091 0.990845
0.000000 0.771481 0.990661
0.000000 0.770474 0.990143
0.000000 0.774624 0.989319
0.447944 0.795804 0.986633
0.730953 0.845090 0.981567
0.900511 0.890043 0.980163
0.984955 0.890105 0.973785
0.000000 0.930236 0.985077
0.000000 0.930388 0.984863
0.000000 0.931731 0.984405
0.000000 0.935607 0.983551
0.371405 0.943328 0.981018
0.701503 0.954925 0.976654
0.880400 0.965362 0.973388
0.978943 0.978058 0.977722
