kodak/Gold 200.cube
# Created by Adobe Lightroom plugin Export LUT (1.24.0)
# www.johnrellis.com/lightroom/exportlut.htm
# Preset: FCP - Kodak Gold 200 | 03
# Color profile: C:\Windows\System32\Spool\Drivers\Color\AdobeRGB1998.icc
LUT_3D_SIZE 8
DOMAIN_MIN 0.000000 0.000000 0.000000
DOMAIN_MAX 0.903226 0.903226 0.903226
0.000000 0.082429 0.000000
0.076204 0.078187 0.000000
0.217777 0.007477 0.000000
0.416236 0.000000 0.000000
0.614099 0.000000 0.000000
0.754147 0.000000 0.000000
0.854917 0.000000 0.062104
0.943481 0.000000 0.196323
0.000000 0.099428 0.000000
0.075227 0.101991 0.000000
0.234409 0.097078 0.000000
0.430579 0.062348 0.000000
0.623529 0.000000 0.000000
0.759609 0.000000 0.000000
0.858274 0.000000 0.000000
0.945739 0.000000 0.183688
0.000000 0.168063 0.000000
0.076600 0.168795 0.000000
0.218906 0.182864 0.000000
0.442115 0.260960 0.000000
0.629938 0.271275 0.000000
0.759670 0.224460 0.000000
0.855711 0.142275 0.000000
0.945159 0.018311 0.113588
0.000000 0.320470 0.000000
0.100252 0.321843 0.000000
0.246098 0.329137 0.000000
0.409094 0.376928 0.000000
0.620661 0.443091 0.000000
0.757198 0.416815 0.000000
0.855589 0.355261 0.000000
0.947326 0.290929 0.000000
0.000000 0.525872 0.000000
0.024353 0.525170 0.000000
0.254154 0.521935 0.000000
0.401160 0.539940 0.000000
0.584833 0.578882 0.000000
0.751797 0.577081 0.000000
0.855467 0.525414 0.000000
0.948425 0.461494 0.000000
0.000000 0.683314 0.000000
0.000000 0.680079 0.000000
0.216983 0.676997 0.000000
0.361608 0.672419 0.000000
0.525200 0.691676 0.000000
0.709255 0.707362 0.000000
0.846616 0.673854 0.000000
0.943938 0.616327 0.000000
0.000000 0.791379 0.094209
0.000000 0.791348 0.000000
0.175753 0.789700 0.000000
0.324956 0.786435 0.000000
0.462104 0.785306 0.000000
0.626337 0.796109 0.000000
0.806729 0.802579 0.000000
0.937499 0.761898 0.000000
0.249058 0.880217 0.357336
0.249912 0.880827 0.343786
0.267887 0.882109 0.303197
0.353460 0.880491 0.284337
0.457801 0.880552 0.263523
0.577356 0.882231 0.208194
0.726894 0.888792 0.000000
0.899657 0.891203 0.000000
0.000000 0.088014 0.084443
0.087373 0.082155 0.080323
0.226444 0.062013 0.096040
0.429053 0.000000 0.068666
0.624994 0.000000 0.000000
0.761868 0.000000 0.000000
0.860014 0.000000 0.025330
0.947265 0.000000 0.196017
0.000000 0.106172 0.072999
0.089418 0.108705 0.076509
0.238926 0.092348 0.068666
0.437537 0.050355 0.007080
0.629847 0.000000 0.000000
0.764279 0.000000 0.000000
0.862394 0.000000 0.000000
0.949554 0.000000 0.183383
0.045930 0.177737 0.084688
0.096559 0.182650 0.067506
0.233555 0.192599 0.000000
0.451270 0.267582 0.000000
0.637781 0.288731 0.000000
0.765103 0.251102 0.000000
0.861662 0.172946 0.000000
0.949706 0.087953 0.114351
0.000000 0.338811 0.000000
0.111940 0.339330 0.000000
0.259098 0.342901 0.000000
0.423743 0.392218 0.000000
0.632990 0.456764 0.000000
0.765316 0.429114 0.000000
0.861936 0.365698 0.000000
0.951873 0.298314 0.000000
0.000000 0.530327 0.000000
0.119081 0.529564 0.000000
0.270939 0.526543 0.000000
0.413001 0.548913 0.000000
0.594415 0.586999 0.000000
0.756558 0.582177 0.000000
0.858946 0.529992 0.000000
0.951629 0.464576 0.000000
0.000000 0.685695 0.000000
0.000000 0.684596 0.000000
0.235508 0.681514 0.000000
0.370459 0.676387 0.000000
0.531853 0.695247 0.000000
0.712947 0.709377 0.000000
0.848936 0.675837 0.000000
0.946410 0.618006 0.000000
0.000000 0.794430 0.062959
0.000000 0.794644 0.000000
0.192996 0.792721 0.000000
0.332189 0.788815 0.000000
0.467201 0.787503 0.000000
0.630274 0.798276 0.000000
0.810422 0.805020 0.000000
0.940551 0.763912 0.000000
0.254582 0.881987 0.359350
0.254612 0.882414 0.345403
0.273899 0.883421 0.306706
0.357488 0.881743 0.287816
0.457313 0.879637 0.260197
0.577874 0.882170 0.207370
0.728237 0.889555 0.000000
0.901457 0.892271 0.000000
0.000000 0.119051 0.234287
0.096437 0.099184 0.238499
0.263645 0.065309 0.235752
0.428077 0.000000 0.249729
0.611078 0.000000 0.300114
0.749935 0.000000 0.288090
0.852354 0.000000 0.260105
0.945342 0.000000 0.242191
0.000000 0.153750 0.216159
0.090730 0.137972 0.226627
0.261448 0.114351 0.231022
0.433234 0.071382 0.252384
0.613825 0.111238 0.305425
0.755398 0.000000 0.255680
0.855192 0.000000 0.242527
0.947448 0.000000 0.221134
0.057496 0.200381 0.195438
0.120974 0.203342 0.199802
0.255558 0.213809 0.213107
0.448096 0.208438 0.206149
0.630518 0.203189 0.193454
0.760525 0.192203 0.180850
0.859068 0.173037 0.162844
0.951110 0.128511 0.123964
0.083223 0.356542 0.243656
0.146426 0.364172 0.240909
0.254673 0.382055 0.197757
0.436347 0.411139 0.133150
0.636866 0.430457 0.000000
0.764401 0.395575 0.000000
0.861692 0.355016 0.000000
0.953002 0.306737 0.000000
0.086305 0.552148 0.255863
0.159854 0.556146 0.246799
0.249424 0.558007 0.167910
0.402838 0.561212 0.090364
0.601343 0.593683 0.000000
0.759030 0.576684 0.000000
0.860990 0.531456 0.000000
0.953582 0.467720 0.000000
0.108888 0.694331 0.228550
0.120760 0.694942 0.194095
0.241764 0.693141 0.131807
0.374823 0.686946 0.000000
0.537316 0.701015 0.000000
0.720729 0.713222 0.000000
0.852873 0.678889 0.000000
0.948913 0.618738 0.000000
0.000000 0.794858 0.152316
0.082429 0.794888 0.125582
0.226444 0.793240 0.061769
0.348089 0.789517 0.000000
0.478584 0.789883 0.000000
0.637690 0.799893 0.000000
0.814511 0.805570 0.000000
0.942077 0.763027 0.000000
0.257084 0.882963 0.355840
0.258427 0.883757 0.344640
0.281773 0.884855 0.310399
0.361975 0.882780 0.290471
0.460639 0.880919 0.263859
0.580346 0.883330 0.210727
0.730343 0.890440 0.000000
0.904082 0.892638 0.000000
0.000000 0.174685 0.459236
0.000000 0.137179 0.465431
0.291020 0.115694 0.488014
0.469825 0.080354 0.491005
0.616327 0.088716 0.442939
0.737087 0.253513 0.469795
0.821683 0.410590 0.536980
0.907073 0.485573 0.581140
0.000000 0.221622 0.440040
0.000000 0.193576 0.449226
0.279301 0.162692 0.475837
0.466072 0.155398 0.484962
0.615717 0.169162 0.439918
0.735531 0.298070 0.477882
0.820127 0.436835 0.546014
0.911498 0.469062 0.563348
0.000000 0.292424 0.398718
0.000000 0.288823 0.401312
0.249363 0.273960 0.442908
0.458076 0.294469 0.467903
0.610834 0.321386 0.451911
0.726436 0.406043 0.500847
0.823087 0.438605 0.517845
0.922118 0.421363 0.500175
0.000000 0.387304 0.394812
0.122499 0.391394 0.398962
0.274907 0.406287 0.412116
0.440528 0.435981 0.432868
0.616052 0.438148 0.431495
0.742184 0.436652 0.428107
0.841886 0.428534 0.420233
0.937011 0.405066 0.397955
0.163485 0.565423 0.447517
0.213474 0.569299 0.448646
0.328435 0.578851 0.450324
0.434180 0.585443 0.422461
0.602014 0.604242 0.374456
0.751400 0.567193 0.307866
0.856779 0.507195 0.229618
0.952483 0.452766 0.159640
0.232456 0.698878 0.451026
0.268315 0.698360 0.451575
0.367895 0.700710 0.459541
0.428901 0.701350 0.412909
0.540337 0.703273 0.357061
0.720089 0.717708 0.272557
0.853300 0.671473 0.085542
0.953857 0.607813 0.000000
0.330083 0.793301 0.471504
0.355840 0.792844 0.475929
0.405615 0.792691 0.470802
0.418250 0.793515 0.397040
0.498512 0.789303 0.329625
0.639948 0.801053 0.213993
0.819516 0.807858 0.000000
0.947204 0.761257 0.000000
0.414771 0.877379 0.510643
0.406806 0.878264 0.495552
0.372778 0.882109 0.430579
0.382116 0.884031 0.347509
0.460029 0.882963 0.271275
0.580011 0.885008 0.219059
0.731716 0.891997 0.001984
0.908812 0.893645 0.000000
0.000000 0.241520 0.629541
0.000000 0.215061 0.633875
0.234714 0.211673 0.649226
0.454322 0.267063 0.671809
0.627039 0.285344 0.669184
0.732448 0.328130 0.608942
0.818509 0.447486 0.615137
0.896086 0.562005 0.673701
0.000000 0.285008 0.619013
0.000000 0.264591 0.623377
0.230533 0.243565 0.641016
0.453223 0.300908 0.666377
0.626093 0.323613 0.666255
0.730648 0.360510 0.608881
0.816739 0.468544 0.620294
0.895171 0.573663 0.677546
0.000000 0.358740 0.580499
0.000000 0.357855 0.589044
0.245274 0.345922 0.617121
0.447456 0.386084 0.648005
0.623041 0.423713 0.656367
0.725521 0.449744 0.610590
0.812009 0.530999 0.637598
0.893034 0.609918 0.689754
0.000000 0.445716 0.565301
0.000000 0.445533 0.566583
0.233921 0.446998 0.569848
0.432319 0.480293 0.608972
0.613672 0.530205 0.636622
0.715785 0.551202 0.619898
0.804807 0.605432 0.658991
0.893431 0.640528 0.690425
0.102785 0.563226 0.572656
0.172915 0.565728 0.574212
0.308598 0.575250 0.580285
0.459571 0.592126 0.590692
0.596918 0.615351 0.607538
0.718318 0.617517 0.608637
0.820127 0.614893 0.605890
0.917357 0.603143 0.594690
0.328527 0.708064 0.617639
0.356939 0.708553 0.618585
0.437263 0.710201 0.622309
0.530907 0.711788 0.625513
0.596246 0.712398 0.603998
0.713405 0.723659 0.573205
0.834409 0.690700 0.510918
0.943450 0.619135 0.395483
0.406928 0.795071 0.618830
0.427527 0.795071 0.621454
0.486824 0.794766 0.628626
0.560693 0.794186 0.635462
0.587457 0.795010 0.591394
0.664485 0.798337 0.544488
0.814450 0.812131 0.479469
0.945037 0.762325 0.287907
0.486854 0.876951 0.642695
0.500420 0.876860 0.644984
0.541619 0.876524 0.651362
0.593133 0.875639 0.653193
0.564569 0.881407 0.562921
0.619562 0.880583 0.494331
0.738582 0.892973 0.359319
0.916716 0.896391 0.000000
0.000000 0.327184 0.734493
0.000000 0.317723 0.736934
0.236484 0.321996 0.745388
0.428992 0.378943 0.757351
0.607874 0.467414 0.773709
0.727932 0.482002 0.768215
0.813870 0.513359 0.734249
0.894438 0.589746 0.734066
0.064607 0.363470 0.730953
0.119020 0.355810 0.733761
0.247898 0.347936 0.742672
0.434882 0.403143 0.755093
0.610834 0.487648 0.771847
0.728420 0.502251 0.767208
0.813230 0.529686 0.734981
0.894041 0.600061 0.736873
0.146517 0.427832 0.711025
0.206882 0.433173 0.714992
0.295354 0.428748 0.726528
0.441749 0.458778 0.742245
0.613519 0.536522 0.761929
0.727535 0.555871 0.761532
0.809781 0.574823 0.735134
0.892119 0.629603 0.744076
0.000000 0.478767 0.676539
0.000000 0.478645 0.676509
0.276005 0.495796 0.692622
0.448859 0.530083 0.717342
0.607477 0.588373 0.742763
0.723690 0.618982 0.751217
0.804593 0.628779 0.732387
0.889860 0.668513 0.752346
0.133822 0.577203 0.684565
0.183291 0.578241 0.684474
0.292973 0.583062 0.684291
0.416815 0.591730 0.684047
0.585870 0.633051 0.713344
0.719783 0.677729 0.740383
0.802274 0.684901 0.733211
0.889860 0.716426 0.763394
0.270695 0.685328 0.692622
0.301213 0.686305 0.692714
0.390265 0.690791 0.694575
0.500786 0.698512 0.698238
0.608026 0.709407 0.705013
0.704616 0.725368 0.717617
0.807126 0.726406 0.718654
0.905486 0.721950 0.714595
0.457893 0.793271 0.723751
0.477699 0.793423 0.725460
0.538781 0.795346 0.732601
0.605859 0.798489 0.738918
0.660853 0.801205 0.737118
0.702754 0.801877 0.712825
0.807034 0.815457 0.693172
0.921324 0.790066 0.635889
0.549706 0.876341 0.748562
0.559716 0.876555 0.749538
0.589929 0.877165 0.751705
0.630762 0.878386 0.751766
0.677852 0.880644 0.747372
0.693965 0.883665 0.700252
0.767391 0.887816 0.658595
0.907622 0.899260 0.586206
0.283024 0.469825 0.826139
0.298009 0.467781 0.827115
0.357733 0.470649 0.831144
0.482063 0.511192 0.836637
0.613916 0.567010 0.845335
0.739406 0.630365 0.857481
0.817258 0.626368 0.851225
0.893736 0.644770 0.837552
0.308568 0.491768 0.823209
0.321904 0.489845 0.824369
0.367193 0.485634 0.829038
0.488228 0.525017 0.835080
0.617548 0.578729 0.844236
0.741115 0.639582 0.857023
0.818326 0.636286 0.851408
0.894438 0.652857 0.838437
0.352850 0.542168 0.811093
0.370336 0.543786 0.812650
0.410101 0.540978 0.818296
0.496651 0.557519 0.826963
0.622614 0.607721 0.837980
0.742367 0.662623 0.852873
0.818448 0.661372 0.849058
0.893431 0.672389 0.837125
0.271702 0.557183 0.789822
0.306981 0.562829 0.791806
0.409400 0.585504 0.798489
0.510063 0.606226 0.810758
0.619898 0.640314 0.826047
0.739437 0.690639 0.844907
0.818387 0.695552 0.845426
0.892943 0.701961 0.834836
0.237949 0.609888 0.776211
0.261448 0.610742 0.775723
0.327214 0.612757 0.773678
0.450996 0.629633 0.780026
0.603632 0.671687 0.805386
0.727291 0.716701 0.832456
0.819211 0.735836 0.841733
0.893492 0.738979 0.831357
0.327459 0.695155 0.780179
0.346349 0.696040 0.779873
0.402899 0.698848 0.778805
0.478065 0.702083 0.776852
0.558770 0.703792 0.773922
0.690455 0.734310 0.801755
0.815488 0.777401 0.832761
0.893339 0.781827 0.827726
0.423590 0.780056 0.785458
0.438880 0.780545 0.785489
0.487556 0.782620 0.786007
0.555505 0.786069 0.787259
0.630396 0.791531 0.790249
0.709133 0.800137 0.796384
0.799649 0.816495 0.810452
0.901701 0.818601 0.813138
0.562066 0.874937 0.818906
0.572747 0.875303 0.819760
0.605249 0.876341 0.822354
0.655055 0.879942 0.828122
0.714931 0.885832 0.835752
0.762753 0.890105 0.833219
0.798856 0.892302 0.806455
0.903960 0.905333 0.785367
0.512718 0.643732 0.914549
0.518334 0.642695 0.914885
0.538537 0.640009 0.916625
0.597681 0.655085 0.918181
0.673671 0.677821 0.920928
0.756374 0.704829 0.925475
0.840909 0.737514 0.931853
0.898589 0.724910 0.926970
0.521355 0.653590 0.913298
0.526696 0.652491 0.913664
0.546014 0.649470 0.915465
0.599878 0.660914 0.917510
0.675013 0.682918 0.920439
0.757259 0.709468 0.925200
0.841733 0.742031 0.931884
0.899382 0.729885 0.927245
0.541497 0.680934 0.908385
0.546532 0.679866 0.908904
0.564660 0.676661 0.911131
0.601434 0.675929 0.914153
0.675776 0.696681 0.917876
0.758389 0.722896 0.923552
0.843015 0.755001 0.931090
0.900755 0.744533 0.927123
0.507897 0.691402 0.900725
0.523461 0.695155 0.901030
0.573938 0.708583 0.902861
0.611139 0.706874 0.907317
0.670100 0.714290 0.913146
0.755886 0.740810 0.920073
0.843168 0.773373 0.929259
0.902770 0.766720 0.926818
0.430396 0.703914 0.886839
0.446662 0.705867 0.887388
0.501183 0.714076 0.890135
0.580804 0.728084 0.896086
0.660212 0.739742 0.904631
0.744045 0.758938 0.914702
0.840482 0.794583 0.926543
0.905882 0.795926 0.926757
0.460487 0.757351 0.884276
0.468940 0.757717 0.884123
0.495705 0.758236 0.883543
0.533898 0.756680 0.882231
0.600488 0.757809 0.884398
0.717067 0.778470 0.901457
0.828489 0.814694 0.919280
0.908965 0.830350 0.925841
0.508904 0.817838 0.883635
0.516472 0.818204 0.883635
0.540948 0.819089 0.883543
0.577874 0.819455 0.882994
0.622980 0.818021 0.881895
0.673762 0.811978 0.879057
0.789761 0.828855 0.898039
0.912322 0.871336 0.924285
0.560143 0.879423 0.884855
0.567132 0.879759 0.885008
0.589288 0.880735 0.885374
0.625086 0.882139 0.885740
0.674037 0.884398 0.886656
0.734676 0.887938 0.888487
0.807675 0.893950 0.892576
0.901366 0.910491 0.907286
