kodak/Gold 200.cube
# Created by Adobe Lightroom plugin Export LUT (1.24.0)
# www.johnrellis.com/lightroom/exportlut.htm
# Preset: FCP - Kodak Gold 200 | 03
# Color profile: C:\Windows\System32\Spool\Drivers\Color\AdobeRGB1998.icc
LUT_3D_SIZE 5
DOMAIN_MIN 0.000000 0.000000 0.000000
DOMAIN_MAX 0.903226 0.903226 0.903226
0.000000 0.082429 0.000000
0.175357 0.052277 0.000000
0.519097 0.000000 0.000000
0.781277 0.000000 0.000000
0.943481 0.000000 0.196323
0.000000 0.145083 0.003174
0.174075 0.153689 0.000000
0.538445 0.227543 0.000000
0.784237 0.141512 0.000000
0.944091 0.000000 0.136751
0.000000 0.426032 0.000000
0.221164 0.426612 0.000000
0.502342 0.487617 0.000000
0.782437 0.487037 0.000000
0.948394 0.377600 0.000000
0.000000 0.713344 0.000000
0.153750 0.709621 0.000000
0.425391 0.706874 0.000000
0.734127 0.731960 0.000000
0.942596 0.652979 0.000000
0.249058 0.880217 0.357336
0.251133 0.882261 0.307683
0.406287 0.881834 0.278752
0.612573 0.884154 0.182712
0.899657 0.891203 0.000000
0.000000 0.108949 0.189944
0.213504 0.075868 0.186343
0.524590 0.000000 0.245182
0.784909 0.000000 0.195468
0.948760 0.000000 0.188815
0.049775 0.168490 0.156771
0.208438 0.175601 0.169619
0.544488 0.158816 0.149935
0.788479 0.130800 0.113893
0.950347 0.000000 0.130617
0.053315 0.456336 0.207919
0.212680 0.465827 0.125826
0.524193 0.510094 0.000000
0.789273 0.490425 0.000000
0.952239 0.386023 0.000000
0.000000 0.718135 0.017914
0.195560 0.714717 0.000000
0.442237 0.711727 0.000000
0.741604 0.734890 0.000000
0.946044 0.654505 0.000000
0.252873 0.881559 0.354681
0.259098 0.883452 0.308782
0.408057 0.881224 0.276249
0.614496 0.884581 0.183200
0.902220 0.891569 0.000000
0.000000 0.206882 0.554589
0.200320 0.160494 0.574182
0.558190 0.179355 0.594781
0.757900 0.319066 0.533379
0.897002 0.549340 0.645350
0.000000 0.310155 0.505913
0.189242 0.281651 0.542565
0.551812 0.321416 0.580804
0.751217 0.422034 0.555108
0.893400 0.587671 0.658900
0.000000 0.484443 0.493660
0.246952 0.496132 0.502983
0.526543 0.538048 0.531701
0.754849 0.539025 0.529961
0.926268 0.517082 0.508873
0.296025 0.727810 0.537987
0.388342 0.728939 0.546258
0.518242 0.728481 0.517144
0.742184 0.743404 0.425238
0.953887 0.638849 0.000000
0.456794 0.877226 0.583276
0.503197 0.876188 0.592004
0.480049 0.882628 0.467567
0.619226 0.887907 0.279789
0.912993 0.895354 0.000000
0.056733 0.360418 0.759731
0.211307 0.348608 0.766384
0.521447 0.449134 0.784634
0.751705 0.524163 0.790433
0.894408 0.602716 0.758267
0.216831 0.444404 0.743801
0.284337 0.434607 0.752590
0.531548 0.502586 0.775540
0.752255 0.573968 0.786679
0.893645 0.629908 0.760311
0.082155 0.535088 0.705592
0.229648 0.537102 0.704097
0.529412 0.597589 0.739528
0.750179 0.670069 0.774716
0.891508 0.697261 0.772671
0.310216 0.708797 0.715450
0.392645 0.712947 0.717189
0.564080 0.724727 0.722896
0.728603 0.748806 0.741360
0.904601 0.747707 0.740749
0.565515 0.876616 0.772091
0.593439 0.877165 0.773587
0.661860 0.880064 0.772671
0.720394 0.884855 0.727382
0.906065 0.900572 0.652003
0.512718 0.643732 0.914549
0.532219 0.640894 0.916075
0.634363 0.665797 0.919341
0.777523 0.712459 0.926879
0.898589 0.724910 0.926970
0.535698 0.672572 0.909789
0.553277 0.669276 0.911650
0.637263 0.681392 0.916686
0.779355 0.726253 0.925658
0.900145 0.739742 0.927001
0.474434 0.696223 0.894713
0.523796 0.705562 0.897185
0.635706 0.723323 0.906096
0.775143 0.758450 0.920500
0.904326 0.780636 0.926879
0.471046 0.771695 0.883574
0.497536 0.772549 0.883146
0.565484 0.769772 0.880858
0.733394 0.789639 0.900542
0.910063 0.840238 0.925780
0.560143 0.879423 0.884855
0.582361 0.880461 0.885283
0.648035 0.883146 0.886107
0.751644 0.889067 0.889189
0.901366 0.910491 0.907286
