kodak/Gold 100.cube
# Created by Adobe Lightroom plugin Export LUT (1.24.0)
# www.johnrellis.com/lightroom/exportlut.htm
# Preset: FCP - Kodak Gold 100 | 01
# Color profile: C:\Windows\System32\Spool\Drivers\Color\AdobeRGB1998.icc
LUT_3D_SIZE 32
DOMAIN_MIN 0.0 0.0 0.0
DOMAIN_MAX 1.0 1.0 1.0
0.000000 0.082429 0.000000
0.000000 0.082216 0.000000
0.000458 0.082216 0.000000
0.062135 0.081239 0.000000
0.113283 0.078706 0.000000
0.174685 0.077150 0.000000
0.246342 0.075685 0.000000
0.318517 0.069337 0.000000
0.392950 0.056214 0.000000
0.473213 0.025116 0.000000
0.557000 0.000000 0.000000
0.638880 0.000000 0.000000
0.715846 0.000000 0.000000
0.785672 0.000000 0.000000
0.847013 0.000000 0.000000
0.896880 0.000031 0.000000
0.936370 0.000000 0.000000
0.967407 0.004578 0.000000
0.993011 0.000763 0.000000
1.000000 0.008698 0.000000
1.000000 0.009033 0.000000
1.000000 0.013092 0.000000
1.000000 0.017182 0.000000
1.000000 0.020569 0.000000
1.000000 0.020081 0.000000
1.000000 0.005280 0.000000
1.000000 0.000000 0.000000
1.000000 0.000000 0.000000
1.000000 0.000000 0.000000
1.000000 0.000000 0.000000
1.000000 0.000000 0.000000
1.000000 0.000000 0.000000
0.000000 0.083101 0.000000
0.000000 0.083253 0.000000
0.000000 0.083223 0.000000
0.060578 0.083742 0.000000
0.110964 0.084016 0.000000
0.171389 0.086549 0.000000
0.242222 0.087617 0.000000
0.314214 0.084443 0.000000
0.388006 0.077821 0.000000
0.468269 0.071015 0.000000
0.551659 0.063416 0.000000
0.633539 0.061585 0.000000
0.710780 0.062074 0.000000
0.780911 0.071412 0.000000
0.842863 0.070771 0.000000
0.893614 0.067750 0.000000
0.933562 0.067964 0.000000
0.965179 0.066407 0.000000
0.991058 0.066163 0.000000
1.000000 0.065583 0.000000
1.000000 0.064851 0.000000
1.000000 0.065461 0.000000
1.000000 0.063966 0.000000
1.000000 0.062409 0.000000
1.000000 0.062562 0.000000
1.000000 0.053498 0.000000
1.000000 0.000000 0.000000
1.000000 0.000000 0.000000
1.000000 0.000000 0.000000
1.000000 0.000000 0.000000
1.000000 0.000000 0.000000
1.000000 0.000000 0.000000
0.000000 0.086091 0.000000
0.000000 0.086152 0.000000
0.001190 0.086091 0.000000
0.059236 0.087709 0.000000
0.107881 0.090303 0.000000
0.167453 0.095888 0.000000
0.237003 0.099733 0.000000
0.309483 0.099763 0.000000
0.382696 0.097810 0.000000
0.462257 0.095827 0.000000
0.545708 0.095064 0.000000
0.628046 0.096620 0.000000
0.705501 0.100221 0.000000
0.776394 0.104860 0.000000
0.838987 0.104250 0.000000
0.890471 0.103120 0.000000
0.931090 0.101595 0.000000
0.963104 0.100160 0.000000
0.989441 0.096834 0.000000
1.000000 0.096132 0.000000
1.000000 0.094545 0.000000
1.000000 0.091493 0.000000
1.000000 0.089235 0.000000
1.000000 0.086976 0.000000
1.000000 0.084657 0.000000
1.000000 0.078523 0.000000
1.000000 0.049500 0.000000
1.000000 0.000000 0.000000
1.000000 0.000000 0.000000
1.000000 0.000000 0.000000
1.000000 0.000000 0.000000
1.000000 0.000000 0.000000
0.000000 0.099672 0.000000
0.000000 0.100618 0.000000
0.000000 0.100832 0.000000
0.061341 0.101625 0.000000
0.105928 0.106050 0.000000
0.159945 0.111452 0.000000
0.228214 0.119173 0.000000
0.300938 0.124269 0.000000
0.373022 0.127718 0.000000
0.452369 0.131807 0.000000
0.535637 0.136385 0.000000
0.618250 0.141878 0.000000
0.696254 0.147646 0.000000
0.768307 0.150149 0.000000
0.832151 0.149691 0.000000
0.885039 0.148348 0.000000
0.926848 0.146517 0.000000
0.959594 0.144167 0.000000
0.986786 0.139895 0.000000
1.000000 0.137087 0.000000
1.000000 0.132967 0.000000
1.000000 0.130159 0.000000
1.000000 0.125734 0.000000
1.000000 0.122255 0.000000
1.000000 0.119356 0.000000
1.000000 0.113313 0.000000
1.000000 0.096071 0.000000
1.000000 0.073365 0.000000
1.000000 0.008728 0.000000
1.000000 0.000000 0.000000
1.000000 0.000000 0.000000
1.000000 0.000000 0.000000
0.000000 0.128115 0.000000
0.000000 0.128908 0.000000
0.000000 0.129000 0.000000
0.053285 0.129793 0.000000
0.106294 0.131960 0.000000
0.160281 0.137942 0.000000
0.220188 0.143923 0.000000
0.286748 0.149996 0.000000
0.358679 0.158206 0.000000
0.436591 0.167605 0.000000
0.519646 0.176974 0.000000
0.602350 0.186435 0.000000
0.682734 0.192172 0.000000
0.756222 0.195865 0.000000
0.821683 0.197787 0.000000
0.876982 0.196963 0.000000
0.920806 0.193973 0.000000
0.954894 0.189944 0.000000
0.983459 0.185214 0.000000
1.000000 0.180392 0.000000
1.000000 0.175540 0.000000
1.000000 0.170626 0.000000
1.000000 0.165805 0.000000
1.000000 0.160891 0.000000
1.000000 0.155947 0.000000
1.000000 0.150484 0.000000
1.000000 0.136843 0.000000
1.000000 0.119478 0.000000
1.000000 0.097993 0.000000
1.000000 0.066835 0.000000
1.000000 0.000000 0.000000
1.000000 0.000000 0.000000
0.000000 0.163973 0.003143
0.000000 0.164858 0.000000
0.000000 0.165652 0.000000
0.024231 0.165743 0.000000
0.104067 0.167788 0.000000
0.161135 0.172549 0.000000
0.224857 0.181430 0.000000
0.286564 0.188418 0.000000
0.344945 0.189609 0.000000
0.418921 0.200412 0.000000
0.501305 0.214176 0.000000
0.585718 0.225620 0.000000
0.666804 0.234745 0.000000
0.742580 0.240452 0.000000
0.809873 0.243778 0.000000
0.867399 0.243870 0.000000
0.913237 0.241306 0.000000
0.949187 0.235843 0.000000
0.979248 0.231418 0.000000
1.000000 0.224704 0.000000
1.000000 0.218509 0.000000
1.000000 0.211765 0.000000
1.000000 0.207248 0.000000
1.000000 0.200931 0.000000
1.000000 0.194766 0.000000
1.000000 0.188266 0.000000
1.000000 0.175357 0.000000
1.000000 0.160098 0.000000
1.000000 0.143465 0.000000
1.000000 0.122408 0.000000
1.000000 0.095674 0.000000
1.000000 0.050202 0.000000
0.000000 0.211551 0.007050
0.000000 0.212131 0.000000
0.000000 0.213016 0.000000
0.000000 0.213535 0.000000
0.093233 0.213565 0.000000
0.162325 0.220462 0.000000
0.227787 0.228977 0.000000
0.298100 0.238895 0.000000
0.358434 0.244022 0.000000
0.422126 0.247501 0.000000
0.488472 0.249241 0.000000
0.573266 0.264775 0.000000
0.655848 0.277104 0.000000
0.732631 0.285374 0.000000
0.801083 0.290166 0.000000
0.859892 0.290990 0.000000
0.907256 0.288212 0.000000
0.945586 0.282872 0.000000
0.976806 0.276463 0.000000
1.000000 0.269352 0.000000
1.000000 0.262211 0.000000
1.000000 0.254704 0.000000
1.000000 0.247379 0.000000
1.000000 0.239933 0.000000
1.000000 0.232792 0.000000
1.000000 0.225162 0.000000
1.000000 0.212680 0.000000
1.000000 0.198672 0.000000
1.000000 0.183169 0.000000
1.000000 0.165927 0.000000
1.000000 0.146090 0.000000
1.000000 0.122316 0.000000
0.000000 0.262089 0.015259
0.000000 0.262699 0.000000
0.000000 0.263554 0.000000
0.000000 0.264225 0.000000
0.071992 0.264256 0.000000
0.147280 0.266850 0.000000
0.219303 0.275883 0.000000
0.289342 0.285924 0.000000
0.367132 0.298009 0.000000
0.431739 0.304265 0.000000
0.497383 0.307805 0.000000
0.561639 0.307622 0.000000
0.632227 0.311925 0.000000
0.711025 0.323827 0.000000
0.782284 0.330907 0.000000
0.844236 0.333867 0.000000
0.895598 0.332341 0.000000
0.936767 0.327703 0.000000
0.969177 0.320378 0.000000
0.996460 0.312779 0.000000
1.000000 0.304448 0.000000
1.000000 0.295720 0.000000
1.000000 0.287419 0.000000
1.000000 0.278843 0.000000
1.000000 0.270176 0.000000
1.000000 0.262364 0.000000
1.000000 0.249424 0.000000
1.000000 0.235782 0.000000
1.000000 0.221012 0.000000
1.000000 0.205051 0.000000
1.000000 0.187991 0.000000
1.000000 0.168246 0.000000
0.000000 0.313024 0.026337
0.000000 0.313725 0.000000
0.000000 0.314549 0.000000
0.000000 0.316106 0.000000
0.000000 0.315953 0.000000
0.123476 0.315831 0.000000
0.200626 0.322454 0.000000
0.276677 0.334173 0.000000
0.354437 0.348394 0.000000
0.439338 0.364233 0.000000
0.510552 0.371954 0.000000
0.575158 0.373083 0.000000
0.636011 0.370520 0.000000
0.692775 0.363470 0.000000
0.760922 0.368933 0.000000
0.826871 0.374578 0.000000
0.882872 0.375311 0.000000
0.926390 0.370916 0.000000
0.960418 0.363714 0.000000
0.989227 0.355200 0.000000
1.000000 0.346319 0.000000
1.000000 0.336675 0.000000
1.000000 0.326909 0.000000
1.000000 0.317205 0.000000
1.000000 0.308141 0.000000
1.000000 0.298711 0.000000
1.000000 0.286015 0.000000
1.000000 0.272221 0.000000
1.000000 0.257450 0.000000
1.000000 0.242191 0.000000
1.000000 0.225925 0.000000
1.000000 0.208408 0.000000
0.000000 0.366979 0.036286
0.000000 0.367376 0.000000
0.000000 0.367987 0.000000
0.000000 0.369604 0.000000
0.000000 0.370153 0.000000
0.087953 0.370336 0.000000
0.173251 0.370520 0.000000
0.257816 0.383520 0.000000
0.339330 0.399176 0.000000
0.423743 0.416876 0.000000
0.512566 0.433631 0.000000
0.588769 0.441871 0.000000
0.649592 0.439246 0.000000
0.705653 0.432502 0.000000
0.758236 0.423041 0.000000
0.808316 0.412970 0.000000
0.867796 0.415930 0.000000
0.914519 0.412787 0.000000
0.950988 0.405768 0.000000
0.981323 0.396948 0.000000
1.000000 0.387366 0.000000
1.000000 0.377111 0.000000
1.000000 0.366461 0.000000
1.000000 0.355688 0.000000
1.000000 0.345373 0.000000
1.000000 0.335241 0.000000
1.000000 0.322026 0.000000
1.000000 0.307927 0.000000
1.000000 0.293187 0.000000
1.000000 0.278080 0.000000
1.000000 0.262211 0.000000
1.000000 0.245457 0.000000
0.000000 0.422644 0.049958
0.000000 0.423041 0.000000
0.000000 0.423926 0.000000
0.000000 0.425422 0.000000
0.000000 0.426886 0.000000
0.000000 0.427283 0.000000
0.148440 0.428077 0.000000
0.230381 0.433173 0.000000
0.318212 0.449683 0.000000
0.405249 0.468482 0.000000
0.494942 0.488716 0.000000
0.585473 0.504753 0.000000
0.665217 0.512352 0.000000
0.722194 0.505669 0.000000
0.773495 0.494972 0.000000
0.819089 0.480568 0.000000
0.858427 0.463386 0.000000
0.898833 0.451850 0.000000
0.938537 0.445808 0.000000
0.971130 0.436957 0.000000
0.998627 0.427161 0.000000
1.000000 0.416571 0.000000
1.000000 0.405402 0.000000
1.000000 0.393957 0.000000
1.000000 0.382574 0.000000
1.000000 0.371527 0.000000
1.000000 0.357794 0.000000
1.000000 0.343328 0.000000
1.000000 0.328374 0.000000
1.000000 0.313115 0.000000
1.000000 0.297307 0.000000
1.000000 0.281041 0.000000
0.000000 0.480446 0.058930
0.000000 0.481025 0.008637
0.000000 0.481605 0.000000
0.000000 0.482948 0.000000
0.000000 0.485206 0.000000
0.000000 0.485817 0.000000
0.098787 0.486702 0.000000
0.201846 0.487617 0.000000
0.290471 0.499001 0.000000
0.380926 0.518029 0.000000
0.471473 0.538750 0.000000
0.567010 0.562066 0.000000
0.676875 0.593652 0.000000
0.758236 0.597681 0.000000
0.806638 0.582361 0.000000
0.848173 0.562860 0.000000
0.882963 0.540917 0.000000
0.912139 0.516899 0.000000
0.937041 0.492531 0.000000
0.967987 0.480537 0.000000
0.996185 0.469551 0.000000
1.000000 0.457923 0.000000
1.000000 0.445502 0.000000
1.000000 0.433051 0.000000
1.000000 0.420691 0.000000
1.000000 0.408392 0.000000
1.000000 0.393896 0.000000
1.000000 0.378820 0.000000
1.000000 0.363470 0.000000
1.000000 0.347814 0.000000
1.000000 0.331975 0.000000
1.000000 0.315618 0.000000
0.000000 0.543023 0.066621
0.000000 0.543572 0.019593
0.000000 0.543877 0.000000
0.000000 0.544884 0.000000
0.000000 0.546441 0.000000
0.000000 0.547173 0.000000
0.000000 0.547448 0.000000
0.168246 0.548028 0.000000
0.255161 0.549279 0.000000
0.353002 0.569726 0.000000
0.448402 0.593011 0.000000
0.545037 0.617304 0.000000
0.644526 0.641718 0.000000
0.739406 0.657343 0.000000
0.818265 0.656886 0.000000
0.857908 0.634394 0.000000
0.890715 0.609155 0.000000
0.918120 0.582605 0.000000
0.941650 0.555962 0.000000
0.963195 0.529870 0.000000
0.984497 0.507012 0.000000
1.000000 0.495613 0.000000
1.000000 0.482948 0.000000
1.000000 0.470039 0.000000
1.000000 0.457038 0.000000
1.000000 0.444068 0.000000
1.000000 0.429084 0.000000
1.000000 0.413489 0.000000
1.000000 0.397681 0.000000
1.000000 0.381781 0.000000
1.000000 0.365698 0.000000
1.000000 0.349340 0.000000
0.000000 0.597681 0.072663
0.000000 0.598016 0.029786
0.000000 0.598505 0.000000
0.000000 0.599329 0.000000
0.000000 0.600824 0.000000
0.000000 0.602594 0.000000
0.000000 0.603662 0.000000
0.105287 0.605158 0.000000
0.225742 0.606867 0.000000
0.314885 0.614527 0.000000
0.413367 0.636133 0.000000
0.509697 0.658930 0.000000
0.606348 0.681636 0.000000
0.704158 0.703304 0.000000
0.799649 0.719234 0.000000
0.866636 0.706477 0.000000
0.897551 0.677516 0.000000
0.923339 0.647822 0.000000
0.945892 0.618494 0.000000
0.966644 0.590723 0.000000
0.985779 0.564019 0.000000
1.000000 0.538293 0.000000
1.000000 0.519493 0.000000
1.000000 0.506401 0.000000
1.000000 0.492836 0.000000
1.000000 0.479377 0.000000
1.000000 0.463874 0.000000
1.000000 0.447791 0.000000
1.000000 0.431678 0.000000
1.000000 0.415473 0.000000
1.000000 0.399115 0.000000
1.000000 0.382483 0.000000
0.000000 0.652674 0.076692
0.000000 0.653223 0.047761
0.000000 0.653529 0.000000
0.000000 0.654414 0.000000
0.000000 0.655848 0.000000
0.000000 0.657984 0.000000
0.000000 0.658350 0.000000
0.000000 0.658900 0.000000
0.180636 0.660121 0.000000
0.277836 0.661891 0.000000
0.372381 0.675441 0.000000
0.470253 0.696620 0.000000
0.565789 0.717800 0.000000
0.660609 0.737942 0.000000
0.755001 0.755520 0.000000
0.847471 0.769406 0.000000
0.903990 0.746426 0.000000
0.928405 0.713283 0.000000
0.950103 0.681300 0.000000
0.969970 0.650965 0.000000
0.988342 0.622217 0.000000
1.000000 0.595026 0.000000
1.000000 0.568780 0.000000
1.000000 0.543511 0.000000
1.000000 0.528069 0.000000
1.000000 0.514122 0.000000
1.000000 0.498238 0.000000
1.000000 0.481941 0.000000
1.000000 0.465492 0.000000
1.000000 0.448951 0.000000
1.000000 0.432288 0.000000
1.000000 0.415351 0.000000
0.000000 0.704036 0.081819
0.000000 0.704433 0.053651
0.000000 0.704921 0.000000
0.000000 0.705867 0.000000
0.000000 0.707088 0.000000
0.000000 0.709163 0.000000
0.000000 0.710323 0.000000
0.000000 0.710903 0.000000
0.102998 0.711696 0.000000
0.240421 0.712764 0.000000
0.327794 0.714015 0.000000
0.428168 0.732235 0.000000
0.523156 0.750912 0.000000
0.615595 0.768490 0.000000
0.705745 0.783566 0.000000
0.793973 0.795956 0.000000
0.879973 0.805325 0.000000
0.930480 0.778470 0.000000
0.953857 0.744076 0.000000
0.973297 0.711391 0.000000
0.991150 0.680507 0.000000
1.000000 0.651209 0.000000
1.000000 0.623438 0.000000
1.000000 0.596735 0.000000
1.000000 0.571313 0.000000
1.000000 0.548699 0.000000
1.000000 0.532433 0.000000
1.000000 0.515892 0.000000
1.000000 0.499092 0.000000
1.000000 0.482124 0.000000
1.000000 0.465126 0.000000
1.000000 0.447913 0.000000
0.000000 0.749477 0.083131
0.000000 0.749722 0.064088
0.000000 0.750027 0.000000
0.000000 0.750729 0.000000
0.000000 0.751888 0.000000
0.000000 0.753689 0.000000
0.000000 0.755337 0.000000
0.000000 0.755489 0.000000
0.000000 0.755917 0.000000
0.186038 0.756558 0.000000
0.291325 0.757321 0.000000
0.380072 0.762875 0.000000
0.477546 0.779995 0.000000
0.568902 0.795499 0.000000
0.657130 0.808835 0.000000
0.741939 0.819699 0.000000
0.824857 0.828061 0.000000
0.905425 0.834073 0.000000
0.951995 0.806271 0.000000
0.975708 0.771511 0.000000
0.993042 0.738399 0.000000
1.000000 0.706844 0.000000
1.000000 0.677028 0.000000
1.000000 0.648890 0.000000
1.000000 0.622187 0.000000
1.000000 0.596246 0.000000
1.000000 0.569268 0.000000
1.000000 0.549310 0.000000
1.000000 0.532250 0.000000
1.000000 0.515068 0.000000
1.000000 0.497627 0.000000
1.000000 0.480171 0.000000
0.000000 0.791226 0.087709
0.000000 0.791653 0.066072
0.000000 0.802640 0.000000
0.000000 0.803159 0.000000
0.000000 0.804074 0.000000
0.000000 0.805173 0.000000
0.000000 0.806729 0.000000
0.000000 0.806455 0.000000
0.000000 0.806088 0.000000
0.094575 0.805936 0.000000
0.248936 0.805722 0.000000
0.340642 0.805570 0.000000
0.432990 0.813809 0.000000
0.525811 0.826535 0.000000
0.612848 0.837552 0.000000
0.696071 0.846494 0.000000
0.776211 0.853422 0.000000
0.854154 0.858518 0.000000
0.930297 0.861906 0.000000
0.973785 0.833738 0.000000
0.996857 0.797757 0.000000
1.000000 0.763729 0.000000
1.000000 0.731655 0.000000
1.000000 0.701534 0.000000
1.000000 0.672908 0.000000
1.000000 0.645289 0.000000
1.000000 0.617334 0.000000
1.000000 0.590112 0.000000
1.000000 0.565179 0.000000
1.000000 0.547601 0.000000
1.000000 0.530022 0.000000
1.000000 0.512108 0.000000
0.000000 0.831022 0.088411
0.000000 0.832486 0.073579
0.000000 0.833982 0.015045
0.000000 0.835691 0.000000
0.000000 0.837278 0.000000
0.000000 0.838712 0.000000
0.000000 0.840177 0.000000
0.000000 0.840726 0.000000
0.000000 0.840177 0.000000
0.000000 0.839689 0.000000
0.187533 0.839170 0.000000
0.298497 0.838590 0.000000
0.380987 0.837736 0.000000
0.476020 0.848051 0.000000
0.563409 0.857633 0.000000
0.645808 0.865507 0.000000
0.724605 0.871855 0.000000
0.800900 0.876768 0.000000
0.875090 0.880217 0.000000
0.947326 0.882231 0.000000
0.989563 0.855070 0.000000
1.000000 0.818875 0.000000
1.000000 0.784817 0.000000
1.000000 0.752804 0.000000
1.000000 0.722713 0.000000
1.000000 0.693355 0.000000
1.000000 0.664424 0.000000
1.000000 0.636530 0.000000
1.000000 0.609186 0.000000
1.000000 0.582269 0.000000
1.000000 0.562127 0.000000
1.000000 0.544060 0.000000
0.000000 0.862730 0.092714
0.000000 0.863951 0.075868
0.000000 0.865202 0.026154
0.000000 0.866514 0.000000
0.000000 0.867948 0.000000
0.000000 0.869139 0.000000
0.000000 0.870451 0.000000
0.000000 0.871550 0.000000
0.000000 0.870878 0.000000
0.000000 0.870176 0.000000
0.076875 0.869474 0.000000
0.247837 0.868589 0.000000
0.341497 0.867460 0.000000
0.424567 0.868956 0.000000
0.514519 0.877165 0.000000
0.597223 0.884062 0.000000
0.675563 0.889860 0.000000
0.750637 0.894347 0.000000
0.823331 0.897612 0.000000
0.893828 0.899687 0.000000
0.962402 0.900389 0.000000
1.000000 0.874937 0.000000
1.000000 0.837797 0.000000
1.000000 0.803983 0.000000
1.000000 0.772091 0.000000
1.000000 0.741207 0.000000
1.000000 0.711208 0.000000
1.000000 0.682307 0.000000
1.000000 0.654200 0.000000
1.000000 0.626764 0.000000
1.000000 0.599878 0.000000
1.000000 0.575738 0.000000
0.000000 0.891051 0.094728
0.000000 0.892027 0.079683
0.000000 0.893065 0.038361
0.000000 0.894224 0.000000
0.000000 0.895384 0.000000
0.000000 0.896361 0.000000
0.000000 0.897398 0.000000
0.000000 0.898650 0.000000
0.000000 0.898222 0.000000
0.000000 0.897307 0.000000
0.000000 0.896300 0.000000
0.181918 0.895201 0.000000
0.296117 0.893889 0.000000
0.379706 0.892302 0.000000
0.464668 0.895842 0.000000
0.549157 0.902159 0.000000
0.627985 0.907530 0.000000
0.702815 0.911894 0.000000
0.774685 0.915160 0.000000
0.844144 0.917266 0.000000
0.911650 0.918212 0.000000
0.977020 0.917937 0.000000
1.000000 0.894041 0.000000
1.000000 0.855863 0.000000
1.000000 0.822232 0.000000
1.000000 0.789792 0.000000
1.000000 0.758480 0.000000
1.000000 0.728481 0.000000
1.000000 0.699428 0.000000
1.000000 0.671199 0.000000
1.000000 0.643610 0.000000
1.000000 0.616510 0.000000
0.000000 0.919249 0.095399
0.000000 0.919738 0.081758
0.000000 0.920165 0.046296
0.000000 0.920684 0.000000
0.000000 0.921324 0.000000
0.000000 0.922026 0.000000
0.000000 0.922911 0.000000
0.000000 0.924010 0.000000
0.000000 0.924376 0.000000
0.000000 0.923522 0.000000
0.000000 0.922576 0.000000
0.047333 0.921477 0.000000
0.243656 0.920073 0.000000
0.338811 0.918425 0.000000
0.414710 0.916564 0.000000
0.501854 0.921324 0.000000
0.581781 0.925811 0.000000
0.656855 0.929381 0.000000
0.727932 0.932067 0.000000
0.796536 0.933654 0.000000
0.862638 0.934234 0.000000
0.926513 0.933745 0.000000
0.988678 0.932189 0.000000
1.000000 0.910124 0.000000
1.000000 0.870939 0.000000
1.000000 0.837003 0.000000
1.000000 0.804562 0.000000
1.000000 0.773465 0.000000
1.000000 0.743496 0.000000
1.000000 0.714473 0.000000
1.000000 0.686275 0.000000
1.000000 0.658595 0.000000
0.000000 0.941894 0.095399
0.000000 0.942351 0.083345
0.000000 0.942748 0.056428
0.000000 0.943236 0.000000
0.000000 0.943786 0.000000
0.000000 0.944366 0.000000
0.000000 0.945037 0.000000
0.000000 0.945922 0.000000
0.000000 0.946899 0.000000
0.000000 0.945922 0.000000
0.000000 0.944854 0.000000
0.000000 0.943694 0.000000
0.173617 0.942260 0.000000
0.291875 0.940612 0.000000
0.375769 0.938811 0.000000
0.452247 0.938445 0.000000
0.534844 0.942229 0.000000
0.610895 0.945251 0.000000
0.682124 0.947448 0.000000
0.749935 0.948791 0.000000
0.815305 0.949218 0.000000
0.878569 0.948669 0.000000
0.939544 0.947234 0.000000
0.998779 0.944823 0.000000
1.000000 0.924224 0.000000
1.000000 0.884306 0.000000
1.000000 0.850278 0.000000
1.000000 0.818082 0.000000
1.000000 0.787137 0.000000
1.000000 0.757259 0.000000
1.000000 0.728328 0.000000
1.000000 0.700099 0.000000
0.000000 0.964904 0.097017
0.000000 0.965332 0.083467
0.000000 0.965606 0.059571
0.000000 0.965911 0.000000
0.000000 0.966278 0.000000
0.000000 0.966613 0.000000
0.000000 0.967071 0.000000
0.000000 0.967620 0.000000
0.000000 0.968353 0.000000
0.000000 0.967681 0.000000
0.000000 0.966308 0.000000
0.000000 0.964874 0.000000
0.000000 0.963226 0.000000
0.236912 0.961395 0.000000
0.332799 0.959319 0.000000
0.409033 0.957031 0.000000
0.486976 0.957641 0.000000
0.564630 0.959899 0.000000
0.636652 0.961547 0.000000
0.704555 0.962585 0.000000
0.769467 0.962799 0.000000
0.831754 0.962219 0.000000
0.891661 0.960754 0.000000
0.949706 0.958434 0.000000
1.000000 0.955230 0.000000
1.000000 0.937530 0.000000
1.000000 0.897337 0.000000
1.000000 0.862699 0.000000
1.000000 0.830655 0.000000
1.000000 0.799863 0.000000
1.000000 0.770108 0.000000
1.000000 0.741085 0.000000
0.000000 0.983551 0.096986
0.000000 0.983917 0.084688
0.000000 0.984192 0.062196
0.000000 0.984466 0.000000
0.000000 0.984741 0.000000
0.000000 0.985077 0.000000
0.000000 0.985504 0.000000
0.000000 0.986023 0.000000
0.000000 0.986755 0.000000
0.000000 0.986847 0.000000
0.000000 0.985595 0.000000
0.000000 0.984222 0.000000
0.000000 0.982727 0.000000
0.163760 0.980957 0.000000
0.285557 0.978973 0.000000
0.369482 0.976837 0.000000
0.439429 0.974517 0.000000
0.519127 0.975769 0.000000
0.592584 0.976776 0.000000
0.660761 0.977295 0.000000
0.724666 0.977173 0.000000
0.786130 0.976349 0.000000
0.845396 0.974762 0.000000
0.903014 0.972381 0.000000
0.958953 0.969299 0.000000
1.000000 0.965393 0.000000
1.000000 0.950195 0.000000
1.000000 0.909636 0.000000
1.000000 0.874296 0.000000
1.000000 0.842466 0.000000
1.000000 0.811765 0.000000
1.000000 0.781949 0.000000
0.000000 1.000000 0.097108
0.000000 1.000000 0.085054
0.000000 1.000000 0.065919
0.000000 1.000000 0.000000
0.000000 1.000000 0.000000
0.000000 1.000000 0.000000
0.000000 1.000000 0.000000
0.000000 1.000000 0.000000
0.000000 1.000000 0.000000
0.000000 1.000000 0.000000
0.000000 1.000000 0.000000
0.000000 1.000000 0.000000
0.000000 1.000000 0.000000
0.000000 0.998688 0.000000
0.228855 0.996796 0.000000
0.326268 0.994659 0.000000
0.401282 0.992401 0.000000
0.469490 0.990814 0.000000
0.544518 0.991333 0.000000
0.613397 0.991363 0.000000
0.678279 0.990875 0.000000
0.740169 0.989746 0.000000
0.799527 0.988006 0.000000
0.856870 0.985595 0.000000
0.912596 0.982513 0.000000
0.966827 0.978729 0.000000
1.000000 0.974365 0.000000
1.000000 0.961913 0.000000
1.000000 0.920867 0.000000
1.000000 0.884703 0.000000
1.000000 0.852995 0.000000
1.000000 0.822416 0.000000
0.000000 1.000000 0.096559
0.000000 1.000000 0.085969
0.000000 1.000000 0.066407
0.000000 1.000000 0.000000
0.000000 1.000000 0.000000
0.000000 1.000000 0.000000
0.000000 1.000000 0.000000
0.000000 1.000000 0.000000
0.000000 1.000000 0.000000
0.000000 1.000000 0.000000
0.000000 1.000000 0.000000
0.000000 1.000000 0.000000
0.000000 1.000000 0.000000
0.000000 1.000000 0.000000
0.133639 1.000000 0.000000
0.266880 1.000000 0.000000
0.352758 1.000000 0.000000
0.422980 1.000000 0.000000
0.492927 1.000000 0.000000
0.565270 1.000000 0.000000
0.632105 1.000000 0.000000
0.695094 1.000000 0.000000
0.755123 1.000000 0.000000
0.812711 1.000000 0.000000
0.868345 0.996948 0.000000
0.922332 0.993072 0.000000
0.974945 0.988678 0.000000
1.000000 0.983673 0.000000
1.000000 0.973816 0.000000
1.000000 0.932006 0.000000
1.000000 0.894682 0.000000
1.000000 0.863096 0.000000
0.000000 1.000000 0.112673
0.000000 1.000000 0.104585
0.000000 1.000000 0.092012
0.000000 1.000000 0.048859
0.000000 1.000000 0.000000
0.000000 1.000000 0.000000
0.000000 1.000000 0.000000
0.000000 1.000000 0.000000
0.000000 1.000000 0.000000
0.000000 1.000000 0.000000
0.000000 1.000000 0.000000
0.000000 1.000000 0.000000
0.000000 1.000000 0.000000
0.000000 1.000000 0.000000
