kodak/Gold 100.cube
# Created by Adobe Lightroom plugin Export LUT (1.24.0)
# www.johnrellis.com/lightroom/exportlut.htm
# Preset: FCP - Kodak Gold 100 | 01
# Color profile: C:\Windows\System32\Spool\Drivers\Color\AdobeRGB1998.icc
LUT_3D_SIZE 5
DOMAIN_MIN 0.000000 0.000000 0.000000
DOMAIN_MAX 0.903226 0.903226 0.903226
0.000000 0.082429 0.000000
0.318517 0.069337 0.000000
0.847013 0.000000 0.000000
1.000000 0.013092 0.000000
1.000000 0.000000 0.000000
0.000000 0.262089 0.015259
0.289342 0.285924 0.000000
0.782284 0.330907 0.000000
1.000000 0.295720 0.000000
1.000000 0.221012 0.000000
0.000000 0.652674 0.076692
0.000000 0.658900 0.000000
0.755001 0.755520 0.000000
1.000000 0.595026 0.000000
1.000000 0.465492 0.000000
0.000000 0.919249 0.095399
0.000000 0.924010 0.000000
0.414710 0.916564 0.000000
0.926513 0.933745 0.000000
1.000000 0.743496 0.000000
0.000000 1.000000 0.153750
0.000000 1.000000 0.000000
0.000000 1.000000 0.000000
0.598138 1.000000 0.000000
0.985565 1.000000 0.000000
0.068086 0.046967 0.280125
0.294224 0.000000 0.267582
0.825315 0.000000 0.211856
1.000000 0.000000 0.228122
1.000000 0.000000 0.000000
0.000000 0.256413 0.264469
0.272038 0.264988 0.261357
0.813718 0.272068 0.234165
1.000000 0.263951 0.184756
1.000000 0.184604 0.000000
0.000000 0.652399 0.328283
0.000000 0.675929 0.188876
0.740749 0.740291 0.000000
0.996643 0.558099 0.000000
1.000000 0.445289 0.000000
0.000000 0.919005 0.311955
0.000000 0.924926 0.161776
0.362737 0.921752 0.000000
0.926177 0.932952 0.000000
1.000000 0.732845 0.000000
0.000000 1.000000 0.264195
0.000000 1.000000 0.113497
0.000000 1.000000 0.000000
0.597375 1.000000 0.000000
0.989776 1.000000 0.000000
0.169314 0.000000 0.680629
0.389807 0.000000 0.686702
0.712795 0.000000 0.656397
0.976593 0.000000 0.522148
1.000000 0.251011 0.513909
0.000000 0.195132 0.683406
0.251865 0.132052 0.690700
0.718441 0.000000 0.665400
0.987182 0.000000 0.544121
1.000000 0.541894 0.633234
0.000000 0.614496 0.646326
0.000000 0.628046 0.656184
0.688106 0.676997 0.673030
0.963348 0.742397 0.729397
1.000000 0.717220 0.697505
0.000000 0.909361 0.615076
0.000000 0.912810 0.592248
0.443946 0.916167 0.527001
0.922698 0.923705 0.591455
1.000000 0.756771 0.500725
0.000000 1.000000 0.519402
0.000000 1.000000 0.488350
0.000000 1.000000 0.355016
0.527703 1.000000 0.000000
0.992279 1.000000 0.140414
0.215457 0.000000 0.908995
0.368963 0.000000 0.910155
0.665705 0.000000 0.913603
0.937591 0.000000 0.875578
1.000000 0.000000 0.676905
0.000000 0.016876 0.908537
0.266636 0.000000 0.909239
0.637568 0.000000 0.911833
0.934905 0.000000 0.875700
1.000000 0.000000 0.671687
0.000000 0.505241 0.892943
0.000000 0.496620 0.894591
0.565637 0.511589 0.899962
0.915892 0.495247 0.875212
1.000000 0.566217 0.760128
0.000000 0.825742 0.871153
0.000000 0.829252 0.872007
0.477119 0.848997 0.875425
0.894743 0.890532 0.888670
1.000000 0.922728 0.918181
0.000000 1.000000 0.799130
0.000000 1.000000 0.787869
0.000000 1.000000 0.756680
0.753414 1.000000 0.784970
0.989044 0.990173 0.847044
0.235904 0.000000 1.000000
0.339178 0.000000 1.000000
0.562341 0.000000 1.000000
0.823178 0.000000 1.000000
1.000000 0.000000 0.976226
0.065400 0.000000 1.000000
0.269383 0.000000 1.000000
0.535790 0.000000 1.000000
0.812009 0.000000 1.000000
1.000000 0.000000 0.975311
0.000000 0.351019 1.000000
0.000000 0.359930 1.000000
0.467506 0.367681 1.000000
0.782376 0.352636 1.000000
1.000000 0.294408 0.974731
0.000000 0.658747 0.996094
0.000000 0.656550 0.995422
0.331823 0.675654 0.992737
0.795560 0.770596 0.985687
0.996490 0.787961 0.974975
0.000000 0.930236 0.985077
0.000000 0.931273 0.984527
0.000000 0.938933 0.982574
0.757290 0.957824 0.975616
0.978943 0.978058 0.977722
