kodak/Gold 200.cube
# Created by Adobe Lightroom plugin Export LUT (1.24.0)
# www.johnrellis.com/lightroom/exportlut.htm
# Preset: FCP - Kodak Gold 200 | 03
# Color profile: C:\Windows\System32\Spool\Drivers\Color\AdobeRGB1998.icc
LUT_3D_SIZE 32
DOMAIN_MIN 0.0 0.0 0.0
DOMAIN_MAX 1.0 1.0 1.0
0.000000 0.082429 0.000000
0.000000 0.082216 0.000000
0.000000 0.082124 0.000000
0.032441 0.081025 0.000000
0.076204 0.078187 0.000000
0.105257 0.074464 0.000000
0.137850 0.067720 0.000000
0.175357 0.052277 0.000000
0.217777 0.007477 0.000000
0.264317 0.000000 0.000000
0.313725 0.000000 0.000000
0.364782 0.000000 0.000000
0.416236 0.000000 0.000000
0.467811 0.000000 0.000000
0.519097 0.000000 0.000000
0.568444 0.000000 0.000000
0.614099 0.000000 0.000000
0.654932 0.000000 0.000000
0.691493 0.000000 0.000000
0.724453 0.000000 0.000000
0.754147 0.000000 0.000000
0.781277 0.000000 0.000000
0.806424 0.000000 0.000000
0.830900 0.000000 0.000000
0.854917 0.000000 0.062104
0.878264 0.000000 0.095979
0.900816 0.000000 0.127321
0.922606 0.000000 0.160311
0.943481 0.000000 0.196323
0.963439 0.000000 0.237034
0.982361 0.000000 0.282719
1.000000 0.133730 0.333501
0.000000 0.082704 0.000000
0.000000 0.082918 0.000000
0.000000 0.082948 0.000000
0.037415 0.082155 0.000000
0.078523 0.079957 0.000000
0.107057 0.076600 0.000000
0.140200 0.070222 0.000000
0.177371 0.059297 0.000000
0.220188 0.021820 0.000000
0.267033 0.000000 0.000000
0.316197 0.000000 0.000000
0.367529 0.000000 0.000000
0.419104 0.000000 0.000000
0.470863 0.000000 0.000000
0.522210 0.000000 0.000000
0.571435 0.000000 0.000000
0.616663 0.000000 0.000000
0.657404 0.000000 0.000000
0.693751 0.000000 0.000000
0.726436 0.000000 0.000000
0.755917 0.000000 0.000000
0.782773 0.000000 0.000000
0.807828 0.000000 0.000000
0.832303 0.000000 0.000000
0.856138 0.000000 0.060090
0.879362 0.000000 0.094820
0.901854 0.000000 0.126741
0.923522 0.000000 0.159731
0.944335 0.000000 0.196109
0.964202 0.000000 0.236973
0.983062 0.000000 0.282872
1.000000 0.139406 0.333745
0.000000 0.084382 0.000000
0.000000 0.084138 0.000000
0.000000 0.084382 0.000000
0.042725 0.084871 0.000000
0.081239 0.083223 0.000000
0.109804 0.079896 0.000000
0.142519 0.074800 0.000000
0.180301 0.065522 0.000000
0.222934 0.044892 0.000000
0.269535 0.000000 0.000000
0.319036 0.000000 0.000000
0.370123 0.000000 0.000000
0.421393 0.000000 0.000000
0.473091 0.000000 0.000000
0.524346 0.000000 0.000000
0.573358 0.000000 0.000000
0.618647 0.000000 0.000000
0.659022 0.000000 0.000000
0.695216 0.000000 0.000000
0.727596 0.000000 0.000000
0.756924 0.000000 0.000000
0.783688 0.000000 0.000000
0.808591 0.000000 0.000000
0.832975 0.000000 0.000000
0.856809 0.000000 0.053437
0.880034 0.000000 0.092348
0.902434 0.000000 0.124636
0.924102 0.000000 0.158358
0.944823 0.000000 0.194858
0.964660 0.000000 0.235813
0.983520 0.000000 0.281895
1.000000 0.143374 0.333104
0.000000 0.089326 0.000000
0.000000 0.089479 0.000000
0.000000 0.089631 0.000000
0.035767 0.090120 0.000000
0.081971 0.091524 0.000000
0.114443 0.089479 0.000000
0.147066 0.085725 0.000000
0.184634 0.080751 0.000000
0.227237 0.072236 0.000000
0.273625 0.055879 0.000000
0.322881 0.009369 0.000000
0.373785 0.000000 0.000000
0.425208 0.000000 0.000000
0.476417 0.000000 0.000000
0.527520 0.000000 0.000000
0.576287 0.000000 0.000000
0.621057 0.000000 0.000000
0.661250 0.000000 0.000000
0.697169 0.000000 0.000000
0.729427 0.000000 0.000000
0.758633 0.000000 0.000000
0.785092 0.000000 0.000000
0.809903 0.000000 0.000000
0.833982 0.000000 0.000000
0.857572 0.000000 0.031617
0.880552 0.000000 0.084901
0.902831 0.000000 0.119203
0.924346 0.000000 0.153414
0.945098 0.000000 0.190341
0.964996 0.000000 0.231785
0.983948 0.000000 0.278294
1.000000 0.147921 0.329931
0.000000 0.099428 0.000000
0.000000 0.099947 0.000000
0.000000 0.099916 0.000000
0.034241 0.100526 0.000000
0.075227 0.101991 0.000000
0.112795 0.104097 0.000000
0.152682 0.104372 0.000000
0.191775 0.101869 0.000000
0.234409 0.097078 0.000000
0.280522 0.090669 0.000000
0.329503 0.082643 0.000000
0.379889 0.073121 0.000000
0.430579 0.062348 0.000000
0.481483 0.029389 0.000000
0.531670 0.000000 0.000000
0.579644 0.000000 0.000000
0.623529 0.000000 0.000000
0.662989 0.000000 0.000000
0.698604 0.000000 0.000000
0.730556 0.000000 0.000000
0.759609 0.000000 0.000000
0.786069 0.000000 0.000000
0.810727 0.000000 0.000000
0.834775 0.000000 0.000000
0.858274 0.000000 0.000000
0.881193 0.000000 0.071321
0.903410 0.000000 0.109834
0.924987 0.000000 0.145937
0.945739 0.000000 0.183688
0.965698 0.000000 0.225742
0.984741 0.000000 0.272770
1.000000 0.154635 0.324865
0.000000 0.112428 0.001770
0.000000 0.112947 0.000000
0.000000 0.112978 0.000000
0.028412 0.113344 0.000000
0.069825 0.114504 0.000000
0.103639 0.116152 0.000000
0.147555 0.120485 0.000000
0.193271 0.122988 0.000000
0.242069 0.124575 0.000000
0.287572 0.123476 0.000000
0.335821 0.123537 0.000000
0.385687 0.124758 0.000000
0.435462 0.125154 0.000000
0.485725 0.123507 0.000000
0.535332 0.117433 0.000000
0.582513 0.106081 0.000000
0.625605 0.085939 0.000000
0.664607 0.044099 0.000000
0.699702 0.000000 0.000000
0.731289 0.000000 0.000000
0.759976 0.000000 0.000000
0.786252 0.000000 0.000000
0.802731 0.000000 0.000000
0.827329 0.000000 0.000000
0.851469 0.000000 0.000000
0.874998 0.000000 0.010529
0.897917 0.000000 0.085908
0.920134 0.000000 0.126467
0.941650 0.000000 0.165988
0.962249 0.000000 0.208743
0.981933 0.000000 0.256291
1.000000 0.144045 0.309422
0.000000 0.126711 0.002930
0.000000 0.126986 0.000000
0.000000 0.127230 0.000000
0.026825 0.127321 0.000000
0.066499 0.127749 0.000000
0.098848 0.129732 0.000000
0.134585 0.131899 0.000000
0.183810 0.139132 0.000000
0.233829 0.145480 0.000000
0.286107 0.152773 0.000000
0.336919 0.160525 0.000000
0.385107 0.166506 0.000000
0.434028 0.172335 0.000000
0.483803 0.175570 0.000000
0.533135 0.175235 0.000000
0.580377 0.171084 0.000000
0.623651 0.162264 0.000000
0.662593 0.148928 0.000000
0.697597 0.131136 0.000000
0.728908 0.107027 0.000000
0.757137 0.072847 0.000000
0.782834 0.000000 0.000000
0.806760 0.000000 0.000000
0.830259 0.000000 0.000000
0.853513 0.000000 0.000000
0.876524 0.000000 0.000000
0.899229 0.000000 0.061555
0.921386 0.000000 0.110964
0.942809 0.000000 0.153628
0.963561 0.000000 0.197971
0.983337 0.000000 0.246616
1.000000 0.158785 0.300755
0.000000 0.145083 0.003174
0.000000 0.145449 0.000000
0.000000 0.145602 0.000000
0.028595 0.145785 0.000000
0.069551 0.145998 0.000000
0.100465 0.147524 0.000000
0.135775 0.150362 0.000000
0.174075 0.153689 0.000000
0.229618 0.165988 0.000000
0.282658 0.178653 0.000000
0.337224 0.193698 0.000000
0.391363 0.209659 0.000000
0.440955 0.219913 0.000000
0.489937 0.225559 0.000000
0.538445 0.227543 0.000000
0.584741 0.225284 0.000000
0.627131 0.219547 0.000000
0.665431 0.209995 0.000000
0.699886 0.197574 0.000000
0.730739 0.182223 0.000000
0.758724 0.163821 0.000000
0.784237 0.141512 0.000000
0.808103 0.114076 0.000000
0.831571 0.077241 0.000000
0.854795 0.000000 0.000000
0.877836 0.000000 0.000000
0.900450 0.000000 0.000000
0.922606 0.000000 0.087953
0.944091 0.000000 0.136751
0.964843 0.000000 0.183719
0.984710 0.080262 0.233951
1.000000 0.174807 0.289342
0.000000 0.168063 0.000000
0.000000 0.168246 0.000000
0.000000 0.168429 0.000000
0.037049 0.168460 0.000000
0.076600 0.168795 0.000000
0.105074 0.168826 0.000000
0.140200 0.172763 0.000000
0.178195 0.177462 0.000000
0.218906 0.182864 0.000000
0.278294 0.202335 0.000000
0.333196 0.222416 0.000000
0.387915 0.242710 0.000000
0.442115 0.260960 0.000000
0.495338 0.273747 0.000000
0.542962 0.277104 0.000000
0.588464 0.276341 0.000000
0.629938 0.271275 0.000000
0.667750 0.263432 0.000000
0.701503 0.252598 0.000000
0.731991 0.239658 0.000000
0.759670 0.224460 0.000000
0.785061 0.206638 0.000000
0.808927 0.187625 0.000000
0.832456 0.166201 0.000000
0.855711 0.142275 0.000000
0.878721 0.115358 0.000000
0.901366 0.084657 0.000000
0.923583 0.045533 0.034913
0.945159 0.018311 0.113588
0.966064 0.071656 0.165316
0.986114 0.128115 0.217807
1.000000 0.192294 0.274846
0.000000 0.197055 0.000000
0.000000 0.197238 0.000000
0.000000 0.197482 0.000000
0.048402 0.197604 0.000000
0.084779 0.197757 0.000000
0.114931 0.198032 0.000000
0.147097 0.200381 0.000000
0.185183 0.206210 0.000000
0.225559 0.213321 0.000000
0.267521 0.221653 0.000000
0.329137 0.249638 0.000000
0.384771 0.274723 0.000000
0.439368 0.296361 0.000000
0.493233 0.312444 0.000000
0.545220 0.322850 0.000000
0.591730 0.325383 0.000000
0.632197 0.320714 0.000000
0.669032 0.313237 0.000000
0.702296 0.303075 0.000000
0.732418 0.290959 0.000000
0.760159 0.277043 0.000000
0.785611 0.261082 0.000000
0.809751 0.244419 0.000000
0.833524 0.226291 0.000000
0.856931 0.207553 0.000000
0.879973 0.187625 0.000000
0.902617 0.168185 0.000000
0.924743 0.150179 0.000000
0.946319 0.139590 0.078279
0.967224 0.142702 0.141146
0.987457 0.166720 0.197147
1.000000 0.211185 0.256260
0.000000 0.233585 0.000000
0.000000 0.233677 0.000000
0.000000 0.233860 0.000000
0.056733 0.233860 0.000000
0.093416 0.234043 0.000000
0.125277 0.234226 0.000000
0.155978 0.234562 0.000000
0.193332 0.240543 0.000000
0.233494 0.248692 0.000000
0.275090 0.258701 0.000000
0.317510 0.270542 0.000000
0.380407 0.304356 0.000000
0.435676 0.330175 0.000000
0.490333 0.349493 0.000000
0.542779 0.362127 0.000000
0.590997 0.368292 0.000000
0.634302 0.368688 0.000000
0.671015 0.361913 0.000000
0.703731 0.351843 0.000000
0.733608 0.339727 0.000000
0.760952 0.326329 0.000000
0.786191 0.310948 0.000000
0.810330 0.295109 0.000000
0.834073 0.278569 0.000000
0.857511 0.261143 0.000000
0.880613 0.243412 0.000000
0.903319 0.225986 0.000000
0.925597 0.209598 0.000000
0.947326 0.197482 0.000000
0.968475 0.193301 0.107698
0.988952 0.203433 0.171908
1.000000 0.233219 0.234257
0.000000 0.276921 0.000000
0.000000 0.277073 0.000000
0.000000 0.276951 0.000000
0.058442 0.277012 0.000000
0.099550 0.277165 0.000000
0.134463 0.277226 0.000000
0.167239 0.277440 0.000000
0.201205 0.279759 0.000000
0.241642 0.288823 0.000000
0.282200 0.299321 0.000000
0.323644 0.311589 0.000000
0.366583 0.325750 0.000000
0.419379 0.349584 0.000000
0.474922 0.374151 0.000000
0.527947 0.390448 0.000000
0.577478 0.399725 0.000000
0.622217 0.402808 0.000000
0.662165 0.401190 0.000000
0.697383 0.395026 0.000000
0.727871 0.383642 0.000000
0.755917 0.370581 0.000000
0.781735 0.356390 0.000000
0.806424 0.341070 0.000000
0.830655 0.325353 0.000000
0.854612 0.308812 0.000000
0.878080 0.292241 0.000000
0.901183 0.275181 0.000000
0.923888 0.259129 0.000000
0.946075 0.245274 0.000000
0.967712 0.236271 0.018677
0.988739 0.237583 0.134737
1.000000 0.254765 0.204013
0.000000 0.320470 0.000000
0.000000 0.320562 0.000000
0.000000 0.320867 0.000000
0.046906 0.321172 0.000000
0.100252 0.321843 0.000000
0.139620 0.322393 0.000000
0.174929 0.322728 0.000000
0.208133 0.322667 0.000000
0.246098 0.329137 0.000000
0.285985 0.339269 0.000000
0.325750 0.350561 0.000000
0.366400 0.363104 0.000000
0.409094 0.376928 0.000000
0.471626 0.409216 0.000000
0.526482 0.428840 0.000000
0.575860 0.439246 0.000000
0.620661 0.443091 0.000000
0.660914 0.441779 0.000000
0.696742 0.436866 0.000000
0.728878 0.428931 0.000000
0.757198 0.416815 0.000000
0.782742 0.402197 0.000000
0.807401 0.387091 0.000000
0.831662 0.371496 0.000000
0.855589 0.355261 0.000000
0.879149 0.338720 0.000000
0.902312 0.322423 0.000000
0.925017 0.306065 0.000000
0.947326 0.290929 0.000000
0.969116 0.279545 0.000000
0.990326 0.274968 0.084962
1.000000 0.282719 0.170657
0.000000 0.373175 0.000000
0.000000 0.373297 0.000000
0.000000 0.373510 0.000000
0.012726 0.373754 0.000000
0.099031 0.374029 0.000000
0.143343 0.374517 0.000000
0.182040 0.374426 0.000000
0.216770 0.374517 0.000000
0.250217 0.375128 0.000000
0.290166 0.384833 0.000000
0.329717 0.395575 0.000000
0.369635 0.407477 0.000000
0.411231 0.420264 0.000000
0.456336 0.434119 0.000000
0.519371 0.462348 0.000000
0.573724 0.478035 0.000000
0.618738 0.482734 0.000000
0.659266 0.482094 0.000000
0.695399 0.477089 0.000000
0.727718 0.469276 0.000000
0.756954 0.459052 0.000000
0.783444 0.447242 0.000000
0.808103 0.431769 0.000000
0.832334 0.416266 0.000000
0.856199 0.400214 0.000000
0.879728 0.383825 0.000000
0.902953 0.367163 0.000000
0.925780 0.350439 0.000000
0.948180 0.334813 0.000000
0.970123 0.321294 0.000000
0.991608 0.312596 0.000000
1.000000 0.312779 0.125216
0.000000 0.426032 0.000000
0.000000 0.426093 0.000000
0.000000 0.426093 0.000000
0.000000 0.426307 0.000000
0.090822 0.426703 0.000000
0.142336 0.426856 0.000000
0.184085 0.426734 0.000000
0.221164 0.426612 0.000000
0.254978 0.425788 0.000000
0.291081 0.430091 0.000000
0.330175 0.439857 0.000000
0.369818 0.450690 0.000000
0.410620 0.462379 0.000000
0.454658 0.474800 0.000000
0.502342 0.487617 0.000000
0.564446 0.511131 0.000000
0.616022 0.521599 0.000000
0.656886 0.521447 0.000000
0.693385 0.516960 0.000000
0.726162 0.509148 0.000000
0.755642 0.498909 0.000000
0.782437 0.487037 0.000000
0.808164 0.474617 0.000000
0.832822 0.460090 0.000000
0.856657 0.444099 0.000000
0.880125 0.427619 0.000000
0.903258 0.410834 0.000000
0.926024 0.394049 0.000000
0.948394 0.377600 0.000000
0.970397 0.362371 0.000000
0.992035 0.350317 0.000000
1.000000 0.344549 0.000793
0.000000 0.477333 0.000000
0.000000 0.477150 0.000000
0.000000 0.476936 0.000000
0.000000 0.477028 0.000000
0.072511 0.476753 0.000000
0.136049 0.476326 0.000000
0.181216 0.476020 0.000000
0.220462 0.475105 0.000000
0.255955 0.474342 0.000000
0.288518 0.473365 0.000000
0.327092 0.481239 0.000000
0.366583 0.491493 0.000000
0.406989 0.502190 0.000000
0.450080 0.513481 0.000000
0.496284 0.524987 0.000000
0.545861 0.536461 0.000000
0.605768 0.554803 0.000000
0.654231 0.560662 0.000000
0.691096 0.556176 0.000000
0.724025 0.548425 0.000000
0.753597 0.537987 0.000000
0.780575 0.525933 0.000000
0.806516 0.513268 0.000000
0.831724 0.500328 0.000000
0.856352 0.487007 0.000000
0.879789 0.470375 0.000000
0.902922 0.453559 0.000000
0.925750 0.436469 0.000000
0.948302 0.419593 0.000000
0.970550 0.403357 0.000000
0.992615 0.389075 0.000000
1.000000 0.379126 0.000000
0.000000 0.525872 0.000000
0.000000 0.525902 0.000000
0.000000 0.525689 0.000000
0.000000 0.525566 0.000000
0.024353 0.525170 0.000000
0.124575 0.524804 0.000000
0.174990 0.523949 0.000000
0.216770 0.523095 0.000000
0.254154 0.521935 0.000000
0.287968 0.520806 0.000000
0.322087 0.521904 0.000000
0.361181 0.530541 0.000000
0.401160 0.539940 0.000000
0.443122 0.549615 0.000000
0.487678 0.559503 0.000000
0.534783 0.569329 0.000000
0.584833 0.578882 0.000000
0.642664 0.593439 0.000000
0.688533 0.595331 0.000000
0.721828 0.587518 0.000000
0.751797 0.577081 0.000000
0.779080 0.564721 0.000000
0.805234 0.551995 0.000000
0.830655 0.538903 0.000000
0.855467 0.525414 0.000000
0.879637 0.511620 0.000000
0.902983 0.495979 0.000000
0.925841 0.478798 0.000000
0.948425 0.461494 0.000000
0.970855 0.444404 0.000000
0.993133 0.428473 0.000000
1.000000 0.415412 0.000000
0.000000 0.569696 0.000000
0.000000 0.569360 0.000000
0.000000 0.561975 0.000000
0.000000 0.561761 0.000000
0.000000 0.561364 0.000000
0.107271 0.560998 0.000000
0.163760 0.560632 0.000000
0.207919 0.559930 0.000000
0.246830 0.559014 0.000000
0.281865 0.558068 0.000000
0.314794 0.556970 0.000000
0.351202 0.561517 0.000000
0.390570 0.570001 0.000000
0.431586 0.578912 0.000000
0.474708 0.587945 0.000000
0.519921 0.596948 0.000000
0.568048 0.605859 0.000000
0.618219 0.614313 0.000000
0.674250 0.625757 0.000000
0.716915 0.624170 0.000000
0.747616 0.614191 0.000000
0.775509 0.602014 0.000000
0.802121 0.589227 0.000000
0.827970 0.576196 0.000000
0.853178 0.562860 0.000000
0.877775 0.549187 0.000000
0.901915 0.535119 0.000000
0.925628 0.520287 0.000000
0.948425 0.502892 0.000000
0.971038 0.485512 0.000000
0.993561 0.468574 0.000000
1.000000 0.453193 0.000000
0.000000 0.608484 0.000000
0.000000 0.607507 0.000000
0.000000 0.606409 0.000000
0.000000 0.605341 0.000000
0.000000 0.604364 0.000000
0.083589 0.603510 0.000000
0.150271 0.602838 0.000000
0.198398 0.602045 0.000000
0.239261 0.601251 0.000000
0.275853 0.600214 0.000000
0.309911 0.599115 0.000000
0.342565 0.597772 0.000000
0.381628 0.605005 0.000000
0.422156 0.612665 0.000000
0.464515 0.620661 0.000000
0.508659 0.628687 0.000000
0.554894 0.636408 0.000000
0.602808 0.643641 0.000000
0.652644 0.650141 0.000000
0.706447 0.658289 0.000000
0.745510 0.652705 0.000000
0.773587 0.640375 0.000000
0.800504 0.627283 0.000000
0.826535 0.614130 0.000000
0.851835 0.600519 0.000000
0.876555 0.586664 0.000000
0.900755 0.572595 0.000000
0.924590 0.558129 0.000000
0.948089 0.543420 0.000000
0.971038 0.526390 0.000000
0.993774 0.508782 0.000000
1.000000 0.492134 0.000000
0.000000 0.647303 0.000000
0.000000 0.646418 0.000000
0.000000 0.645563 0.000000
0.000000 0.644617 0.000000
0.000000 0.643610 0.000000
0.018219 0.642939 0.000000
0.132784 0.642145 0.000000
0.186221 0.641352 0.000000
0.229099 0.640467 0.000000
0.267308 0.639429 0.000000
0.302770 0.638392 0.000000
0.336309 0.637079 0.000000
0.371130 0.638361 0.000000
0.411322 0.645045 0.000000
0.452918 0.651820 0.000000
0.495918 0.658625 0.000000
0.540612 0.665064 0.000000
0.586847 0.671138 0.000000
0.634394 0.676539 0.000000
0.683253 0.681239 0.000000
0.735286 0.686976 0.000000
0.771298 0.678309 0.000000
0.798459 0.665217 0.000000
0.824735 0.651728 0.000000
0.850248 0.637964 0.000000
0.875120 0.624018 0.000000
0.899474 0.609766 0.000000
0.923400 0.595361 0.000000
0.947051 0.580652 0.000000
0.970581 0.565637 0.000000
0.993988 0.549432 0.000000
1.000000 0.531945 0.000000
0.000000 0.683314 0.000000
0.000000 0.682582 0.000000
0.000000 0.681819 0.000000
0.000000 0.680934 0.000000
0.000000 0.680079 0.000000
0.000000 0.679316 0.000000
0.110811 0.678676 0.000000
0.170596 0.677882 0.000000
0.216983 0.676997 0.000000
0.257084 0.675990 0.000000
0.293614 0.674861 0.000000
0.328344 0.673640 0.000000
0.361608 0.672419 0.000000
0.399084 0.675532 0.000000
0.440040 0.681086 0.000000
0.482063 0.686488 0.000000
0.525200 0.691676 0.000000
0.569512 0.696468 0.000000
0.615015 0.700801 0.000000
0.661616 0.704372 0.000000
0.709255 0.707362 0.000000
0.759945 0.711635 0.000000
0.794614 0.701442 0.000000
0.821073 0.687739 0.000000
0.846616 0.673854 0.000000
0.871641 0.659785 0.000000
0.896147 0.645472 0.000000
0.920165 0.631098 0.000000
0.943938 0.616327 0.000000
0.967620 0.601495 0.000000
0.991455 0.586542 0.000000
1.000000 0.571313 0.000000
0.000000 0.713344 0.000000
0.000000 0.713039 0.000000
0.000000 0.712673 0.000000
0.000000 0.712245 0.000000
0.000000 0.711727 0.000000
0.000000 0.711055 0.000000
0.081392 0.710414 0.000000
0.153750 0.709621 0.000000
0.203525 0.708705 0.000000
0.245060 0.707576 0.000000
0.282811 0.706447 0.000000
0.318303 0.705165 0.000000
0.352178 0.703944 0.000000
0.385412 0.702541 0.000000
0.425391 0.706874 0.000000
0.466560 0.711513 0.000000
0.508507 0.715846 0.000000
0.551537 0.719936 0.000000
0.595544 0.723629 0.000000
0.640497 0.726772 0.000000
0.686793 0.729549 0.000000
0.734127 0.731960 0.000000
0.785092 0.736172 0.000000
0.818784 0.725032 0.000000
0.844785 0.710964 0.000000
0.869963 0.696742 0.000000
0.894591 0.682277 0.000000
0.918730 0.667720 0.000000
0.942596 0.652979 0.000000
0.966369 0.638056 0.000000
0.990265 0.623194 0.000000
1.000000 0.608270 0.000000
0.000000 0.742367 0.000000
0.000000 0.742214 0.000000
0.000000 0.741939 0.000000
0.000000 0.741451 0.000000
0.000000 0.740993 0.000000
0.000000 0.740475 0.000000
0.032593 0.739895 0.000000
0.137301 0.739223 0.000000
0.190372 0.738399 0.000000
0.233616 0.737423 0.000000
0.272251 0.736294 0.000000
0.307988 0.735134 0.000000
0.342382 0.733883 0.000000
0.376104 0.732509 0.000000
0.411078 0.732418 0.000000
0.451301 0.736110 0.000000
0.492256 0.739651 0.000000
0.534051 0.742977 0.000000
0.576837 0.746212 0.000000
0.620539 0.749172 0.000000
0.665522 0.751797 0.000000
0.711421 0.754025 0.000000
0.758450 0.755886 0.000000
0.808591 0.759121 0.000000
0.842679 0.748196 0.000000
0.868559 0.733913 0.000000
0.893309 0.719265 0.000000
0.917571 0.704555 0.000000
0.941527 0.689723 0.000000
0.965362 0.674830 0.000000
0.989349 0.659876 0.000000
1.000000 0.645106 0.000000
0.000000 0.766751 0.000000
0.000000 0.766537 0.000000
0.000000 0.766476 0.000000
0.000000 0.766476 0.000000
0.000000 0.766140 0.000000
0.000000 0.765774 0.000000
0.000000 0.765347 0.000000
0.124880 0.764889 0.000000
0.179782 0.764248 0.000000
0.223301 0.763546 0.000000
0.262333 0.762722 0.000000
0.298070 0.761807 0.000000
0.332616 0.760739 0.000000
0.366339 0.759609 0.000000
0.399725 0.758480 0.000000
0.436591 0.759701 0.000000
0.476783 0.763119 0.000000
0.517723 0.766384 0.000000
0.559533 0.769436 0.000000
0.602167 0.772122 0.000000
0.645777 0.774563 0.000000
0.690578 0.776669 0.000000
0.736385 0.778470 0.000000
0.783322 0.779965 0.000000
0.832395 0.782162 0.000000
0.865232 0.770199 0.000000
0.891264 0.755825 0.000000
0.915770 0.741054 0.000000
0.939910 0.726131 0.000000
0.963897 0.711208 0.000000
0.988006 0.696407 0.000000
1.000000 0.681727 0.000000
0.000000 0.791379 0.094209
0.000000 0.791196 0.085878
0.000000 0.791104 0.072755
0.000000 0.791257 0.009003
0.000000 0.791348 0.000000
0.000000 0.791012 0.000000
0.000000 0.790677 0.000000
0.123171 0.790249 0.000000
0.175753 0.789700 0.000000
0.217960 0.789029 0.000000
0.255711 0.788296 0.000000
0.290959 0.787381 0.000000
0.324956 0.786435 0.000000
0.358099 0.785397 0.000000
0.391058 0.784298 0.000000
0.423987 0.783108 0.000000
0.462104 0.785306 0.000000
0.501854 0.788357 0.000000
0.542443 0.791165 0.000000
0.583917 0.793790 0.000000
0.626337 0.796109 0.000000
0.669947 0.798154 0.000000
0.714382 0.799985 0.000000
0.760037 0.801419 0.000000
0.806729 0.802579 0.000000
0.854856 0.803708 0.000000
0.887175 0.791501 0.000000
0.913207 0.776883 0.000000
0.937499 0.761898 0.000000
0.961608 0.747036 0.000000
0.985840 0.732296 0.000000
1.000000 0.717769 0.000000
0.000000 0.814755 0.171572
0.000000 0.814694 0.167605
0.000000 0.814694 0.162539
0.000000 0.814908 0.150576
0.000000 0.815244 0.129732
0.000000 0.815396 0.110750
0.075257 0.815213 0.105867
0.137270 0.814908 0.099001
0.182040 0.814450 0.089723
0.220005 0.813931 0.077913
0.255253 0.813321 0.060029
0.288579 0.812589 0.009918
0.321111 0.811734 0.000000
0.353277 0.810788 0.000000
0.385504 0.809812 0.000000
0.417517 0.808774 0.000000
0.450141 0.807858 0.000000
0.488533 0.810697 0.000000
0.527764 0.813382 0.000000
0.567864 0.815885 0.000000
0.608972 0.818112 0.000000
0.651118 0.820127 0.000000
0.694301 0.821866 0.000000
0.738613 0.823362 0.000000
0.783993 0.824521 0.000000
0.830472 0.825254 0.000000
0.877653 0.825589 0.000000
0.909819 0.813230 0.000000
0.935485 0.798154 0.000000
0.959747 0.783230 0.000000
0.984131 0.768490 0.000000
1.000000 0.754177 0.000000
0.095186 0.837980 0.236210
0.094667 0.837919 0.233524
0.095552 0.837949 0.230228
0.096498 0.838102 0.222934
0.097993 0.838376 0.210605
0.100038 0.838743 0.192477
0.127443 0.838621 0.181094
0.165103 0.838163 0.176333
0.198825 0.837552 0.170809
0.230655 0.836851 0.163790
0.261295 0.836027 0.155581
0.291539 0.835142 0.146029
0.321447 0.834257 0.134798
0.351659 0.833280 0.122011
0.382116 0.832364 0.106538
0.412970 0.831418 0.086732
0.443885 0.830411 0.056367
0.476844 0.830381 0.000000
0.514183 0.833005 0.000000
0.552575 0.835416 0.000000
0.591852 0.837644 0.000000
0.632380 0.839689 0.000000
0.673945 0.841489 0.000000
0.716701 0.843015 0.000000
0.760616 0.844297 0.000000
0.805631 0.845182 0.000000
0.851652 0.845609 0.000000
0.898558 0.845640 0.000000
0.930297 0.833036 0.000000
0.955688 0.817655 0.000000
0.980285 0.803159 0.000000
1.000000 0.789120 0.000000
0.178408 0.858518 0.294469
0.178317 0.858518 0.292576
0.178500 0.858610 0.290196
0.179355 0.858824 0.285039
0.180087 0.859159 0.276616
0.181094 0.859617 0.264439
0.182376 0.860105 0.247776
0.201419 0.860075 0.240574
0.226749 0.859739 0.236606
0.252750 0.859373 0.232029
0.278721 0.858946 0.226627
0.305333 0.858427 0.220493
0.332280 0.857816 0.213413
0.359899 0.857206 0.205539
