kodak/Portra 800.cube
# Created by Adobe Lightroom plugin Export LUT (1.24.0)
# www.johnrellis.com/lightroom/exportlut.htm
# Preset: FCP - Kodak Portra 800 | 01
# Color profile: C:\Windows\System32\Spool\Drivers\Color\AdobeRGB1998.icc
LUT_3D_SIZE 8
DOMAIN_MIN 0.000000 0.000000 0.000000
DOMAIN_MAX 0.903226 0.903226 0.903226
0.086213 0.074281 0.000000
0.124392 0.079377 0.000977
0.258640 0.109529 0.000000
0.505028 0.150423 0.000000
0.685206 0.196078 0.000000
0.796872 0.229526 0.000000
0.900725 0.269505 0.000000
1.000000 0.354253 0.216342
0.090578 0.112032 0.016724
0.116884 0.111727 0.020142
0.243137 0.153841 0.000000
0.493294 0.213077 0.000000
0.679683 0.245762 0.000000
0.791745 0.267033 0.000000
0.895171 0.299290 0.000000
1.000000 0.376532 0.222446
0.084718 0.235966 0.010468
0.137514 0.236210 0.005402
0.234440 0.239658 0.000000
0.474464 0.331579 0.000000
0.673915 0.369390 0.000000
0.788266 0.372320 0.000000
0.895415 0.394446 0.078523
1.000000 0.460273 0.271794
0.000000 0.469184 0.000000
0.131899 0.467720 0.000000
0.303746 0.465003 0.000000
0.470100 0.472389 0.000000
0.658961 0.504875 0.000000
0.781064 0.507134 0.092866
0.886809 0.517815 0.189517
0.997742 0.570520 0.341894
0.000000 0.646632 0.000000
0.122469 0.645045 0.000000
0.310582 0.640314 0.000000
0.476967 0.634272 0.000000
0.627588 0.626734 0.000000
0.754482 0.619348 0.169406
0.867094 0.633478 0.277287
0.981689 0.688075 0.431464
0.162997 0.750790 0.193637
0.218326 0.751308 0.197024
0.335454 0.747341 0.196628
0.469978 0.740688 0.196597
0.603449 0.733150 0.213565
0.729274 0.727047 0.247166
0.845548 0.733669 0.352941
0.967102 0.780331 0.488319
0.348882 0.847654 0.359991
0.369329 0.847593 0.361089
0.429786 0.845090 0.361181
0.520012 0.841855 0.363470
0.624048 0.837491 0.367071
0.733547 0.835966 0.394263
0.839841 0.836759 0.427619
0.949920 0.859922 0.538811
0.522057 0.957671 0.523949
0.532372 0.957397 0.524315
0.567864 0.956878 0.526452
0.627497 0.956817 0.532067
0.698268 0.953002 0.533410
0.785489 0.953704 0.550744
0.874907 0.955596 0.588037
0.958801 0.957214 0.624445
0.090913 0.083955 0.094087
0.128817 0.072694 0.103548
0.281682 0.000000 0.086030
0.517021 0.061524 0.034028
0.688106 0.142947 0.000000
0.793912 0.200015 0.000000
0.895232 0.257603 0.072480
1.000000 0.348028 0.207706
0.092622 0.114443 0.089723
0.125399 0.122225 0.098329
0.269718 0.140505 0.090822
0.510887 0.176638 0.031403
0.684749 0.212741 0.000000
0.790921 0.245029 0.000000
0.891142 0.289097 0.083864
1.000000 0.370031 0.214328
0.066468 0.242374 0.115969
0.119326 0.258579 0.098360
0.253666 0.259922 0.094514
0.492897 0.333501 0.065492
0.676844 0.357305 0.000000
0.786099 0.361303 0.057862
0.888640 0.385595 0.139254
1.000000 0.452003 0.261997
0.000000 0.473640 0.111116
0.065064 0.481056 0.074739
0.299626 0.477913 0.059510
0.474434 0.476448 0.056001
0.656428 0.500053 0.095491
0.775570 0.502892 0.166110
0.879301 0.511986 0.224186
0.993286 0.562432 0.332860
0.000000 0.650050 0.126497
0.089693 0.649378 0.128725
0.304509 0.643427 0.123201
0.475044 0.634607 0.119814
0.626581 0.625635 0.141085
0.752285 0.618250 0.220859
0.863645 0.633509 0.310643
0.979431 0.683528 0.427741
0.174777 0.750149 0.244114
0.225345 0.749111 0.245701
0.338781 0.745235 0.244633
0.471504 0.739162 0.244907
0.604303 0.732265 0.259098
0.729488 0.727077 0.288945
0.844175 0.734432 0.381567
0.965820 0.777737 0.486427
0.358679 0.844327 0.385718
0.376196 0.843290 0.384924
0.435004 0.841306 0.385290
0.523613 0.839139 0.388403
0.626062 0.835782 0.392432
0.733333 0.834134 0.415290
0.837400 0.834348 0.443977
0.947692 0.856535 0.534112
0.523033 0.955688 0.534142
0.533745 0.955718 0.535058
0.569085 0.955444 0.537255
0.628199 0.955596 0.542535
0.702785 0.955077 0.549035
0.787167 0.954589 0.560754
0.874357 0.955077 0.587030
0.958099 0.956085 0.622553
0.068299 0.092378 0.280247
0.138033 0.069917 0.300694
0.318029 0.000000 0.324743
0.572442 0.000000 0.325994
0.711055 0.000000 0.209903
0.800504 0.072450 0.221103
0.899901 0.229007 0.244816
1.000000 0.348882 0.316594
0.068055 0.151736 0.267521
0.111147 0.132570 0.290105
0.314855 0.000000 0.321324
0.563714 0.000000 0.297459
0.701869 0.000000 0.221164
0.797116 0.181369 0.228855
0.896361 0.270329 0.251804
1.000000 0.374395 0.323766
0.000000 0.262638 0.263401
0.097230 0.273747 0.274144
0.295720 0.303197 0.298466
0.534234 0.315496 0.281590
0.692287 0.329290 0.265537
0.790860 0.347967 0.264012
0.891020 0.384710 0.287022
1.000000 0.458473 0.358068
0.000000 0.485542 0.309880
0.000000 0.495796 0.305364
0.290043 0.517662 0.296849
0.507317 0.508385 0.294713
0.673671 0.517510 0.321874
0.778286 0.513146 0.334417
0.881346 0.524712 0.353643
0.994446 0.573907 0.418647
0.000000 0.652735 0.313542
0.000000 0.655573 0.312535
0.319585 0.659205 0.328405
0.490455 0.649195 0.322057
0.640925 0.639521 0.333471
0.756680 0.631342 0.372992
0.864775 0.651820 0.429511
0.980285 0.691218 0.490700
0.181430 0.750973 0.350683
0.244663 0.751003 0.359625
0.384710 0.748714 0.390753
0.497017 0.742519 0.387610
0.617426 0.735409 0.391211
0.733486 0.730922 0.411200
0.845060 0.742336 0.468635
0.967254 0.785122 0.540673
0.369360 0.845792 0.447242
0.397681 0.845274 0.455299
0.473304 0.843198 0.475685
0.548760 0.840452 0.474861
0.640467 0.837217 0.474647
0.741085 0.836393 0.488228
0.841581 0.838468 0.509697
0.951995 0.862974 0.577569
0.519615 0.956725 0.563226
0.532555 0.956451 0.565850
0.578271 0.955505 0.577752
0.635462 0.956359 0.582208
0.706966 0.955718 0.585901
0.789670 0.955657 0.593378
0.875731 0.956298 0.611170
0.960052 0.957153 0.631159
0.000000 0.104860 0.526940
0.103365 0.079042 0.537041
0.328130 0.000000 0.566369
0.568353 0.000000 0.571588
0.740017 0.000000 0.515068
0.818784 0.000000 0.418250
0.905699 0.105592 0.387396
1.000000 0.351568 0.446113
0.000000 0.173709 0.524254
0.031983 0.157412 0.533227
0.309026 0.000000 0.562066
0.568200 0.000000 0.571069
0.736233 0.000000 0.506157
0.813474 0.000000 0.418647
0.900053 0.206882 0.394903
1.000000 0.377203 0.450568
0.093172 0.338170 0.488930
0.182071 0.343267 0.493812
0.295201 0.318730 0.537285
0.562158 0.234806 0.563012
0.716732 0.279759 0.491188
0.795041 0.333471 0.441444
0.889250 0.407782 0.453590
1.000000 0.467018 0.477638
0.000000 0.491615 0.497475
0.000000 0.497353 0.502220
0.316747 0.515557 0.517113
0.541253 0.541527 0.536553
0.676875 0.538842 0.519249
0.772274 0.536126 0.503349
0.877623 0.544823 0.496590
0.995331 0.580652 0.517937
0.000000 0.658961 0.493446
0.000000 0.660365 0.493935
0.330571 0.663386 0.502953
0.537621 0.665126 0.534295
0.658320 0.656580 0.532677
0.759304 0.659602 0.547875
0.866606 0.674220 0.555627
0.983032 0.696925 0.569635
0.205173 0.753170 0.485695
0.268711 0.754055 0.492744
0.408820 0.751980 0.514305
0.551507 0.750179 0.548760
0.645441 0.743832 0.543053
0.743526 0.740902 0.551049
0.851469 0.757259 0.573083
0.970947 0.794461 0.612512
0.380896 0.846311 0.534142
0.408576 0.846372 0.540063
0.486458 0.846586 0.557733
0.583429 0.847105 0.580896
0.663264 0.844327 0.577905
0.753872 0.842893 0.580713
0.847562 0.844572 0.592126
0.957427 0.869322 0.632136
0.523278 0.958251 0.620081
0.536156 0.958495 0.622309
0.575097 0.959045 0.627192
0.638605 0.959625 0.636500
0.708461 0.958709 0.637476
0.790188 0.958282 0.640040
0.876616 0.958526 0.651575
0.961913 0.959106 0.667536
0.000000 0.166720 0.676814
0.105043 0.152651 0.680385
0.288426 0.042847 0.691493
0.483162 0.000000 0.710018
0.703059 0.000000 0.705898
0.835752 0.000000 0.643519
0.929259 0.000000 0.582818
1.000000 0.273930 0.567529
0.000000 0.235721 0.673762
0.133425 0.223941 0.677699
0.287205 0.164767 0.689143
0.476814 0.000000 0.707820
0.702205 0.000000 0.704799
0.833707 0.000000 0.643061
0.925566 0.153536 0.585718
1.000000 0.318364 0.571801
0.259495 0.405585 0.655695
0.291112 0.406806 0.661219
0.339452 0.369207 0.675257
0.476753 0.289250 0.696986
0.697841 0.231998 0.698573
0.822507 0.311009 0.645655
0.910399 0.367895 0.595880
1.000000 0.423987 0.581598
0.289250 0.515404 0.639155
0.332250 0.520897 0.640253
0.449226 0.542626 0.644587
0.539635 0.546715 0.670771
0.689174 0.514549 0.685939
0.794522 0.530816 0.644892
0.886748 0.526696 0.606836
0.998260 0.558038 0.605859
0.208988 0.635798 0.641169
0.267613 0.638148 0.642695
0.408850 0.645655 0.647700
0.556512 0.658167 0.656550
0.674861 0.673243 0.668025
0.762356 0.667079 0.652338
0.868467 0.665705 0.637903
0.988586 0.679347 0.636469
0.237613 0.750179 0.623529
0.289403 0.750423 0.625757
0.417304 0.749630 0.633112
0.554314 0.749447 0.646540
0.666133 0.753811 0.660334
0.754116 0.751736 0.660090
0.861997 0.771359 0.668177
0.977752 0.794614 0.678737
0.393225 0.845975 0.635981
0.418006 0.845731 0.638605
0.490028 0.845731 0.647608
0.581262 0.848020 0.659785
0.670527 0.852995 0.666102
0.759579 0.849699 0.661585
0.853605 0.850828 0.667201
0.964446 0.873167 0.689082
0.520348 0.956756 0.689967
0.532280 0.956817 0.690913
0.569635 0.957488 0.693385
0.625483 0.961364 0.695094
0.699245 0.963470 0.696284
0.784298 0.961975 0.696193
0.874754 0.960784 0.701869
0.962799 0.960235 0.714839
0.217288 0.289891 0.775509
0.241672 0.280705 0.777584
0.315892 0.239536 0.784268
0.436866 0.111635 0.797757
0.606195 0.000000 0.814603
0.800931 0.000000 0.805356
0.938537 0.000000 0.769528
1.000000 0.182132 0.727565
0.263249 0.342107 0.770932
0.279301 0.333074 0.773007
0.336248 0.296147 0.780423
0.441840 0.202853 0.794125
0.603662 0.000000 0.812589
0.799466 0.000000 0.803342
0.936065 0.000000 0.769406
1.000000 0.252934 0.729030
0.391821 0.479042 0.760250
0.396735 0.472511 0.762356
0.421729 0.448310 0.770260
0.484352 0.394324 0.785061
0.610040 0.270787 0.806363
0.797055 0.280369 0.799374
0.929503 0.342412 0.772580
1.000000 0.397009 0.734340
0.486305 0.587243 0.735225
0.496407 0.588830 0.737850
0.531456 0.594476 0.748867
0.565393 0.576593 0.767849
0.643030 0.529107 0.791531
0.793973 0.510948 0.793545
0.921691 0.525353 0.777371
1.000000 0.529747 0.736538
0.464149 0.646693 0.733669
0.483040 0.649653 0.734249
0.540642 0.659632 0.736385
0.617456 0.675685 0.740810
0.671534 0.675074 0.765743
0.785855 0.651209 0.782864
0.902525 0.643915 0.758724
1.000000 0.630274 0.719966
0.419898 0.731044 0.735714
0.442542 0.732692 0.736843
0.507347 0.736782 0.739620
0.592187 0.744076 0.744839
0.674800 0.754849 0.753384
0.774533 0.772702 0.768460
0.873930 0.763973 0.748409
0.988952 0.769039 0.740108
0.428382 0.843412 0.746273
0.448493 0.844388 0.747921
0.506615 0.846799 0.752071
0.582666 0.852598 0.757809
0.665766 0.859007 0.759396
0.766720 0.866850 0.761929
0.866239 0.863981 0.760952
0.974182 0.882200 0.775845
0.519829 0.958068 0.776699
0.530846 0.958129 0.777005
0.565820 0.958953 0.777554
0.617914 0.961883 0.776761
0.686915 0.965515 0.773831
0.780911 0.967803 0.777798
0.874601 0.964996 0.776120
0.965270 0.963134 0.786557
0.413581 0.452674 0.879545
0.420996 0.447059 0.881956
0.441871 0.417700 0.886900
0.487922 0.350469 0.896483
0.575677 0.188205 0.910002
0.726558 0.000000 0.919463
0.904112 0.000000 0.911254
1.000000 0.000000 0.878508
0.433845 0.479713 0.873533
0.439887 0.474311 0.875853
0.457862 0.447761 0.881224
0.498177 0.386999 0.890776
0.578485 0.251743 0.904509
0.723293 0.000000 0.914672
0.899199 0.000000 0.905913
1.000000 0.149874 0.874937
0.503502 0.565759 0.868040
0.506188 0.560784 0.869444
0.517479 0.541497 0.874205
0.547082 0.501488 0.883909
0.607874 0.418158 0.897765
0.729427 0.267094 0.912352
0.899443 0.307561 0.904967
1.000000 0.353155 0.878599
0.577539 0.657404 0.854307
0.581415 0.655970 0.855802
0.587427 0.644312 0.862333
0.605646 0.620935 0.873350
0.651057 0.577325 0.888273
0.745754 0.491005 0.909209
0.900053 0.496956 0.903777
1.000000 0.506249 0.880308
0.599054 0.710231 0.834958
0.605982 0.710719 0.834470
0.630365 0.713588 0.834653
0.652247 0.711177 0.849027
0.677668 0.687160 0.870024
0.753414 0.644953 0.893065
0.894347 0.622797 0.896147
1.000000 0.622766 0.874907
0.573724 0.761776 0.837430
0.582055 0.762661 0.837858
0.609247 0.765469 0.839353
0.651637 0.769894 0.842954
0.710445 0.776242 0.848081
0.768093 0.772305 0.875486
0.894224 0.747799 0.893950
1.000000 0.744167 0.862943
0.539574 0.838224 0.844572
0.549493 0.839475 0.845640
0.579095 0.841917 0.847440
0.624048 0.846525 0.851133
0.685420 0.852628 0.855680
0.772213 0.863340 0.864042
0.884855 0.883665 0.881315
0.981140 0.876310 0.863066
0.534142 0.950225 0.866514
0.542596 0.950896 0.866850
0.572717 0.955444 0.870024
0.617426 0.960601 0.871550
0.681575 0.966674 0.872129
0.774716 0.969635 0.872465
0.884581 0.970672 0.882322
0.968963 0.967681 0.883421
0.580041 0.605982 0.972412
0.582696 0.602045 0.973510
0.588251 0.582452 0.975586
0.603632 0.542931 0.980957
0.632502 0.460609 0.988830
0.688319 0.246891 0.999725
0.824735 0.000000 1.000000
0.988342 0.000000 0.998444
0.586877 0.617884 0.969909
0.589410 0.614160 0.971038
0.595453 0.596429 0.973449
0.609918 0.559014 0.978515
0.638483 0.483864 0.986450
0.692561 0.298985 0.997436
0.824247 0.000000 1.000000
0.986725 0.083467 0.996521
0.610712 0.657740 0.965545
0.612726 0.654475 0.966430
0.618158 0.639857 0.968353
0.635248 0.613855 0.974762
0.661952 0.557366 0.982208
0.711666 0.434852 0.992462
0.827939 0.274876 0.999023
0.985199 0.311254 0.994110
0.649622 0.718074 0.959411
0.647639 0.713130 0.960723
0.648646 0.699733 0.963287
0.662348 0.680110 0.968780
0.689448 0.644160 0.976532
0.737606 0.573266 0.986694
0.835447 0.462684 0.996033
0.984497 0.470283 0.992096
0.686152 0.777310 0.945647
0.688258 0.776608 0.947234
0.692744 0.770932 0.951019
0.701717 0.758022 0.959136
0.710567 0.724514 0.967834
0.752132 0.678401 0.978668
0.837888 0.598077 0.992187
0.983764 0.596887 0.989899
0.685145 0.821012 0.942290
0.688899 0.820676 0.941955
0.703243 0.820371 0.941588
0.731075 0.821469 0.942290
0.757107 0.816922 0.951354
0.779995 0.789303 0.968872
0.847807 0.740749 0.986267
0.985290 0.726009 0.989654
0.663691 0.874266 0.947875
0.667720 0.874144 0.947753
0.682673 0.873991 0.947784
0.712123 0.875212 0.949065
0.758389 0.878386 0.951232
0.824521 0.886778 0.954864
0.882383 0.886290 0.973114
0.980926 0.863310 0.982727
0.637720 0.947906 0.957031
0.641810 0.947906 0.956970
0.657649 0.948638 0.957305
0.688716 0.950713 0.958648
0.736934 0.953735 0.960449
0.805081 0.958038 0.962799
0.891600 0.964630 0.966735
0.976410 0.976104 0.975616
