kodak/Portra 400.cube
# Created by Adobe Lightroom plugin Export LUT (1.24.0)
# www.johnrellis.com/lightroom/exportlut.htm
# Preset: 柯达Portra400-01子沐调色
# Color profile: C:\Windows\System32\Spool\Drivers\Color\AdobeRGB1998.icc
LUT_3D_SIZE 5
DOMAIN_MIN 0.000000 0.000000 0.000000
DOMAIN_MAX 0.903226 0.903226 0.903226
0.091096 0.119844 0.089967
0.232395 0.133028 0.080232
0.638758 0.228641 0.000000
0.845335 0.314916 0.000000
0.913359 0.425422 0.283787
0.067384 0.194003 0.119234
0.213107 0.228336 0.073182
0.605280 0.334905 0.000000
0.833829 0.394659 0.110628
0.907012 0.479438 0.328222
0.000000 0.519524 0.274266
0.030762 0.504448 0.227115
0.547967 0.583581 0.000000
0.806699 0.575586 0.240360
0.881376 0.606592 0.433722
0.085817 0.739712 0.431281
0.276188 0.732357 0.441932
0.309056 0.695796 0.336553
0.714931 0.757748 0.313725
0.875273 0.723995 0.475502
0.459937 0.831479 0.596582
0.522698 0.825406 0.617029
0.568627 0.816464 0.609583
0.624445 0.813230 0.594354
0.830137 0.858488 0.590326
0.081727 0.115694 0.203067
0.250095 0.082094 0.213535
0.669184 0.129519 0.207034
0.840543 0.344671 0.281590
0.905119 0.470375 0.396460
0.000000 0.243259 0.228763
0.266300 0.251377 0.228336
0.637537 0.338750 0.252140
0.829648 0.422004 0.308721
0.898283 0.514366 0.423407
0.000000 0.548272 0.345098
0.257481 0.544060 0.360632
0.566766 0.586847 0.278599
0.794369 0.588617 0.381628
0.875761 0.627741 0.502068
0.163821 0.748592 0.472236
0.326604 0.741421 0.489113
0.395270 0.708827 0.421485
0.724178 0.756863 0.413031
0.867460 0.734005 0.544457
0.461006 0.833127 0.607477
0.524804 0.827024 0.627161
0.606744 0.815824 0.643397
0.640131 0.810788 0.619654
0.835233 0.859281 0.625849
0.000000 0.059876 0.568719
0.310246 0.000000 0.554101
0.645167 0.000000 0.550866
0.833585 0.325719 0.504265
0.891478 0.594324 0.611994
0.000000 0.282231 0.586023
0.248631 0.236484 0.581659
0.645258 0.300877 0.560815
0.824063 0.452338 0.536736
0.885924 0.626947 0.628016
0.000000 0.617945 0.591608
0.255833 0.617487 0.590692
0.635889 0.612543 0.586694
0.791073 0.646021 0.609827
0.868803 0.687617 0.649836
0.243137 0.774289 0.584619
0.385290 0.765927 0.596277
0.605615 0.741451 0.632807
0.750179 0.756435 0.611475
0.848814 0.760250 0.680568
0.477638 0.838071 0.650416
0.534203 0.833158 0.664179
0.662348 0.817838 0.703517
0.684596 0.806668 0.679316
0.843320 0.857755 0.694911
0.000000 0.000000 0.768124
0.263798 0.000000 0.764858
0.600580 0.257389 0.747921
0.806149 0.363012 0.717556
0.885405 0.572198 0.700679
0.000000 0.219913 0.771603
0.242496 0.248356 0.767819
0.606317 0.383978 0.749874
0.799680 0.463630 0.721614
0.880461 0.617487 0.714321
0.000000 0.556420 0.765225
0.302129 0.565576 0.763363
0.618555 0.601709 0.755245
0.782559 0.649592 0.734951
0.876432 0.706752 0.743893
0.248447 0.781430 0.756893
0.401373 0.778653 0.755673
0.644495 0.769772 0.753201
0.774411 0.762295 0.751827
0.867826 0.779385 0.758358
0.518151 0.851164 0.728939
0.571099 0.846708 0.737118
0.682429 0.835996 0.757870
0.757321 0.822049 0.766659
0.856626 0.862181 0.754330
0.000000 0.041657 0.853788
0.232670 0.123384 0.851194
0.551720 0.348699 0.839567
0.760342 0.534600 0.823362
0.879393 0.597711 0.816464
0.000000 0.221378 0.854520
0.252445 0.270573 0.851225
0.564965 0.426795 0.838926
0.763394 0.583246 0.821256
0.876249 0.631189 0.818753
0.298436 0.529046 0.849638
0.422004 0.553552 0.847227
0.590631 0.582300 0.841367
0.772488 0.684871 0.820706
0.874571 0.702663 0.828855
0.277379 0.705501 0.852628
0.392004 0.712245 0.850767
0.607416 0.736538 0.846616
0.762600 0.752987 0.842588
0.884794 0.761105 0.845426
0.413733 0.879088 0.859556
0.486397 0.877226 0.859037
0.648371 0.873838 0.859586
0.748623 0.874235 0.861509
0.890471 0.879332 0.864012
