kodak/Portra 800.cube
# Created by Adobe Lightroom plugin Export LUT (1.24.0)
# www.johnrellis.com/lightroom/exportlut.htm
# Preset: FCP - Kodak Portra 800 | 01
# Color profile: C:\Windows\System32\Spool\Drivers\Color\AdobeRGB1998.icc
LUT_3D_SIZE 5
DOMAIN_MIN 0.000000 0.000000 0.000000
DOMAIN_MAX 0.903226 0.903226 0.903226
0.086213 0.074281 0.000000
0.210422 0.101045 0.005707
0.607691 0.175174 0.000000
0.821805 0.238743 0.000000
1.000000 0.354253 0.216342
0.090486 0.191653 0.025086
0.190951 0.193545 0.018860
0.593957 0.326238 0.000000
0.815976 0.346166 0.000000
1.000000 0.437903 0.260502
0.000000 0.569635 0.000000
0.266667 0.565332 0.000000
0.561608 0.561913 0.000000
0.795041 0.564782 0.158663
0.989868 0.629358 0.384710
0.214054 0.774746 0.237339
0.324651 0.771969 0.238346
0.540459 0.761807 0.240696
0.754879 0.752346 0.292393
0.962737 0.801022 0.500511
0.522057 0.957671 0.523949
0.556512 0.956970 0.525628
0.658442 0.953155 0.529168
0.808255 0.954223 0.560174
0.958801 0.957214 0.624445
0.084657 0.091035 0.218051
0.250645 0.000000 0.255192
0.638209 0.000000 0.173800
0.820920 0.153689 0.174197
1.000000 0.345434 0.282689
0.067445 0.210513 0.207248
0.234287 0.241794 0.235325
0.620813 0.273350 0.203861
0.815305 0.317357 0.206760
1.000000 0.431434 0.318486
0.000000 0.578393 0.264378
0.235782 0.591241 0.248325
0.575067 0.574914 0.249424
0.793027 0.574792 0.327428
0.988403 0.632227 0.434607
0.238132 0.775601 0.348211
0.372259 0.773983 0.379553
0.558740 0.764401 0.376745
0.758358 0.755612 0.406958
0.963592 0.804135 0.535637
0.522942 0.958312 0.556054
0.567987 0.957214 0.567864
0.668940 0.956359 0.573358
0.811551 0.956237 0.589471
0.960906 0.957977 0.626398
0.000000 0.128298 0.613764
0.254002 0.000000 0.631708
0.646967 0.000000 0.649592
0.851133 0.000000 0.517296
1.000000 0.297398 0.492714
0.144320 0.335393 0.593774
0.253696 0.293400 0.616999
0.644312 0.087556 0.645655
0.834348 0.276524 0.524468
1.000000 0.439063 0.529503
0.000000 0.573907 0.579553
0.303960 0.585290 0.588067
0.618830 0.617762 0.612451
0.789090 0.609522 0.584558
0.991089 0.634150 0.582940
0.268132 0.774777 0.557427
0.399084 0.772854 0.571435
0.617548 0.773922 0.612909
0.771786 0.769131 0.613336
0.969726 0.814694 0.648829
0.520714 0.956786 0.652033
0.560845 0.957885 0.657191
0.667079 0.961212 0.664515
0.809079 0.959258 0.665736
0.961700 0.958984 0.687922
0.264103 0.325689 0.799344
0.320165 0.293400 0.805997
0.507500 0.000000 0.829191
0.826078 0.000000 0.831113
1.000000 0.121828 0.768338
0.387488 0.464363 0.788479
0.409674 0.440497 0.795377
0.528954 0.321782 0.820432
0.822995 0.212680 0.826474
1.000000 0.340795 0.771298
0.515221 0.630854 0.754788
0.561151 0.641779 0.755795
0.623133 0.631159 0.788327
0.811643 0.576776 0.810819
1.000000 0.577203 0.766964
0.457588 0.757229 0.761990
0.511742 0.760067 0.763668
0.637201 0.772061 0.772671
0.801511 0.799771 0.795926
0.987152 0.793118 0.767941
0.518914 0.958282 0.799924
0.554162 0.959350 0.800778
0.648920 0.964660 0.799191
0.806332 0.969116 0.803311
0.965850 0.963897 0.808499
0.580041 0.605982 0.972412
0.586175 0.588952 0.974823
0.616052 0.509819 0.984619
0.711055 0.087190 1.000000
0.988342 0.000000 0.998444
0.604944 0.646967 0.967407
0.611048 0.633600 0.969879
0.640040 0.573144 0.979614
0.725277 0.335363 0.997467
0.986175 0.268833 0.995361
0.667994 0.748287 0.953124
0.672694 0.741176 0.956725
0.683925 0.699825 0.967376
0.761227 0.605249 0.984619
0.983734 0.536400 0.990570
0.682673 0.834501 0.944976
0.696437 0.834104 0.944610
0.749172 0.836515 0.946014
0.802243 0.810239 0.969390
0.984283 0.759121 0.988067
0.637720 0.947906 0.957031
0.652338 0.948333 0.957153
0.710597 0.952117 0.959533
0.825345 0.959442 0.963592
0.976410 0.976104 0.975616
