kodak/Portra 800.cube
# Created by Adobe Lightroom plugin Export LUT (1.24.0)
# www.johnrellis.com/lightroom/exportlut.htm
# Preset: FCP - Kodak Portra 800 | 01
# Color profile: C:\Windows\System32\Spool\Drivers\Color\AdobeRGB1998.icc
LUT_3D_SIZE 32
DOMAIN_MIN 0.0 0.0 0.0
DOMAIN_MAX 1.0 1.0 1.0
0.086213 0.074281 0.000000
0.090852 0.074830 0.000000
0.097108 0.075715 0.000000
0.108248 0.076997 0.000000
0.124392 0.079377 0.000977
0.145388 0.084108 0.005859
0.173373 0.092439 0.007294
0.210422 0.101045 0.005707
0.258640 0.109529 0.000000
0.316106 0.117830 0.000000
0.379431 0.127138 0.000000
0.443519 0.138033 0.000000
0.505028 0.150423 0.000000
0.560113 0.162997 0.000000
0.607691 0.175174 0.000000
0.648920 0.186069 0.000000
0.685206 0.196078 0.000000
0.717067 0.204379 0.000000
0.745235 0.212711 0.000000
0.772030 0.221195 0.000000
0.796872 0.229526 0.000000
0.821805 0.238743 0.000000
0.847288 0.247868 0.000000
0.873533 0.258000 0.000000
0.900725 0.269505 0.000000
0.928862 0.283970 0.033326
0.957671 0.301915 0.110353
0.986450 0.324956 0.162570
1.000000 0.354253 0.216342
1.000000 0.391455 0.274968
1.000000 0.437415 0.340032
1.000000 0.491615 0.411200
0.086488 0.078889 0.000000
0.089906 0.078950 0.000000
0.095735 0.080568 0.000000
0.106996 0.082460 0.000000
0.122866 0.084810 0.003967
0.143648 0.090181 0.008637
0.171664 0.098024 0.009003
0.208682 0.106722 0.006195
0.256565 0.115480 0.000000
0.313939 0.124422 0.000000
0.377295 0.134340 0.000000
0.441291 0.145541 0.000000
0.502800 0.158083 0.000000
0.558251 0.170474 0.000000
0.605859 0.182406 0.000000
0.647425 0.192569 0.000000
0.683772 0.201633 0.000000
0.715724 0.209659 0.000000
0.744106 0.217105 0.000000
0.770687 0.225406 0.000000
0.795346 0.233341 0.000000
0.820157 0.242222 0.000000
0.845548 0.250858 0.000000
0.871733 0.260624 0.000000
0.898894 0.272129 0.000000
0.927062 0.286046 0.027222
0.955962 0.303624 0.108522
0.984894 0.326360 0.161044
1.000000 0.355322 0.214847
1.000000 0.392035 0.273381
1.000000 0.437507 0.338384
1.000000 0.491341 0.409461
0.086702 0.085512 0.000000
0.090852 0.085756 0.000000
0.095003 0.085603 0.000000
0.105348 0.087892 0.002167
0.120882 0.090761 0.008911
0.141787 0.096956 0.011017
0.169345 0.104677 0.012482
0.206210 0.113466 0.007385
0.254093 0.122713 0.000000
0.311528 0.132784 0.000000
0.374853 0.143648 0.000000
0.439124 0.155734 0.000000
0.500847 0.168246 0.000000
0.556542 0.180575 0.000000
0.604456 0.191348 0.000000
0.646174 0.201144 0.000000
0.682887 0.209049 0.000000
0.714870 0.216526 0.000000
0.743374 0.223392 0.000000
0.769833 0.231296 0.000000
0.794491 0.238651 0.000000
0.819211 0.247013 0.000000
0.844541 0.255558 0.000000
0.870726 0.264897 0.000000
0.897856 0.276066 0.000000
0.925994 0.289860 0.029480
0.954955 0.307103 0.109224
0.983917 0.329412 0.161501
1.000000 0.357855 0.215000
1.000000 0.394476 0.273625
1.000000 0.439216 0.338262
1.000000 0.492683 0.409369
0.088228 0.097230 0.003143
0.091554 0.097261 0.003876
0.095766 0.097169 0.003479
0.104250 0.097047 0.006867
0.117891 0.100282 0.014710
0.137850 0.107576 0.019623
0.165316 0.115846 0.016358
0.202274 0.125734 0.010498
0.249882 0.136782 0.000000
0.307378 0.148714 0.000000
0.370886 0.161593 0.000000
0.435676 0.174868 0.000000
0.497658 0.187900 0.000000
0.553918 0.199741 0.000000
0.602441 0.209445 0.000000
0.644648 0.216953 0.000000
0.681422 0.224186 0.000000
0.713588 0.230747 0.000000
0.742245 0.236942 0.000000
0.768490 0.243168 0.000000
0.792905 0.250095 0.000000
0.817472 0.257481 0.000000
0.842802 0.265843 0.000000
0.869108 0.274632 0.000000
0.896544 0.285283 0.000000
0.925017 0.298497 0.039124
0.954253 0.315343 0.112306
0.983307 0.337499 0.164797
1.000000 0.365484 0.218173
1.000000 0.401160 0.276524
1.000000 0.445167 0.340856
1.000000 0.497505 0.411322
0.090578 0.112032 0.016724
0.093568 0.111879 0.016449
0.097627 0.112001 0.015961
0.106020 0.111910 0.017151
0.116884 0.111727 0.020142
0.133486 0.116732 0.024109
0.159640 0.127352 0.021973
0.195621 0.140047 0.014679
0.243137 0.153841 0.000000
0.300816 0.169100 0.000000
0.364721 0.184482 0.000000
0.429908 0.199496 0.000000
0.493294 0.213077 0.000000
0.550652 0.223972 0.000000
0.599817 0.232883 0.000000
0.642451 0.239933 0.000000
0.679683 0.245762 0.000000
0.712184 0.251316 0.000000
0.741329 0.256107 0.000000
0.767422 0.261540 0.000000
0.791745 0.267033 0.000000
0.816220 0.273625 0.000000
0.841398 0.281498 0.000000
0.867735 0.289525 0.000000
0.895171 0.299290 0.000000
0.923735 0.311986 0.056275
0.952941 0.328222 0.118166
0.982086 0.349248 0.169497
1.000000 0.376532 0.222446
1.000000 0.411170 0.280461
1.000000 0.453925 0.344488
1.000000 0.504906 0.414405
0.091585 0.131228 0.026154
0.095155 0.131228 0.025788
0.099763 0.131258 0.025238
0.109407 0.131014 0.024201
0.121401 0.130831 0.024781
0.133974 0.130892 0.026032
0.153872 0.137697 0.027588
0.188846 0.152926 0.018738
0.235508 0.170718 0.003571
0.293858 0.190494 0.000000
0.358801 0.209201 0.000000
0.425574 0.226200 0.000000
0.489448 0.240909 0.000000
0.547539 0.252384 0.000000
0.597467 0.260594 0.000000
0.640497 0.267094 0.000000
0.678035 0.271977 0.000000
0.711177 0.276646 0.000000
0.740291 0.280400 0.000000
0.766445 0.284367 0.000000
0.790829 0.288426 0.000000
0.815488 0.293889 0.000000
0.850370 0.305852 0.000000
0.876921 0.314275 0.000000
0.904326 0.324010 0.000000
0.932525 0.336584 0.092714
0.961059 0.352941 0.143313
0.989227 0.374090 0.192538
1.000000 0.401404 0.245060
1.000000 0.435737 0.302586
1.000000 0.477699 0.365759
1.000000 0.526513 0.433509
0.091646 0.157961 0.028351
0.096468 0.157839 0.028992
0.102480 0.157717 0.028351
0.113649 0.157626 0.027008
0.127626 0.157809 0.025940
0.142489 0.157748 0.026734
0.158419 0.158145 0.026703
0.183597 0.166262 0.026673
0.230472 0.188174 0.007538
0.289555 0.212406 0.000000
0.356939 0.236851 0.000000
0.425116 0.257084 0.000000
0.489784 0.273350 0.000000
0.548058 0.285344 0.000000
0.597925 0.293431 0.000000
0.640772 0.298741 0.000000
0.678157 0.302708 0.000000
0.712154 0.306218 0.000000
0.741360 0.308873 0.000000
0.767758 0.311498 0.000000
0.792752 0.315160 0.000000
0.818387 0.320012 0.000000
0.844877 0.326543 0.000000
0.872313 0.334844 0.000000
0.900694 0.344305 0.011719
0.929503 0.356268 0.101595
0.958404 0.371923 0.151186
0.986725 0.392157 0.199802
1.000000 0.418158 0.251713
1.000000 0.451026 0.308782
1.000000 0.491157 0.371191
1.000000 0.537804 0.437964
0.090486 0.191653 0.025086
0.096376 0.191470 0.024598
0.103273 0.191440 0.023835
0.116304 0.191562 0.022034
0.132723 0.191623 0.021668
0.151156 0.192172 0.020142
0.170382 0.192477 0.020233
0.190951 0.193545 0.018860
0.221225 0.202365 0.017273
0.279545 0.230564 0.000000
0.346715 0.258579 0.000000
0.416236 0.283421 0.000000
0.483925 0.304540 0.000000
0.543267 0.317967 0.000000
0.593957 0.326238 0.000000
0.637415 0.331304 0.000000
0.676112 0.335088 0.000000
0.710018 0.337316 0.000000
0.739040 0.339025 0.000000
0.765499 0.340246 0.000000
0.790463 0.342443 0.000000
0.815976 0.346166 0.000000
0.842344 0.351720 0.000000
0.869657 0.359075 0.000000
0.897917 0.367987 0.052735
0.926726 0.379187 0.113771
0.955596 0.393866 0.161257
0.983978 0.413062 0.209110
1.000000 0.437903 0.260502
1.000000 0.469032 0.316899
1.000000 0.507439 0.378698
1.000000 0.551720 0.444190
0.084718 0.235966 0.010468
0.092348 0.235874 0.009796
0.101045 0.235843 0.008850
0.117128 0.235813 0.007874
0.137514 0.236210 0.005402
0.159823 0.236545 0.001953
0.183444 0.237278 0.000000
0.208194 0.238315 0.000000
0.234440 0.239658 0.000000
0.270359 0.249027 0.000000
0.335790 0.279698 0.000000
0.406226 0.307836 0.000000
0.474464 0.331579 0.000000
0.536889 0.349584 0.000000
0.589899 0.360937 0.000000
0.634668 0.366339 0.000000
0.673915 0.369390 0.000000
0.707729 0.370764 0.000000
0.736812 0.370916 0.000000
0.763302 0.371160 0.000000
0.788266 0.372320 0.000000
0.813809 0.374853 0.000000
0.840085 0.379400 0.000000
0.867308 0.385962 0.000000
0.895415 0.394446 0.078523
0.924163 0.404669 0.128969
0.953033 0.418708 0.174380
0.981353 0.436805 0.221164
1.000000 0.460273 0.271794
1.000000 0.489937 0.327459
1.000000 0.526268 0.388342
1.000000 0.567926 0.452094
0.072755 0.289220 0.000000
0.082399 0.289250 0.000000
0.094545 0.289158 0.000000
0.114778 0.289342 0.000000
0.140108 0.289494 0.000000
0.167575 0.289647 0.000000
0.196506 0.290013 0.000000
0.225528 0.291020 0.000000
0.255833 0.291936 0.000000
0.287144 0.293400 0.000000
0.326604 0.301274 0.000000
0.394324 0.330724 0.000000
0.463691 0.357580 0.000000
0.527489 0.377905 0.000000
0.583429 0.392004 0.000000
0.631189 0.401160 0.000000
0.671534 0.405219 0.000000
0.705623 0.405676 0.000000
0.734798 0.405035 0.000000
0.761318 0.404120 0.000000
0.786252 0.404150 0.000000
0.811490 0.405554 0.000000
0.837491 0.408789 0.000000
0.864347 0.414252 0.059907
0.892149 0.421912 0.102388
0.920745 0.431769 0.144778
0.949645 0.444923 0.188693
0.978149 0.462257 0.234775
1.000000 0.484718 0.284916
1.000000 0.512993 0.340032
1.000000 0.547662 0.400244
1.000000 0.586694 0.462348
0.033997 0.347051 0.000000
0.063539 0.347204 0.000000
0.081209 0.347112 0.000000
0.108797 0.346990 0.000000
0.140139 0.347021 0.000000
0.173068 0.347295 0.000000
0.206851 0.347326 0.000000
0.241093 0.347845 0.000000
0.275303 0.348638 0.000000
0.310277 0.349676 0.000000
0.345830 0.350927 0.000000
0.386175 0.356298 0.000000
0.452522 0.383001 0.000000
0.518822 0.406928 0.000000
0.575677 0.422370 0.000000
0.624201 0.431861 0.000000
0.665919 0.437598 0.000000
0.701869 0.440681 0.000000
0.731655 0.439704 0.000000
0.758328 0.437873 0.000000
0.783413 0.436774 0.000000
0.808713 0.437324 0.000000
0.834775 0.439918 0.057130
0.861631 0.444556 0.096040
0.889403 0.451545 0.128359
0.917906 0.460945 0.164309
0.946654 0.473274 0.206088
0.975036 0.489693 0.250919
1.000000 0.510857 0.300023
1.000000 0.537530 0.354040
1.000000 0.569970 0.412848
1.000000 0.606195 0.472724
0.000000 0.406806 0.000000
0.000000 0.406836 0.000000
0.054322 0.406806 0.000000
0.097444 0.406653 0.000000
0.137392 0.406744 0.000000
0.175906 0.406500 0.000000
0.214450 0.406500 0.000000
0.253086 0.406317 0.000000
0.291081 0.406622 0.000000
0.328985 0.407263 0.000000
0.367132 0.408026 0.000000
0.406256 0.409888 0.000000
0.457801 0.422766 0.000000
0.520043 0.444007 0.000000
0.577447 0.460273 0.000000
0.626062 0.469734 0.000000
0.667720 0.474769 0.000000
0.703365 0.476936 0.000000
0.733822 0.477302 0.000000
0.761105 0.477272 0.000000
0.786007 0.475105 0.046662
0.811185 0.474891 0.084138
0.836942 0.476478 0.111116
0.863554 0.480476 0.136843
0.891051 0.486641 0.163882
0.919219 0.495460 0.193729
0.947539 0.507256 0.233646
0.975341 0.522942 0.276829
1.000000 0.542901 0.324468
1.000000 0.567987 0.376898
1.000000 0.597803 0.432837
1.000000 0.630671 0.489509
0.000000 0.469184 0.000000
0.000000 0.469093 0.000000
0.000000 0.468879 0.000000
0.080659 0.468482 0.000000
0.131899 0.467720 0.000000
0.176333 0.467079 0.000000
0.219394 0.466407 0.000000
0.261662 0.465553 0.000000
0.303746 0.465003 0.000000
0.344762 0.466194 0.000000
0.386542 0.468208 0.000000
0.428382 0.470192 0.000000
0.470100 0.472389 0.000000
0.511406 0.474006 0.000000
0.565850 0.488106 0.000000
0.616052 0.499153 0.000000
0.658961 0.504875 0.000000
0.695583 0.506981 0.000000
0.726955 0.507042 0.000000
0.754971 0.506737 0.034699
0.781064 0.507134 0.092866
0.806912 0.508232 0.122072
0.832731 0.509148 0.143404
0.859342 0.512230 0.165713
0.886809 0.517815 0.189517
0.914885 0.525841 0.216190
0.943206 0.536980 0.253513
0.971008 0.551690 0.295537
0.997742 0.570520 0.341894
1.000000 0.594079 0.393072
1.000000 0.621454 0.446632
1.000000 0.651667 0.501091
0.000000 0.522271 0.000000
0.000000 0.522148 0.000000
0.000000 0.522026 0.000000
0.057069 0.521447 0.000000
0.124178 0.520562 0.000000
0.174136 0.519646 0.000000
0.220493 0.519036 0.000000
0.265599 0.518578 0.000000
0.309789 0.518120 0.000000
0.353002 0.517967 0.000000
0.395239 0.518669 0.000000
0.437140 0.519585 0.000000
0.478676 0.520378 0.000000
0.519585 0.520714 0.000000
0.559655 0.520806 0.000000
0.605341 0.527306 0.000000
0.649226 0.533837 0.000000
0.687037 0.536522 0.000000
0.719417 0.536492 0.000000
0.748257 0.535729 0.074006
0.774838 0.535515 0.111299
0.801297 0.537163 0.142367
0.828061 0.541070 0.172488
0.855070 0.544854 0.195987
0.882536 0.549889 0.217807
0.910704 0.557214 0.242405
0.939055 0.567590 0.275975
0.966857 0.581537 0.316686
0.993622 0.599298 0.361791
1.000000 0.621210 0.411109
1.000000 0.646235 0.462135
1.000000 0.673762 0.514153
0.000000 0.569635 0.000000
0.000000 0.569635 0.000000
0.000000 0.569360 0.000000
0.019654 0.568963 0.000000
0.118685 0.568231 0.000000
0.172091 0.567376 0.000000
0.220554 0.566400 0.000000
0.266667 0.565332 0.000000
0.311437 0.564233 0.000000
0.355688 0.563226 0.000000
0.398199 0.562921 0.000000
0.440040 0.563043 0.000000
0.481331 0.562951 0.000000
0.521904 0.562615 0.000000
0.561608 0.561913 0.000000
0.600031 0.560662 0.000000
0.639216 0.561975 0.000000
0.678126 0.565393 0.000000
0.711604 0.565576 0.062959
0.741238 0.564660 0.099001
0.768307 0.563775 0.130251
0.795041 0.564782 0.158663
0.822080 0.567926 0.187259
0.849668 0.573541 0.216159
0.877867 0.581750 0.246342
0.906218 0.588891 0.270207
0.934783 0.598779 0.300755
0.962890 0.612268 0.340612
0.989868 0.629358 0.384710
1.000000 0.649714 0.431830
1.000000 0.672694 0.480476
1.000000 0.697871 0.530297
0.000000 0.611475 0.000000
0.000000 0.611414 0.000000
0.000000 0.611231 0.000000
0.010529 0.610742 0.000000
0.116701 0.610071 0.000000
0.171633 0.609216 0.000000
0.220432 0.608118 0.000000
0.266850 0.606928 0.000000
0.311803 0.605646 0.000000
0.355566 0.604334 0.000000
0.398657 0.602716 0.000000
0.439826 0.601892 0.000000
0.480201 0.600946 0.000000
0.520073 0.599634 0.000000
0.558862 0.598260 0.000000
0.596796 0.596460 0.000000
0.633631 0.594537 0.000000
0.669062 0.593347 0.053437
0.703243 0.593774 0.094759
0.733974 0.593133 0.122072
0.761807 0.592096 0.149905
0.789029 0.592645 0.177188
0.816495 0.595300 0.204471
0.844450 0.600427 0.232303
0.873014 0.608118 0.262058
0.902068 0.618372 0.293675
0.931029 0.630671 0.328344
0.959106 0.643488 0.366613
0.986114 0.659419 0.408698
1.000000 0.677852 0.452705
1.000000 0.698390 0.498177
1.000000 0.720974 0.545159
0.000000 0.646632 0.000000
0.000000 0.646571 0.000000
0.000000 0.646326 0.000000
0.039399 0.645869 0.000000
0.122469 0.645045 0.000000
0.174105 0.644190 0.000000
0.221378 0.643061 0.000000
0.266789 0.641688 0.000000
0.310582 0.640314 0.000000
0.353704 0.638666 0.000000
0.395911 0.637049 0.000000
0.437018 0.635523 0.000000
0.476967 0.634272 0.000000
0.515923 0.632746 0.000000
0.554101 0.631006 0.000000
0.591302 0.628931 0.000000
0.627588 0.626734 0.000000
0.662928 0.624445 0.022339
0.695521 0.621820 0.109346
0.726009 0.620447 0.144717
0.754482 0.619348 0.169406
0.782101 0.619379 0.194614
0.809873 0.621637 0.220768
0.838163 0.626368 0.248447
0.867094 0.633478 0.277287
0.896513 0.643153 0.308080
0.926024 0.655604 0.342687
0.954467 0.671992 0.389197
0.981689 0.688075 0.431464
1.000000 0.704799 0.472663
1.000000 0.723476 0.515557
1.000000 0.743923 0.560327
0.000000 0.677516 0.033906
0.000000 0.677485 0.034699
0.000000 0.682643 0.061372
0.091066 0.682216 0.061097
0.141939 0.681331 0.059083
0.187015 0.680232 0.056092
0.230686 0.678920 0.053742
0.273075 0.677363 0.049134
0.315038 0.675685 0.043610
0.356298 0.673915 0.040284
0.397040 0.671931 0.034852
0.437171 0.669764 0.026490
0.476234 0.667750 0.041260
0.514244 0.665858 0.061952
0.551354 0.663783 0.074372
0.587732 0.661372 0.085298
0.623255 0.658930 0.095918
0.657740 0.656336 0.106020
0.691371 0.653803 0.116609
0.721767 0.650446 0.157778
0.748928 0.647730 0.194156
0.776883 0.647547 0.217899
0.804959 0.649348 0.242191
0.833463 0.653529 0.268376
0.862394 0.659968 0.295720
0.891875 0.668940 0.325353
0.921416 0.680232 0.357580
0.950072 0.695430 0.402197
0.977478 0.712734 0.447852
1.000000 0.731106 0.492592
1.000000 0.747890 0.532860
1.000000 0.766323 0.575219
0.007630 0.705592 0.109682
0.060609 0.706142 0.110689
0.087709 0.706569 0.111849
0.122683 0.706661 0.113039
0.161288 0.706386 0.113375
0.200534 0.705623 0.113008
0.239506 0.704463 0.112612
0.278599 0.703029 0.111086
0.317662 0.701564 0.110780
0.356695 0.699794 0.109957
0.395483 0.697902 0.109316
0.433936 0.695827 0.108064
0.472084 0.693507 0.107149
0.508721 0.691554 0.114076
0.544854 0.689448 0.121614
0.580224 0.687098 0.129702
0.614832 0.684718 0.137514
0.648524 0.682277 0.145846
0.681575 0.679866 0.155337
0.713771 0.677546 0.164492
0.743008 0.674495 0.197024
0.769192 0.672541 0.237186
0.797757 0.674281 0.260655
0.826688 0.678187 0.285771
0.856107 0.684413 0.312413
0.886046 0.693111 0.341497
0.916106 0.704067 0.372747
0.945342 0.718318 0.415259
0.973358 0.734646 0.459541
0.999359 0.752224 0.503807
1.000000 0.770748 0.548211
1.000000 0.788296 0.589960
0.111452 0.729000 0.152712
0.122774 0.729397 0.154208
0.135714 0.729824 0.155276
0.158267 0.729885 0.156130
0.187625 0.729610 0.156680
0.219821 0.728908 0.156741
0.253605 0.727871 0.156405
0.288518 0.726558 0.155734
0.324163 0.725154 0.155367
0.360479 0.723537 0.154910
0.396887 0.721798 0.155032
0.433234 0.719936 0.155062
0.469490 0.717708 0.154360
0.505089 0.715541 0.156405
0.540002 0.713497 0.162936
0.574151 0.711330 0.169253
0.607691 0.709041 0.176028
0.640528 0.706722 0.183322
0.672755 0.704524 0.191745
0.704433 0.702388 0.200107
0.735286 0.700435 0.209415
0.764309 0.698665 0.236820
0.790494 0.698238 0.279820
0.819852 0.702113 0.304173
0.849668 0.708278 0.330266
0.880064 0.716640 0.358007
0.910582 0.727199 0.388373
0.940398 0.740658 0.428260
0.968963 0.756008 0.471077
0.995544 0.772519 0.514061
1.000000 0.789822 0.557488
1.000000 0.807462 0.600641
0.162997 0.750790 0.193637
0.170169 0.751156 0.195071
0.179477 0.751492 0.195712
0.195682 0.751614 0.196475
0.218326 0.751308 0.197024
0.244266 0.750729 0.197299
0.272831 0.749752 0.196994
0.303288 0.748623 0.196628
0.335454 0.747341 0.196628
0.368353 0.745907 0.196445
0.401953 0.744350 0.196719
0.435950 0.742641 0.196628
0.469978 0.740688 0.196597
0.503929 0.738582 0.196750
0.537560 0.736721 0.200473
0.570764 0.734920 0.206455
0.603449 0.733150 0.213565
0.635676 0.731472 0.221256
0.667414 0.729824 0.228763
0.698634 0.728328 0.237736
0.729274 0.727047 0.247166
0.759335 0.725856 0.256901
0.788449 0.725490 0.280522
0.815000 0.727230 0.327520
0.845548 0.733669 0.352941
0.876555 0.742336 0.380468
0.907713 0.752834 0.409583
0.938079 0.765743 0.447181
0.967102 0.780331 0.488319
0.993957 0.795712 0.529747
1.000000 0.811643 0.571679
1.000000 0.827512 0.612970
0.214054 0.774746 0.237339
0.218936 0.774868 0.237705
0.224582 0.774929 0.238224
0.236301 0.774807 0.238407
0.253391 0.774411 0.238346
0.274418 0.773739 0.238193
0.298344 0.772915 0.238285
0.324651 0.771969 0.238346
0.352911 0.770901 0.238346
0.382666 0.769772 0.238712
0.413397 0.768551 0.239322
0.444862 0.767117 0.239689
0.476631 0.765530 0.240085
0.508507 0.763760 0.240421
0.540459 0.761807 0.240696
0.572198 0.760281 0.246403
0.603693 0.758694 0.252476
0.634791 0.757229 0.259556
0.665522 0.755856 0.267094
0.695796 0.754543 0.274998
0.725612 0.753353 0.283574
0.754879 0.752346 0.292393
0.783566 0.751461 0.302129
0.812070 0.751888 0.321508
0.838773 0.755306 0.371618
0.870237 0.764004 0.397742
0.902007 0.774472 0.425299
0.933074 0.787015 0.460822
0.962737 0.801022 0.500511
0.990204 0.815610 0.540734
1.000000 0.830472 0.581384
1.000000 0.844846 0.621027
0.258030 0.797452 0.276616
0.261631 0.797635 0.277073
0.266392 0.797726 0.277440
0.275822 0.797604 0.277806
0.289494 0.797269 0.278019
0.306340 0.796689 0.278141
0.326421 0.795987 0.277867
0.348821 0.795102 0.277684
0.373754 0.794186 0.278172
0.400244 0.793179 0.278447
0.428016 0.792142 0.278874
0.456733 0.790982 0.279515
0.486030 0.789639 0.279881
0.515862 0.788174 0.280858
0.545953 0.786618 0.281285
0.576226 0.785092 0.283757
0.606470 0.783932 0.289830
0.636530 0.782803 0.296361
0.666346 0.781796 0.303655
0.695827 0.780941 0.311650
0.725002 0.780148 0.319921
0.753750 0.779538 0.328801
0.781918 0.779171 0.338170
0.809659 0.778897 0.347906
0.836149 0.778561 0.360937
0.863767 0.784115 0.411078
0.895598 0.794461 0.439857
0.927398 0.806821 0.473487
0.957763 0.820462 0.511803
0.985931 0.834501 0.550927
1.000000 0.848600 0.590478
1.000000 0.861692 0.628626
0.305638 0.823026 0.319829
0.308751 0.823239 0.320592
0.312352 0.823301 0.320806
0.319585 0.823148 0.321080
0.330388 0.822782 0.320989
0.344060 0.822202 0.320897
0.360693 0.821439 0.320897
0.379492 0.820554 0.320348
0.400732 0.819547 0.320317
0.423651 0.818601 0.320165
0.448280 0.817472 0.320317
0.473976 0.816342 0.320806
0.500694 0.815122 0.321355
0.527947 0.813779 0.321508
0.555779 0.812284 0.322148
0.583948 0.810727 0.322850
0.612390 0.809415 0.326085
0.640986 0.808438 0.332311
0.669703 0.807675 0.339422
0.698299 0.807156 0.346929
0.726680 0.806821 0.355230
0.754696 0.806607 0.363806
0.782315 0.806485 0.372808
0.809354 0.806394 0.382055
0.835752 0.806363 0.391028
0.862669 0.807553 0.402594
0.891173 0.814939 0.450477
0.922393 0.826688 0.487556
0.953307 0.839963 0.524376
0.982116 0.853544 0.562219
1.000000 0.866575 0.599817
1.000000 0.878599 0.636683
0.348882 0.847654 0.359991
0.351263 0.847898 0.360388
0.354498 0.847990 0.360754
0.360540 0.847898 0.361242
0.369329 0.847593 0.361089
0.380804 0.847105 0.360876
0.394903 0.846525 0.360937
0.411292 0.845792 0.360967
0.429786 0.845090 0.361181
0.450233 0.844327 0.361395
0.472175 0.843534 0.361913
0.495552 0.842710 0.362585
0.520012 0.841855 0.363470
0.545129 0.840909 0.364080
0.570977 0.839811 0.365026
0.597314 0.838651 0.366125
0.624048 0.837491 0.367071
0.651240 0.836790 0.372595
0.678706 0.836332 0.379431
0.706172 0.836088 0.386755
0.733547 0.835966 0.394263
0.760708 0.836057 0.402564
0.787533 0.836210 0.410712
0.813901 0.836454 0.419043
0.839841 0.836759 0.427619
0.865324 0.837156 0.436286
0.890440 0.837736 0.445167
0.919890 0.847471 0.496254
0.949920 0.859922 0.538811
0.979309 0.873167 0.575341
1.000000 0.885161 0.610803
1.000000 0.896208 0.646448
0.393591 0.874235 0.401801
0.395605 0.874388 0.402045
0.398047 0.874388 0.402380
0.402838 0.874235 0.402289
0.410071 0.873899 0.402167
0.419654 0.873442 0.402197
0.431495 0.872892 0.401984
0.445563 0.872251 0.402014
0.461707 0.871641 0.402167
0.479652 0.871061 0.402533
0.499306 0.870481 0.403143
0.520287 0.869932 0.404089
0.542535 0.869352 0.405127
0.565667 0.868650 0.406043
0.589441 0.867887 0.407233
0.613825 0.867002 0.408087
0.638727 0.866148 0.409522
0.664210 0.865446 0.411933
0.690242 0.865202 0.418189
0.716426 0.865141 0.424659
0.742641 0.865263 0.431617
0.768795 0.865507 0.439338
0.794705 0.865873 0.446845
0.820340 0.866300 0.454902
0.845579 0.866819 0.462745
0.870481 0.867399 0.470954
0.895048 0.868193 0.481361
0.919127 0.869322 0.494484
0.947601 0.879240 0.543664
0.975463 0.890929 0.586236
1.000000 0.902403 0.620203
1.000000 0.912749 0.654994
0.435676 0.901091 0.441474
0.437354 0.901183 0.441657
0.439429 0.901183 0.441840
0.443549 0.901122 0.441993
0.449928 0.900908 0.442084
0.458473 0.900755 0.442359
0.469337 0.900603 0.443000
0.482246 0.900542 0.443824
0.497108 0.900511 0.444953
0.513695 0.900542 0.446204
0.531853 0.900542 0.447730
0.551324 0.900603 0.449439
0.571862 0.900542 0.451087
0.593164 0.900359 0.452766
0.615229 0.900023 0.454353
0.637781 0.899504 0.455787
0.660975 0.898955 0.457191
0.684718 0.898528 0.459144
0.709102 0.898283 0.463416
0.733791 0.898344 0.469337
0.758602 0.898558 0.475837
0.783444 0.898894 0.482551
0.808164 0.899290 0.489693
0.832670 0.899748 0.496773
0.857023 0.900298 0.504906
0.881071 0.901061 0.516442
0.904692 0.901976 0.528252
0.927977 0.903075 0.540215
0.950591 0.904204 0.552087
0.976532 0.912383 0.593561
1.000000 0.921904 0.633936
1.000000 0.931243 0.668391
0.481788 0.931029 0.485176
0.483162 0.931090 0.485512
0.484840 0.931029 0.485603
0.488167 0.930907 0.485542
0.493507 0.930663 0.485481
0.500694 0.930388 0.485634
0.509758 0.930144 0.485817
0.520653 0.929931 0.486397
0.533349 0.929747 0.487129
0.547723 0.929564 0.487984
0.563470 0.929381 0.488930
0.580621 0.929229 0.490333
0.598901 0.929046 0.491646
0.618128 0.928801 0.493111
