kodak/Portra 400.cube
# Created by Adobe Lightroom plugin Export LUT (1.24.0)
# www.johnrellis.com/lightroom/exportlut.htm
# Preset: 柯达Portra400-01子沐调色
# Color profile: C:\Windows\System32\Spool\Drivers\Color\AdobeRGB1998.icc
LUT_3D_SIZE 32
DOMAIN_MIN 0.0 0.0 0.0
DOMAIN_MAX 1.0 1.0 1.0
0.091096 0.119844 0.089967
0.091096 0.119844 0.089967
0.091096 0.119844 0.089967
0.096834 0.120211 0.089784
0.114992 0.121431 0.089052
0.141665 0.123629 0.087678
0.179507 0.126925 0.085206
0.232395 0.133028 0.080232
0.296269 0.141909 0.071931
0.361456 0.153719 0.059663
0.425025 0.167666 0.024445
0.484962 0.182650 0.000000
0.540764 0.198550 0.000000
0.592248 0.213626 0.000000
0.638758 0.228641 0.000000
0.680659 0.242649 0.000000
0.718441 0.255863 0.000000
0.753964 0.269078 0.000000
0.784756 0.281743 0.000000
0.809476 0.293065 0.000000
0.829313 0.303960 0.000000
0.845335 0.314916 0.000000
0.858213 0.326390 0.066926
0.868711 0.338811 0.111971
0.877592 0.352361 0.148470
0.885557 0.367559 0.182925
0.893462 0.384649 0.216556
0.902342 0.403784 0.249882
0.913359 0.425422 0.283787
0.927764 0.450202 0.318761
0.946838 0.478523 0.355474
0.971435 0.510704 0.394232
0.091096 0.119844 0.089967
0.091096 0.119844 0.089967
0.091096 0.119844 0.089967
0.096437 0.120668 0.089723
0.114076 0.122621 0.088960
0.140291 0.125307 0.087526
0.177523 0.129183 0.085023
0.229587 0.135775 0.080049
0.293126 0.145510 0.072053
0.358709 0.158053 0.059602
0.422065 0.172061 0.025544
0.482124 0.187137 0.000000
0.538140 0.202609 0.000000
0.589715 0.217746 0.000000
0.636408 0.232273 0.000000
0.678523 0.246006 0.000000
0.716304 0.259159 0.000000
0.751980 0.272099 0.000000
0.782742 0.284306 0.000000
0.807614 0.295537 0.000000
0.827726 0.306096 0.000000
0.843992 0.316716 0.000000
0.857115 0.327916 0.065522
0.867826 0.340063 0.110811
0.876799 0.353460 0.147463
0.884855 0.368414 0.181949
0.892790 0.385138 0.215335
0.901610 0.404211 0.249119
0.912535 0.425635 0.282811
0.926818 0.450263 0.317876
0.945708 0.478370 0.354528
0.970153 0.510369 0.393164
0.091096 0.119844 0.089967
0.091096 0.119844 0.089967
0.091096 0.119844 0.089967
0.096284 0.121523 0.089631
0.112551 0.124086 0.088838
0.138613 0.127626 0.087312
0.174960 0.132113 0.084810
0.226261 0.139651 0.080079
0.289494 0.150332 0.072358
0.355291 0.163394 0.059846
0.418921 0.178134 0.025422
0.479255 0.193210 0.000000
0.535607 0.208377 0.000000
0.587427 0.223239 0.000000
0.634272 0.237583 0.000000
0.676600 0.250858 0.000000
0.714595 0.263676 0.000000
0.750393 0.276432 0.000000
0.781277 0.288151 0.000000
0.806302 0.299107 0.000000
0.826596 0.309483 0.000000
0.843076 0.319799 0.000000
0.856321 0.330907 0.067445
0.867155 0.342687 0.111879
0.876188 0.355840 0.148440
0.884306 0.370397 0.182589
0.892241 0.387091 0.216159
0.901061 0.405859 0.249577
0.911955 0.427131 0.283421
0.926146 0.451575 0.318456
0.944945 0.479438 0.354925
0.969299 0.511284 0.393530
0.090333 0.122621 0.090761
0.090364 0.122835 0.090455
0.090517 0.122835 0.089631
0.096986 0.124544 0.089265
0.114199 0.128450 0.088228
0.135012 0.131746 0.086946
0.170138 0.137942 0.084840
0.220584 0.147219 0.080598
0.283482 0.160037 0.072633
0.349584 0.174807 0.060090
0.413550 0.190097 0.026307
0.474525 0.205570 0.000000
0.531060 0.220737 0.000000
0.583185 0.235447 0.000000
0.630610 0.248905 0.000000
0.673243 0.261662 0.000000
0.711666 0.273625 0.000000
0.747829 0.285954 0.000000
0.778622 0.297124 0.000000
0.803922 0.307256 0.000000
0.824491 0.316930 0.000000
0.841215 0.326818 0.000000
0.854826 0.337346 0.073701
0.865904 0.348852 0.116182
0.875242 0.361547 0.152071
0.883482 0.375952 0.186221
0.891539 0.392279 0.219791
0.900359 0.410864 0.253361
0.911254 0.431891 0.287022
0.925414 0.455818 0.321599
0.944121 0.483284 0.357794
0.968292 0.514611 0.395972
0.087678 0.131563 0.093538
0.087739 0.132143 0.092653
0.088411 0.131899 0.091310
0.091493 0.132021 0.089296
0.111269 0.136568 0.087221
0.140719 0.141878 0.085267
0.168399 0.146914 0.084779
0.211398 0.156832 0.082185
0.273869 0.172549 0.073976
0.340429 0.189700 0.061402
0.405097 0.206516 0.028870
0.466682 0.222751 0.000000
0.524071 0.237980 0.000000
0.576959 0.252079 0.000000
0.625086 0.265232 0.000000
0.668482 0.277409 0.000000
0.707973 0.288853 0.000000
0.744625 0.300237 0.000000
0.775845 0.310552 0.000000
0.801450 0.320043 0.000000
0.822324 0.328985 0.000000
0.839353 0.338201 0.002258
0.853178 0.347967 0.084596
0.864469 0.358801 0.124147
0.873930 0.370916 0.159091
0.882261 0.384680 0.192599
0.890318 0.400397 0.225711
0.899199 0.418097 0.258427
0.910002 0.438514 0.291630
0.924071 0.462043 0.326146
0.942687 0.488960 0.361913
0.966827 0.519890 0.399847
0.083558 0.145388 0.098238
0.085328 0.145907 0.097902
0.087037 0.145785 0.096620
0.088716 0.145205 0.093050
0.099367 0.147066 0.089754
0.132876 0.154543 0.085359
0.179721 0.165103 0.080568
0.218723 0.174655 0.078737
0.265812 0.187564 0.075624
0.329870 0.206638 0.064424
0.395392 0.225956 0.036500
0.457954 0.243198 0.000000
0.516106 0.258762 0.000000
0.569970 0.272740 0.000000
0.618860 0.285527 0.000000
0.663111 0.296971 0.000000
0.703944 0.308080 0.000000
0.740780 0.318547 0.000000
0.772457 0.328038 0.000000
0.798703 0.336767 0.000000
0.820035 0.344976 0.000000
0.837461 0.353277 0.052491
0.856474 0.368566 0.120119
0.866911 0.379065 0.154238
0.875700 0.390723 0.186404
0.883665 0.404059 0.217685
0.891661 0.419135 0.248569
0.900694 0.436469 0.279911
0.911955 0.456397 0.311864
0.926726 0.479438 0.345006
0.946075 0.505943 0.379797
0.970764 0.536156 0.416510
0.077943 0.165652 0.106752
0.080629 0.166171 0.106386
0.083711 0.166567 0.105592
0.086305 0.165591 0.100771
0.090089 0.163973 0.093874
0.116182 0.170474 0.089845
0.167269 0.184665 0.081697
0.238926 0.206821 0.068391
0.286381 0.219730 0.063600
0.336492 0.233921 0.058930
0.388525 0.248905 0.048859
0.452094 0.267765 0.004059
0.511162 0.283970 0.000000
0.565637 0.298100 0.000000
0.615015 0.310369 0.000000
0.659998 0.321355 0.000000
0.702052 0.332219 0.000000
0.739162 0.341772 0.000000
0.771237 0.350347 0.000000
0.798032 0.358312 0.000000
0.819883 0.366155 0.024872
0.837705 0.374212 0.090120
0.852018 0.383215 0.127687
0.863554 0.393194 0.162203
0.873014 0.404517 0.194888
0.881346 0.417090 0.226047
0.889433 0.431403 0.256962
0.898497 0.447883 0.287816
0.909667 0.466865 0.319127
0.924224 0.489143 0.351995
0.943389 0.514763 0.386145
0.967956 0.544335 0.422522
0.067384 0.194003 0.119234
0.070527 0.194705 0.118715
0.075593 0.195529 0.117891
0.080873 0.194369 0.112886
0.086458 0.191806 0.104372
0.095735 0.188479 0.096529
0.143557 0.205417 0.088441
0.213107 0.228336 0.073182
0.304784 0.259495 0.026947
0.352758 0.270695 0.015442
0.400641 0.282231 0.007477
0.447120 0.293523 0.004486
0.499184 0.307500 0.000000
0.554681 0.322271 0.000000
0.605280 0.334905 0.000000
0.652735 0.346532 0.000000
0.694850 0.356420 0.000000
0.732265 0.365362 0.000000
0.765011 0.373266 0.000000
0.792813 0.380468 0.000000
0.815427 0.387457 0.073396
0.833829 0.394659 0.110628
0.848631 0.402533 0.144045
0.860533 0.411353 0.176181
0.870298 0.421363 0.206973
0.878752 0.432898 0.237308
0.886931 0.445960 0.267063
0.895933 0.461280 0.297154
0.907012 0.479438 0.328222
0.921447 0.500633 0.360357
0.940429 0.525658 0.394324
0.964935 0.554467 0.430213
0.025055 0.234684 0.137179
0.036500 0.235477 0.136324
0.052491 0.236393 0.135439
0.067140 0.236088 0.130892
0.076081 0.232883 0.119997
0.085542 0.228458 0.106447
0.114046 0.230259 0.096986
0.182071 0.254520 0.083406
0.266636 0.282475 0.055421
0.371069 0.316838 0.000000
0.417456 0.324437 0.000000
0.461799 0.332219 0.000000
0.504540 0.340368 0.000000
0.545098 0.348363 0.000000
0.596216 0.361639 0.000000
0.644007 0.373205 0.000000
0.686610 0.382666 0.000000
0.724666 0.390997 0.000000
0.758267 0.398383 0.010651
0.787106 0.405158 0.068574
0.810575 0.411353 0.101198
0.829679 0.417487 0.132143
0.844968 0.424323 0.162417
0.857237 0.432013 0.192355
0.867247 0.440864 0.221958
0.875914 0.450935 0.250828
0.884154 0.462867 0.279606
0.893156 0.477028 0.308965
0.904143 0.494026 0.339208
0.918425 0.514305 0.370916
0.937316 0.538354 0.404273
0.961761 0.566339 0.439612
0.000000 0.283543 0.158846
0.000000 0.284092 0.158022
0.000000 0.284916 0.156710
0.009705 0.285863 0.152926
0.044617 0.282139 0.140902
0.067994 0.277165 0.124758
0.083497 0.271031 0.104677
0.143832 0.281956 0.094392
0.226963 0.309087 0.074006
0.319463 0.337560 0.004608
0.427955 0.371954 0.000000
0.477363 0.377020 0.000000
0.518700 0.381506 0.000000
0.558984 0.387213 0.000000
0.596521 0.393164 0.000000
0.633875 0.400305 0.016754
0.677546 0.410071 0.028229
0.716640 0.418189 0.059144
0.751186 0.425483 0.079744
0.781094 0.431708 0.103029
0.805386 0.437140 0.128176
0.824949 0.442329 0.155032
0.840696 0.447761 0.182040
0.853330 0.454017 0.209476
0.863645 0.461341 0.236973
0.872496 0.470161 0.264714
0.880919 0.480873 0.292699
0.889921 0.493935 0.321477
0.900877 0.510033 0.351507
0.915160 0.529442 0.382849
0.934081 0.552789 0.415961
0.958679 0.580255 0.451087
0.000000 0.333318 0.181613
0.000000 0.333837 0.180667
0.000000 0.334539 0.179141
0.000000 0.335729 0.175967
0.000000 0.332860 0.164797
0.010742 0.328008 0.148104
0.061799 0.322087 0.126986
0.090913 0.314611 0.104952
0.181735 0.335515 0.090974
0.273350 0.363134 0.061707
0.370306 0.391363 0.000000
0.482856 0.427039 0.000000
0.535454 0.430091 0.000000
0.573266 0.430915 0.000000
0.608606 0.432685 0.000000
0.641444 0.435309 0.000000
0.671748 0.439002 0.070680
0.706142 0.445472 0.098482
0.741970 0.452613 0.113283
0.773312 0.458717 0.131777
0.798825 0.463691 0.153841
0.819455 0.467964 0.177554
0.835935 0.472633 0.202731
0.849149 0.477699 0.228428
0.859861 0.483833 0.254490
0.868986 0.491279 0.280858
0.877440 0.500633 0.307866
0.886473 0.512444 0.335821
0.897337 0.527276 0.365118
0.911498 0.545678 0.395789
0.930327 0.568017 0.428290
0.954894 0.594751 0.463020
0.000000 0.382238 0.204410
0.000000 0.382696 0.203586
0.000000 0.383093 0.202090
0.000000 0.383948 0.199130
0.000000 0.382544 0.190555
0.000000 0.377813 0.174533
0.000000 0.372076 0.153719
0.064027 0.365057 0.127443
0.122255 0.361120 0.109895
0.223453 0.388006 0.089631
0.320012 0.416632 0.043763
0.420478 0.445380 0.000000
0.544945 0.490303 0.000000
0.599969 0.489876 0.000000
0.633082 0.486091 0.000000
0.663416 0.483711 0.000000
0.691524 0.483070 0.047700
0.717403 0.484291 0.111116
0.741207 0.487160 0.152316
0.771542 0.492409 0.170413
0.796841 0.496132 0.189456
0.817136 0.499306 0.210727
0.833433 0.502220 0.232914
0.846464 0.505974 0.256229
0.857115 0.510643 0.280430
0.866209 0.516869 0.305394
0.874723 0.524987 0.331121
0.883848 0.535637 0.357794
0.894865 0.549340 0.385809
0.909209 0.566674 0.415503
0.928283 0.588098 0.447059
0.953246 0.613855 0.480598
0.000000 0.432410 0.228916
0.000000 0.432624 0.228092
0.000000 0.432746 0.226658
0.000000 0.433051 0.223941
0.000000 0.432410 0.218357
0.000000 0.427436 0.203128
0.000000 0.421485 0.183810
0.024628 0.414954 0.159640
0.078981 0.407782 0.129274
0.167300 0.414343 0.117098
0.269505 0.442664 0.094728
0.368963 0.471809 0.040467
0.471290 0.500359 0.000000
0.581903 0.531334 0.000000
0.643519 0.533104 0.000000
0.673091 0.526482 0.000000
0.699977 0.521630 0.000000
0.724575 0.518975 0.088746
0.747066 0.518273 0.140047
0.767849 0.519646 0.180545
0.787991 0.522606 0.212680
0.809751 0.525139 0.231785
0.827085 0.527428 0.252598
0.840940 0.530083 0.274693
0.852171 0.533684 0.297734
0.861662 0.538598 0.321630
0.870390 0.545556 0.346563
0.879515 0.554986 0.372747
0.890440 0.567529 0.400275
0.904662 0.583917 0.429572
0.923674 0.604395 0.460517
0.948669 0.629511 0.493812
0.000000 0.475990 0.250950
0.000000 0.476173 0.250126
0.000000 0.476234 0.249180
0.000000 0.476661 0.247379
0.000000 0.476905 0.245121
0.000000 0.473091 0.232273
0.000000 0.467750 0.214786
0.006226 0.461524 0.193393
0.075654 0.454108 0.167117
0.110658 0.445716 0.139040
0.213840 0.462135 0.129732
0.313359 0.490059 0.107454
0.411383 0.517784 0.067079
0.511650 0.544274 0.000000
0.615412 0.569574 0.000000
0.682765 0.573022 0.000000
0.708553 0.563561 0.000000
0.731868 0.556542 0.032990
0.753170 0.551873 0.123110
0.772396 0.549554 0.170169
0.789364 0.549065 0.210269
0.804166 0.550469 0.246921
0.820249 0.552636 0.272709
0.835050 0.554498 0.293584
0.846952 0.557092 0.315801
0.856870 0.560998 0.339147
0.865812 0.566735 0.363439
0.875029 0.575097 0.389014
0.885893 0.586603 0.416175
0.900053 0.602014 0.444984
0.919036 0.621698 0.475624
0.944213 0.646143 0.508446
0.000000 0.519524 0.274266
0.000000 0.519615 0.273747
0.000000 0.519463 0.272984
0.000000 0.519402 0.271702
0.000000 0.518944 0.270207
0.000000 0.516014 0.262119
0.000000 0.510704 0.246372
0.030762 0.504448 0.227115
0.083894 0.497292 0.204288
0.110964 0.489326 0.176822
0.153841 0.479622 0.160616
0.259831 0.506371 0.147250
0.355627 0.533257 0.127291
0.450965 0.559411 0.094453
0.547967 0.583581 0.000000
0.646204 0.604944 0.000000
0.717342 0.609064 0.000000
0.739437 0.597223 0.000000
0.759396 0.588128 0.096407
0.777157 0.581598 0.156374
0.792905 0.577447 0.201236
0.806699 0.575586 0.240360
0.818601 0.575921 0.276890
0.828641 0.578515 0.312383
0.841276 0.580285 0.334112
0.851743 0.583337 0.356817
0.861021 0.588220 0.380865
0.870390 0.595789 0.406653
0.881376 0.606592 0.433722
0.895659 0.621393 0.462531
0.914977 0.640681 0.493141
0.940795 0.664851 0.525780
0.000000 0.558862 0.296971
0.000000 0.558923 0.296757
0.000000 0.558801 0.296300
0.000000 0.558495 0.295720
0.000000 0.557794 0.295293
0.000000 0.556023 0.292149
0.018952 0.551141 0.278233
0.077302 0.545495 0.261234
0.104585 0.538781 0.241032
0.126406 0.531029 0.217441
0.145449 0.522271 0.189609
0.208255 0.521874 0.180606
0.304021 0.547356 0.168429
0.395666 0.572412 0.151125
0.487190 0.596033 0.124788
0.579736 0.617731 0.079103
0.673426 0.637049 0.000000
0.746456 0.640620 0.000000
0.765194 0.626764 0.051881
0.781979 0.615900 0.137911
0.796689 0.608087 0.190494
0.809659 0.602838 0.233555
0.820798 0.600061 0.272404
0.830350 0.599786 0.308934
0.838376 0.602136 0.344854
0.846525 0.606043 0.376074
0.856138 0.610040 0.399878
0.865660 0.616724 0.425086
0.876677 0.626642 0.452033
0.891020 0.640497 0.480232
0.910399 0.658991 0.510216
0.936400 0.682429 0.542138
0.000000 0.593988 0.318853
0.000000 0.593896 0.318761
0.000000 0.593622 0.318639
0.000000 0.593164 0.318517
0.000000 0.592309 0.318761
0.059083 0.591058 0.319951
0.089357 0.586755 0.308232
0.110597 0.581353 0.292882
0.128969 0.575097 0.275059
0.146304 0.567895 0.254307
0.162173 0.559808 0.230564
0.178927 0.550500 0.204959
0.256321 0.559564 0.201633
0.345586 0.583795 0.191379
0.432929 0.607141 0.176669
0.520226 0.628840 0.155795
0.608576 0.648615 0.124453
0.697475 0.665797 0.065461
0.770047 0.667506 0.000000
0.785977 0.652094 0.116304
0.799924 0.640070 0.175540
0.812070 0.631067 0.223331
0.822599 0.625025 0.264958
0.831632 0.621881 0.303410
0.839353 0.621424 0.340337
0.845945 0.624048 0.377020
0.851865 0.629847 0.413794
0.860502 0.636591 0.442573
0.871580 0.645624 0.469093
0.885924 0.658839 0.497322
0.905486 0.676661 0.526970
0.931884 0.699763 0.558556
0.000000 0.626429 0.340734
0.000000 0.626398 0.340887
0.000000 0.632959 0.346075
0.000000 0.632288 0.346441
0.000000 0.631159 0.347295
0.102815 0.629480 0.349065
0.139467 0.625971 0.342565
0.151217 0.620752 0.328618
0.163760 0.614801 0.312444
0.176699 0.607935 0.294041
0.188693 0.600305 0.272892
0.199832 0.591577 0.249210
0.223636 0.580896 0.232914
0.305241 0.599176 0.227817
0.388830 0.621729 0.219364
0.471504 0.643183 0.207309
0.554986 0.663050 0.191104
0.638544 0.680385 0.168399
0.721126 0.693904 0.135866
0.788388 0.693538 0.108248
0.804227 0.675563 0.166232
0.815488 0.662531 0.215976
0.825254 0.652827 0.259678
0.833616 0.646387 0.299901
0.840818 0.642969 0.337804
0.847105 0.642756 0.374640
0.852903 0.646021 0.411444
0.858854 0.653071 0.448829
0.866331 0.664118 0.486305
0.880644 0.676478 0.514122
0.900298 0.693721 0.543511
0.927031 0.716426 0.574731
0.000000 0.658350 0.364111
0.000000 0.659022 0.364965
0.000000 0.659571 0.365759
0.000000 0.659724 0.367132
0.000000 0.659174 0.368780
0.127504 0.657832 0.371008
0.172641 0.655299 0.369665
0.181491 0.650629 0.357427
0.190860 0.645319 0.343145
0.200717 0.639216 0.326635
0.210239 0.632258 0.307805
0.219791 0.624445 0.286748
0.228855 0.615564 0.263249
0.265049 0.609155 0.254673
0.346258 0.631220 0.249882
0.425422 0.652399 0.242954
0.504326 0.672297 0.233127
0.583185 0.690028 0.220188
0.661372 0.704280 0.203220
0.737270 0.714321 0.180941
0.801205 0.713741 0.164096
0.817136 0.693965 0.204685
0.826627 0.680751 0.250156
0.834775 0.671015 0.291752
0.841733 0.664729 0.331640
0.848020 0.661921 0.369635
0.853910 0.662776 0.407324
0.860136 0.667689 0.445289
0.867643 0.677150 0.484199
0.877867 0.691707 0.524315
0.895048 0.710262 0.559991
0.922148 0.732601 0.590875
0.000000 0.686336 0.385595
0.000000 0.686885 0.386481
0.000000 0.687373 0.387579
0.000000 0.687404 0.388891
0.092226 0.686793 0.390692
0.153414 0.685451 0.393103
0.204196 0.683375 0.396246
0.211490 0.679347 0.385626
0.218784 0.674647 0.372717
0.226261 0.669154 0.357855
0.234379 0.663020 0.341283
0.242069 0.656031 0.322515
0.249546 0.648005 0.301518
0.256657 0.639155 0.278325
0.309941 0.641474 0.276799
0.385840 0.662257 0.273228
0.460883 0.682002 0.267582
0.535576 0.699702 0.260075
0.609400 0.714076 0.250370
0.681239 0.724697 0.238193
0.750881 0.731838 0.222324
0.811978 0.731777 0.210361
0.827695 0.710323 0.241215
0.835691 0.697261 0.284245
0.842710 0.687831 0.324132
0.848936 0.682246 0.363775
0.854948 0.680659 0.402350
0.861479 0.683284 0.440894
0.869474 0.690761 0.480171
0.880339 0.703578 0.520378
0.895842 0.722316 0.561791
0.917754 0.747158 0.604211
0.000000 0.713008 0.407294
0.000000 0.713436 0.408240
0.000000 0.713832 0.409216
0.082643 0.713741 0.410773
0.134981 0.713069 0.412696
0.180789 0.711727 0.415198
0.223911 0.709712 0.418494
0.242283 0.706600 0.413336
0.247807 0.702449 0.401831
0.253666 0.697688 0.388556
0.259831 0.692317 0.373510
0.266056 0.686091 0.356634
0.272129 0.679011 0.337865
0.278111 0.671046 0.317205
0.291966 0.661738 0.301305
0.352483 0.672786 0.300237
0.424506 0.692378 0.298192
0.495613 0.710018 0.294957
0.565606 0.724361 0.290410
0.633692 0.735256 0.284459
0.699550 0.743008 0.276463
0.763241 0.747829 0.265599
0.821744 0.748531 0.257084
0.837125 0.725887 0.281376
0.844114 0.713588 0.322728
0.850584 0.705348 0.362036
0.856901 0.701411 0.401648
0.863951 0.702174 0.441047
0.872801 0.708003 0.480690
0.884764 0.719509 0.521111
0.901610 0.737209 0.562615
0.924773 0.761105 0.604517
0.085817 0.739712 0.431281
0.100710 0.739773 0.431922
0.116518 0.739681 0.432624
0.143191 0.739193 0.433845
0.176761 0.738247 0.435767
0.212314 0.736782 0.438331
0.249149 0.734829 0.441749
0.276188 0.732357 0.441932
0.280430 0.729122 0.431769
0.284764 0.725338 0.419989
0.289769 0.721004 0.406897
0.294835 0.715908 0.391882
0.299809 0.710018 0.375250
0.304479 0.703334 0.356817
0.309056 0.695796 0.336553
0.327855 0.686213 0.327367
0.395850 0.704463 0.327611
0.463203 0.721126 0.326970
0.529076 0.734615 0.325780
0.593194 0.745052 0.323339
0.655177 0.752682 0.319524
0.714931 0.757748 0.313725
0.772824 0.760586 0.305333
0.829099 0.762478 0.297581
0.844633 0.739345 0.316289
0.851347 0.728298 0.356390
0.858183 0.721736 0.395453
0.865812 0.720150 0.435035
0.875273 0.723995 0.475502
0.888060 0.733791 0.516258
0.905608 0.749966 0.557580
0.929534 0.772732 0.599298
0.154482 0.760128 0.452338
0.162173 0.760159 0.453040
0.172152 0.760098 0.453803
0.190677 0.759548 0.455177
0.215610 0.758633 0.457313
0.244450 0.757168 0.460060
0.276097 0.755337 0.463600
0.309453 0.753017 0.468025
0.313390 0.750515 0.459632
0.316747 0.747616 0.449348
0.320348 0.744289 0.437690
0.324224 0.740414 0.424598
0.327916 0.735927 0.409827
0.331640 0.730739 0.393652
0.335332 0.724880 0.375738
0.338842 0.718166 0.356207
0.372595 0.716091 0.354009
0.436713 0.731533 0.355901
0.499184 0.744137 0.357092
0.559625 0.754116 0.357702
0.617945 0.761593 0.357183
0.674220 0.766812 0.355169
0.728450 0.770077 0.351385
0.781094 0.771664 0.344884
0.833921 0.773556 0.335363
0.851896 0.752255 0.348730
0.859220 0.743160 0.388495
0.867491 0.739162 0.427924
0.877745 0.740810 0.467933
0.891295 0.748959 0.509453
0.909545 0.763485 0.550591
0.934173 0.785214 0.592584
0.213138 0.778683 0.475349
0.218875 0.778683 0.476112
0.225895 0.778500 0.476936
0.239353 0.777920 0.478401
0.258915 0.776913 0.480507
0.282475 0.775479 0.483314
0.309422 0.773617 0.487007
0.338506 0.771298 0.491554
0.351080 0.769009 0.488380
0.353002 0.766751 0.479316
0.355261 0.764065 0.468971
0.357671 0.761105 0.457374
0.360266 0.757656 0.444465
0.362707 0.753719 0.430060
0.365179 0.749233 0.414252
0.367437 0.744137 0.396979
0.374426 0.738033 0.382177
0.416907 0.741604 0.382940
0.475624 0.753109 0.385931
0.532616 0.762417 0.388495
0.587488 0.769558 0.390478
0.640192 0.774746 0.391180
0.690944 0.778164 0.390204
0.740078 0.780179 0.387152
0.788083 0.781125 0.381445
0.837217 0.782956 0.374426
0.860624 0.766506 0.382696
0.869566 0.760250 0.422126
0.880705 0.759884 0.461830
0.895109 0.765927 0.501884
0.914153 0.779019 0.543389
0.939513 0.799588 0.585443
0.260685 0.792630 0.496193
0.265293 0.792599 0.497017
0.271092 0.792416 0.497932
0.282170 0.791836 0.499458
0.298466 0.790860 0.501762
0.318608 0.789517 0.504845
0.342260 0.787747 0.508812
0.368139 0.785641 0.513664
0.388403 0.783474 0.515801
0.390173 0.781796 0.508171
0.391882 0.779965 0.499458
0.393957 0.777798 0.489723
0.396002 0.775387 0.478828
0.398138 0.772610 0.466773
0.400183 0.769497 0.453498
0.402106 0.765927 0.438911
0.404120 0.761959 0.423285
0.415442 0.756771 0.414649
0.463355 0.763699 0.418006
0.516106 0.771878 0.422156
0.566918 0.778195 0.425818
0.615656 0.782956 0.428382
0.662470 0.786313 0.429633
0.707759 0.788602 0.429175
0.752102 0.790158 0.426520
0.796201 0.791287 0.421210
0.841947 0.793545 0.414252
0.871916 0.783719 0.418616
0.884459 0.781399 0.457343
0.899931 0.785855 0.497047
0.920165 0.797543 0.537530
0.946471 0.817075 0.579248
0.309026 0.804501 0.518547
0.312810 0.804410 0.519371
0.317357 0.804196 0.520134
0.326543 0.803586 0.521752
0.340185 0.802609 0.524102
0.357397 0.801297 0.527337
0.377783 0.799619 0.531426
0.400946 0.797574 0.536461
0.425971 0.795224 0.542473
0.428931 0.793942 0.536950
0.430365 0.792599 0.529686
0.432258 0.791104 0.521721
0.434119 0.789425 0.512779
0.436011 0.787503 0.502861
0.437812 0.785306 0.491890
0.439582 0.782864 0.479988
0.441352 0.780117 0.467048
0.443336 0.777188 0.453376
0.460822 0.773922 0.450813
0.508904 0.780850 0.456062
0.555200 0.786343 0.460822
0.599695 0.790555 0.464759
0.642390 0.793759 0.467567
0.683680 0.796262 0.468940
0.724147 0.798367 0.468391
0.764553 0.800381 0.465644
0.805783 0.802640 0.460304
0.849241 0.806149 0.452918
0.885161 0.804685 0.456214
0.904326 0.806363 0.489540
0.925414 0.816587 0.529686
0.952392 0.834775 0.570672
0.356085 0.814084 0.541436
0.359136 0.813931 0.542107
0.363104 0.813687 0.542992
0.370947 0.813138 0.544671
0.383001 0.812222 0.547326
0.398505 0.811032 0.550927
0.417273 0.809537 0.555657
0.438514 0.807767 0.561395
0.461952 0.805722 0.568200
0.473640 0.804318 0.568750
0.475959 0.803525 0.563592
0.478401 0.802609 0.557733
0.480873 0.801572 0.551202
0.483284 0.800351 0.543938
0.485512 0.798978 0.535760
0.487556 0.797421 0.526696
0.489601 0.795682 0.516991
0.491859 0.793851 0.506706
0.496071 0.791714 0.497658
0.520439 0.791348 0.499886
0.560662 0.795651 0.505333
0.599390 0.799191 0.510124
0.636591 0.802243 0.513787
0.672816 0.805020 0.516106
0.708644 0.807919 0.516930
0.744839 0.811154 0.515770
0.782071 0.814878 0.512016
0.821103 0.819303 0.505852
0.862852 0.824796 0.497200
0.906126 0.833036 0.499672
0.934173 0.840909 0.527214
0.962097 0.858061 0.567529
0.411017 0.823178 0.569421
0.413519 0.823026 0.570123
0.416602 0.822782 0.570947
0.423316 0.822171 0.572686
0.433509 0.821286 0.575280
0.446754 0.820066 0.578943
0.462806 0.818570 0.583581
0.481300 0.816800 0.589258
0.501640 0.814755 0.595850
0.519127 0.812802 0.600916
0.520775 0.812131 0.596643
0.522759 0.811368 0.591974
0.524956 0.810513 0.586816
0.527031 0.809567 0.581048
0.529290 0.808530 0.574853
