kodak/Portra 400.cube
# Created by Adobe Lightroom plugin Export LUT (1.24.0)
# www.johnrellis.com/lightroom/exportlut.htm
# Preset: 柯达Portra400-01子沐调色
# Color profile: C:\Windows\System32\Spool\Drivers\Color\AdobeRGB1998.icc
LUT_3D_SIZE 8
DOMAIN_MIN 0.000000 0.000000 0.000000
DOMAIN_MAX 0.903226 0.903226 0.903226
0.091096 0.119844 0.089967
0.114992 0.121431 0.089052
0.296269 0.141909 0.071931
0.540764 0.198550 0.000000
0.718441 0.255863 0.000000
0.829313 0.303960 0.000000
0.877592 0.352361 0.148470
0.913359 0.425422 0.283787
0.087678 0.131563 0.093538
0.111269 0.136568 0.087221
0.273869 0.172549 0.073976
0.524071 0.237980 0.000000
0.707973 0.288853 0.000000
0.822324 0.328985 0.000000
0.873930 0.370916 0.159091
0.910002 0.438514 0.291630
0.025055 0.234684 0.137179
0.076081 0.232883 0.119997
0.266636 0.282475 0.055421
0.504540 0.340368 0.000000
0.686610 0.382666 0.000000
0.810575 0.411353 0.101198
0.867247 0.440864 0.221958
0.904143 0.494026 0.339208
0.000000 0.432410 0.228916
0.000000 0.432410 0.218357
0.078981 0.407782 0.129274
0.471290 0.500359 0.000000
0.699977 0.521630 0.000000
0.787991 0.522606 0.212680
0.852171 0.533684 0.297734
0.890440 0.567529 0.400275
0.000000 0.593988 0.318853
0.000000 0.592309 0.318761
0.128969 0.575097 0.275059
0.256321 0.559564 0.201633
0.608576 0.648615 0.124453
0.799924 0.640070 0.175540
0.839353 0.621424 0.340337
0.871580 0.645624 0.469093
0.000000 0.713008 0.407294
0.134981 0.713069 0.412696
0.247807 0.702449 0.401831
0.272129 0.679011 0.337865
0.424506 0.692378 0.298192
0.699550 0.743008 0.276463
0.844114 0.713588 0.322728
0.872801 0.708003 0.480690
0.260685 0.792630 0.496193
0.298466 0.790860 0.501762
0.388403 0.783474 0.515801
0.396002 0.775387 0.478828
0.404120 0.761959 0.423285
0.566918 0.778195 0.425818
0.752102 0.790158 0.426520
0.884459 0.781399 0.457343
0.459937 0.831479 0.596582
0.479927 0.829648 0.602686
0.541192 0.823484 0.623835
0.570947 0.819242 0.623621
0.575189 0.814694 0.600702
0.598596 0.810147 0.589471
0.704616 0.827481 0.603143
0.830137 0.858488 0.590326
0.089967 0.119448 0.109102
0.118441 0.115572 0.109865
0.319677 0.097353 0.101350
0.550958 0.167422 0.082948
0.721798 0.240330 0.066865
0.825803 0.302831 0.121065
0.873716 0.362951 0.213504
0.909087 0.436500 0.318914
0.080903 0.138308 0.113252
0.121462 0.139223 0.113680
0.301579 0.166079 0.111177
0.538628 0.222049 0.088899
0.713985 0.279393 0.080781
0.820768 0.330358 0.133425
0.870542 0.381109 0.221439
0.905852 0.448371 0.324834
0.003815 0.248966 0.163638
0.107576 0.257877 0.163546
0.281743 0.291966 0.109010
0.505272 0.336919 0.118746
0.688960 0.381842 0.132876
0.807706 0.414496 0.183444
0.863005 0.446845 0.265019
0.899657 0.500145 0.364263
0.000000 0.441627 0.253025
0.000000 0.443885 0.249943
0.146822 0.424872 0.186313
0.473671 0.497749 0.108400
0.688106 0.513390 0.150179
0.782223 0.521477 0.255009
0.847990 0.535485 0.325078
0.886473 0.570397 0.417639
0.000000 0.600122 0.339940
0.000000 0.597894 0.340459
0.195407 0.582544 0.313176
0.272770 0.558129 0.240696
0.609247 0.644953 0.193057
0.794766 0.638087 0.235813
0.835203 0.623926 0.371069
0.868986 0.647791 0.483253
0.000000 0.714076 0.420447
0.154421 0.712123 0.423774
0.282689 0.702724 0.423926
0.301488 0.680293 0.362921
0.431952 0.690089 0.323705
0.701961 0.742123 0.312718
0.841062 0.714168 0.359075
0.869352 0.709926 0.499275
0.263401 0.791592 0.501701
0.298253 0.789334 0.505943
0.395880 0.782040 0.523461
0.412390 0.774105 0.492500
0.418921 0.761288 0.438514
0.570184 0.776211 0.438941
0.752682 0.788632 0.442817
0.880522 0.779965 0.475441
0.455787 0.831205 0.597253
0.476722 0.829465 0.603662
0.538964 0.823392 0.624781
0.578637 0.818265 0.630518
0.588708 0.814908 0.613123
0.606470 0.810147 0.598169
0.706752 0.826413 0.610071
0.829831 0.856870 0.598535
0.072511 0.111940 0.259953
0.151766 0.102205 0.247410
0.318212 0.000000 0.269108
0.572930 0.000000 0.258610
0.747036 0.209903 0.273198
0.828031 0.342809 0.321111
0.867887 0.417670 0.368109
0.904295 0.488197 0.430152
0.000000 0.160769 0.275456
0.117800 0.133516 0.272709
0.325200 0.106569 0.273167
0.573541 0.000000 0.248692
0.737148 0.278050 0.288914
0.823301 0.367773 0.326085
0.865141 0.432319 0.371954
0.901640 0.498817 0.434852
0.000000 0.303868 0.288731
0.000000 0.307042 0.289494
0.332067 0.311192 0.287297
0.546044 0.356298 0.302953
0.712490 0.404822 0.321660
0.810727 0.446418 0.350530
0.857206 0.486976 0.395911
0.894377 0.539574 0.458534
0.000000 0.481605 0.336828
0.000000 0.483772 0.338445
0.316564 0.479622 0.356725
0.510124 0.515251 0.309056
0.684413 0.526513 0.350378
0.787320 0.545647 0.388769
0.843198 0.564538 0.434791
0.882170 0.600824 0.497932
0.000000 0.623377 0.399664
0.083833 0.622187 0.404303
0.325841 0.614679 0.423957
0.356207 0.582696 0.357824
0.633173 0.654963 0.350500
0.787472 0.645869 0.390265
0.825620 0.642664 0.473487
0.865324 0.666682 0.544518
0.111238 0.727596 0.464057
0.202121 0.725643 0.469490
0.351843 0.717372 0.486519
0.400092 0.697322 0.452491
0.465797 0.690455 0.405310
0.712612 0.741817 0.416205
0.832242 0.719081 0.462531
0.861906 0.723232 0.566247
0.291051 0.795773 0.530694
0.326482 0.793545 0.535729
0.418830 0.786007 0.552148
0.480598 0.775845 0.549615
0.477272 0.764034 0.497383
0.589258 0.773526 0.491432
0.760067 0.787930 0.510338
0.875792 0.786374 0.550225
0.457984 0.833127 0.609308
0.475807 0.831357 0.613886
0.538933 0.825071 0.633875
0.613397 0.816770 0.660456
0.618219 0.813413 0.641718
0.627436 0.809384 0.621912
0.716976 0.824521 0.636744
0.834958 0.857755 0.633387
0.000000 0.083070 0.477790
0.168185 0.049500 0.473091
0.350225 0.000000 0.450294
0.555779 0.000000 0.470039
0.733577 0.000000 0.448035
0.828733 0.277317 0.427161
0.856931 0.486275 0.511650
0.895232 0.558343 0.554101
0.000000 0.128359 0.493599
0.084260 0.114839 0.488746
0.349889 0.103517 0.464393
0.558190 0.041474 0.473732
0.732845 0.177676 0.452155
0.825559 0.329747 0.439124
0.853391 0.508721 0.522789
0.893492 0.564935 0.555505
0.000000 0.344732 0.501701
0.000000 0.331640 0.502556
0.324285 0.301640 0.497383
0.559869 0.330663 0.486213
0.729610 0.382696 0.472663
0.809598 0.503929 0.516258
0.846464 0.555962 0.543053
0.888579 0.597223 0.571344
0.000000 0.531365 0.507927
0.000000 0.532464 0.508110
0.324071 0.532219 0.507012
0.556847 0.531334 0.504509
0.697871 0.558831 0.518242
0.788602 0.584344 0.534386
0.834073 0.609155 0.559106
0.876951 0.642969 0.593805
0.000000 0.664576 0.506065
0.127504 0.662043 0.508324
0.358709 0.653346 0.519829
0.522026 0.636011 0.536553
0.667781 0.667353 0.516869
0.772641 0.662654 0.547997
0.817533 0.670741 0.583368
0.861723 0.695399 0.623651
0.173190 0.749783 0.536156
0.247562 0.748745 0.541802
0.391180 0.739834 0.556298
0.531731 0.724819 0.580621
0.527581 0.695583 0.516777
0.731197 0.743862 0.545251
0.819059 0.729397 0.583612
0.851072 0.742977 0.648615
0.322179 0.802029 0.575250
0.356481 0.800076 0.580133
0.447974 0.793027 0.596033
0.554528 0.781094 0.620447
0.570001 0.769772 0.590509
0.619684 0.769619 0.565606
0.770626 0.786770 0.597314
0.867765 0.794156 0.636988
0.473640 0.836545 0.636042
0.491951 0.835050 0.640589
0.545129 0.829709 0.654658
0.624720 0.820279 0.681239
0.664851 0.812467 0.686946
0.665248 0.808255 0.663630
0.730007 0.821225 0.672206
0.841642 0.858824 0.676844
0.000000 0.007294 0.643671
0.140993 0.000000 0.641138
0.351934 0.000000 0.629511
0.539147 0.004700 0.614984
0.715511 0.100069 0.617639
0.810727 0.286229 0.580041
0.852995 0.444556 0.572686
0.894102 0.566247 0.618524
0.000000 0.107790 0.651331
0.000000 0.094575 0.648981
0.342168 0.085084 0.636774
0.541863 0.178073 0.618616
0.714504 0.206485 0.619654
0.808591 0.335515 0.584985
0.850278 0.472969 0.581933
0.891936 0.584497 0.628290
0.000000 0.325017 0.657862
0.000000 0.317571 0.658137
0.313237 0.298528 0.653010
0.550225 0.363775 0.627985
0.709957 0.382238 0.626551
0.800381 0.457527 0.601709
0.841123 0.551781 0.611170
0.882902 0.645563 0.664363
0.000000 0.519799 0.661555
0.000000 0.518761 0.661189
0.300877 0.518181 0.659876
0.549798 0.525017 0.652491
0.704097 0.550225 0.640864
0.788815 0.595056 0.635004
0.824582 0.663600 0.669825
0.875669 0.689509 0.684138
0.000000 0.686793 0.659480
0.000000 0.686793 0.659480
0.347082 0.685145 0.658350
0.555718 0.678035 0.654047
0.696742 0.676478 0.653925
0.767910 0.688167 0.663752
0.812192 0.702663 0.676814
0.863493 0.722316 0.692500
0.231540 0.769680 0.627893
0.294774 0.767788 0.629969
0.427924 0.759091 0.638056
0.563622 0.745571 0.651911
0.655207 0.727352 0.658442
0.748867 0.745174 0.658289
0.803647 0.742458 0.682979
0.848203 0.759213 0.707607
0.364508 0.808927 0.634394
0.394965 0.806790 0.637842
0.479927 0.799741 0.649500
0.580072 0.788754 0.667536
0.667506 0.774655 0.687892
0.650263 0.761135 0.636591
0.780972 0.785397 0.677821
0.860349 0.799710 0.702968
0.486610 0.840665 0.669306
0.504082 0.839078 0.672847
0.556634 0.833921 0.684535
0.628626 0.826749 0.704097
0.695399 0.816770 0.724178
0.707271 0.809110 0.710658
0.738918 0.815610 0.704005
0.846891 0.858732 0.713710
0.000000 0.000000 0.752499
0.089906 0.000000 0.751369
0.323766 0.000000 0.746242
0.522271 0.160678 0.735744
0.682094 0.247349 0.729793
0.795865 0.321660 0.703944
0.839780 0.451728 0.670344
0.887816 0.572564 0.684840
0.000000 0.094728 0.753719
0.000000 0.088960 0.752377
0.315679 0.112551 0.747219
0.523003 0.225101 0.736172
0.681697 0.298497 0.729091
0.793606 0.360327 0.704738
0.837522 0.475929 0.673823
0.886046 0.587182 0.689631
0.000000 0.292943 0.756527
0.000000 0.278935 0.756619
0.311284 0.305608 0.752163
0.530358 0.370672 0.740902
0.684596 0.431128 0.730343
0.787533 0.469306 0.710140
0.830655 0.551202 0.687831
0.881865 0.633417 0.706874
0.000000 0.491890 0.754086
0.000000 0.493355 0.753414
0.364141 0.507500 0.751125
0.541924 0.524376 0.746944
0.692348 0.575708 0.732845
0.778988 0.595392 0.720668
0.820798 0.646357 0.712245
0.879667 0.687129 0.727718
0.000000 0.640589 0.750454
0.129671 0.642023 0.749996
0.362829 0.647730 0.748287
0.544732 0.658412 0.745235
0.691737 0.674647 0.739284
0.769009 0.691188 0.730861
0.813046 0.715084 0.732662
0.879088 0.736843 0.745449
0.183383 0.769162 0.743618
0.261448 0.768734 0.743648
0.417975 0.766232 0.742702
0.573388 0.761410 0.741207
0.696071 0.752773 0.738094
0.764126 0.751003 0.739132
0.802518 0.757626 0.743923
0.866331 0.771084 0.749233
0.401617 0.815671 0.707454
0.434333 0.813809 0.709255
0.523522 0.807370 0.715236
0.624201 0.797513 0.726223
0.699580 0.786679 0.736965
0.741360 0.774685 0.738003
0.792172 0.787625 0.739528
0.858305 0.804501 0.750362
0.511498 0.848631 0.715908
0.528252 0.847135 0.718502
0.579309 0.842313 0.727230
0.646479 0.835630 0.740810
0.704036 0.828428 0.752590
0.746792 0.819455 0.758846
0.745754 0.807614 0.733639
0.854582 0.861448 0.746822
0.000000 0.000000 0.804807
0.009766 0.000000 0.804532
0.294041 0.079774 0.801938
0.485573 0.224033 0.795926
0.649226 0.370336 0.785458
0.760708 0.409552 0.782895
0.828885 0.478523 0.752926
0.879606 0.577630 0.750912
0.000000 0.102388 0.804257
0.000000 0.109438 0.803861
0.292943 0.158938 0.801053
0.487556 0.265995 0.794705
0.649195 0.393500 0.784176
0.758877 0.431434 0.781125
0.826352 0.492775 0.752285
0.876066 0.584710 0.749874
0.000000 0.272007 0.805051
0.000000 0.276066 0.804654
0.313420 0.314916 0.800992
0.503532 0.385351 0.794217
0.656397 0.476020 0.783749
0.758267 0.514977 0.779507
0.821439 0.560388 0.757198
0.874510 0.630518 0.761746
0.224369 0.479500 0.800076
0.287266 0.486824 0.799130
0.396460 0.493812 0.797604
0.530724 0.519005 0.793545
0.668757 0.577996 0.784054
0.759426 0.618982 0.777829
0.814420 0.645747 0.765286
0.873625 0.681849 0.774838
0.194308 0.596094 0.796231
0.256687 0.599268 0.795468
0.397223 0.611749 0.793301
0.559960 0.638758 0.789517
0.677058 0.664271 0.784573
0.760494 0.698665 0.775570
0.807370 0.708400 0.771298
0.874968 0.723842 0.783536
0.246799 0.709895 0.792294
0.299626 0.711360 0.791836
0.427588 0.716732 0.790311
0.566155 0.726375 0.787961
0.683619 0.739284 0.784970
0.760433 0.748684 0.781918
0.805600 0.755764 0.779355
0.885801 0.758114 0.786831
0.363104 0.808743 0.787198
0.397925 0.808164 0.787167
0.491554 0.805661 0.786465
0.605066 0.801541 0.785550
0.700771 0.796536 0.784360
0.760739 0.792569 0.783108
0.804654 0.793668 0.783749
0.877501 0.806699 0.786496
0.499886 0.857145 0.770809
0.519554 0.856016 0.772091
0.582055 0.853361 0.778042
0.657862 0.849577 0.786374
0.717678 0.847837 0.794156
0.754696 0.844205 0.796017
0.783536 0.831174 0.786160
0.866056 0.867124 0.780545
0.000000 0.041657 0.853788
0.000000 0.069184 0.853391
0.282139 0.149752 0.850156
0.467689 0.278752 0.844114
0.627222 0.418128 0.833982
0.741543 0.530083 0.823178
0.817655 0.547662 0.824094
0.879393 0.597711 0.816464
0.000000 0.119875 0.853422
0.000000 0.135286 0.852934
0.286687 0.199649 0.849668
0.471809 0.309453 0.843229
0.629175 0.436744 0.833188
0.742428 0.544640 0.822080
0.816220 0.559777 0.822843
0.877409 0.606348 0.815946
0.000000 0.258335 0.854368
0.034028 0.271641 0.853513
0.308446 0.317357 0.849393
0.489937 0.400061 0.843595
0.639216 0.498177 0.833280
0.748348 0.594812 0.820462
0.814633 0.605676 0.821683
0.875059 0.640101 0.819120
0.283146 0.469368 0.850492
0.298894 0.465339 0.850858
0.361975 0.459297 0.850340
0.512840 0.506523 0.845029
0.652583 0.576867 0.835142
0.754696 0.649592 0.822843
0.814145 0.666621 0.821958
0.874510 0.682826 0.825559
0.265293 0.576043 0.849851
0.313146 0.581567 0.849638
0.432868 0.600061 0.847410
0.563165 0.629236 0.844388
0.658320 0.649165 0.839506
0.756039 0.696193 0.827787
0.813352 0.716213 0.823545
0.876341 0.721431 0.833371
0.267277 0.678065 0.850706
0.307805 0.680293 0.849973
0.413947 0.688624 0.848020
0.539147 0.703853 0.845548
0.666560 0.728084 0.842649
0.748501 0.739040 0.840604
0.814847 0.756558 0.831815
0.883848 0.753567 0.843900
0.290318 0.782162 0.855344
0.328557 0.782895 0.854887
0.430365 0.785824 0.853605
0.555322 0.792325 0.852354
0.667811 0.800687 0.851347
0.737575 0.802365 0.852476
0.799863 0.788968 0.853025
0.888914 0.791226 0.851408
0.413733 0.879088 0.859556
0.436957 0.878416 0.859281
0.507774 0.876768 0.859007
0.604486 0.874693 0.859251
0.684749 0.873259 0.859922
0.737697 0.873747 0.861112
0.788388 0.875914 0.862303
0.890471 0.879332 0.864012
