lut/千禧电影.cube
#Created by: Adobe Photoshop Export Color Lookup Plugin
#Copyright: (C) Copyright 2026 汉图
TITLE "mint本征源文件-适配lut筛选-恢复的.psd"
#LUT size
LUT_3D_SIZE 4
#data domain
DOMAIN_MIN 0.0 0.0 0.0
DOMAIN_MAX 1.0 1.0 1.0
#LUT data points
0.000000 0.000000 0.000000
0.393219 0.003326 0.003326
0.749023 0.005920 0.005920
0.982697 0.007416 0.007416
0.019409 0.383514 0.001923
0.362000 0.354645 0.009064
0.755737 0.305206 0.012177
0.989532 0.270996 0.014069
0.062897 0.730927 0.000031
0.327087 0.747314 0.012115
0.732758 0.719696 0.017151
0.996399 0.695618 0.019104
0.088959 0.954773 0.000031
0.306580 0.984161 0.011871
0.713531 0.991852 0.019836
1.000000 0.992188 0.041931
0.043304 0.000031 0.246643
0.250732 0.007477 0.227051
0.714264 0.008545 0.262878
0.987213 0.010895 0.238220
0.054535 0.318146 0.292145
0.317200 0.293945 0.266235
0.730988 0.272522 0.246124
0.994720 0.273071 0.245056
0.080414 0.701996 0.265656
0.307312 0.702881 0.239594
0.718689 0.703217 0.229401
1.000000 0.684814 0.244781
0.102020 0.964874 0.214508
0.313843 0.992096 0.204254
0.708221 1.000000 0.211090
1.000000 0.992462 0.310944
0.098175 0.000031 0.464935
0.338165 0.000031 0.667175
0.551941 0.057922 0.510345
0.981873 0.011780 0.577484
0.115295 0.280579 0.553497
0.336395 0.284180 0.599945
0.717377 0.273224 0.643707
1.000000 0.296570 0.609314
0.127594 0.604095 0.586243
0.422943 0.647186 0.597748
0.711609 0.678314 0.622772
1.000000 0.668518 0.619232
0.154022 0.942719 0.607422
0.344879 0.980042 0.622192
0.693176 0.995544 0.605774
1.000000 0.989227 0.707764
0.134277 0.000031 0.633789
0.319916 0.000031 0.829193
0.707245 0.005066 0.911438
0.989655 0.011047 0.894592
0.185669 0.287903 0.841064
0.382660 0.290619 0.903900
0.707886 0.276154 0.921661
1.000000 0.289917 0.912933
0.229858 0.627502 0.845306
0.476746 0.684723 0.903625
0.720612 0.673187 0.920197
1.000000 0.662933 0.914917
0.222656 0.917969 0.871155
0.464508 0.970184 0.906891
0.747498 0.991211 0.918945
1.000000 1.000000 1.000000
