lut/千禧电影.cube
#Created by: Adobe Photoshop Export Color Lookup Plugin
#Copyright: (C) Copyright 2026 汉图
TITLE "mint本征源文件-适配lut筛选-恢复的.psd"
#LUT size
LUT_3D_SIZE 7
#data domain
#LUT data points
DOMAIN_MIN 0.000000 0.000000 0.000000
DOMAIN_MAX 0.909091 0.909091 0.909091
0.000000 0.000000 0.000000
0.167664 0.001648 0.001648
0.357513 0.003082 0.003082
0.537262 0.004425 0.004425
0.706573 0.005676 0.005676
0.812744 0.006348 0.006348
0.918945 0.007019 0.007019
0.005707 0.169128 0.002655
0.108307 0.107391 0.003204
0.308533 0.135071 0.005798
0.522614 0.116547 0.008087
0.705841 0.109833 0.010681
0.818665 0.110016 0.012238
0.926117 0.109863 0.014130
0.016693 0.349396 0.002228
0.143433 0.307312 0.005920
0.323730 0.317505 0.008179
0.506927 0.302032 0.009735
0.688873 0.277191 0.011230
0.818848 0.253662 0.012177
0.925323 0.237122 0.013214
0.034515 0.518433 0.000031
0.138031 0.511566 0.006256
0.313965 0.499329 0.010071
0.492157 0.482452 0.011902
0.675201 0.463531 0.013367
0.821808 0.445648 0.014465
0.927887 0.433258 0.015167
0.057434 0.686432 0.000031
0.137207 0.684509 0.004639
0.297058 0.677277 0.011139
0.477722 0.664825 0.013855
0.662659 0.650330 0.015625
0.825562 0.636749 0.016998
0.931427 0.626740 0.017700
0.070557 0.791687 0.000031
0.145721 0.807587 0.003662
0.282104 0.815002 0.011108
0.464935 0.818817 0.015045
0.652069 0.821167 0.017517
0.829681 0.822845 0.019409
0.935242 0.810059 0.020081
0.081848 0.893768 0.000031
0.153259 0.911743 0.002563
0.272858 0.919769 0.010590
0.456635 0.924652 0.015564
0.644440 0.927307 0.018372
0.825439 0.929199 0.020447
0.937683 0.930115 0.021484
0.013519 0.000031 0.129242
0.109802 0.001953 0.096863
0.292603 0.003876 0.116119
0.512695 0.006042 0.097412
0.688538 0.007996 0.092102
0.816101 0.009399 0.088715
0.922821 0.010651 0.084930
0.015411 0.144745 0.126587
0.147034 0.133270 0.117310
0.321411 0.114716 0.101013
0.501617 0.111298 0.097839
0.687500 0.112305 0.095917
0.822449 0.113098 0.093353
0.930237 0.113647 0.090454
0.025085 0.327698 0.118164
0.131226 0.308624 0.095184
0.306732 0.295288 0.092041
0.486725 0.277283 0.092499
0.671692 0.256836 0.090851
0.822968 0.240540 0.088013
0.929901 0.231964 0.084991
0.042084 0.502747 0.072357
0.130890 0.485443 0.065002
0.296082 0.477173 0.070618
0.477692 0.466187 0.071869
0.663910 0.451630 0.070679
0.828552 0.440552 0.066742
0.935303 0.435608 0.063354
0.061218 0.673553 0.033203
0.144775 0.662140 0.043030
0.286224 0.658722 0.048950
0.469574 0.653839 0.051971
0.656586 0.643738 0.053986
0.833954 0.635101 0.055573
0.939972 0.629700 0.056396
0.074524 0.804077 0.030457
0.155823 0.815430 0.041840
0.278290 0.822662 0.049072
0.463257 0.826996 0.053497
0.651245 0.829407 0.056091
0.834534 0.819855 0.057953
0.943756 0.811493 0.058777
0.086212 0.905975 0.030334
0.163086 0.919708 0.040863
0.271576 0.927368 0.048523
0.460297 0.932892 0.054108
0.648590 0.935669 0.057037
0.829224 0.937592 0.059174
0.946381 0.938599 0.060272
0.038086 0.000031 0.227783
0.150177 0.000031 0.276398
0.226318 0.005951 0.204468
0.395905 0.004974 0.232452
0.656158 0.007904 0.239960
0.814209 0.009308 0.217773
0.923035 0.010223 0.205902
0.037018 0.125854 0.254333
0.141693 0.108612 0.261292
0.307129 0.108978 0.266693
0.487000 0.110931 0.251343
0.672394 0.111969 0.231689
0.823578 0.112488 0.215332
0.930756 0.112701 0.201782
0.047516 0.292267 0.265533
0.128845 0.272583 0.247101
0.286621 0.264648 0.239258
0.468903 0.254547 0.230560
0.657013 0.239258 0.215240
0.822937 0.229645 0.204651
0.929779 0.228882 0.203278
0.059662 0.469238 0.262482
0.137817 0.455231 0.250885
0.276093 0.447296 0.230011
0.459869 0.444275 0.216064
0.649445 0.436157 0.204956
0.826599 0.431732 0.199982
0.933075 0.430542 0.201416
0.071106 0.640533 0.239258
0.147614 0.630402 0.229523
0.271851 0.630737 0.210724
0.456390 0.634308 0.198242
0.645111 0.630676 0.193726
0.832062 0.625763 0.192169
0.938171 0.620117 0.194458
0.084412 0.798035 0.208832
0.160980 0.809509 0.197357
0.272095 0.820953 0.176453
0.458801 0.826935 0.167358
0.647217 0.823395 0.166779
0.828918 0.813477 0.167908
0.944611 0.800354 0.175964
0.093811 0.903839 0.182068
0.169464 0.918915 0.167786
0.273438 0.928345 0.154327
0.461029 0.935364 0.149780
0.645111 0.938873 0.147217
0.823273 0.941620 0.143188
0.951508 0.942963 0.145844
0.063293 0.000031 0.325165
0.155487 0.000031 0.424591
0.318481 0.001556 0.452515
0.351593 0.019684 0.320709
0.466095 0.028870 0.329498
0.780945 0.009460 0.377777
0.925812 0.010864 0.369507
0.065460 0.107391 0.383789
0.154968 0.097412 0.410461
0.300873 0.105194 0.431458
0.477448 0.109222 0.425293
0.659515 0.111084 0.410614
0.829010 0.111908 0.397034
0.935364 0.112152 0.382996
0.068359 0.259491 0.379791
0.154175 0.252563 0.371735
0.273193 0.243408 0.376648
0.460358 0.239380 0.404205
0.650574 0.231750 0.399170
0.827545 0.230011 0.395508
0.933624 0.236847 0.389435
0.080994 0.419830 0.400299
0.153534 0.416473 0.396301
0.281097 0.413788 0.378082
0.455627 0.427704 0.389801
0.644745 0.430115 0.393585
0.829773 0.429474 0.392853
0.935913 0.429352 0.392609
0.094025 0.597290 0.407837
0.164276 0.592072 0.406067
0.290558 0.600281 0.398315
0.460419 0.618866 0.393188
0.641632 0.622223 0.388947
0.817749 0.616974 0.388062
0.939606 0.610962 0.388885
0.105988 0.775269 0.396393
0.173767 0.764282 0.395416
0.296326 0.782928 0.393829
0.462341 0.803528 0.388000
0.640045 0.804626 0.381073
0.813263 0.795898 0.378998
0.943909 0.783813 0.381409
0.113464 0.893463 0.383057
0.183533 0.909576 0.385529
0.288239 0.921265 0.385162
0.461273 0.929077 0.381500
0.634674 0.932892 0.376740
0.805176 0.935394 0.373077
0.948181 0.937042 0.372192
0.088287 0.000031 0.424744
0.169769 0.000031 0.533508
0.308044 0.000031 0.605103
0.476562 0.003571 0.600128
0.491425 0.047577 0.453308
0.611877 0.063782 0.467316
0.903046 0.010925 0.521942
0.096985 0.086609 0.521606
0.177490 0.085358 0.563049
0.302612 0.096802 0.598267
0.473053 0.104340 0.600983
0.652771 0.108124 0.586426
0.824097 0.109772 0.572540
0.942322 0.110687 0.546295
0.100189 0.251404 0.502594
0.190033 0.256561 0.517456
0.295929 0.245911 0.533691
0.460358 0.232330 0.577148
0.645050 0.232788 0.578125
0.830750 0.233826 0.573486
0.939178 0.246155 0.553314
0.101990 0.392792 0.510895
0.209198 0.412903 0.519165
0.314911 0.416260 0.499756
0.457886 0.426819 0.541077
0.641724 0.427460 0.569580
0.817841 0.427155 0.567108
0.940979 0.429291 0.559296
0.114319 0.548492 0.533691
0.209412 0.562927 0.535950
0.361664 0.579681 0.536652
0.496490 0.603302 0.550415
0.644318 0.612640 0.561218
0.807434 0.608368 0.559479
0.943878 0.604065 0.555908
0.128784 0.727264 0.548981
0.206726 0.720947 0.544281
0.364655 0.735809 0.551483
0.505310 0.763733 0.561737
0.645844 0.782776 0.558655
0.804138 0.781189 0.552277
0.947388 0.771759 0.548981
0.139832 0.883423 0.549347
0.205078 0.901489 0.551636
0.333374 0.919037 0.558258
0.486481 0.926971 0.557587
0.637726 0.931091 0.550781
0.796814 0.933990 0.544922
0.951385 0.935913 0.541443
0.111969 0.000031 0.522064
0.185394 0.000031 0.615906
0.295959 0.000031 0.699585
0.471588 0.000031 0.747772
0.635712 0.005615 0.739197
0.765259 0.008698 0.692444
0.896454 0.010681 0.669983
0.131836 0.064240 0.663483
0.211243 0.072205 0.718933
0.312500 0.085388 0.749359
0.475311 0.096893 0.761841
0.657440 0.102203 0.765472
0.830719 0.105377 0.748779
0.952362 0.107422 0.709198
0.131348 0.248535 0.631744
0.218719 0.257416 0.665924
0.323120 0.242004 0.709900
0.468506 0.225281 0.755798
0.647095 0.229797 0.755188
0.826141 0.233063 0.743347
0.946869 0.240723 0.717346
0.145630 0.402740 0.633179
0.257904 0.433258 0.650391
0.374573 0.447540 0.668060
0.491364 0.440826 0.712830
0.642609 0.425537 0.738342
0.813690 0.422302 0.731262
0.947327 0.424835 0.717377
0.149628 0.542908 0.648193
0.279297 0.575714 0.656708
0.419403 0.602112 0.669617
0.531006 0.620605 0.687714
0.650909 0.616730 0.711792
0.804749 0.601624 0.718964
0.949554 0.597931 0.711487
0.148956 0.693909 0.668915
0.279755 0.712463 0.669189
0.431396 0.730530 0.676361
0.562866 0.752411 0.693298
0.677582 0.768646 0.705780
0.805878 0.770874 0.709564
0.951385 0.762878 0.703979
0.164185 0.869476 0.688354
0.251099 0.881073 0.690125
0.392914 0.891998 0.695435
0.536041 0.902405 0.701416
0.667755 0.915222 0.704590
0.799774 0.925659 0.701233
0.947723 0.923309 0.696320
0.125916 0.000031 0.592041
0.198456 0.000031 0.688232
0.289764 0.000031 0.766937
0.461700 0.000031 0.835541
0.640900 0.004089 0.850952
0.788757 0.007751 0.854309
0.907715 0.010193 0.819519
0.168152 0.045654 0.807159
0.235565 0.062225 0.831390
0.319855 0.076996 0.846466
0.478088 0.091095 0.862152
0.659454 0.097656 0.871155
0.824951 0.100189 0.877075
0.968079 0.101166 0.881012
0.162048 0.247437 0.764252
0.246429 0.253448 0.816956
0.342316 0.243286 0.842865
0.473297 0.228363 0.853638
0.643585 0.231445 0.861176
0.817688 0.232574 0.866058
0.955780 0.233887 0.868713
0.183685 0.417755 0.759674
0.288971 0.447510 0.786560
0.394714 0.456055 0.826508
0.501526 0.442261 0.853790
0.640320 0.425934 0.859222
0.806732 0.421844 0.863464
0.954803 0.420319 0.866180
0.199310 0.563293 0.770966
0.318451 0.595978 0.788574
0.441467 0.620880 0.814209
0.555481 0.630005 0.839447
0.662628 0.614044 0.859558
0.800995 0.596924 0.862946
0.956635 0.591980 0.862518
0.200897 0.701874 0.789917
0.327118 0.726166 0.795868
0.460663 0.750885 0.811890
0.589417 0.770538 0.827057
0.702301 0.778503 0.839813
0.811554 0.768494 0.852509
0.949646 0.754944 0.852539
0.194702 0.844696 0.804169
0.310425 0.865051 0.811371
0.441498 0.882477 0.820953
0.575043 0.895233 0.828217
0.701874 0.904999 0.834503
0.821167 0.913940 0.841187
0.948151 0.913788 0.843628
