lut/千禧电影.cube
#Created by: Adobe Photoshop Export Color Lookup Plugin
#Copyright: (C) Copyright 2026 汉图
TITLE "mint本征源文件-适配lut筛选-恢复的.psd"
#LUT size
LUT_3D_SIZE 34
#data domain
DOMAIN_MIN 0.0 0.0 0.0
DOMAIN_MAX 1.0 1.0 1.0
#LUT data points
0.000000 0.000000 0.000000
0.028137 0.000305 0.000305
0.058563 0.000671 0.000671
0.091888 0.001099 0.001099
0.128601 0.001282 0.001282
0.167664 0.001648 0.001648
0.209106 0.001984 0.001984
0.248840 0.002258 0.002258
0.285706 0.002563 0.002563
0.321777 0.002747 0.002747
0.357513 0.003082 0.003082
0.393219 0.003326 0.003326
0.429108 0.003601 0.003601
0.464996 0.003876 0.003876
0.501068 0.004150 0.004150
0.537262 0.004425 0.004425
0.573547 0.004669 0.004669
0.609955 0.004944 0.004944
0.646515 0.005249 0.005249
0.683197 0.005493 0.005493
0.706573 0.005676 0.005676
0.727783 0.005798 0.005798
0.749023 0.005920 0.005920
0.770294 0.006042 0.006042
0.791504 0.006195 0.006195
0.812744 0.006348 0.006348
0.834015 0.006470 0.006470
0.855255 0.006622 0.006622
0.876495 0.006744 0.006744
0.897705 0.006866 0.006866
0.918945 0.007019 0.007019
0.940186 0.007141 0.007141
0.961456 0.007294 0.007294
0.982697 0.007416 0.007416
0.001282 0.027985 0.000916
0.022675 0.021271 0.001038
0.044312 0.021698 0.001373
0.072052 0.021606 0.001709
0.098907 0.022003 0.001892
0.129120 0.022095 0.002228
0.166748 0.022400 0.002533
0.213409 0.022705 0.003052
0.264404 0.022949 0.003601
0.311157 0.023438 0.003906
0.352936 0.023315 0.004730
0.391144 0.023376 0.005371
0.428040 0.023346 0.006073
0.464203 0.023529 0.006500
0.500610 0.023529 0.007141
0.537140 0.023499 0.007843
0.574158 0.023315 0.008759
0.610809 0.023376 0.009338
0.647888 0.023285 0.010101
0.685242 0.023102 0.011047
0.712372 0.023163 0.011475
0.733704 0.023285 0.011688
0.755859 0.022766 0.012695
0.777069 0.022919 0.012817
0.798584 0.022858 0.013245
0.820435 0.022552 0.013977
0.841675 0.022675 0.014160
0.863281 0.022583 0.014648
0.884796 0.022522 0.015076
0.906494 0.022339 0.015686
0.928101 0.022217 0.016174
0.949341 0.022369 0.016296
0.970551 0.022491 0.016418
0.991791 0.022644 0.016571
0.002136 0.058746 0.001770
0.021820 0.044617 0.001556
0.043427 0.043060 0.002045
0.065369 0.042999 0.002197
0.088745 0.043091 0.002380
0.113129 0.043091 0.002502
0.142426 0.043274 0.002930
0.183777 0.043457 0.003326
0.236267 0.043701 0.004120
0.292480 0.044037 0.004730
0.344391 0.044189 0.005493
0.386719 0.044495 0.005890
0.424957 0.044342 0.006775
0.461273 0.044495 0.007202
0.497467 0.044647 0.007721
0.534363 0.044342 0.008728
0.570618 0.044556 0.009125
0.607605 0.044373 0.010071
0.644470 0.044434 0.010681
0.681854 0.044189 0.011627
0.712860 0.044373 0.011963
0.734741 0.044098 0.012695
0.755768 0.044342 0.012665
0.777527 0.044128 0.013306
0.799408 0.043823 0.014099
0.820709 0.043884 0.014282
0.842377 0.043762 0.014832
0.863770 0.043793 0.015137
0.885651 0.043457 0.015930
0.907166 0.043427 0.016296
0.928833 0.043304 0.016876
0.950562 0.043060 0.017517
0.972321 0.042847 0.018127
0.993835 0.042816 0.018555
0.002747 0.092804 0.002045
0.023773 0.071198 0.002014
0.043579 0.065277 0.002289
0.065216 0.064240 0.002380
0.086761 0.064178 0.002716
0.109406 0.064117 0.002991
0.132202 0.064667 0.003082
0.165375 0.066681 0.003235
0.214294 0.069550 0.003845
0.272064 0.070465 0.004608
0.330322 0.067780 0.005188
0.380524 0.065704 0.006165
0.420746 0.065918 0.006653
0.457703 0.066010 0.007202
0.493835 0.066132 0.007660
0.530182 0.066132 0.008301
0.566589 0.066193 0.008850
0.603241 0.066193 0.009583
0.640228 0.066132 0.010315
0.677246 0.066193 0.010925
0.712616 0.066101 0.011688
0.734253 0.065948 0.012207
0.755676 0.065979 0.012512
0.777222 0.065918 0.012970
0.799255 0.065491 0.013855
0.820557 0.065582 0.014099
0.841827 0.065735 0.014282
0.863373 0.065613 0.014709
0.885284 0.065277 0.015503
0.906555 0.065399 0.015747
0.928223 0.065247 0.016296
0.950012 0.065002 0.016937
0.971344 0.065063 0.017242
0.993225 0.064728 0.018005
0.004333 0.129425 0.002350
0.024292 0.098572 0.002197
0.044861 0.088074 0.002563
0.065338 0.086121 0.002625
0.086517 0.085754 0.002747
0.107941 0.085968 0.003021
0.130249 0.086243 0.003143
0.158600 0.088440 0.003601
0.201508 0.094360 0.003967
0.257721 0.100311 0.004913
0.317261 0.102600 0.005463
0.373077 0.100189 0.006042
0.416534 0.095367 0.006592
0.453735 0.089874 0.006958
0.489899 0.087830 0.007385
0.526276 0.087799 0.008118
0.562561 0.087891 0.008606
0.598999 0.088013 0.009125
0.635590 0.088196 0.009552
0.672913 0.088013 0.010468
0.710114 0.087982 0.011139
0.733704 0.087952 0.011627
0.754974 0.088074 0.011780
0.776398 0.088074 0.012146
0.798004 0.087952 0.012634
0.819275 0.088074 0.012848
0.840912 0.087891 0.013367
0.862427 0.087860 0.013733
0.883881 0.087830 0.014099
0.905457 0.087738 0.014587
0.926971 0.087677 0.014984
0.948608 0.087524 0.015533
0.969971 0.087585 0.015808
0.991699 0.087402 0.016418
0.005707 0.169128 0.002655
0.024994 0.128967 0.002502
0.044647 0.112396 0.002747
0.065948 0.108032 0.002899
0.087433 0.107086 0.003113
0.108307 0.107391 0.003204
0.130005 0.107666 0.003510
0.156952 0.110657 0.003754
0.197021 0.118561 0.004333
0.249817 0.128510 0.004944
0.308533 0.135071 0.005798
0.366791 0.136292 0.006439
0.412659 0.133057 0.006897
0.450531 0.127960 0.007263
0.486511 0.122406 0.007568
0.522614 0.116547 0.008087
0.558716 0.110626 0.008453
0.595001 0.109711 0.008881
0.631622 0.109833 0.009369
0.668823 0.109711 0.010193
0.705841 0.109833 0.010681
0.733215 0.109833 0.011169
0.754456 0.109955 0.011292
0.776031 0.109894 0.011749
0.797394 0.109894 0.012024
0.818665 0.110016 0.012238
0.840271 0.109924 0.012695
0.861694 0.109894 0.013000
0.883209 0.109863 0.013489
0.904602 0.109863 0.013733
0.926117 0.109863 0.014130
0.947784 0.109680 0.014648
0.969299 0.109589 0.015076
0.990509 0.109802 0.015198
0.008026 0.209076 0.002747
0.026581 0.167358 0.002838
0.046570 0.141052 0.002869
0.066315 0.131012 0.003113
0.088196 0.129120 0.003265
0.109467 0.128876 0.003479
0.130829 0.129395 0.003662
0.159515 0.134888 0.004028
0.199310 0.145355 0.004639
0.249115 0.157593 0.005310
0.305023 0.167175 0.006073
0.361908 0.171631 0.006744
0.409119 0.170074 0.007202
0.447418 0.165466 0.007538
0.483276 0.160217 0.007843
0.519073 0.154633 0.008118
0.555115 0.148895 0.008484
0.591431 0.143036 0.008972
0.628021 0.137115 0.009430
0.664978 0.131256 0.010010
0.701874 0.131470 0.010437
0.732971 0.131592 0.010864
0.754242 0.131622 0.011078
0.775879 0.131531 0.011536
0.797150 0.131653 0.011780
0.818542 0.131622 0.012085
0.839905 0.131714 0.012329
0.861298 0.131714 0.012634
0.882690 0.131775 0.012909
0.904236 0.131683 0.013336
0.925751 0.131622 0.013763
0.947174 0.131622 0.014069
0.968475 0.131714 0.014282
0.990051 0.131653 0.014740
0.009827 0.245819 0.002777
0.028290 0.214874 0.003143
0.047211 0.183655 0.003418
0.069275 0.164246 0.003479
0.090454 0.156769 0.003693
0.112030 0.155487 0.003937
0.136871 0.157623 0.004150
0.167389 0.165619 0.004578
0.206757 0.177155 0.005096
0.253784 0.190094 0.005768
0.306366 0.200958 0.006439
0.360901 0.207092 0.007172
0.406372 0.206635 0.007629
0.444427 0.202484 0.007935
0.480286 0.197418 0.008240
0.515900 0.192047 0.008484
0.551819 0.186554 0.008728
0.588013 0.180939 0.009094
0.624451 0.175262 0.009491
0.661255 0.169525 0.009949
0.698120 0.163971 0.010315
0.733002 0.158203 0.010864
0.754272 0.153198 0.011078
0.775757 0.153168 0.011414
0.796936 0.153351 0.011536
0.818359 0.153351 0.011871
0.839844 0.153351 0.012238
0.861206 0.153351 0.012512
0.882599 0.153412 0.012756
0.903992 0.153412 0.013092
0.925385 0.153442 0.013367
0.946899 0.153412 0.013733
0.968170 0.153534 0.013977
0.989655 0.153473 0.014343
0.012360 0.280579 0.002563
0.031830 0.265320 0.002991
0.049744 0.237549 0.003601
0.075043 0.214111 0.003967
0.098083 0.199982 0.004211
0.121613 0.194824 0.004333
0.148163 0.196930 0.004700
0.179962 0.204254 0.005157
0.218079 0.215057 0.005737
0.262573 0.226868 0.006348
0.311676 0.237366 0.007019
0.361725 0.243652 0.007599
0.404541 0.243042 0.008087
0.441498 0.239075 0.008301
0.477203 0.234192 0.008606
0.512878 0.229065 0.008881
0.548859 0.223694 0.009216
0.585022 0.218292 0.009583
0.621307 0.212891 0.009827
0.657959 0.207428 0.010162
0.694855 0.201965 0.010529
0.732056 0.196472 0.010986
0.754486 0.191193 0.011200
0.775787 0.185974 0.011414
0.797028 0.181061 0.011566
0.818359 0.176300 0.011841
0.839783 0.174927 0.012115
0.861206 0.174957 0.012451
0.882385 0.175110 0.012573
0.903748 0.175140 0.012878
0.925385 0.175049 0.013336
0.946594 0.175171 0.013458
0.967926 0.175232 0.013733
0.989319 0.175262 0.014008
0.013977 0.315338 0.002625
0.033905 0.308258 0.003052
0.054138 0.293884 0.003357
0.080017 0.273254 0.004303
0.107330 0.257080 0.004852
0.133728 0.248260 0.005188
0.162109 0.246765 0.005524
0.194305 0.251068 0.005951
0.231415 0.258881 0.006409
0.273163 0.268250 0.007050
0.318939 0.276978 0.007660
0.362579 0.280426 0.008118
0.402679 0.279388 0.008514
0.438751 0.275269 0.008820
0.474243 0.270599 0.009033
0.509857 0.265656 0.009277
0.545837 0.260529 0.009613
0.581818 0.255432 0.009857
0.618195 0.250214 0.010162
0.654938 0.244904 0.010559
0.691742 0.239716 0.010803
0.728882 0.234528 0.011200
0.754761 0.229401 0.011414
0.776031 0.224335 0.011566
0.797333 0.219574 0.011780
0.818542 0.215057 0.011932
0.839874 0.210815 0.012177
0.861298 0.206848 0.012482
0.882477 0.203430 0.012604
0.903870 0.200378 0.012878
0.925140 0.197876 0.013092
0.946655 0.196716 0.013458
0.967957 0.196777 0.013702
0.989441 0.196777 0.014038
0.016693 0.349396 0.002228
0.037201 0.345428 0.002625
0.056671 0.339966 0.003357
0.081207 0.331055 0.004272
0.112854 0.317505 0.005371
0.143433 0.307312 0.005920
0.174591 0.302582 0.006287
0.207520 0.303284 0.006744
0.243866 0.307556 0.007202
0.283417 0.313599 0.007721
0.323730 0.317505 0.008179
0.362946 0.317810 0.008575
0.400238 0.315369 0.008972
0.435883 0.311218 0.009186
0.471344 0.306732 0.009460
0.506927 0.302032 0.009735
0.542816 0.297150 0.010010
0.578918 0.292267 0.010284
0.615204 0.287292 0.010559
0.651886 0.282257 0.010864
0.688873 0.277191 0.011230
0.725952 0.272247 0.011566
0.755219 0.267395 0.011780
0.776520 0.262573 0.011963
0.797668 0.257996 0.012054
0.818848 0.253662 0.012177
0.840149 0.249634 0.012390
0.861359 0.245941 0.012512
0.882721 0.242554 0.012756
0.903961 0.239655 0.012939
0.925323 0.237122 0.013214
0.946594 0.235046 0.013367
0.967957 0.233246 0.013672
0.989380 0.231506 0.013977
0.019409 0.383514 0.001923
0.040100 0.380646 0.002258
0.059723 0.377777 0.002960
0.079620 0.374664 0.004272
0.113586 0.369537 0.005646
0.147675 0.363892 0.006409
0.181641 0.359039 0.006958
0.215973 0.357208 0.007446
0.251709 0.356934 0.007874
0.288177 0.356934 0.008331
0.325317 0.356476 0.008728
0.362000 0.354645 0.009064
0.397522 0.351074 0.009338
0.432953 0.346954 0.009644
0.468384 0.342651 0.009888
0.504089 0.338135 0.010193
0.539856 0.333588 0.010437
0.575928 0.328918 0.010681
0.612427 0.324097 0.011017
0.649109 0.319305 0.011292
0.685913 0.314606 0.011566
0.723022 0.309906 0.011902
0.755737 0.305206 0.012177
0.776886 0.300690 0.012268
0.798187 0.296234 0.012482
0.819305 0.292175 0.012573
0.840637 0.288269 0.012756
0.861877 0.284729 0.012909
0.883087 0.281555 0.013062
0.904419 0.278717 0.013275
0.925629 0.276367 0.013428
0.947021 0.274261 0.013702
0.968262 0.272552 0.013855
0.989532 0.270996 0.014069
0.022858 0.417358 0.001282
0.042725 0.415100 0.001892
0.062195 0.413025 0.002747
0.080383 0.411163 0.004059
0.111786 0.409180 0.005524
0.147034 0.406555 0.006500
0.181915 0.403870 0.007355
0.217255 0.401184 0.007904
0.252777 0.398865 0.008362
0.288422 0.396423 0.008728
0.323792 0.393616 0.009125
0.359222 0.390259 0.009460
0.394592 0.386536 0.009766
0.429810 0.382629 0.010040
0.465363 0.378479 0.010315
0.501099 0.374207 0.010620
0.536957 0.369904 0.010895
0.573181 0.365356 0.011169
0.609497 0.360962 0.011414
0.646240 0.356384 0.011719
0.683136 0.351868 0.012024
0.720367 0.347290 0.012360
0.756348 0.342957 0.012634
0.777496 0.338593 0.012756
0.798737 0.334473 0.012878
0.819916 0.330566 0.013031
0.841125 0.326904 0.013153
0.862305 0.323578 0.013275
0.883575 0.320557 0.013458
0.904938 0.317810 0.013672
0.926056 0.315613 0.013794
0.947418 0.313660 0.014008
0.968750 0.311951 0.014252
0.989960 0.310486 0.014374
0.026154 0.451294 0.000671
0.046112 0.449066 0.001282
0.064606 0.447479 0.002502
0.082855 0.445892 0.003845
0.109314 0.444336 0.005310
0.143890 0.442688 0.006622
0.179199 0.440399 0.007477
0.214691 0.437805 0.008118
0.250153 0.435028 0.008636
0.285461 0.432129 0.009094
0.320801 0.428925 0.009460
0.356079 0.425537 0.009827
0.391418 0.421967 0.010162
0.426697 0.418243 0.010437
0.462341 0.414307 0.010742
0.498199 0.410248 0.011047
0.534119 0.406097 0.011322
0.570282 0.401947 0.011597
0.606781 0.397675 0.011871
0.643524 0.393341 0.012146
0.680450 0.389099 0.012482
0.717590 0.384796 0.012756
0.754852 0.380646 0.013092
0.778076 0.376617 0.013214
0.799255 0.372650 0.013336
0.820496 0.368927 0.013489
0.841705 0.365479 0.013611
0.862946 0.362335 0.013763
0.884186 0.359467 0.013916
0.905334 0.357025 0.014038
0.926697 0.354828 0.014282
0.947876 0.353088 0.014404
0.969147 0.351532 0.014587
0.990448 0.350098 0.014801
0.029968 0.485046 0.000031
0.049408 0.482941 0.000671
0.066986 0.481720 0.002258
0.085114 0.480225 0.003662
0.106506 0.478729 0.005005
0.140900 0.477295 0.006531
0.175934 0.475220 0.007538
0.211334 0.472839 0.008301
0.246887 0.470062 0.008850
0.282227 0.467163 0.009338
0.317505 0.464111 0.009827
0.352753 0.460846 0.010193
0.388123 0.457397 0.010529
0.423737 0.453796 0.010864
0.459351 0.450134 0.011169
0.495239 0.446289 0.011475
0.531250 0.442383 0.011780
0.567505 0.438446 0.012054
0.604034 0.434387 0.012329
0.640808 0.430298 0.012634
0.677826 0.426270 0.012939
0.714874 0.422302 0.013184
0.752167 0.418365 0.013489
0.778809 0.414459 0.013733
0.799957 0.410767 0.013824
0.821136 0.407288 0.013977
0.842316 0.404022 0.014069
0.863586 0.401093 0.014252
0.884674 0.398499 0.014343
0.906006 0.396088 0.014526
0.927216 0.394073 0.014679
0.948486 0.392426 0.014832
0.969696 0.390991 0.015015
0.990967 0.389648 0.015198
0.034515 0.518433 0.000031
0.052216 0.517181 0.000305
0.070282 0.515656 0.001709
0.087952 0.514343 0.003296
0.106323 0.512787 0.004578
0.138031 0.511566 0.006256
0.172638 0.509796 0.007477
0.207764 0.507629 0.008423
0.243225 0.505035 0.009064
0.278595 0.502258 0.009613
0.313965 0.499329 0.010071
0.349396 0.496216 0.010498
0.384918 0.492950 0.010895
0.420624 0.489532 0.011261
0.456207 0.486084 0.011566
0.492157 0.482452 0.011902
0.528381 0.478699 0.012177
0.564758 0.474945 0.012482
0.601288 0.471222 0.012787
0.638214 0.467316 0.013123
0.675201 0.463531 0.013367
0.712372 0.459717 0.013702
0.749664 0.456024 0.014008
0.779419 0.452423 0.014160
0.800568 0.448944 0.014313
0.821808 0.445648 0.014465
0.842987 0.442535 0.014587
0.864197 0.439850 0.014709
0.885406 0.437317 0.014862
0.906647 0.435181 0.015015
0.927887 0.433258 0.015167
0.949097 0.431763 0.015320
0.970276 0.430420 0.015442
0.991577 0.429169 0.015656
0.038574 0.552094 0.000031
0.055756 0.551086 0.000031
0.073334 0.549744 0.001221
0.090729 0.548584 0.002930
0.108429 0.547333 0.004456
0.134949 0.545990 0.006012
0.169312 0.544495 0.007446
0.204437 0.542389 0.008423
0.239563 0.540100 0.009277
0.275024 0.537476 0.009827
0.310516 0.534637 0.010345
0.346100 0.531677 0.010803
0.381531 0.528625 0.011230
0.417328 0.525391 0.011627
0.453247 0.522034 0.011963
0.489288 0.518646 0.012299
0.525604 0.515167 0.012634
0.561951 0.511627 0.012939
0.598633 0.508026 0.013245
0.635590 0.504395 0.013519
0.672638 0.500763 0.013855
0.709808 0.497253 0.014160
0.747040 0.493744 0.014465
0.780182 0.490326 0.014709
0.801300 0.487091 0.014832
0.822510 0.483948 0.014954
0.843719 0.481110 0.015076
0.864899 0.478516 0.015228
0.886017 0.476196 0.015320
0.907288 0.474152 0.015503
0.928497 0.472412 0.015656
0.949738 0.470978 0.015808
0.970978 0.469666 0.015991
0.992157 0.468536 0.016113
0.043640 0.585327 0.000031
0.059967 0.584625 0.000031
0.075836 0.584167 0.000916
0.092957 0.583130 0.002747
0.110962 0.581787 0.004211
0.132538 0.580231 0.005524
0.166473 0.579010 0.007202
0.201080 0.577240 0.008392
0.236267 0.575104 0.009338
0.271667 0.572662 0.010010
0.307068 0.570038 0.010590
0.342621 0.567322 0.011108
0.378326 0.564392 0.011536
0.414154 0.561340 0.011993
0.450195 0.558167 0.012329
0.486359 0.554962 0.012695
0.522705 0.551636 0.013000
0.559235 0.548279 0.013367
0.595978 0.544891 0.013641
0.632996 0.541443 0.013977
0.670044 0.538116 0.014282
0.707306 0.534729 0.014618
0.744476 0.531464 0.014893
0.780914 0.528259 0.015198
0.802032 0.525177 0.015320
0.823212 0.522247 0.015442
0.844391 0.519531 0.015564
0.865509 0.517120 0.015686
0.886749 0.514954 0.015869
0.907990 0.513000 0.016022
0.929169 0.511383 0.016174
0.950378 0.509949 0.016296
0.971649 0.508667 0.016479
0.992859 0.507507 0.016663
0.048523 0.618866 0.000031
0.064636 0.618103 0.000031
0.079254 0.618347 0.000305
0.096436 0.617279 0.002136
0.113708 0.616302 0.003876
0.132019 0.614838 0.005188
0.163422 0.613800 0.006958
0.197906 0.612244 0.008331
0.232849 0.610321 0.009338
0.268036 0.608154 0.010193
0.303680 0.605652 0.010803
0.339233 0.603119 0.011383
0.375092 0.600342 0.011871
0.411011 0.597504 0.012299
0.447083 0.594513 0.012695
0.483429 0.591431 0.013092
0.519836 0.588287 0.013428
0.556549 0.585175 0.013794
0.593414 0.581940 0.014099
0.630371 0.578705 0.014435
0.667572 0.575470 0.014740
0.704742 0.572296 0.015045
0.742004 0.569183 0.015350
0.779266 0.566254 0.015686
0.802856 0.563232 0.015839
0.823975 0.560516 0.015961
0.845154 0.557922 0.016083
0.866333 0.555634 0.016235
0.887512 0.553558 0.016388
0.908691 0.551727 0.016510
0.929993 0.550140 0.016693
0.951111 0.548706 0.016815
0.972351 0.547394 0.016998
0.993530 0.546173 0.017151
0.053162 0.652466 0.000031
0.067841 0.652344 0.000031
0.082336 0.652710 0.000031
0.098877 0.651978 0.001892
0.116394 0.650940 0.003510
0.134460 0.649719 0.004974
0.160767 0.648590 0.006653
0.194672 0.647400 0.008240
0.229584 0.645660 0.009338
0.264832 0.643677 0.010254
0.300415 0.641388 0.010986
0.336060 0.639008 0.011627
0.371918 0.636444 0.012146
0.407898 0.633789 0.012634
0.444092 0.630981 0.013062
0.480499 0.628082 0.013458
0.517151 0.625122 0.013855
0.553894 0.622070 0.014191
0.590790 0.619019 0.014526
0.627930 0.615967 0.014862
0.665070 0.612885 0.015167
0.702271 0.609894 0.015503
0.739594 0.606934 0.015839
0.776855 0.604065 0.016174
0.803528 0.601318 0.016327
0.824768 0.598663 0.016479
0.845917 0.596252 0.016632
0.867065 0.594025 0.016754
0.888214 0.592041 0.016907
0.909424 0.590271 0.017029
0.930664 0.588593 0.017181
0.951843 0.587158 0.017334
0.973053 0.585754 0.017517
0.994324 0.584351 0.017670
0.057434 0.686432 0.000031
0.072723 0.685883 0.000031
0.085968 0.686829 0.000031
0.101959 0.686523 0.001404
0.119141 0.685699 0.003235
0.137207 0.684509 0.004639
0.158325 0.683441 0.006165
0.192017 0.682526 0.007965
0.226501 0.681091 0.009308
0.261810 0.679230 0.010315
0.297058 0.677277 0.011139
0.332916 0.675018 0.011780
0.368805 0.672699 0.012390
0.404877 0.670197 0.012909
0.441284 0.667511 0.013367
0.477722 0.664825 0.013855
0.514374 0.661987 0.014191
0.551239 0.659119 0.014587
0.588287 0.656189 0.014923
0.625488 0.653229 0.015320
0.662659 0.650330 0.015625
0.699951 0.647430 0.015961
0.737183 0.644592 0.016296
0.774414 0.641876 0.016602
0.804352 0.639282 0.016846
0.825562 0.636749 0.016998
0.846710 0.634399 0.017151
0.867889 0.632263 0.017273
0.889038 0.630280 0.017395
0.910217 0.628479 0.017548
0.931427 0.626740 0.017700
0.952637 0.625153 0.017853
0.973816 0.623566 0.018005
0.994965 0.622009 0.018127
0.060608 0.710510 0.000031
0.075165 0.714050 0.000031
0.089600 0.717651 0.000031
0.105133 0.720551 0.000824
0.121887 0.720520 0.002869
0.139587 0.719604 0.004456
0.157990 0.718323 0.005676
0.189667 0.717590 0.007599
0.223694 0.716553 0.009216
0.258881 0.714935 0.010315
0.294189 0.713196 0.011230
0.329865 0.711182 0.011993
0.365814 0.709015 0.012634
0.402069 0.706604 0.013184
0.438477 0.704163 0.013702
0.475128 0.701538 0.014160
0.511871 0.698914 0.014587
0.548767 0.696136 0.014954
0.585907 0.693329 0.015350
0.623108 0.690491 0.015717
0.660339 0.687744 0.016083
0.697601 0.684998 0.016418
0.734924 0.682190 0.016754
0.772095 0.679626 0.017059
0.805206 0.677124 0.017365
0.826324 0.674622 0.017487
0.847473 0.672363 0.017639
0.868652 0.670227 0.017761
0.889801 0.668213 0.017883
0.911011 0.666321 0.018066
0.932159 0.664429 0.018188
0.953339 0.662689 0.018372
0.974518 0.660889 0.018494
0.995667 0.659119 0.018616
0.062897 0.730927 0.000031
0.077728 0.734314 0.000031
0.091492 0.738281 0.000031
0.106720 0.741394 0.000610
0.123718 0.743317 0.002533
0.141449 0.744995 0.004211
0.159943 0.746277 0.005524
0.186829 0.748108 0.007294
0.221069 0.749786 0.009003
0.255951 0.750763 0.010315
0.291504 0.749115 0.011292
0.327087 0.747314 0.012115
0.363037 0.745331 0.012848
0.399323 0.743164 0.013458
0.435913 0.740814 0.013977
0.472565 0.738373 0.014496
0.509369 0.735840 0.014954
0.546387 0.733185 0.015350
0.583588 0.730469 0.015778
0.620850 0.727753 0.016113
0.658112 0.725067 0.016510
0.695404 0.722351 0.016815
0.732758 0.719696 0.017151
0.769989 0.717163 0.017517
0.806030 0.714783 0.017853
0.827148 0.712341 0.017975
0.848267 0.710052 0.018097
0.869476 0.707855 0.018250
0.890564 0.705780 0.018402
0.911743 0.703735 0.018555
0.932953 0.701721 0.018707
0.954102 0.699677 0.018860
0.975250 0.697632 0.018982
0.996399 0.695618 0.019104
0.065491 0.751160 0.000031
0.079865 0.754822 0.000031
0.093506 0.758820 0.000031
0.108307 0.762177 0.000336
0.124939 0.764282 0.002441
0.142792 0.765869 0.004028
0.161072 0.767273 0.005432
0.184113 0.768677 0.006866
0.217926 0.770538 0.008728
0.252747 0.771973 0.010162
0.288208 0.773071 0.011261
0.323975 0.773987 0.012177
0.360291 0.774658 0.012909
0.396606 0.775391 0.013641
0.433380 0.775970 0.014252
0.470215 0.775116 0.014771
0.507111 0.772705 0.015289
0.544220 0.770172 0.015717
0.581451 0.767517 0.016113
0.618774 0.764862 0.016541
0.656067 0.762238 0.016907
0.693451 0.759613 0.017273
0.730743 0.757050 0.017639
0.767944 0.754547 0.017975
0.804962 0.752197 0.018280
0.828064 0.749756 0.018494
0.849121 0.747437 0.018616
0.870239 0.745178 0.018738
0.891388 0.742889 0.018890
0.912537 0.740631 0.019012
0.933685 0.738403 0.019196
0.954895 0.736115 0.019348
0.975983 0.733826 0.019470
0.997162 0.731445 0.019592
0.067780 0.771545 0.000031
0.082123 0.775177 0.000031
0.095276 0.779480 0.000031
0.109802 0.782990 0.000122
0.126831 0.784943 0.002106
0.144073 0.786774 0.003876
0.162476 0.788147 0.005280
0.181305 0.789307 0.006439
0.215057 0.791290 0.008453
0.249603 0.792877 0.010010
0.285156 0.793976 0.011139
0.320984 0.794952 0.012146
0.357117 0.795837 0.013000
0.393646 0.796509 0.013733
0.430481 0.797119 0.014343
0.467438 0.797668 0.014923
0.504639 0.798157 0.015442
0.541901 0.798615 0.015930
0.579315 0.799103 0.016418
0.616730 0.799530 0.016907
0.654205 0.799225 0.017303
0.691589 0.796692 0.017670
0.728882 0.794189 0.018036
0.766052 0.791687 0.018372
0.803009 0.789337 0.018738
0.828827 0.786865 0.018951
0.849945 0.784424 0.019104
0.871063 0.781952 0.019226
0.892212 0.779541 0.019379
0.913330 0.777039 0.019501
0.934479 0.774536 0.019653
0.955627 0.771973 0.019806
0.976715 0.769379 0.019928
0.997864 0.766754 0.020050
0.070557 0.791687 0.000031
0.084198 0.795685 0.000031
0.097870 0.799713 0.000031
0.111877 0.803528 0.000031
0.128113 0.805878 0.001953
0.145721 0.807587 0.003662
0.163696 0.809113 0.005188
0.182526 0.810272 0.006378
0.212341 0.812073 0.008148
0.246796 0.813751 0.009827
0.282104 0.815002 0.011108
0.318146 0.815979 0.012115
0.354309 0.816895 0.013000
0.390961 0.817627 0.013763
0.427856 0.818237 0.014435
0.464935 0.818817 0.015045
0.502136 0.819397 0.015594
0.539520 0.819885 0.016113
0.577087 0.820312 0.016602
0.614563 0.820740 0.017059
0.652069 0.821167 0.017517
0.689575 0.821533 0.017914
0.726990 0.821899 0.018341
0.764160 0.822235 0.018738
0.800995 0.822601 0.019104
0.829681 0.822845 0.019409
0.850769 0.820923 0.019562
0.871887 0.818298 0.019714
0.892975 0.815643 0.019836
0.914124 0.812866 0.019958
