lut/复古风.cube
#Created by: Adobe Photoshop Export Color Lookup Plugin
#Copyright: (C) Copyright 2026 小米
TITLE "人像+相机模拟+黑白.psd"
#LUT size
LUT_3D_SIZE 36
#data domain
DOMAIN_MIN 0.0 0.0 0.0
DOMAIN_MAX 1.0 1.0 1.0
#LUT data points
0.066498 0.069763 0.059113
0.072083 0.069916 0.059143
0.068298 0.070496 0.059265
0.060394 0.070923 0.059448
0.054626 0.070312 0.059753
0.055450 0.069244 0.059875
0.064423 0.068390 0.059753
0.082581 0.067902 0.059448
0.109528 0.067963 0.058960
0.142242 0.068604 0.058044
0.177643 0.069855 0.056610
0.216156 0.071777 0.054413
0.258118 0.073578 0.051208
0.303467 0.075714 0.046631
0.352386 0.077026 0.040588
0.404327 0.077515 0.032166
0.458405 0.077026 0.021240
0.513275 0.075195 0.008545
0.567871 0.072174 0.001007
0.620697 0.068298 0.000000
0.670593 0.063660 0.000000
0.717194 0.058502 0.000000
0.760651 0.053986 0.000000
0.798798 0.050842 0.000000
0.832428 0.049896 0.000000
0.863464 0.050018 0.000000
0.892334 0.052002 0.000000
0.919403 0.055756 0.000000
0.937897 0.060913 0.000000
0.948914 0.067383 0.000000
0.957428 0.075073 0.000000
0.965942 0.083588 0.000000
0.974457 0.092773 0.000000
0.982971 0.102753 0.000000
0.991486 0.113251 0.000000
1.000000 0.124237 0.000000
0.067017 0.076172 0.058411
0.072876 0.075409 0.058746
0.071014 0.073669 0.059204
0.066071 0.072937 0.059387
0.061432 0.072876 0.059418
0.061371 0.073029 0.059326
0.068726 0.073303 0.059143
0.085236 0.073822 0.058716
0.110718 0.074707 0.058014
0.142426 0.076080 0.056885
0.177490 0.077881 0.054993
0.215515 0.080078 0.052460
0.256989 0.082703 0.048981
0.302185 0.085449 0.044159
0.351013 0.087677 0.037811
0.402771 0.089050 0.029236
0.456726 0.089417 0.018341
0.511444 0.088531 0.006348
0.565857 0.086670 0.000153
0.618713 0.083832 0.000000
0.668945 0.080139 0.000000
0.715912 0.076355 0.000000
0.759003 0.073090 0.000000
0.797089 0.070282 0.000000
0.830933 0.069214 0.000000
0.862030 0.069489 0.000000
0.891022 0.071228 0.000000
0.918121 0.074371 0.000000
0.937469 0.078918 0.000000
0.948914 0.084442 0.000000
0.957428 0.091217 0.000000
0.965942 0.099060 0.000000
0.974457 0.107697 0.000000
0.982971 0.117065 0.000000
0.991486 0.126923 0.000000
1.000000 0.137329 0.000000
0.068970 0.077728 0.056427
0.073212 0.078888 0.056396
0.075134 0.076935 0.057922
0.070679 0.075836 0.058746
0.067535 0.075623 0.058838
0.067322 0.076447 0.058655
0.073761 0.077728 0.058228
0.089081 0.079163 0.057556
0.113190 0.080902 0.056519
0.143738 0.083038 0.054993
0.178070 0.085510 0.052856
0.215729 0.088501 0.050232
0.256897 0.091919 0.046448
0.301941 0.095551 0.041382
0.350525 0.098724 0.034637
0.402130 0.100952 0.025635
0.455811 0.102173 0.014771
0.510406 0.102295 0.004974
0.564636 0.101318 0.000000
0.617371 0.099426 0.000000
0.667725 0.096771 0.000000
0.714752 0.094025 0.000000
0.757385 0.091553 0.000000
0.795258 0.089417 0.000000
0.828888 0.088409 0.000000
0.859894 0.088745 0.000000
0.888794 0.090088 0.000000
0.916016 0.092529 0.000000
0.936798 0.096344 0.000000
0.948914 0.101288 0.000000
0.957428 0.107208 0.000000
0.965942 0.114197 0.000000
0.974457 0.122009 0.000000
0.982971 0.130707 0.000000
0.991486 0.140076 0.000000
1.000000 0.149872 0.000000
0.068787 0.079407 0.053741
0.072723 0.080872 0.053772
0.076935 0.080811 0.053833
0.077454 0.078918 0.055664
0.073395 0.078674 0.056305
0.073914 0.079437 0.056183
0.080017 0.081268 0.055695
0.093811 0.083679 0.054932
0.116058 0.086487 0.053833
0.145081 0.089661 0.052246
0.178406 0.093231 0.050049
0.215393 0.097321 0.047150
0.256012 0.101929 0.043304
0.300781 0.106598 0.038086
0.348999 0.110779 0.030884
0.400269 0.114075 0.021606
0.453918 0.116364 0.010315
0.508575 0.117676 0.003265
0.563049 0.117859 0.000000
0.615906 0.117096 0.000000
0.666443 0.115570 0.000000
0.713654 0.113708 0.000000
0.755890 0.111908 0.000000
0.793579 0.110413 0.000000
0.827209 0.109894 0.000000
0.858337 0.109833 0.000000
0.887360 0.110931 0.000000
0.914612 0.113159 0.000000
0.936188 0.116180 0.000000
0.948914 0.120331 0.000000
0.957428 0.125610 0.000000
0.965942 0.131836 0.000000
0.974457 0.138855 0.000000
0.982971 0.146698 0.000000
0.991486 0.155334 0.000000
1.000000 0.164764 0.000000
0.065948 0.082550 0.050415
0.071075 0.083740 0.050568
0.075958 0.084930 0.050171
0.080627 0.083893 0.050629
0.081146 0.082397 0.052368
0.079559 0.083221 0.052795
0.085236 0.085236 0.052429
0.098358 0.088226 0.051605
0.118988 0.092102 0.050446
0.146423 0.096588 0.048767
0.178619 0.101501 0.046478
0.214844 0.106934 0.043457
0.255005 0.112762 0.039307
0.299347 0.118561 0.033661
0.347321 0.124023 0.025787
0.398438 0.128601 0.016479
0.451935 0.132233 0.006287
0.506470 0.134735 0.001465
0.560944 0.136230 0.000000
0.614166 0.136688 0.000000
0.664734 0.136353 0.000000
0.711823 0.135376 0.000000
0.753754 0.134308 0.000000
0.791351 0.133423 0.000000
0.825104 0.132874 0.000000
0.856476 0.132904 0.000000
0.885712 0.133728 0.000000
0.913208 0.135590 0.000000
0.935760 0.138214 0.000000
0.948914 0.141724 0.000000
0.957428 0.146149 0.000000
0.965942 0.151672 0.000000
0.974457 0.158020 0.000000
0.982971 0.165131 0.000000
0.991486 0.173126 0.000000
1.000000 0.181915 0.000000
0.062286 0.087341 0.047150
0.068420 0.088165 0.047302
0.074402 0.089111 0.047150
0.079742 0.089813 0.046692
0.084747 0.088654 0.047485
0.086823 0.087769 0.048645
0.089874 0.090057 0.048828
0.101654 0.093719 0.048126
0.121277 0.098480 0.046783
0.147461 0.104370 0.044952
0.178772 0.110931 0.042389
0.214447 0.117767 0.039124
0.254211 0.124939 0.034454
0.298279 0.132141 0.028076
0.346130 0.138885 0.019867
0.397247 0.144806 0.010010
0.450684 0.149841 0.004211
0.505310 0.153656 0.000000
0.559631 0.156403 0.000000
0.612976 0.158142 0.000000
0.663635 0.158936 0.000000
0.710175 0.158844 0.000000
0.751862 0.158356 0.000000
0.789368 0.157867 0.000000
0.823181 0.157410 0.000000
0.854706 0.157410 0.000000
0.884064 0.158264 0.000000
0.917999 0.161926 0.000000
0.935211 0.164307 0.000000
0.948914 0.167389 0.000000
0.957428 0.171326 0.000000
0.965942 0.176086 0.000000
0.974457 0.181854 0.000000
0.982971 0.188324 0.000000
0.991486 0.195648 0.000000
1.000000 0.203796 0.000000
0.057678 0.094147 0.044189
0.064545 0.094574 0.044281
0.071411 0.095001 0.044159
0.077759 0.095673 0.043823
0.083862 0.095764 0.043579
0.089752 0.095398 0.044098
0.094788 0.096069 0.044708
0.105255 0.100647 0.044189
0.124084 0.106628 0.042786
0.149780 0.113892 0.040649
0.180878 0.122345 0.037567
0.216705 0.131195 0.033478
0.256714 0.140198 0.027954
0.301086 0.148804 0.020660
0.349274 0.156952 0.011719
0.400726 0.164185 0.005127
0.454529 0.170441 0.001343
0.509125 0.175598 0.000000
0.564117 0.179657 0.000000
0.617798 0.182587 0.000000
0.668579 0.184357 0.000000
0.714508 0.184998 0.000000
0.755676 0.184967 0.000000
0.792755 0.184753 0.000000
0.826294 0.184540 0.000000
0.857513 0.184631 0.000000
0.886658 0.185394 0.000000
0.916290 0.187408 0.000000
0.939026 0.190552 0.000000
0.948914 0.193298 0.000000
0.957428 0.196747 0.000000
0.965942 0.201050 0.000000
0.974457 0.206085 0.000000
0.982971 0.212067 0.000000
0.991486 0.218719 0.000000
1.000000 0.226227 0.000000
0.051910 0.103729 0.041809
0.059509 0.103668 0.041718
0.067017 0.103638 0.041443
0.074341 0.103668 0.041138
0.081543 0.103577 0.040802
0.088623 0.104004 0.040649
0.096283 0.105255 0.040649
0.105896 0.108276 0.040619
0.125671 0.115967 0.039001
0.151520 0.124695 0.036469
0.182495 0.134491 0.032990
0.218536 0.145538 0.027863
0.258972 0.156647 0.021179
0.303894 0.167633 0.012695
0.352661 0.177185 0.004700
0.404541 0.185791 0.001251
0.458649 0.193359 0.000000
0.513702 0.199738 0.000000
0.569305 0.205200 0.000000
0.623108 0.209137 0.000000
0.674103 0.211761 0.000000
0.719543 0.212952 0.000000
0.760132 0.213287 0.000000
0.796692 0.213196 0.000000
0.829865 0.213135 0.000000
0.860809 0.213257 0.000000
0.889709 0.213806 0.000000
0.916901 0.214874 0.000000
0.937134 0.216431 0.000000
0.948914 0.218628 0.000000
0.957428 0.221619 0.000000
0.965942 0.225311 0.000000
0.974457 0.229858 0.000000
0.982971 0.235107 0.000000
0.991486 0.241211 0.000000
1.000000 0.248016 0.000000
0.044708 0.116608 0.040314
0.053192 0.115967 0.040039
0.061401 0.115509 0.039581
0.069550 0.114899 0.039062
0.077881 0.114105 0.038635
0.086243 0.113739 0.038452
0.094604 0.115662 0.038147
0.105286 0.119141 0.037567
0.121063 0.124756 0.036438
0.150360 0.136078 0.033356
0.181702 0.147247 0.029205
0.217163 0.159302 0.023590
0.257507 0.172241 0.015991
0.302643 0.185669 0.006348
0.351807 0.197693 0.001404
0.403961 0.208252 0.000000
0.458282 0.217102 0.000000
0.513916 0.224945 0.000000
0.569366 0.231293 0.000000
0.623535 0.236450 0.000000
0.673401 0.239532 0.000000
0.718292 0.241058 0.000000
0.758514 0.241638 0.000000
0.794769 0.241669 0.000000
0.827942 0.241486 0.000000
0.858887 0.241486 0.000000
0.887817 0.241730 0.000000
0.915070 0.242462 0.000000
0.936554 0.243683 0.000000
0.948914 0.245453 0.000000
0.957428 0.247864 0.000000
0.965942 0.251038 0.000000
0.974457 0.254974 0.000000
0.982971 0.259674 0.000000
0.991486 0.265137 0.000000
1.000000 0.271271 0.000000
0.034515 0.133057 0.039917
0.043854 0.131958 0.039307
0.053101 0.131012 0.038635
0.062469 0.129761 0.037872
0.072083 0.128174 0.037231
0.082001 0.126495 0.036896
0.091705 0.126770 0.036682
0.102295 0.130951 0.035919
0.117432 0.137146 0.034485
0.140442 0.145844 0.032043
0.179169 0.161102 0.026489
0.215668 0.174652 0.020172
0.256042 0.188751 0.011963
0.301086 0.203278 0.002289
0.350525 0.217804 0.000244
0.403229 0.231293 0.000000
0.458221 0.242950 0.000000
0.514221 0.252014 0.000000
0.569916 0.259521 0.000000
0.622925 0.264954 0.000000
0.671875 0.268433 0.000000
0.716064 0.270203 0.000000
0.755890 0.270844 0.000000
0.791992 0.270752 0.000000
0.825073 0.270538 0.000000
0.856018 0.270325 0.000000
0.885010 0.270325 0.000000
0.912384 0.270721 0.000000
0.935303 0.271545 0.000000
0.948914 0.272949 0.000000
0.957428 0.274933 0.000000
0.965942 0.277527 0.000000
0.974457 0.280853 0.000000
0.982971 0.284912 0.000000
0.991486 0.289886 0.000000
1.000000 0.295502 0.000000
0.020111 0.152771 0.040741
0.030029 0.151611 0.039764
0.040527 0.150177 0.038788
0.051575 0.148315 0.037781
0.062958 0.145996 0.036865
0.074829 0.143280 0.036133
0.086792 0.141357 0.035889
0.098297 0.143555 0.035461
0.112457 0.150330 0.033905
0.133148 0.159454 0.031372
0.163605 0.171234 0.027069
0.210693 0.190063 0.018463
0.253693 0.206390 0.009277
0.299500 0.222351 0.001038
0.349152 0.238098 0.000000
0.402496 0.253601 0.000000
0.458618 0.268555 0.000000
0.515289 0.280762 0.000000
0.570587 0.289490 0.000000
0.623016 0.295380 0.000000
0.671326 0.299072 0.000000
0.714966 0.300873 0.000000
0.754364 0.301422 0.000000
0.790100 0.301270 0.000000
0.823120 0.300842 0.000000
0.854126 0.300385 0.000000
0.883209 0.300201 0.000000
0.910614 0.300323 0.000000
0.934509 0.300842 0.000000
0.948914 0.301849 0.000000
0.957428 0.303375 0.000000
0.965942 0.305481 0.000000
0.974457 0.308319 0.000000
0.982971 0.311829 0.000000
0.991486 0.316284 0.000000
1.000000 0.321472 0.000000
0.001923 0.175720 0.043213
0.012848 0.174164 0.041992
0.023956 0.172516 0.040710
0.036133 0.170258 0.039124
0.048981 0.167389 0.037537
0.063019 0.163940 0.036133
0.078369 0.159973 0.035614
0.093201 0.158661 0.035614
0.106720 0.164062 0.034546
0.125427 0.173492 0.032166
0.152496 0.185669 0.028290
0.190247 0.200623 0.021393
0.245453 0.223145 0.009033
0.296570 0.242462 0.000946
0.348022 0.260223 0.000000
0.401917 0.276794 0.000000
0.457916 0.292450 0.000000
0.514496 0.306763 0.000000
0.571075 0.319427 0.000000
0.623444 0.327637 0.000000
0.671295 0.331451 0.000000
0.714539 0.333282 0.000000
0.753662 0.333740 0.000000
0.789429 0.333374 0.000000
0.822449 0.332764 0.000000
0.853271 0.332184 0.000000
0.882141 0.331635 0.000000
0.909332 0.331329 0.000000
0.933777 0.331451 0.000000
0.948914 0.331940 0.000000
0.957428 0.332977 0.000000
0.965942 0.334686 0.000000
0.974457 0.337067 0.000000
0.982971 0.340210 0.000000
0.991486 0.344116 0.000000
1.000000 0.348785 0.000000
0.000061 0.201447 0.047058
0.008575 0.199646 0.045654
0.017151 0.197693 0.044006
0.025757 0.195129 0.042114
0.034393 0.191772 0.040039
0.046967 0.187775 0.037964
0.063416 0.183167 0.036346
0.082703 0.178131 0.036224
0.101013 0.178192 0.036438
0.117096 0.187988 0.034393
0.141327 0.200287 0.030823
0.175446 0.215393 0.024780
0.220490 0.234222 0.014771
0.285126 0.261078 0.001465
0.345337 0.283325 0.000000
0.400726 0.301300 0.000000
0.456543 0.317596 0.000000
0.512848 0.332367 0.000000
0.576324 0.349731 0.000000
0.637360 0.365082 0.000000
0.683960 0.371399 0.000000
0.725616 0.373077 0.000000
0.763123 0.372681 0.000000
0.797394 0.371460 0.000000
0.829193 0.370148 0.000000
0.859009 0.368866 0.000000
0.887085 0.367828 0.000000
0.913635 0.367126 0.000000
0.935455 0.366821 0.000000
0.948914 0.366913 0.000000
0.957428 0.367493 0.000000
0.965942 0.368622 0.000000
0.974457 0.370453 0.000000
0.982971 0.373047 0.000000
0.991486 0.376404 0.000000
1.000000 0.380585 0.000000
0.000000 0.232971 0.053558
0.008514 0.231018 0.051727
0.017029 0.228760 0.049927
0.025543 0.225708 0.047424
0.034058 0.221832 0.044739
0.042572 0.217010 0.041809
0.051849 0.211487 0.039276
0.066437 0.205292 0.037842
0.087585 0.200653 0.038116
0.108826 0.204224 0.038116
0.130371 0.217438 0.035217
0.161896 0.233551 0.030090
0.204041 0.253326 0.020966
0.258820 0.277100 0.005310
0.334595 0.308044 0.000336
0.404816 0.332642 0.000000
0.464386 0.350800 0.000000
0.521393 0.366058 0.000000
0.576813 0.379059 0.000000
0.630859 0.390594 0.000000
0.678040 0.398346 0.000000
0.720306 0.403381 0.000000
0.758362 0.405823 0.000000
0.793274 0.404602 0.000000
0.825531 0.403229 0.000000
0.855621 0.401703 0.000000
0.883789 0.400299 0.000000
0.910339 0.399261 0.000000
0.934448 0.398468 0.000000
0.948914 0.398132 0.000000
0.957428 0.398315 0.000000
0.965942 0.399078 0.000000
0.974457 0.400574 0.000000
0.982971 0.402802 0.000000
0.991486 0.405792 0.000000
1.000000 0.409546 0.000000
0.000000 0.264404 0.060730
0.008514 0.262238 0.058746
0.017029 0.259735 0.056671
0.025543 0.256409 0.053833
0.034058 0.252167 0.050629
0.042572 0.247131 0.047180
0.051086 0.241241 0.043823
0.059601 0.234558 0.041107
0.074646 0.227020 0.040497
0.096252 0.223755 0.041748
0.118835 0.232788 0.040710
0.146576 0.249115 0.036774
0.184723 0.268799 0.029663
0.234436 0.292358 0.016357
0.297485 0.319214 0.000824
0.381989 0.352509 0.000000
0.459717 0.378357 0.000000
0.520508 0.395477 0.000000
0.575684 0.408569 0.000000
0.627258 0.418854 0.000000
0.674225 0.426422 0.000000
0.716583 0.431915 0.000000
0.754913 0.435791 0.000000
0.790131 0.437988 0.000000
0.822449 0.437714 0.000000
0.852539 0.435883 0.000000
0.880737 0.434082 0.000000
0.907288 0.432587 0.000000
0.932343 0.431488 0.000000
0.948425 0.430786 0.000000
0.957428 0.430603 0.000000
0.965942 0.431000 0.000000
0.974457 0.432098 0.000000
0.982971 0.433899 0.000000
0.991486 0.436462 0.000000
1.000000 0.439697 0.000000
0.000000 0.298553 0.069305
0.008514 0.296265 0.067169
0.017029 0.293640 0.064819
0.025543 0.290131 0.061890
0.034058 0.285583 0.058319
0.042572 0.280121 0.054321
0.051086 0.273621 0.050293
0.059601 0.266144 0.046570
0.068115 0.257874 0.043701
0.084381 0.248596 0.044250
0.107788 0.247375 0.046173
0.130707 0.263245 0.043549
0.165100 0.282623 0.038544
0.209869 0.305695 0.028809
0.266632 0.332001 0.011810
0.337250 0.361023 0.000000
0.428467 0.395599 0.000000
0.511169 0.421600 0.000000
0.571106 0.436798 0.000000
0.622467 0.447113 0.000000
0.669281 0.454559 0.000000
0.711700 0.459900 0.000000
0.750275 0.463806 0.000000
0.785675 0.466858 0.000000
0.818176 0.468719 0.000000
0.848297 0.470001 0.000000
0.876648 0.467957 0.000000
0.903320 0.466095 0.000000
0.928528 0.464722 0.000000
0.947205 0.463776 0.000000
0.957428 0.463287 0.000000
0.965942 0.463379 0.000000
0.974457 0.464111 0.000000
0.982971 0.465546 0.000000
0.991486 0.467743 0.000000
1.000000 0.470581 0.000000
0.000000 0.334473 0.079163
0.008514 0.332123 0.076935
0.017029 0.329468 0.074493
0.025543 0.325806 0.071198
0.034058 0.321075 0.067230
0.042572 0.315155 0.062775
0.051086 0.308258 0.058167
0.059601 0.300171 0.053589
0.068115 0.291077 0.049652
0.076630 0.281036 0.047546
0.093933 0.271393 0.049744
0.115875 0.277069 0.050171
0.145172 0.296112 0.046906
0.186279 0.318665 0.040405
0.237946 0.344421 0.028076
0.301941 0.372955 0.008240
0.379333 0.403595 0.000000
0.475250 0.438751 0.000000
0.561035 0.463867 0.000000
0.618286 0.476379 0.000000
0.664886 0.483734 0.000000
0.707214 0.488861 0.000000
0.745911 0.492615 0.000000
0.781372 0.495422 0.000000
0.814026 0.497742 0.000000
0.844391 0.499817 0.000000
0.872772 0.501282 0.000000
0.899567 0.500885 0.000000
0.924957 0.499298 0.000000
0.945557 0.498230 0.000000
0.957428 0.497559 0.000000
0.965942 0.497375 0.000000
0.974457 0.497864 0.000000
0.982971 0.499023 0.000000
0.991486 0.500885 0.000000
1.000000 0.503448 0.000000
0.000000 0.371704 0.090302
0.008514 0.369324 0.087921
0.017029 0.366516 0.085327
0.025543 0.362854 0.081879
0.034058 0.357910 0.077698
0.042572 0.351868 0.072693
0.051086 0.344513 0.067444
0.059601 0.336090 0.062225
0.068115 0.326599 0.057251
0.076630 0.315979 0.053406
0.085144 0.304260 0.052826
0.101532 0.297211 0.055664
0.125244 0.309662 0.055023
0.162781 0.331940 0.050842
0.211121 0.357239 0.043213
0.269989 0.385345 0.028931
0.341003 0.415741 0.006439
0.423981 0.447296 0.000000
0.522095 0.481445 0.000000
0.608063 0.504333 0.000000
0.661163 0.513733 0.000000
0.703247 0.518677 0.000000
0.741913 0.522217 0.000000
0.777496 0.524841 0.000000
0.810181 0.526947 0.000000
0.840607 0.528839 0.000000
0.868958 0.530731 0.000000
0.895599 0.532410 0.000000
0.920624 0.533691 0.000000
0.944061 0.532440 0.000000
0.957428 0.531555 0.000000
0.965942 0.531128 0.000000
0.974457 0.531311 0.000000
0.982971 0.532227 0.000000
0.991486 0.533813 0.000000
1.000000 0.536102 0.000000
0.000000 0.408997 0.102448
0.008514 0.406586 0.099915
0.017029 0.403748 0.097260
0.025543 0.399963 0.093628
0.034058 0.395081 0.089142
0.042572 0.388977 0.083984
0.051086 0.381622 0.078186
0.059601 0.373077 0.072205
0.068115 0.363281 0.066528
0.076630 0.353851 0.061920
0.085144 0.343170 0.058746
0.093658 0.329529 0.060272
0.109192 0.326538 0.063141
0.137146 0.347107 0.061218
0.184662 0.372223 0.056824
0.241302 0.400085 0.048584
0.308044 0.430267 0.033661
0.385376 0.461761 0.010681
0.472473 0.493164 0.000000
0.569611 0.524323 0.000000
0.653198 0.544006 0.000000
0.701904 0.550781 0.000000
0.740082 0.554047 0.000000
0.775330 0.556305 0.000000
0.807709 0.558044 0.000000
0.837860 0.559540 0.000000
0.865936 0.561035 0.000000
0.892303 0.562683 0.000000
0.917084 0.564514 0.000000
0.940399 0.566437 0.000000
0.957336 0.566376 0.000000
0.965942 0.565704 0.000000
0.974457 0.565552 0.004730
0.982971 0.566071 0.012329
0.991486 0.567322 0.020508
1.000000 0.569244 0.027710
0.000000 0.448242 0.117035
0.008514 0.445831 0.114380
0.017029 0.443054 0.111603
0.025543 0.439148 0.107758
0.034058 0.434174 0.102966
0.042572 0.428040 0.097321
0.051086 0.420746 0.091125
0.059601 0.412170 0.084564
0.068115 0.402435 0.077972
0.076630 0.391327 0.071930
0.085144 0.383087 0.068146
0.093658 0.369049 0.065338
0.102173 0.353638 0.069153
0.117432 0.361603 0.070465
0.154663 0.386108 0.068542
0.211884 0.413696 0.064301
0.276276 0.443634 0.056580
0.349213 0.474945 0.043213
0.430847 0.506500 0.023163
0.519318 0.536346 0.004211
0.612793 0.563293 0.000977
0.692902 0.580200 0.007660
0.737793 0.585327 0.013550
0.772552 0.587280 0.012115
0.804626 0.588745 0.012024
0.834503 0.589996 0.013763
0.862427 0.591248 0.016479
0.888611 0.592621 0.020020
0.913208 0.594208 0.023682
0.936432 0.596039 0.027374
0.955872 0.598083 0.031158
0.965942 0.599854 0.034882
0.974457 0.599762 0.037811
0.982971 0.600067 0.052368
0.991486 0.600952 0.069794
1.000000 0.602509 0.085175
0.000000 0.489655 0.134399
0.008514 0.487244 0.131653
0.017029 0.484467 0.128632
0.025543 0.480652 0.124634
0.034058 0.475677 0.119568
0.042572 0.469482 0.113556
0.051086 0.462219 0.106842
0.059601 0.453735 0.099640
0.068115 0.443939 0.092255
0.076630 0.432892 0.085052
0.085144 0.420471 0.078674
0.093658 0.406586 0.073364
0.102173 0.391327 0.072937
0.110687 0.381226 0.076874
0.130188 0.396484 0.077759
0.178528 0.423584 0.076355
0.243042 0.453064 0.072998
0.312744 0.484070 0.067017
0.389465 0.515411 0.057831
0.472595 0.545502 0.044525
0.559784 0.572632 0.026764
0.647858 0.595734 0.018585
0.724487 0.610931 0.050751
0.766052 0.615021 0.054169
0.798737 0.616608 0.055176
0.828644 0.617920 0.058563
0.856598 0.619049 0.063873
0.882782 0.620270 0.070862
0.907349 0.621674 0.078674
0.930542 0.623322 0.086945
0.951813 0.625275 0.095398
0.965942 0.627625 0.104248
0.974457 0.630493 0.113892
0.982971 0.631744 0.123169
0.991486 0.632812 0.132538
1.000000 0.634155 0.142487
0.000000 0.527283 0.151825
0.008514 0.524872 0.148956
0.017029 0.522247 0.145844
0.025543 0.518707 0.141785
0.034058 0.514069 0.136688
0.042572 0.508209 0.130493
0.051086 0.501251 0.123505
0.059601 0.493073 0.115814
0.068115 0.483612 0.107758
0.076630 0.472778 0.099701
0.085144 0.460541 0.092010
0.093658 0.446808 0.085236
0.102173 0.431763 0.080017
0.110687 0.415039 0.082642
0.119202 0.413239 0.085999
0.148285 0.434845 0.087036
0.209412 0.463837 0.086792
0.279205 0.494476 0.085236
0.353088 0.525665 0.082428
0.432159 0.555847 0.079102
0.515045 0.583405 0.076233
0.599426 0.607361 0.075104
0.682373 0.627747 0.075745
0.753021 0.640869 0.111816
0.792450 0.644348 0.121613
0.823090 0.645721 0.125458
0.850830 0.646759 0.128754
0.876862 0.647827 0.133087
0.901367 0.649078 0.138214
0.924530 0.650604 0.144012
0.946503 0.652466 0.150574
0.964905 0.654724 0.157654
0.974457 0.657440 0.165497
0.982971 0.660645 0.174103
0.991486 0.663727 0.183105
1.000000 0.665192 0.191742
0.000000 0.564636 0.171021
0.008514 0.562408 0.168182
0.017029 0.559967 0.165161
0.025543 0.556671 0.161041
0.034058 0.552307 0.155853
0.042572 0.546875 0.149597
0.051086 0.540314 0.142365
0.059601 0.532562 0.134338
0.068115 0.523499 0.125732
0.076630 0.513184 0.116852
0.085144 0.501404 0.108093
0.093658 0.488159 0.100037
0.102173 0.473389 0.092987
0.110687 0.457062 0.089844
0.119202 0.438934 0.093506
0.127716 0.447968 0.096649
0.173645 0.475067 0.098755
0.246246 0.505402 0.100342
0.319641 0.536499 0.101746
0.396179 0.566742 0.103638
0.475952 0.594666 0.106995
0.557098 0.619171 0.112549
0.637573 0.640228 0.120148
0.714813 0.658234 0.129456
0.778717 0.669525 0.162384
0.816528 0.672791 0.175659
0.845215 0.674103 0.180817
0.871094 0.675262 0.184601
0.895477 0.676575 0.189209
0.918518 0.678101 0.194458
0.940399 0.679932 0.200226
0.960205 0.682098 0.206573
0.974457 0.684662 0.213470
0.982971 0.687592 0.220795
0.991486 0.690918 0.229156
1.000000 0.694611 0.238190
0.000000 0.601898 0.192596
0.008514 0.600006 0.189880
0.017029 0.597748 0.186981
0.025543 0.594757 0.182983
0.034058 0.590759 0.177765
0.042572 0.585754 0.171417
0.051086 0.579681 0.164032
0.059601 0.572418 0.155731
0.068115 0.564087 0.146820
0.076630 0.554504 0.137482
0.085144 0.543457 0.127869
0.093658 0.530853 0.118439
0.102173 0.516785 0.109863
0.110687 0.500946 0.102600
0.119202 0.483368 0.102386
0.127716 0.471436 0.105988
0.149841 0.488007 0.110168
0.210754 0.518616 0.114624
0.290131 0.550018 0.119720
0.366364 0.580658 0.126038
0.444336 0.608856 0.134216
0.523163 0.633667 0.144592
0.601196 0.655090 0.156891
0.676392 0.673340 0.170502
0.746338 0.688843 0.185028
0.803864 0.699036 0.216553
0.839752 0.702271 0.232544
0.866455 0.703735 0.238525
0.890381 0.705109 0.242493
0.913086 0.706604 0.246918
0.934662 0.708344 0.251831
0.955292 0.710419 0.257294
0.972839 0.712830 0.263336
0.982971 0.715576 0.269989
0.991486 0.718628 0.277405
1.000000 0.722015 0.285553
0.000000 0.639740 0.218292
0.008514 0.638092 0.215698
0.017029 0.636108 0.212830
0.025543 0.633484 0.208954
0.034058 0.630066 0.203949
0.042572 0.625702 0.197815
0.051086 0.620361 0.190582
0.059601 0.614014 0.182404
0.068115 0.606537 0.173340
0.076630 0.597809 0.163422
0.085144 0.587585 0.153046
0.093658 0.575775 0.142426
0.102173 0.562317 0.132111
0.110687 0.547241 0.122742
0.119202 0.530396 0.115051
0.127716 0.511566 0.117157
