lut/复古风.cube
#Created by: Adobe Photoshop Export Color Lookup Plugin
#Copyright: (C) Copyright 2026 小米
TITLE "人像+相机模拟+黑白.psd"
#LUT size
LUT_3D_SIZE 6
#data domain
DOMAIN_MIN 0.0 0.0 0.0
DOMAIN_MAX 1.0 1.0 1.0
#LUT data points
0.066498 0.069763 0.059113
0.082581 0.067902 0.059448
0.352386 0.077026 0.040588
0.717194 0.058502 0.000000
0.937897 0.060913 0.000000
1.000000 0.124237 0.000000
0.051910 0.103729 0.041809
0.105896 0.108276 0.040619
0.352661 0.177185 0.004700
0.719543 0.212952 0.000000
0.937134 0.216431 0.000000
1.000000 0.248016 0.000000
0.000000 0.264404 0.060730
0.059601 0.234558 0.041107
0.297485 0.319214 0.000824
0.716583 0.431915 0.000000
0.932343 0.431488 0.000000
1.000000 0.439697 0.000000
0.000000 0.527283 0.151825
0.059601 0.493073 0.115814
0.119202 0.413239 0.085999
0.599426 0.607361 0.075104
0.901367 0.649078 0.138214
1.000000 0.665192 0.191742
0.000000 0.759705 0.320709
0.059601 0.746185 0.295563
0.119202 0.699768 0.228668
0.405151 0.695587 0.241180
0.816620 0.798187 0.373962
0.997467 0.829254 0.438629
0.326874 0.929291 0.526703
0.400879 0.925781 0.520966
0.500427 0.915894 0.508026
0.619171 0.896667 0.496948
0.797913 0.921906 0.537415
0.963684 0.954590 0.573120
0.059998 0.064087 0.094025
0.095673 0.055084 0.099487
0.338226 0.000000 0.099701
0.688354 0.000000 0.060181
0.931549 0.000000 0.059601
1.000000 0.050781 0.059601
0.040527 0.112213 0.105316
0.109039 0.111481 0.103363
0.337708 0.130127 0.093567
0.696014 0.134552 0.059601
0.931641 0.155182 0.059601
1.000000 0.219513 0.059601
0.000000 0.306458 0.169189
0.059601 0.280640 0.144989
0.299622 0.317688 0.122833
0.699799 0.415222 0.059875
0.924255 0.417511 0.059601
1.000000 0.435486 0.067230
0.000000 0.559875 0.267487
0.059601 0.532684 0.242828
0.135284 0.436249 0.176483
0.598663 0.603271 0.220184
0.892029 0.649414 0.279694
1.000000 0.666595 0.315277
0.000000 0.771515 0.415833
0.059601 0.758728 0.404755
0.119202 0.715240 0.334381
0.413361 0.688843 0.321655
0.815216 0.796783 0.458527
0.994598 0.829865 0.517303
0.322327 0.932373 0.594818
0.408569 0.927948 0.591187
0.511658 0.919922 0.580078
0.623871 0.900696 0.564270
0.797882 0.921448 0.601410
0.963867 0.955078 0.638367
0.075012 0.042572 0.262909
0.188110 0.016968 0.260681
0.315369 0.000488 0.239136
0.698334 0.000000 0.272827
0.932556 0.000000 0.214355
1.000000 0.000000 0.251373
0.000000 0.130463 0.283875
0.144714 0.111206 0.281097
0.326233 0.107819 0.254547
0.692108 0.059601 0.269073
0.920135 0.059601 0.251434
1.000000 0.172241 0.264984
0.000000 0.324127 0.347961
0.059601 0.322144 0.337585
0.311401 0.320892 0.302460
0.670197 0.353333 0.309113
0.909882 0.387268 0.320099
1.000000 0.432007 0.335022
0.000000 0.644104 0.499115
0.059601 0.626770 0.472565
0.248138 0.558350 0.402252
0.602600 0.600006 0.418793
0.872833 0.654480 0.473846
1.000000 0.672302 0.490631
0.000000 0.808228 0.556396
0.059601 0.797516 0.551208
0.318756 0.761566 0.531555
0.440247 0.679413 0.433319
0.816162 0.797424 0.576630
0.989197 0.834595 0.622711
0.150879 0.950226 0.669128
0.342804 0.944672 0.672485
0.538605 0.931366 0.674194
0.638367 0.912415 0.648285
0.794281 0.918396 0.669647
0.964081 0.955811 0.710449
0.075500 0.000000 0.579163
0.259583 0.000000 0.577271
0.511932 0.000000 0.567627
0.664886 0.000000 0.498138
0.927307 0.000000 0.517822
1.000000 0.019806 0.495453
0.000000 0.110840 0.591949
0.173157 0.088806 0.588837
0.489227 0.059601 0.576477
0.664948 0.059601 0.512634
0.918060 0.147614 0.532745
1.000000 0.216827 0.513245
0.000000 0.351807 0.618347
0.059601 0.351379 0.610199
0.380035 0.348663 0.597351
0.648285 0.367126 0.552460
0.893066 0.402069 0.566437
1.000000 0.426575 0.557037
0.000000 0.595703 0.667328
0.059601 0.598419 0.662354
0.181610 0.603607 0.645538
0.601166 0.593048 0.601166
0.857513 0.623566 0.618652
1.000000 0.654938 0.632355
0.000000 0.857391 0.752838
0.059601 0.851196 0.744873
0.119202 0.827545 0.719940
0.602844 0.767975 0.668121
0.816498 0.797302 0.695404
0.985352 0.836456 0.725861
0.000000 0.989105 0.747284
0.059601 0.983185 0.747589
0.283936 0.960785 0.760590
0.671539 0.935211 0.761353
0.781738 0.909241 0.738129
0.964722 0.957001 0.789520
0.130127 0.000000 0.814789
0.307068 0.000000 0.814178
0.561035 0.000000 0.810120
0.820770 0.000000 0.801666
0.911377 0.062225 0.730591
1.000000 0.309479 0.746979
0.000000 0.115723 0.817535
0.254913 0.099304 0.816071
0.539154 0.082184 0.811462
0.804321 0.114441 0.802277
0.901886 0.252136 0.739471
1.000000 0.410950 0.758179
0.000000 0.341400 0.821716
0.059601 0.345673 0.820374
0.469818 0.393707 0.813568
0.755432 0.421783 0.804199
0.875092 0.465790 0.760193
1.000000 0.544525 0.780334
0.000000 0.572235 0.833496
0.059601 0.579559 0.830688
0.237366 0.601959 0.821503
0.666229 0.623932 0.808502
0.843109 0.641357 0.784241
1.000000 0.666687 0.795990
0.000000 0.783997 0.851349
0.059601 0.787384 0.849487
0.166504 0.795166 0.844452
0.617065 0.799957 0.834961
0.807312 0.786194 0.804688
0.990326 0.812897 0.817780
0.000000 1.000000 0.899475
0.059601 1.000000 0.898315
0.119202 0.999481 0.891418
0.488708 0.975891 0.877136
0.814545 0.944550 0.858795
0.967316 0.960175 0.877655
0.289856 0.000000 0.971619
0.420349 0.000000 0.971039
0.627960 0.051849 0.968201
0.838837 0.188263 0.961823
0.940399 0.326355 0.946381
1.000000 0.378082 0.910522
0.273285 0.199951 0.972137
0.408264 0.209076 0.971222
0.619293 0.243073 0.967896
0.828522 0.322601 0.961151
0.940399 0.422882 0.947784
1.000000 0.464111 0.913574
0.070801 0.395508 0.973236
0.360107 0.437897 0.970123
0.586151 0.459412 0.966431
0.797974 0.497467 0.960297
0.940399 0.549194 0.952576
1.000000 0.578400 0.921356
0.000000 0.541748 0.977600
0.059601 0.551758 0.976227
0.250427 0.576630 0.972504
0.734528 0.655548 0.962524
0.917053 0.677246 0.955505
1.000000 0.700562 0.931976
0.000000 0.710693 0.983826
0.059601 0.715424 0.983063
0.119202 0.747345 0.978821
0.526215 0.780487 0.967194
0.847046 0.804413 0.959595
0.987610 0.826965 0.946533
0.000000 0.918915 0.985229
0.059601 0.915710 0.982452
0.119202 0.917511 0.982635
0.178833 0.935211 0.978333
0.762573 0.947113 0.972961
0.972015 0.964539 0.971619
