lut/复古风.cube
#Created by: Adobe Photoshop Export Color Lookup Plugin
#Copyright: (C) Copyright 2026 小米
TITLE "人像+相机模拟+黑白.psd"
#LUT size
LUT_3D_SIZE 8
#data domain
DOMAIN_MIN 0.0 0.0 0.0
DOMAIN_MAX 1.0 1.0 1.0
#LUT data points
0.066498 0.069763 0.059113
0.055450 0.069244 0.059875
0.177643 0.069855 0.056610
0.404327 0.077515 0.032166
0.670593 0.063660 0.000000
0.863464 0.050018 0.000000
0.957428 0.075073 0.000000
1.000000 0.124237 0.000000
0.062286 0.087341 0.047150
0.086823 0.087769 0.048645
0.178772 0.110931 0.042389
0.397247 0.144806 0.010010
0.663635 0.158936 0.000000
0.854706 0.157410 0.000000
0.957428 0.171326 0.000000
1.000000 0.203796 0.000000
0.020111 0.152771 0.040741
0.074829 0.143280 0.036133
0.163605 0.171234 0.027069
0.402496 0.253601 0.000000
0.671326 0.299072 0.000000
0.854126 0.300385 0.000000
0.957428 0.303375 0.000000
1.000000 0.321472 0.000000
0.000000 0.298553 0.069305
0.042572 0.280121 0.054321
0.107788 0.247375 0.046173
0.337250 0.361023 0.000000
0.669281 0.454559 0.000000
0.848297 0.470001 0.000000
0.957428 0.463287 0.000000
1.000000 0.470581 0.000000
0.000000 0.489655 0.134399
0.042572 0.469482 0.113556
0.085144 0.420471 0.078674
0.178528 0.423584 0.076355
0.559784 0.572632 0.026764
0.828644 0.617920 0.058563
0.951813 0.625275 0.095398
1.000000 0.634155 0.142487
0.000000 0.672668 0.242645
0.042572 0.661896 0.225006
0.085144 0.628296 0.180573
0.127716 0.559052 0.131927
0.386902 0.632599 0.172699
0.738007 0.726685 0.256195
0.920929 0.755859 0.329834
1.000000 0.767822 0.354370
0.000000 0.811859 0.380890
0.042572 0.806915 0.371063
0.085144 0.793915 0.347473
0.127930 0.766022 0.305603
0.350159 0.717163 0.275757
0.648712 0.795105 0.372711
0.863586 0.844543 0.441284
0.989258 0.866486 0.484772
0.326874 0.929291 0.526703
0.376953 0.927307 0.523315
0.440674 0.922546 0.516205
0.516296 0.913788 0.505829
0.600433 0.900116 0.497040
0.718414 0.900665 0.517822
0.848633 0.933685 0.548767
0.963684 0.954590 0.573120
0.063965 0.066437 0.077911
0.072662 0.063477 0.084534
0.179962 0.041321 0.085358
0.382019 0.012146 0.068634
0.648773 0.000000 0.042572
0.850189 0.000000 0.042572
0.957428 0.000000 0.042572
1.000000 0.086273 0.042572
0.059448 0.090118 0.079590
0.085358 0.087555 0.080536
0.179260 0.091949 0.077972
0.382385 0.107208 0.059235
0.646667 0.102844 0.042572
0.847168 0.097961 0.042572
0.957428 0.129669 0.042572
1.000000 0.181427 0.042572
0.001801 0.168610 0.097260
0.063812 0.160767 0.088287
0.165619 0.172852 0.080261
0.390839 0.238708 0.042786
0.654205 0.273224 0.042572
0.845062 0.277985 0.042572
0.957428 0.286316 0.042572
1.000000 0.310669 0.042572
0.000000 0.319366 0.136932
0.042572 0.304321 0.124084
0.105927 0.259979 0.101776
0.334564 0.355865 0.077271
0.654266 0.443054 0.042572
0.838928 0.458313 0.042572
0.957428 0.455811 0.042572
1.000000 0.467010 0.042572
0.000000 0.509796 0.209137
0.042572 0.492706 0.193542
0.085144 0.442078 0.148560
0.196930 0.420349 0.140076
0.558624 0.569427 0.139832
0.822723 0.616333 0.176514
0.947601 0.626251 0.200073
1.000000 0.635254 0.232422
0.000000 0.683167 0.313599
0.042572 0.674072 0.302673
0.085144 0.643250 0.257355
0.127716 0.577057 0.197235
0.393585 0.629883 0.236237
0.738190 0.726044 0.327484
0.917236 0.756744 0.397339
1.000000 0.769867 0.418976
0.000000 0.815430 0.441132
0.042572 0.810547 0.433441
0.085144 0.797607 0.409058
0.165833 0.769745 0.364777
0.351257 0.715668 0.323212
0.646179 0.791718 0.419769
0.862762 0.843872 0.492279
0.987885 0.866638 0.534851
0.336700 0.931244 0.577118
0.386353 0.929321 0.573730
0.448029 0.924561 0.566040
0.520477 0.915497 0.554047
0.602234 0.901611 0.543274
0.717072 0.899200 0.561279
0.848358 0.933411 0.593475
0.963654 0.954681 0.618408
0.057739 0.058838 0.143829
0.105103 0.051361 0.143280
0.166473 0.039124 0.140381
0.384338 0.000000 0.165741
0.642242 0.000000 0.124603
0.834137 0.000000 0.107300
0.957428 0.000000 0.089233
1.000000 0.000000 0.085205
0.028168 0.094666 0.154480
0.094086 0.085663 0.154480
0.176514 0.083221 0.146637
0.385773 0.042572 0.158661
0.632721 0.042572 0.135193
0.836823 0.042572 0.110229
0.957428 0.042572 0.090607
1.000000 0.127441 0.088348
0.000000 0.179779 0.179291
0.042572 0.178284 0.176117
0.175201 0.180206 0.166473
0.386780 0.197998 0.163605
0.644257 0.212067 0.146973
0.839661 0.226379 0.120819
0.957428 0.256775 0.103638
1.000000 0.300690 0.101898
0.000000 0.387878 0.276093
0.042572 0.373169 0.254303
0.107697 0.330353 0.212463
0.346161 0.361969 0.203827
0.646301 0.435608 0.197021
0.833221 0.445343 0.192444
0.957428 0.452881 0.202484
1.000000 0.473572 0.223053
0.000000 0.559265 0.336090
0.042572 0.546082 0.320038
0.085144 0.506561 0.284882
0.233643 0.429199 0.230682
0.561676 0.567322 0.279785
0.811218 0.616547 0.326752
0.937683 0.632233 0.347046
1.000000 0.641205 0.365692
0.000000 0.712250 0.416901
0.042572 0.703552 0.409790
0.085144 0.678314 0.389069
0.127716 0.621490 0.315338
0.407745 0.622314 0.322601
0.738525 0.724670 0.428436
0.909576 0.758820 0.489044
1.000000 0.773926 0.504730
0.000000 0.830688 0.514160
0.042572 0.825470 0.514801
0.174500 0.812256 0.509705
0.294647 0.786987 0.465302
0.395752 0.738312 0.408417
0.651642 0.789307 0.486206
0.863495 0.845001 0.559875
0.985504 0.868744 0.598053
0.296295 0.938995 0.627655
0.375153 0.936249 0.629242
0.467346 0.930267 0.627869
0.535004 0.921478 0.613953
0.611938 0.907715 0.599487
0.715637 0.896820 0.608063
0.847626 0.932831 0.641571
0.963715 0.955048 0.667694
0.079987 0.034821 0.303131
0.160828 0.017212 0.303680
0.276184 0.000000 0.298920
0.364471 0.000000 0.272644
0.656342 0.000000 0.318054
0.851837 0.000000 0.279877
0.957428 0.000000 0.249756
1.000000 0.000000 0.294556
0.006744 0.082001 0.314758
0.123749 0.073669 0.312653
0.266724 0.048798 0.306610
0.366669 0.045288 0.278381
0.646729 0.042572 0.315887
0.844299 0.042572 0.278046
0.957428 0.042572 0.271454
1.000000 0.094513 0.304321
0.000000 0.208588 0.343414
0.042572 0.203033 0.338257
0.209473 0.188385 0.331055
0.373596 0.193726 0.303009
0.638184 0.124023 0.319611
0.830902 0.089630 0.291077
0.957062 0.196014 0.311859
1.000000 0.282623 0.320526
0.000000 0.369568 0.404633
0.042572 0.367584 0.397736
0.085144 0.365784 0.380432
0.353424 0.362396 0.346466
0.617920 0.386963 0.354187
0.816223 0.410706 0.363800
0.952179 0.438599 0.376648
1.000000 0.471375 0.389954
0.000000 0.633484 0.544312
0.042572 0.625732 0.529510
0.085144 0.600525 0.488678
0.328705 0.534424 0.419678
0.569916 0.569031 0.434418
0.794403 0.617767 0.475281
0.925476 0.631653 0.487610
1.000000 0.645050 0.497467
0.000000 0.753296 0.559143
0.042572 0.747955 0.552856
0.085144 0.728912 0.534454
0.330322 0.686829 0.502502
0.436920 0.615479 0.425873
0.740570 0.724823 0.539795
0.901276 0.761658 0.585571
0.999237 0.778168 0.594879
0.000000 0.855316 0.602783
0.042572 0.850311 0.602295
0.102478 0.837067 0.601044
0.421753 0.811676 0.588959
0.473541 0.769379 0.523651
0.647491 0.779388 0.549957
0.862823 0.844757 0.630432
0.982697 0.870544 0.664429
0.039429 0.954102 0.679749
0.221008 0.950806 0.681824
0.415375 0.943237 0.686340
0.557404 0.931854 0.686340
0.626801 0.918457 0.666199
0.713074 0.898407 0.657898
0.846283 0.932190 0.693359
0.964172 0.955963 0.721405
0.078949 0.000000 0.531311
0.192596 0.000000 0.530701
0.349670 0.000000 0.525543
0.528442 0.000000 0.513458
0.614166 0.000000 0.457764
0.841949 0.000000 0.483612
0.957428 0.000000 0.463287
1.000000 0.000000 0.449341
0.000000 0.055206 0.539429
0.133057 0.043304 0.537598
0.327881 0.042572 0.532410
0.523682 0.042572 0.522064
0.614716 0.042572 0.465149
0.837006 0.042572 0.491669
0.957428 0.055115 0.472382
1.000000 0.080170 0.458740
0.000000 0.209869 0.555878
0.042572 0.190552 0.554932
0.242615 0.194702 0.549194
0.495880 0.176636 0.538330
0.614258 0.200165 0.488007
0.824768 0.233765 0.513245
0.957428 0.234009 0.492767
1.000000 0.276428 0.485504
0.000000 0.380646 0.590088
0.042572 0.380219 0.586060
0.085144 0.382172 0.574158
0.403015 0.382599 0.558716
0.598633 0.395050 0.524628
0.802887 0.412445 0.539307
0.945160 0.407684 0.521027
1.000000 0.461609 0.541290
0.000000 0.562622 0.632141
0.042572 0.563782 0.628876
0.085144 0.566711 0.619751
0.292572 0.568390 0.600739
0.563202 0.558807 0.563446
0.774414 0.581604 0.576416
0.916931 0.604584 0.589233
1.000000 0.628693 0.599365
0.000000 0.784302 0.718719
0.042572 0.783325 0.715637
0.085144 0.778076 0.705627
0.238892 0.753540 0.673676
0.561615 0.695862 0.617340
0.738831 0.721588 0.638977
0.893524 0.759888 0.670959
0.997192 0.773712 0.675629
0.000000 0.889038 0.723938
0.042572 0.885071 0.720703
0.085144 0.874023 0.712860
0.342590 0.852020 0.699371
0.586487 0.814636 0.674866
0.639221 0.762238 0.613403
0.863464 0.845825 0.706177
0.980713 0.873077 0.734131
0.000000 0.983582 0.731628
0.042572 0.979431 0.734131
0.085144 0.967743 0.742706
0.466370 0.951904 0.749908
0.653046 0.934845 0.749023
0.720520 0.915588 0.722992
0.841736 0.929443 0.746216
0.964813 0.957123 0.778503
0.088104 0.000000 0.727844
0.217133 0.000000 0.727722
0.390045 0.000000 0.725281
0.585541 0.000000 0.720306
0.761414 0.000000 0.700317
0.825958 0.000000 0.639221
0.955017 0.105804 0.643494
1.000000 0.242554 0.657745
0.000000 0.042572 0.730530
0.162354 0.042572 0.729950
0.366760 0.042572 0.727722
0.572632 0.042572 0.721741
0.757996 0.042572 0.705383
0.821411 0.042572 0.644135
0.951904 0.217590 0.652649
1.000000 0.313629 0.665009
0.000000 0.201752 0.737488
0.042572 0.214294 0.736023
0.295227 0.211487 0.732941
0.537933 0.202606 0.727173
0.741333 0.213409 0.714752
0.810242 0.268005 0.659760
0.938446 0.365234 0.674347
1.000000 0.412140 0.680908
0.000000 0.393433 0.745300
0.042572 0.395294 0.743011
0.085144 0.386108 0.740570
0.463318 0.412140 0.733307
0.696045 0.425354 0.724701
0.789154 0.452209 0.685425
0.919586 0.508331 0.704773
1.000000 0.514618 0.698212
0.000000 0.548615 0.764252
0.042572 0.551636 0.762268
0.085144 0.561401 0.757660
0.326660 0.574738 0.746124
0.615845 0.584534 0.732147
0.761993 0.595917 0.709595
0.904633 0.615997 0.721680
1.000000 0.610809 0.708801
0.000000 0.712708 0.783752
0.042572 0.714630 0.782440
0.085144 0.719208 0.778656
0.313934 0.724548 0.771393
0.578461 0.725403 0.758484
0.731567 0.712646 0.729340
0.885864 0.731873 0.739990
1.000000 0.750580 0.747284
0.000000 0.891632 0.831757
0.042572 0.892242 0.832062
0.085144 0.892975 0.833008
0.241150 0.887848 0.828430
0.569550 0.869171 0.807831
0.727356 0.821381 0.762573
0.863586 0.845978 0.782990
0.979767 0.874420 0.803925
0.000000 1.000000 0.836731
0.042572 1.000000 0.834290
0.085144 0.998962 0.829834
0.127716 0.983826 0.825623
0.528778 0.962769 0.821136
0.752380 0.940002 0.815887
0.830536 0.921112 0.797638
0.966187 0.958923 0.839600
0.166809 0.000000 0.863739
0.271820 0.000000 0.864044
0.427917 0.000000 0.862488
0.609802 0.000000 0.859039
0.789246 0.000000 0.853912
0.903076 0.073822 0.829376
0.952576 0.185089 0.785370
1.000000 0.315765 0.787750
0.120911 0.046692 0.862946
0.241577 0.042572 0.862305
0.409515 0.042572 0.860718
0.597443 0.042572 0.857422
0.778778 0.074463 0.852081
0.897003 0.196838 0.829865
0.949005 0.271545 0.789154
1.000000 0.381165 0.792603
0.000000 0.241821 0.864655
0.144531 0.243195 0.863983
0.370636 0.247131 0.862152
0.572998 0.257355 0.858276
0.757599 0.288605 0.852417
0.883545 0.352295 0.833984
0.935181 0.392761 0.797302
1.000000 0.469452 0.803284
0.000000 0.372742 0.869049
0.042572 0.374725 0.868530
0.230042 0.417236 0.864716
0.529266 0.446350 0.859528
0.720551 0.464111 0.853180
0.862610 0.495453 0.842834
0.916870 0.519348 0.810577
1.000000 0.568756 0.819427
0.000000 0.540070 0.873444
0.042572 0.545197 0.872101
0.085144 0.559906 0.868469
0.369812 0.575226 0.863281
0.662048 0.605896 0.856171
0.826782 0.619873 0.850189
0.898346 0.636566 0.826569
0.998749 0.670471 0.839508
0.000000 0.681946 0.883362
0.042572 0.686493 0.882568
0.085144 0.696930 0.879547
0.307190 0.712494 0.873810
0.579834 0.725555 0.865387
0.767731 0.730988 0.855591
0.879089 0.740417 0.841248
0.993378 0.755585 0.850342
0.000000 0.827911 0.892700
0.042572 0.830170 0.892059
0.085144 0.836121 0.890625
0.220825 0.842346 0.887665
0.576843 0.846893 0.883545
0.741211 0.848450 0.876434
0.856079 0.836609 0.854218
0.984528 0.856537 0.864594
0.000000 0.986420 0.920532
0.042572 0.987946 0.920654
0.085144 0.991058 0.920837
0.127716 0.990173 0.920837
0.379669 0.982269 0.918427
0.696045 0.970581 0.907074
0.857819 0.948700 0.889160
0.968658 0.961609 0.904419
0.289856 0.000000 0.971619
0.373474 0.000000 0.971375
0.503204 0.000031 0.970154
0.659943 0.070190 0.967529
0.811829 0.167297 0.962982
0.914856 0.271820 0.956451
0.957428 0.343445 0.936676
1.000000 0.378082 0.910522
0.279724 0.132111 0.971649
0.364319 0.136200 0.971130
0.497498 0.153778 0.970062
0.654846 0.190826 0.967163
0.806030 0.257812 0.962433
0.914795 0.342499 0.956024
0.957428 0.405457 0.937531
1.000000 0.435791 0.912231
0.250061 0.295593 0.971436
0.341339 0.301270 0.971008
0.480560 0.315369 0.969482
0.639984 0.340790 0.966156
0.790375 0.383484 0.961151
0.909637 0.436829 0.954895
0.957428 0.484802 0.938812
1.000000 0.510803 0.916290
0.010284 0.390930 0.974548
0.167572 0.423340 0.972534
0.440704 0.474243 0.968475
0.609070 0.490295 0.965332
0.763611 0.514404 0.961151
0.887848 0.545410 0.955994
0.957428 0.579193 0.943695
1.000000 0.590088 0.920532
0.000000 0.513092 0.977661
0.042572 0.515991 0.977020
0.085144 0.524506 0.975586
0.475616 0.585327 0.969330
0.716583 0.631866 0.963043
0.856781 0.648895 0.958740
0.957428 0.671570 0.951965
1.000000 0.685455 0.931427
0.000000 0.635345 0.982056
0.042572 0.640411 0.981415
0.085144 0.658997 0.979401
0.127716 0.695374 0.974487
0.568756 0.721161 0.969116
0.806183 0.750427 0.963165
0.934753 0.763519 0.958771
0.996735 0.777527 0.942322
0.000000 0.762726 0.981476
0.042572 0.763916 0.982483
0.085144 0.773468 0.983978
0.127716 0.801422 0.981171
0.447418 0.829865 0.975098
0.717743 0.845825 0.970001
0.888672 0.858826 0.965363
0.984070 0.872040 0.956085
0.000000 0.918915 0.985229
0.042572 0.919464 0.985260
0.085144 0.916687 0.982483
0.127716 0.917694 0.982635
0.170319 0.932129 0.979553
0.590210 0.941833 0.974609
0.839172 0.951813 0.972290
0.972015 0.964539 0.971619
