lut/奥林帕斯.cube
#Created by: Adobe Photoshop Export Color Lookup Plugin
#Copyright: (C) Copyright 2026 小米
TITLE "原图样片.jpg"
#LUT size
LUT_3D_SIZE 6
#data domain
DOMAIN_MIN 0.0 0.0 0.0
DOMAIN_MAX 1.0 1.0 1.0
#LUT data points
0.000000 0.000000 0.000000
0.142303 0.003082 0.007935
0.456573 0.004761 0.019104
0.736511 0.000427 0.022217
0.933960 0.000000 0.028564
0.981598 0.000000 0.030945
0.011047 0.159637 0.004089
0.163544 0.160034 0.003723
0.420471 0.180054 0.006805
0.713959 0.184845 0.000305
0.928619 0.162445 0.000000
0.981445 0.132568 0.000000
0.038208 0.475861 0.014771
0.171875 0.457855 0.013031
0.490692 0.479462 0.008789
0.721069 0.437927 0.005005
0.888397 0.397705 0.002075
0.981201 0.380524 0.000000
0.062653 0.706146 0.024414
0.202454 0.701569 0.023193
0.443909 0.695129 0.020477
0.697937 0.682434 0.009094
0.891846 0.631500 0.003693
0.980408 0.598755 0.003601
0.169281 0.870789 0.031830
0.275085 0.866425 0.030457
0.445953 0.857452 0.211548
0.653870 0.855652 0.035004
0.861786 0.842743 0.008942
0.980896 0.810760 0.001099
0.271484 0.977936 0.036835
0.353241 0.978455 0.057068
0.518066 0.984711 0.324982
0.670807 0.986237 0.382507
0.835419 0.983002 0.208435
0.980255 0.948914 0.006500
0.004913 0.015106 0.167603
0.161560 0.003815 0.166809
0.473297 0.006958 0.213470
0.760162 0.000824 0.173920
0.938324 0.000000 0.161865
0.981537 0.000000 0.137848
0.005402 0.183136 0.138611
0.184601 0.160156 0.161377
0.479279 0.154999 0.165924
0.747620 0.135651 0.156799
0.929077 0.119598 0.150482
0.987152 0.093689 0.131012
0.014923 0.482635 0.021698
0.182800 0.477509 0.118347
0.481018 0.470673 0.093018
0.704224 0.420105 0.109619
0.881500 0.388336 0.124115
0.985626 0.372070 0.115997
0.062592 0.704468 0.030884
0.231628 0.697754 0.103119
0.440521 0.685822 0.197601
0.685120 0.669159 0.033691
0.878601 0.619537 0.014862
0.985016 0.600647 0.157227
0.208954 0.866241 0.052765
0.300629 0.861908 0.147217
0.466034 0.852844 0.303314
0.657196 0.854126 0.259857
0.855682 0.837067 0.031372
0.980804 0.802917 0.001312
0.269714 0.978333 0.056458
0.365143 0.981232 0.184753
0.522186 0.985443 0.359833
0.675598 0.987518 0.443359
0.832581 0.985504 0.309814
0.980560 0.949646 0.020203
0.015503 0.019714 0.493378
0.146332 0.013550 0.486328
0.471313 0.009674 0.487854
0.755493 0.005219 0.503479
0.936157 0.002686 0.471191
0.981262 0.001312 0.457520
0.018250 0.247620 0.492828
0.015930 0.166626 0.496643
0.478516 0.090607 0.490570
0.756226 0.065613 0.494659
0.931396 0.156891 0.475769
0.985199 0.224396 0.474274
0.019073 0.524719 0.413849
0.018524 0.516022 0.421814
0.532684 0.472290 0.475708
0.732971 0.475037 0.485016
0.908905 0.466644 0.483337
0.989624 0.455627 0.475250
0.028534 0.710052 0.265106
0.270172 0.709747 0.359955
0.526825 0.697296 0.478088
0.710999 0.691498 0.465607
0.879059 0.645264 0.440002
0.989288 0.638550 0.459686
0.342346 0.876984 0.377014
0.390381 0.877197 0.388855
0.542786 0.866516 0.473083
0.692627 0.856628 0.508942
0.874847 0.857758 0.439789
0.987762 0.826691 0.384308
0.300140 0.983582 0.290039
0.375732 0.984680 0.336212
0.538544 0.987427 0.453064
0.697815 0.990387 0.582458
0.843018 0.989349 0.514160
0.987976 0.967957 0.430603
0.028473 0.025482 0.716003
0.028473 0.025482 0.716248
0.390045 0.019470 0.707336
0.689178 0.011047 0.711029
0.923370 0.003113 0.718903
0.980835 0.003906 0.688416
0.024780 0.213043 0.716858
0.024170 0.175690 0.717682
0.381775 0.126556 0.710541
0.690033 0.043610 0.710480
0.919739 0.119232 0.714996
0.984680 0.201599 0.689911
0.027496 0.532410 0.705536
0.041687 0.524628 0.705505
0.430603 0.476990 0.724579
0.713928 0.460541 0.706818
0.907715 0.478455 0.705109
0.989716 0.481262 0.697784
0.031097 0.735870 0.610107
0.030945 0.730133 0.615723
0.354919 0.721680 0.650299
0.762329 0.678406 0.683044
0.883270 0.687653 0.695129
0.993561 0.680237 0.691193
0.041595 0.879608 0.381073
0.069855 0.877441 0.431183
0.492889 0.877747 0.564911
0.723724 0.865112 0.679688
0.881134 0.861298 0.692505
0.992737 0.837708 0.649902
0.412354 0.985840 0.538177
0.470947 0.987366 0.562408
0.562775 0.989594 0.591095
0.706421 0.991974 0.663452
0.850647 0.993011 0.699554
0.992706 0.980408 0.658661
0.040466 0.030334 0.884003
0.040588 0.030426 0.885132
0.261841 0.027863 0.874084
0.597076 0.022919 0.874054
0.847412 0.012390 0.873962
0.980988 0.002289 0.893677
0.032318 0.203552 0.889069
0.032104 0.195526 0.887939
0.257782 0.159088 0.872955
0.601410 0.120148 0.874237
0.852722 0.099518 0.875977
0.985565 0.142151 0.891998
0.041260 0.545410 0.873444
0.050598 0.527130 0.873596
0.331604 0.475525 0.888611
0.638702 0.453979 0.871704
0.873108 0.443329 0.877258
0.989227 0.449036 0.882690
0.040405 0.754089 0.862061
0.040192 0.749298 0.862091
0.433502 0.729218 0.873657
0.661438 0.684387 0.877533
0.878937 0.667023 0.869385
0.993134 0.668365 0.875763
0.042694 0.902985 0.763794
0.042755 0.900177 0.766998
0.118164 0.894379 0.781952
0.601196 0.886536 0.823944
0.895050 0.860504 0.862305
0.997040 0.861389 0.866211
0.051910 0.978363 0.466888
0.054199 0.978363 0.494598
0.258453 0.981903 0.596710
0.675812 0.991791 0.755219
0.876282 0.996490 0.859802
0.996857 0.991699 0.861603
0.050323 0.035278 0.981750
0.050323 0.035278 0.981750
0.066803 0.034180 0.971802
0.486206 0.029785 0.973663
0.769928 0.020020 0.976288
0.950745 0.011993 0.978394
0.037140 0.197601 0.986725
0.037140 0.191071 0.986877
0.036652 0.171173 0.987152
0.489899 0.114258 0.975037
0.770081 0.039154 0.976624
0.951660 0.026825 0.978760
0.050110 0.503204 0.982849
0.048035 0.479095 0.983063
0.095612 0.454224 0.984985
0.523804 0.424316 0.987061
0.794525 0.411499 0.987274
0.972656 0.404266 0.987701
0.045166 0.738831 0.979340
0.045166 0.735657 0.979340
0.385254 0.722107 0.985291
0.561432 0.668060 0.989319
0.804962 0.649628 0.992065
0.982361 0.640320 0.991608
0.057556 0.925720 0.978607
0.057037 0.922028 0.978607
0.308197 0.908813 0.982788
0.628052 0.891174 0.990723
0.829468 0.861115 0.995697
0.992188 0.850433 0.996063
0.051788 0.978363 0.875336
0.052063 0.978363 0.878693
0.199738 0.981873 0.897095
0.610901 0.990051 0.936890
0.881989 0.996887 0.977325
1.000000 1.000000 1.000000
