lut/奥林帕斯.cube
#Created by: Adobe Photoshop Export Color Lookup Plugin
#Copyright: (C) Copyright 2026 小米
TITLE "原图样片.jpg"
#LUT size
LUT_3D_SIZE 36
#data domain
DOMAIN_MIN 0.0 0.0 0.0
DOMAIN_MAX 1.0 1.0 1.0
#LUT data points
0.000000 0.000000 0.000000
0.000000 0.000000 0.000000
0.001648 0.000031 0.000092
0.010223 0.000244 0.000610
0.032257 0.000732 0.001740
0.061920 0.001434 0.003540
0.101166 0.002350 0.005707
0.142303 0.003082 0.007935
0.183960 0.003998 0.010040
0.227112 0.004608 0.012024
0.271851 0.005188 0.013977
0.316498 0.005554 0.015656
0.362946 0.005524 0.017120
0.410004 0.005310 0.018188
0.456573 0.004761 0.019104
0.503662 0.004211 0.019196
0.548981 0.002808 0.019135
0.591156 0.001221 0.018677
0.631470 0.000000 0.018860
0.668640 0.000000 0.019714
0.704132 0.000122 0.020874
0.736511 0.000427 0.022217
0.767303 0.000488 0.023224
0.795105 0.000458 0.024200
0.823853 0.000122 0.024841
0.854340 0.000000 0.025574
0.883484 0.000000 0.026550
0.909271 0.000000 0.027374
0.933960 0.000000 0.028564
0.957794 0.000000 0.029755
0.974945 0.000000 0.030579
0.981598 0.000000 0.030945
0.981598 0.000000 0.030945
0.981598 0.000000 0.030945
0.981598 0.000000 0.030945
0.981598 0.000000 0.030945
0.000000 0.000397 0.000000
0.000427 0.000305 0.000000
0.003357 0.000610 0.000092
0.011810 0.000702 0.000275
0.033539 0.000732 0.000916
0.061218 0.001404 0.002960
0.098083 0.002258 0.005493
0.137360 0.002991 0.007660
0.178558 0.003845 0.009705
0.221100 0.004517 0.011688
0.264984 0.005066 0.013641
0.309357 0.005432 0.015381
0.355774 0.005585 0.016968
0.402130 0.005493 0.018005
0.449066 0.005035 0.018860
0.496063 0.004486 0.019318
0.541138 0.003052 0.019196
0.583862 0.001465 0.018677
0.625824 0.000000 0.018921
0.663544 0.000000 0.019562
0.699371 0.000092 0.020691
0.731781 0.000397 0.022095
0.762878 0.000549 0.023224
0.791290 0.000427 0.024048
0.820435 0.000122 0.024719
0.850372 0.000000 0.025452
0.878845 0.000000 0.026398
0.904266 0.000000 0.027252
0.928314 0.000000 0.028320
0.952332 0.000000 0.029480
0.972961 0.000000 0.030487
0.981598 0.000000 0.030945
0.981598 0.000000 0.030945
0.981598 0.000000 0.030945
0.981598 0.000000 0.030945
0.981598 0.000000 0.030945
0.000275 0.004822 0.000122
0.000366 0.005035 0.000122
0.005066 0.005157 0.000122
0.014008 0.006287 0.000305
0.032196 0.007355 0.000732
0.059631 0.009003 0.001373
0.095062 0.010437 0.002197
0.133179 0.011536 0.003052
0.173706 0.012268 0.003723
0.215912 0.012299 0.004395
0.258911 0.011627 0.005066
0.303894 0.010834 0.005341
0.349640 0.010071 0.005707
0.395691 0.008698 0.005585
0.442780 0.007843 0.005066
0.489471 0.007263 0.004547
0.534943 0.005920 0.003204
0.578949 0.001770 0.003998
0.621216 0.000000 0.009277
0.659088 0.000000 0.016418
0.695343 0.000031 0.020386
0.727936 0.000366 0.021942
0.759338 0.000519 0.023071
0.788544 0.000427 0.023956
0.818298 0.000122 0.024628
0.847748 0.000000 0.025391
0.875732 0.000000 0.026276
0.900787 0.000000 0.027130
0.924438 0.000000 0.028137
0.948669 0.000000 0.029266
0.971497 0.000000 0.030396
0.981598 0.000000 0.030945
0.981598 0.000000 0.030945
0.981598 0.000000 0.030945
0.981598 0.000000 0.030945
0.981598 0.000000 0.030945
0.001129 0.018372 0.000458
0.001038 0.017365 0.000427
0.006256 0.017151 0.000427
0.018494 0.018677 0.000458
0.037262 0.021606 0.000916
0.062408 0.024841 0.001526
0.093811 0.028381 0.002167
0.128754 0.031921 0.002930
0.168427 0.035797 0.003662
0.210419 0.039246 0.004364
0.252869 0.042023 0.005096
0.297546 0.044342 0.005249
0.342621 0.045776 0.005615
0.388611 0.046875 0.005615
0.435516 0.047638 0.005310
0.482605 0.047028 0.004791
0.528320 0.045258 0.003479
0.573029 0.039398 0.002014
0.615448 0.031342 0.000244
0.653717 0.024628 0.000000
0.689941 0.017731 0.000000
0.722717 0.010406 0.000305
0.754211 0.005157 0.000519
0.784027 0.000397 0.002319
0.814575 0.000183 0.008942
0.843475 0.000000 0.015625
0.870972 0.000000 0.023041
0.896606 0.000000 0.026978
0.920624 0.000000 0.027954
0.945251 0.000000 0.029114
0.968597 0.000000 0.030304
0.980957 0.000000 0.030884
0.981598 0.000000 0.030945
0.981598 0.000000 0.030945
0.981598 0.000000 0.030945
0.981598 0.000000 0.030945
0.002655 0.043243 0.001099
0.002502 0.040405 0.001007
0.007355 0.038116 0.000946
0.021790 0.040344 0.001007
0.043213 0.043365 0.001099
0.070404 0.047882 0.001617
0.099762 0.052582 0.002319
0.130005 0.056732 0.002960
0.165894 0.061707 0.003601
0.203094 0.066376 0.004364
0.245453 0.072235 0.004974
0.289368 0.077454 0.005524
0.333710 0.082031 0.005859
0.380554 0.084778 0.006104
0.427521 0.087067 0.005981
0.474243 0.088257 0.004913
0.521027 0.086853 0.004303
0.566071 0.084381 0.002808
0.608887 0.080292 0.000885
0.647705 0.075348 0.000000
0.684235 0.069977 0.000000
0.717438 0.063843 0.000305
0.749756 0.055695 0.000519
0.779938 0.047241 0.000549
0.810913 0.036987 0.000397
0.839539 0.026764 0.000000
0.866791 0.017090 0.000000
0.892639 0.011047 0.000000
0.917114 0.005585 0.000000
0.941956 0.000000 0.000824
0.965454 0.000000 0.006592
0.979553 0.000000 0.012268
0.981476 0.000000 0.017731
0.981537 0.000000 0.023010
0.981598 0.000000 0.027863
0.981598 0.000000 0.030945
0.005157 0.076172 0.001953
0.004761 0.072479 0.001862
0.009064 0.068573 0.001770
0.026459 0.069519 0.001740
0.050323 0.073334 0.001801
0.077850 0.077179 0.001892
0.108398 0.082489 0.002472
0.139374 0.087036 0.003204
0.171021 0.090973 0.003906
0.203979 0.094849 0.004395
0.241577 0.099640 0.005066
0.281982 0.104462 0.005707
0.326324 0.110107 0.005707
0.372803 0.114960 0.006073
0.420380 0.118073 0.006073
0.467072 0.120026 0.005707
0.514160 0.120636 0.004547
0.559692 0.120117 0.003662
0.602722 0.118317 0.002075
0.642365 0.115509 0.000000
0.678955 0.111969 0.000000
0.712982 0.107910 0.000275
0.746460 0.104004 0.000610
0.777344 0.098846 0.000641
0.815399 0.094910 0.000244
0.848175 0.089935 0.000000
0.876007 0.082825 0.000000
0.901398 0.076019 0.000000
0.925751 0.068909 0.000000
0.950348 0.060211 0.000000
0.966705 0.051025 0.000000
0.978241 0.041718 0.000000
0.981598 0.031769 0.000000
0.981598 0.021393 0.000000
0.981537 0.012634 0.000153
0.981537 0.007721 0.000305
0.007568 0.114227 0.002930
0.007416 0.110687 0.002838
0.011719 0.106598 0.002747
0.030731 0.106140 0.002716
0.058502 0.109406 0.002686
0.088867 0.112885 0.002777
0.117706 0.115692 0.002869
0.151276 0.120605 0.003448
0.184174 0.125366 0.003998
0.218353 0.129456 0.004700
0.251495 0.132507 0.005402
0.287689 0.135620 0.005798
0.326538 0.139526 0.006195
0.370941 0.144379 0.006348
0.418304 0.149017 0.006470
0.464905 0.152222 0.006348
0.511688 0.154236 0.005188
0.557251 0.155151 0.003754
0.600189 0.154419 0.002441
0.639832 0.152710 0.000580
0.676849 0.150391 0.000000
0.712341 0.148010 0.000275
0.746735 0.145081 0.000671
0.779694 0.141846 0.000854
0.811127 0.137848 0.000641
0.857880 0.137512 0.000061
0.886078 0.132935 0.000000
0.912048 0.127380 0.000000
0.937347 0.122040 0.000000
0.961243 0.116577 0.000000
0.977417 0.111084 0.000000
0.981506 0.105865 0.000000
0.981506 0.100372 0.000000
0.981506 0.095001 0.000000
0.981445 0.090057 0.000000
0.981506 0.084076 0.000000
0.011047 0.159637 0.004089
0.010742 0.156433 0.003967
0.014496 0.152771 0.003876
0.033936 0.150635 0.003845
0.065369 0.151917 0.003845
0.099701 0.155182 0.003784
0.132477 0.158813 0.003876
0.163544 0.160034 0.003723
0.198975 0.163940 0.004303
0.236023 0.168915 0.005066
0.271790 0.171967 0.005737
0.306183 0.173920 0.006165
0.341522 0.175537 0.006500
0.378998 0.177338 0.006592
0.420471 0.180054 0.006805
0.466217 0.184082 0.006531
0.512634 0.186615 0.005676
0.557709 0.188324 0.004547
0.599854 0.188904 0.003113
0.639648 0.187836 0.001282
0.677124 0.186096 0.000000
0.713959 0.184845 0.000305
0.750214 0.183167 0.000702
0.783966 0.180542 0.000793
0.816467 0.177429 0.000671
0.846588 0.174225 0.000366
0.875977 0.170685 0.000000
0.903076 0.166534 0.000000
0.928619 0.162445 0.000000
0.953613 0.158051 0.000000
0.973907 0.153473 0.000000
0.981445 0.149200 0.000000
0.981445 0.145325 0.000000
0.981445 0.140961 0.000000
0.981445 0.137054 0.000000
0.981445 0.132568 0.000000
0.013977 0.200775 0.005585
0.013641 0.197754 0.005524
0.015198 0.194336 0.005463
0.030396 0.190216 0.005371
0.062256 0.189636 0.004852
0.101593 0.192474 0.004883
0.137543 0.196014 0.004761
0.172455 0.200256 0.004852
0.205170 0.200989 0.004639
0.241425 0.203552 0.005188
0.282043 0.209259 0.005707
0.318085 0.211761 0.006409
0.353455 0.212494 0.006683
0.388214 0.212891 0.006897
0.423981 0.213013 0.006866
0.460236 0.213501 0.006927
0.502655 0.215881 0.006500
0.547760 0.218384 0.005615
0.589691 0.219513 0.004761
0.630524 0.219879 0.002716
0.669952 0.219574 0.000671
0.708221 0.218933 0.000275
0.743866 0.217743 0.000793
0.777039 0.215546 0.001038
0.808777 0.212982 0.001007
0.838959 0.209839 0.000793
0.867767 0.206848 0.000183
0.895416 0.203094 0.000000
0.920837 0.198944 0.000000
0.946381 0.194916 0.000000
0.969910 0.190826 0.000000
0.981445 0.186584 0.000000
0.981445 0.182709 0.000000
0.981445 0.179474 0.000000
0.981476 0.175995 0.000000
0.981506 0.172729 0.000000
0.017578 0.243927 0.006866
0.017426 0.241364 0.006805
0.017242 0.238556 0.006775
0.030609 0.234344 0.006653
0.060699 0.232025 0.006317
0.100525 0.232971 0.006348
0.140472 0.235840 0.006317
0.177551 0.239258 0.005768
0.214813 0.243256 0.005798
0.248138 0.242737 0.005554
0.285797 0.243774 0.005768
0.328735 0.250244 0.006226
0.366486 0.251953 0.006927
0.401184 0.251526 0.007324
0.436218 0.250732 0.007202
0.470459 0.249512 0.007172
0.504639 0.248016 0.007019
0.538849 0.246643 0.006104
0.581360 0.249298 0.005554
0.625061 0.251434 0.003998
0.664917 0.251801 0.001770
0.702881 0.251404 0.000183
0.737396 0.250275 0.000732
0.770599 0.248352 0.001038
0.801941 0.246124 0.001068
0.832489 0.243652 0.000916
0.861084 0.240692 0.000824
0.889130 0.237457 0.000153
0.914856 0.233734 0.000000
0.940674 0.230103 0.000000
0.964752 0.226196 0.000000
0.978668 0.222717 0.000000
0.981445 0.219452 0.000000
0.981445 0.216187 0.000000
0.981445 0.213165 0.000000
0.981445 0.210175 0.000000
0.021118 0.288574 0.007996
0.020996 0.286011 0.007904
0.020844 0.283478 0.007843
0.030914 0.279907 0.007751
0.054779 0.275116 0.007629
0.095184 0.274292 0.007507
0.139954 0.276672 0.007355
0.179474 0.279327 0.007416
0.218628 0.282684 0.006775
0.256775 0.286469 0.006439
0.291656 0.285309 0.006287
0.329224 0.285278 0.006256
0.375580 0.292114 0.006683
0.413696 0.292755 0.007172
0.447601 0.291077 0.007629
0.482056 0.289062 0.007538
0.515900 0.287231 0.007385
0.551178 0.285889 0.007019
0.585205 0.284698 0.006042
0.620087 0.283691 0.005035
0.659363 0.284454 0.003418
0.696899 0.284241 0.001282
0.730927 0.282928 0.000732
0.763916 0.281189 0.001160
0.794373 0.279022 0.001434
0.824615 0.276306 0.001282
0.852539 0.273376 0.001038
0.880280 0.269989 0.000580
0.906128 0.266541 0.000000
0.931671 0.262695 0.000000
0.956635 0.259003 0.000000
0.974823 0.255585 0.000000
0.981445 0.252411 0.000000
0.981506 0.249420 0.000000
0.981506 0.246613 0.000000
0.981506 0.244049 0.000000
0.024567 0.331024 0.009705
0.024323 0.329041 0.009644
0.024109 0.326660 0.009583
0.028992 0.323517 0.009460
0.054504 0.319122 0.009094
0.090820 0.316040 0.008606
0.135590 0.317108 0.008667
0.179199 0.319763 0.008484
0.220612 0.322754 0.008423
0.260162 0.326172 0.007751
0.300598 0.330109 0.007385
0.335388 0.328003 0.007019
0.374664 0.327179 0.006561
0.423859 0.334778 0.006866
0.462860 0.335541 0.007477
0.498047 0.332733 0.007446
0.532074 0.330078 0.007599
0.565582 0.327118 0.007263
0.597351 0.323883 0.006348
0.627319 0.320282 0.005615
0.655823 0.316467 0.004242
0.689423 0.315033 0.002869
0.722809 0.313446 0.001434
0.755981 0.311798 0.001160
0.786316 0.309631 0.001434
0.816711 0.307404 0.001495
0.844727 0.304474 0.001556
0.872375 0.301483 0.001099
0.898834 0.298096 0.000427
0.924316 0.294861 0.000000
0.950012 0.291626 0.000000
0.971588 0.288635 0.000000
0.981384 0.285797 0.000000
0.981384 0.283173 0.000000
0.981384 0.280792 0.000000
0.981384 0.278442 0.000000
0.028992 0.375610 0.010864
0.028900 0.373840 0.010742
0.028717 0.371887 0.010681
0.028656 0.369110 0.010590
0.053314 0.365417 0.010529
0.086823 0.360657 0.010376
0.128967 0.359802 0.009949
0.177063 0.362274 0.009918
0.220673 0.365082 0.009766
0.262573 0.368134 0.009460
0.304443 0.372650 0.008820
0.347443 0.377930 0.008362
0.383881 0.375305 0.007965
0.437042 0.385040 0.006714
0.491302 0.394409 0.006836
0.531006 0.393219 0.007355
0.564880 0.388489 0.007416
0.596222 0.382965 0.007111
0.625732 0.376923 0.006714
0.653046 0.370514 0.005951
0.679749 0.364197 0.004791
0.704895 0.358307 0.003662
0.730865 0.353577 0.002716
0.761322 0.350616 0.001556
0.790924 0.347961 0.001770
0.820770 0.345337 0.001831
0.848480 0.342163 0.001709
0.876007 0.338837 0.001587
0.901886 0.335266 0.001129
0.927246 0.331451 0.000153
0.952515 0.327942 0.000000
0.970978 0.324615 0.000000
0.981232 0.321655 0.000000
0.981262 0.319031 0.000000
0.981293 0.316650 0.000000
0.981323 0.314514 0.000000
0.033234 0.425293 0.012909
0.033051 0.423615 0.012848
0.032867 0.421570 0.012787
0.032623 0.419403 0.012726
0.054474 0.416473 0.012695
0.091003 0.412445 0.011993
0.126404 0.408783 0.011536
0.175537 0.410614 0.011597
0.222443 0.413757 0.011261
0.266907 0.417145 0.011261
0.311279 0.421661 0.010620
0.355804 0.427124 0.009674
0.401031 0.432831 0.009338
0.439728 0.429718 0.008301
0.494446 0.438660 0.006714
0.546021 0.444122 0.006195
0.583679 0.441040 0.006592
0.615784 0.433990 0.006683
0.643341 0.425659 0.006592
0.669373 0.417206 0.006073
0.694702 0.408813 0.005035
0.718262 0.400757 0.004395
0.741455 0.393158 0.003632
0.764252 0.386353 0.002533
0.789642 0.382019 0.001953
0.817230 0.378143 0.002045
0.844818 0.375427 0.002136
0.872406 0.372223 0.001953
0.898743 0.368958 0.001617
0.924133 0.365479 0.001068
0.949829 0.362091 0.000000
0.972931 0.358795 0.000000
0.981232 0.356079 0.000000
0.981232 0.353699 0.000000
0.981232 0.351257 0.000000
0.981232 0.349121 0.000000
0.038208 0.475861 0.014771
0.038025 0.474304 0.014740
0.037811 0.472260 0.014709
0.037628 0.469910 0.014679
0.056824 0.466888 0.014404
0.094116 0.463104 0.013763
0.128601 0.458801 0.013672
0.171875 0.457855 0.013031
0.221863 0.460693 0.013031
0.268555 0.464325 0.012817
0.313934 0.468445 0.012421
0.359741 0.473328 0.011749
0.405334 0.478912 0.010468
0.452179 0.484253 0.010071
0.490692 0.479462 0.008789
0.533905 0.477112 0.006226
0.582428 0.480804 0.005737
0.619690 0.476501 0.005676
0.648743 0.467529 0.006073
0.674011 0.456970 0.005890
0.698456 0.447113 0.005737
0.721069 0.437927 0.005005
0.743866 0.429474 0.004425
0.765625 0.421509 0.003510
0.787109 0.414856 0.002502
0.809357 0.408386 0.002289
0.835297 0.404572 0.002350
0.860718 0.400818 0.002441
0.888397 0.397705 0.002075
0.914276 0.394653 0.001434
0.940674 0.391724 0.001038
0.965759 0.388824 0.000275
0.980835 0.386475 0.000000
0.981140 0.384155 0.000000
0.981171 0.382202 0.000000
0.981201 0.380524 0.000000
0.043060 0.520386 0.016541
0.042908 0.519135 0.016479
0.042786 0.517548 0.016388
0.042542 0.515289 0.016205
0.059143 0.512390 0.016022
0.094604 0.508820 0.015503
0.132385 0.504547 0.015442
0.166687 0.500305 0.014801
0.216187 0.501312 0.014648
0.263702 0.503845 0.014252
0.309631 0.506775 0.014008
0.355408 0.510345 0.013306
0.400330 0.514648 0.012207
0.446075 0.519104 0.011292
0.492889 0.523315 0.010834
0.528656 0.516296 0.009308
0.569702 0.512054 0.005737
0.615723 0.513702 0.004608
0.650787 0.508423 0.005219
0.678741 0.498657 0.005066
0.702332 0.487396 0.005646
0.724487 0.476868 0.004974
0.746826 0.466370 0.005066
0.768158 0.457184 0.004456
0.789185 0.449005 0.003357
0.811127 0.442108 0.002441
0.831879 0.435913 0.002625
0.854156 0.430878 0.002655
0.879639 0.427490 0.002289
0.905518 0.424652 0.002350
0.932129 0.422241 0.001556
0.958374 0.419678 0.001129
0.977753 0.417450 0.000305
0.981049 0.415833 0.000244
0.981049 0.414093 0.000153
0.981049 0.412872 0.000092
0.047211 0.560028 0.017761
0.047058 0.559021 0.017731
0.046875 0.557556 0.017639
0.046631 0.555481 0.017487
0.062195 0.552673 0.017303
0.096130 0.549286 0.017181
0.135498 0.545258 0.016815
0.169312 0.540985 0.016266
0.209686 0.539154 0.016205
0.257751 0.540802 0.015717
0.303955 0.543243 0.015564
0.349213 0.546051 0.015320
0.394104 0.549255 0.014160
0.439056 0.552856 0.013000
0.484406 0.556274 0.011780
0.529602 0.559357 0.010925
0.563171 0.550598 0.009430
0.601624 0.544464 0.005768
0.645020 0.544830 0.003387
0.679993 0.539185 0.003815
0.706116 0.528137 0.004639
0.728027 0.515839 0.004852
0.750275 0.504883 0.004974
0.771179 0.494751 0.004517
0.791992 0.485870 0.003876
0.813507 0.477478 0.003265
0.833984 0.470215 0.002808
0.854462 0.463409 0.003082
0.876038 0.458038 0.002899
0.899139 0.454010 0.002777
0.923859 0.451355 0.002441
0.951202 0.449371 0.002045
0.972748 0.447754 0.001282
0.980957 0.446594 0.000824
0.980957 0.445618 0.000793
0.980957 0.444855 0.000732
0.050995 0.593781 0.019257
0.050903 0.592987 0.019226
0.050751 0.591827 0.019135
0.050537 0.590088 0.019012
0.065552 0.587708 0.018799
0.099396 0.584930 0.018738
0.139923 0.581787 0.017944
0.173523 0.578369 0.017883
0.205750 0.574829 0.017334
0.252289 0.575806 0.017059
0.298584 0.577637 0.016937
0.343414 0.579712 0.016571
0.387756 0.581879 0.016052
0.432098 0.583893 0.014740
0.475494 0.586151 0.013519
0.518646 0.588196 0.012268
0.562042 0.589813 0.011353
0.592316 0.578857 0.009399
0.628510 0.571442 0.005280
0.670532 0.571045 0.002350
0.705200 0.565979 0.002960
0.730469 0.555573 0.003967
0.752930 0.543732 0.004272
0.773987 0.532532 0.004486
0.794739 0.522003 0.004578
0.816223 0.513123 0.003845
0.836853 0.505219 0.003204
0.857300 0.498322 0.003296
0.878998 0.492218 0.003052
0.899841 0.487183 0.002991
0.920929 0.483032 0.003082
0.945312 0.480164 0.002533
0.968140 0.478851 0.002075
0.980835 0.477905 0.001434
0.980835 0.477417 0.001434
0.980835 0.476929 0.001404
0.054077 0.623474 0.020386
0.053986 0.622589 0.020386
0.053864 0.621704 0.020355
0.053680 0.620300 0.020325
0.069702 0.618469 0.020294
0.103821 0.616211 0.020203
0.143646 0.613586 0.019409
0.176941 0.610596 0.019135
0.208832 0.607269 0.018585
0.245117 0.605530 0.018463
0.291199 0.606934 0.017944
0.334930 0.608429 0.017822
0.378723 0.610168 0.017548
0.422302 0.611938 0.016449
0.464539 0.613586 0.015289
0.506805 0.615021 0.013336
0.549225 0.616364 0.012665
0.590363 0.617310 0.011383
0.619141 0.605347 0.009308
0.653076 0.597229 0.005402
0.695160 0.596985 0.001007
0.729248 0.592102 0.002045
0.755615 0.581848 0.003113
0.776642 0.570099 0.003510
0.797638 0.559723 0.003693
0.819000 0.549805 0.003784
0.839630 0.541229 0.003448
0.860291 0.533325 0.003448
0.881836 0.526123 0.003387
0.902679 0.520386 0.003479
0.923798 0.515625 0.003296
0.946106 0.511932 0.002808
0.966827 0.509369 0.002594
0.980591 0.508057 0.001984
0.980591 0.508057 0.001984
0.980591 0.508057 0.001984
0.056854 0.651337 0.022034
0.056824 0.650909 0.022034
0.057861 0.660706 0.022217
0.059082 0.660278 0.022217
0.085510 0.658661 0.022186
0.123108 0.656555 0.021576
0.159668 0.654114 0.021118
0.191284 0.651489 0.020599
0.222168 0.648193 0.020233
0.251923 0.644958 0.019958
0.293823 0.645111 0.019409
0.336853 0.646393 0.019287
0.379578 0.647369 0.018860
0.422180 0.648468 0.018738
0.463654 0.649292 0.017120
0.505188 0.649994 0.015900
0.546387 0.650696 0.014038
0.586029 0.650818 0.012726
0.625946 0.650696 0.011597
0.651733 0.637085 0.009186
0.684601 0.628296 0.004822
0.724762 0.627869 0.000702
0.759003 0.622711 0.001312
0.784088 0.612640 0.002167
0.805603 0.601135 0.003113
0.826202 0.589813 0.003357
0.846344 0.579773 0.003204
0.866669 0.570862 0.003479
0.887329 0.563080 0.003693
0.907593 0.556458 0.003784
0.928375 0.550537 0.003418
0.949982 0.545959 0.003479
0.968781 0.542664 0.003082
0.980499 0.540649 0.002686
0.980499 0.539917 0.002655
0.980499 0.540131 0.002686
0.059875 0.681732 0.023438
0.059906 0.681915 0.023468
0.059998 0.682861 0.023499
0.066956 0.685699 0.023560
0.092957 0.684723 0.023010
0.132629 0.683197 0.022797
0.166718 0.681030 0.022644
0.197052 0.678345 0.021637
0.226990 0.675232 0.021332
0.255188 0.671967 0.021118
0.289337 0.670013 0.020752
0.330292 0.670746 0.020264
0.372192 0.671753 0.020111
0.413269 0.672607 0.019745
0.453735 0.673309 0.019379
0.494781 0.673706 0.017700
0.534424 0.674194 0.015839
0.573578 0.674438 0.014191
0.612823 0.674469 0.013092
0.650604 0.674316 0.011475
0.675598 0.660065 0.009460
0.706940 0.651154 0.004944
0.747162 0.650513 0.001068
0.780457 0.646240 0.001648
0.807007 0.637451 0.002136
0.829010 0.626801 0.002686
0.849152 0.616150 0.003143
0.869781 0.606720 0.003540
0.889984 0.597870 0.003723
0.910095 0.589691 0.003662
0.930939 0.583252 0.003693
0.952148 0.577850 0.003784
0.970123 0.573730 0.003632
0.980499 0.570801 0.003204
0.980499 0.569305 0.003204
0.980499 0.569092 0.003204
0.062653 0.706146 0.024414
0.062714 0.706573 0.024445
0.062775 0.706940 0.024445
0.078278 0.706970 0.024445
0.103302 0.706573 0.024048
0.140442 0.705444 0.024017
0.172943 0.703766 0.023254
0.202454 0.701569 0.023193
0.231079 0.698975 0.022186
0.258850 0.696198 0.022125
0.287994 0.693359 0.021820
0.324402 0.693054 0.021301
0.364807 0.693787 0.021118
0.404266 0.694550 0.020599
0.443909 0.695129 0.020477
0.484100 0.695648 0.019592
0.522766 0.695984 0.017578
0.561371 0.696228 0.015778
0.599365 0.696503 0.014465
0.636780 0.696533 0.013458
0.674194 0.696503 0.011475
0.697937 0.682434 0.009094
0.727753 0.673065 0.004730
0.767212 0.672394 0.001221
0.800995 0.668457 0.001770
0.828339 0.660736 0.002411
0.850708 0.651062 0.002960
0.871368 0.640778 0.003174
0.891846 0.631500 0.003693
0.911865 0.623322 0.003632
0.932709 0.616241 0.003754
0.953796 0.610382 0.003815
0.971100 0.605469 0.003723
0.980408 0.602020 0.003601
0.980408 0.599762 0.003601
0.980408 0.598755 0.003601
0.064941 0.728210 0.025269
0.065002 0.728668 0.025330
0.068054 0.729065 0.025330
0.090027 0.729156 0.025330
0.117920 0.728851 0.025238
0.151245 0.727966 0.024567
0.180695 0.726501 0.024506
0.209534 0.724548 0.024231
0.236877 0.722260 0.023712
0.264221 0.719727 0.023010
0.291321 0.716827 0.022705
0.322052 0.715149 0.022522
0.359894 0.715576 0.021881
0.397675 0.716156 0.021851
0.436401 0.716736 0.021210
0.474884 0.717316 0.020752
0.513336 0.717468 0.019714
0.551483 0.718048 0.017731
0.588196 0.718384 0.015869
0.625427 0.718903 0.014801
0.661987 0.719360 0.013611
0.699432 0.719818 0.011902
0.721741 0.705872 0.009216
0.751892 0.697021 0.004486
0.789948 0.696899 0.001526
0.824524 0.694000 0.002014
0.852234 0.687256 0.002472
0.876312 0.678101 0.002930
0.896667 0.668152 0.003265
0.916992 0.659149 0.003479
0.938324 0.651337 0.003815
0.959229 0.644897 0.003876
0.973206 0.639740 0.003937
0.980408 0.635681 0.003662
0.980408 0.632812 0.003601
0.980408 0.631165 0.003601
0.067627 0.753723 0.026611
0.072876 0.753967 0.026611
0.084229 0.754150 0.026611
0.106750 0.754028 0.026276
0.136169 0.753540 0.026184
0.164764 0.752625 0.025848
0.191742 0.751282 0.025696
0.219086 0.749512 0.025055
0.245148 0.747437 0.025024
0.272125 0.744995 0.024200
0.298157 0.742310 0.024109
0.325348 0.739777 0.026886
0.358887 0.739166 0.027252
0.395081 0.739685 0.022797
0.431976 0.740234 0.022369
0.468872 0.740845 0.021973
0.506470 0.741119 0.021454
0.544342 0.741486 0.019897
0.580139 0.742249 0.018036
0.616669 0.742737 0.016144
0.652283 0.743591 0.014587
0.688965 0.744232 0.013580
0.725037 0.744904 0.011749
0.747070 0.729736 0.009033
0.775848 0.721222 0.004669
0.814270 0.721100 0.001648
0.848053 0.718872 0.001923
0.877563 0.713226 0.002472
0.901123 0.705048 0.002808
0.921844 0.695953 0.003326
0.943573 0.687805 0.003387
0.964539 0.680481 0.003662
0.978149 0.674408 0.003571
0.980408 0.669434 0.003754
0.980408 0.665985 0.003906
0.980377 0.663361 0.003906
0.075043 0.779724 0.028198
0.089874 0.779694 0.028198
0.110229 0.779510 0.027527
0.132507 0.779053 0.027222
0.156342 0.778290 0.027191
0.180328 0.777222 0.027100
0.204742 0.775787 0.026428
0.230286 0.774078 0.026154
0.255371 0.772095 0.025604
0.281677 0.770081 0.025513
0.307007 0.767731 0.024963
0.332764 0.765594 0.038025
0.362549 0.764557 0.053101
0.395813 0.764557 0.045654
0.431305 0.764709 0.030731
0.466339 0.765045 0.023041
0.502594 0.765381 0.022766
