lut/奥林帕斯.cube
#Created by: Adobe Photoshop Export Color Lookup Plugin
#Copyright: (C) Copyright 2026 小米
TITLE "原图样片.jpg"
#LUT size
LUT_3D_SIZE 8
#data domain
DOMAIN_MIN 0.0 0.0 0.0
DOMAIN_MAX 1.0 1.0 1.0
#LUT data points
0.000000 0.000000 0.000000
0.061920 0.001434 0.003540
0.271851 0.005188 0.013977
0.503662 0.004211 0.019196
0.704132 0.000122 0.020874
0.854340 0.000000 0.025574
0.974945 0.000000 0.030579
0.981598 0.000000 0.030945
0.005157 0.076172 0.001953
0.077850 0.077179 0.001892
0.241577 0.099640 0.005066
0.467072 0.120026 0.005707
0.678955 0.111969 0.000000
0.848175 0.089935 0.000000
0.966705 0.051025 0.000000
0.981537 0.007721 0.000305
0.021118 0.288574 0.007996
0.095184 0.274292 0.007507
0.291656 0.285309 0.006287
0.482056 0.289062 0.007538
0.659363 0.284454 0.003418
0.824615 0.276306 0.001282
0.956635 0.259003 0.000000
0.981506 0.244049 0.000000
0.043060 0.520386 0.016541
0.094604 0.508820 0.015503
0.309631 0.506775 0.014008
0.528656 0.516296 0.009308
0.702332 0.487396 0.005646
0.811127 0.442108 0.002441
0.932129 0.422241 0.001556
0.981049 0.412872 0.000092
0.059875 0.681732 0.023438
0.132629 0.683197 0.022797
0.289337 0.670013 0.020752
0.494781 0.673706 0.017700
0.675598 0.660065 0.009460
0.829010 0.626801 0.002686
0.930939 0.583252 0.003693
0.980499 0.569092 0.003204
0.097687 0.802612 0.029022
0.193665 0.800079 0.027954
0.314606 0.790924 0.026031
0.463928 0.787445 0.053223
0.637115 0.789276 0.017792
0.793945 0.776367 0.009216
0.944733 0.752075 0.002258
0.980408 0.721619 0.003204
0.208801 0.917633 0.033966
0.265167 0.915741 0.033234
0.372162 0.913788 0.120300
0.502441 0.910339 0.288391
0.633087 0.911255 0.220917
0.777863 0.911316 0.043427
0.913757 0.894012 0.008331
0.981110 0.873535 0.000275
0.271484 0.977936 0.036835
0.318573 0.977997 0.036011
0.421692 0.981506 0.200592
0.543182 0.985321 0.354462
0.650635 0.986542 0.395721
0.760620 0.985107 0.305511
0.885010 0.980347 0.116852
0.980255 0.948914 0.006500
0.002441 0.013702 0.082916
0.080322 0.002075 0.083923
0.277161 0.005585 0.122589
0.522705 0.004272 0.104523
0.717773 0.000305 0.061279
0.857941 0.000000 0.052368
0.969574 0.000000 0.041748
0.981598 0.000000 0.030945
0.002411 0.090942 0.064606
0.092896 0.077606 0.078552
0.281769 0.074860 0.081848
0.502899 0.050507 0.067474
0.700500 0.017487 0.041656
0.852600 0.008057 0.039886
0.964905 0.001099 0.038483
0.981842 0.000000 0.035522
0.021851 0.297607 0.008423
0.087891 0.291962 0.041260
0.295044 0.288483 0.029755
0.486389 0.277588 0.028259
0.672089 0.272461 0.020111
0.826019 0.257416 0.008606
0.951996 0.239441 0.000000
0.981537 0.227081 0.000000
0.043579 0.523529 0.016602
0.087006 0.512634 0.015594
0.295166 0.500763 0.040710
0.516846 0.504700 0.009064
0.687836 0.469513 0.005585
0.794586 0.428345 0.011292
0.923431 0.413086 0.018372
0.982605 0.403473 0.016907
0.059784 0.680786 0.023376
0.146484 0.678528 0.022644
0.296936 0.664978 0.090057
0.486389 0.664154 0.055359
0.666412 0.651031 0.009277
0.820190 0.617249 0.002716
0.922241 0.576263 0.003815
0.982330 0.568207 0.061951
0.135040 0.799561 0.028595
0.212891 0.795837 0.034088
0.329254 0.788818 0.127747
0.467773 0.783478 0.199463
0.633026 0.784210 0.088623
0.788666 0.770905 0.009094
0.942596 0.749634 0.002350
0.980408 0.718842 0.003204
0.231567 0.917267 0.033569
0.284821 0.916168 0.072174
0.388306 0.914520 0.202484
0.514984 0.909302 0.333557
0.638428 0.909790 0.294617
0.775452 0.909393 0.177795
0.909210 0.889404 0.008392
0.981140 0.868622 0.000000
0.267975 0.977936 0.036957
0.321899 0.978943 0.078339
0.431580 0.982941 0.246124
0.551544 0.985901 0.381500
0.658905 0.987457 0.440063
0.765106 0.986267 0.363861
0.886108 0.983276 0.208527
0.980255 0.948914 0.006500
0.009796 0.015717 0.302399
0.089813 0.007965 0.300293
0.291962 0.006531 0.301697
0.520508 0.007782 0.338409
0.723358 0.002716 0.334045
0.868866 0.001373 0.312897
0.976227 0.000000 0.305023
0.981506 0.000000 0.289124
0.009979 0.147430 0.303864
0.009064 0.081360 0.306732
0.293945 0.029114 0.302277
0.524902 0.007843 0.324799
0.722229 0.001923 0.318237
0.861847 0.001404 0.309296
0.971588 0.000000 0.302551
0.981506 0.000000 0.287659
0.010529 0.325562 0.251282
0.010437 0.320312 0.256012
0.328430 0.289185 0.291382
0.534576 0.293427 0.302063
0.716797 0.287506 0.302124
0.850037 0.279846 0.299622
0.966034 0.272064 0.296722
0.986389 0.267334 0.291901
0.016937 0.529022 0.067902
0.047241 0.525940 0.170258
0.325775 0.518982 0.285736
0.525635 0.514099 0.274506
0.686768 0.473633 0.269714
0.808075 0.447021 0.281769
0.941010 0.433716 0.279327
0.986450 0.428558 0.285278
0.115509 0.682587 0.203308
0.198608 0.684357 0.216919
0.351227 0.674377 0.289154
0.496948 0.662415 0.318268
0.670441 0.658447 0.264801
0.816284 0.620728 0.231049
0.919952 0.588715 0.267548
0.986572 0.586487 0.306030
0.216187 0.806824 0.210785
0.285858 0.804596 0.250458
0.386871 0.796295 0.304657
0.506042 0.783752 0.379333
0.646088 0.787048 0.338745
0.796173 0.782623 0.271515
0.940674 0.754913 0.178040
0.985138 0.730988 0.246490
0.287140 0.922028 0.230194
0.333069 0.920532 0.258820
0.428528 0.917419 0.324158
0.546875 0.911438 0.415344
0.657959 0.908173 0.428467
0.783875 0.911163 0.364105
0.915131 0.899536 0.249573
0.981140 0.866486 0.000000
0.307098 0.981323 0.198120
0.350494 0.982422 0.236237
0.443848 0.984589 0.321289
0.561401 0.986908 0.429504
0.671082 0.989044 0.518799
0.771698 0.988159 0.464020
0.887695 0.986572 0.360840
0.984589 0.959167 0.279419
0.015991 0.019165 0.536713
0.016052 0.019135 0.537842
0.289642 0.013733 0.528381
0.511627 0.010223 0.529419
0.722992 0.004150 0.548920
0.865417 0.003418 0.524017
0.975800 0.002380 0.504761
0.981049 0.002106 0.494598
0.016724 0.138306 0.534393
0.016357 0.081573 0.536438
0.262024 0.026154 0.526733
0.508453 0.010315 0.525696
0.721405 0.004425 0.542542
0.857697 0.003448 0.517975
0.972717 0.024597 0.505188
0.984039 0.082336 0.497528
0.018219 0.374603 0.525421
0.018677 0.357880 0.526276
0.230072 0.296783 0.541199
0.531982 0.274200 0.534180
0.724945 0.284210 0.531616
0.854767 0.307861 0.519073
0.967316 0.335205 0.519867
0.987366 0.344574 0.515228
0.020813 0.563934 0.446808
0.020813 0.560242 0.451080
0.049225 0.547577 0.467041
0.573944 0.509216 0.512878
0.702271 0.513672 0.521576
0.831604 0.508362 0.520935
0.944763 0.505890 0.521606
0.990326 0.495209 0.512787
0.025726 0.691711 0.200500
0.027191 0.688995 0.260040
0.313934 0.685547 0.397430
0.566345 0.670471 0.518097
0.692291 0.666504 0.512299
0.811310 0.633667 0.488281
0.913055 0.617615 0.496277
0.990143 0.618408 0.495300
0.282593 0.804932 0.387085
0.358215 0.804016 0.419037
0.440765 0.803192 0.444122
0.567535 0.792267 0.510040
0.673950 0.784363 0.525757
0.806824 0.787506 0.493347
0.936066 0.766205 0.466827
0.989594 0.750000 0.476593
0.364105 0.922913 0.399811
0.386169 0.923279 0.403625
0.461426 0.922119 0.437897
0.573029 0.917084 0.502045
0.673737 0.906219 0.559784
0.791046 0.911438 0.511078
0.921722 0.905670 0.488922
0.988007 0.884155 0.396057
0.323547 0.984131 0.334290
0.340027 0.984528 0.334381
0.437195 0.985962 0.394958
0.561401 0.988037 0.483337
0.677887 0.990143 0.577545
0.777863 0.990326 0.577148
0.889313 0.989441 0.510345
0.988647 0.969696 0.461243
0.026306 0.024689 0.692139
0.026367 0.024750 0.692627
0.199707 0.020416 0.681885
0.453735 0.017212 0.682678
0.665070 0.011047 0.687286
0.855743 0.002350 0.706116
0.970673 0.004059 0.678558
0.980743 0.003906 0.658051
0.022858 0.104675 0.694122
0.022217 0.086945 0.694550
0.160858 0.041321 0.680725
0.445343 0.017303 0.682190
0.662415 0.011108 0.684570
0.849823 0.002319 0.700287
0.966949 0.016785 0.675781
0.982574 0.055237 0.658264
0.029877 0.377441 0.686096
0.029663 0.358887 0.687408
0.120178 0.305450 0.694458
0.459320 0.283020 0.686066
0.680298 0.271515 0.689026
0.849823 0.291077 0.692902
0.963287 0.318512 0.673798
0.987000 0.337341 0.662750
0.027374 0.574493 0.676178
0.027100 0.568390 0.675995
0.250366 0.552612 0.681519
0.502106 0.516449 0.702820
0.692810 0.505890 0.677124
0.836884 0.512878 0.680237
0.948975 0.521454 0.678192
0.990387 0.516266 0.672180
0.029419 0.711975 0.586487
0.029236 0.709076 0.589996
0.029083 0.700165 0.599396
0.436554 0.693024 0.636658
0.735291 0.654175 0.658691
0.819336 0.661316 0.668457
0.930634 0.659943 0.670074
0.993073 0.653137 0.664795
0.035248 0.814667 0.318817
0.036713 0.812653 0.348816
0.107574 0.808807 0.424255
0.503174 0.806305 0.556763
0.722656 0.786804 0.658752
0.823181 0.786957 0.675964
0.923370 0.769562 0.641632
0.992584 0.761963 0.641663
0.198181 0.922699 0.447845
0.293793 0.923492 0.474121
0.451508 0.923462 0.535767
0.587677 0.923706 0.601288
0.694672 0.917633 0.650879
0.797333 0.912048 0.662567
0.923859 0.910675 0.655548
0.991882 0.891937 0.602966
0.432648 0.986511 0.528778
0.451385 0.986969 0.533997
0.493042 0.987915 0.543488
0.558502 0.989380 0.560150
0.681610 0.991333 0.633911
0.786835 0.992828 0.695709
0.891724 0.992340 0.652344
0.991974 0.978577 0.626068
0.034271 0.027771 0.812378
0.034332 0.027832 0.812805
0.034271 0.027771 0.812439
0.371063 0.023743 0.804535
0.597900 0.018616 0.804504
0.779877 0.011719 0.804565
0.959442 0.000092 0.830688
0.981049 0.001312 0.807068
0.027832 0.111694 0.816406
0.027863 0.099701 0.816864
0.027832 0.059235 0.817047
0.362274 0.027771 0.803314
0.593475 0.018646 0.801788
0.777557 0.011658 0.802063
0.955780 0.000366 0.828003
0.982422 0.020752 0.806763
0.034210 0.364014 0.813904
0.032990 0.337677 0.814240
0.031616 0.313019 0.813477
0.384979 0.290192 0.803802
0.614166 0.280914 0.806335
0.796021 0.278839 0.808746
0.959320 0.294281 0.824188
0.986633 0.318115 0.804810
0.034088 0.570496 0.803131
0.034027 0.568146 0.801788
0.283203 0.559906 0.808990
0.444702 0.516174 0.823914
0.646027 0.501465 0.803131
0.811768 0.494202 0.807770
0.947754 0.503052 0.813721
0.990021 0.500610 0.804688
0.039490 0.731018 0.791229
0.038971 0.727417 0.791016
0.206940 0.716187 0.795197
0.492249 0.700928 0.806976
0.672028 0.660645 0.812164
0.817474 0.653107 0.788940
0.939575 0.657135 0.805634
0.992828 0.652710 0.801788
0.037964 0.832825 0.701324
0.038055 0.831696 0.704315
0.038208 0.826813 0.710175
0.339966 0.824585 0.737732
0.606262 0.812897 0.761597
0.839905 0.783844 0.786774
0.926819 0.789764 0.794922
0.995544 0.785736 0.792786
0.045990 0.932587 0.409149
0.047028 0.931671 0.426758
0.050629 0.929199 0.472229
0.311310 0.930511 0.567871
0.640228 0.925598 0.697876
0.813049 0.917145 0.787109
0.925751 0.914398 0.793945
0.994995 0.895905 0.765137
0.053436 0.978363 0.485474
0.101990 0.979736 0.506348
0.345642 0.984039 0.570007
0.546631 0.988800 0.652069
0.702240 0.992645 0.728668
0.801086 0.994537 0.774933
0.898865 0.995239 0.792664
0.995117 0.986877 0.777161
0.044861 0.032593 0.925507
0.044891 0.032623 0.926117
0.044861 0.032623 0.925934
0.276428 0.029694 0.915466
0.524719 0.026550 0.918518
0.728180 0.018677 0.918671
0.891785 0.011932 0.918365
0.980530 0.005859 0.947235
0.033203 0.121368 0.931580
0.033051 0.112244 0.931549
0.032990 0.079742 0.931305
0.268188 0.048004 0.914215
0.520294 0.026367 0.915497
0.725220 0.018738 0.915863
0.889313 0.012024 0.915894
0.980560 0.005798 0.944611
0.037537 0.334412 0.926880
0.036926 0.317841 0.927246
0.036743 0.313873 0.926697
0.303650 0.294250 0.926208
0.544098 0.282593 0.917084
0.744019 0.273407 0.919556
0.904968 0.270355 0.920624
0.985626 0.282288 0.938904
0.043701 0.579437 0.915436
0.043976 0.573578 0.915405
0.091736 0.541565 0.919128
0.359344 0.506622 0.932739
0.578644 0.485229 0.923981
0.764893 0.475220 0.923767
0.917725 0.466125 0.922699
0.989319 0.469543 0.933563
0.040466 0.721802 0.910461
0.040527 0.720917 0.910919
0.262451 0.713104 0.916870
0.476685 0.699402 0.918488
0.598907 0.657318 0.923798
0.768494 0.638580 0.923615
0.920715 0.630066 0.920898
0.992401 0.630981 0.928253
0.053040 0.868317 0.903320
0.052551 0.865753 0.903534
0.051331 0.858185 0.903961
0.377289 0.842010 0.912811
0.619934 0.820099 0.916016
0.769928 0.788055 0.923401
0.923187 0.777618 0.918304
0.995361 0.779358 0.921844
0.046326 0.950958 0.806641
0.046387 0.949707 0.808472
0.046661 0.946930 0.813293
0.131042 0.944061 0.827850
0.518829 0.941223 0.859467
0.742371 0.932556 0.888489
0.933960 0.913147 0.914185
0.998108 0.913788 0.916534
0.055542 0.978363 0.509979
0.056091 0.978363 0.516174
0.056244 0.978363 0.544067
0.080811 0.979156 0.605957
0.526215 0.988281 0.716309
0.785156 0.994415 0.837555
0.923950 0.997925 0.914429
0.998108 0.995087 0.916748
0.050323 0.035278 0.981750
0.050323 0.035278 0.981750
0.050323 0.035278 0.981750
0.114349 0.033752 0.968811
0.438873 0.030090 0.973114
0.656647 0.026520 0.974670
0.840576 0.017334 0.977417
0.950745 0.011993 0.978394
0.036316 0.117523 0.988037
0.036316 0.108948 0.988190
0.035889 0.079254 0.988525
0.091675 0.049591 0.968781
0.435516 0.030243 0.973114
0.655212 0.026581 0.974670
0.839233 0.017395 0.977417
0.950745 0.011993 0.978394
0.039825 0.317719 0.984863
0.039764 0.315582 0.984863
0.039520 0.310822 0.984894
0.123871 0.301025 0.988495
0.458557 0.265961 0.983704
0.674500 0.251404 0.983551
0.853912 0.236023 0.983887
0.964691 0.235596 0.984283
0.051514 0.548523 0.982025
0.052063 0.536804 0.982300
0.050079 0.502716 0.982849
0.217987 0.486481 0.983154
0.483337 0.460236 0.987640
0.691254 0.458282 0.987976
0.863922 0.447510 0.988190
0.974304 0.444275 0.988495
0.045685 0.714722 0.979462
0.045746 0.713318 0.979492
0.238464 0.706573 0.982086
0.377167 0.679138 0.985107
0.520355 0.641998 0.988464
0.700439 0.623749 0.991272
0.870514 0.618561 0.991638
0.981110 0.611664 0.991119
0.048035 0.845337 0.978851
0.047882 0.843323 0.978851
0.178772 0.837250 0.982391
0.429504 0.828217 0.986298
0.607025 0.818268 0.990387
0.725677 0.784363 0.993164
0.876221 0.771149 0.994781
0.988007 0.765839 0.993988
0.065796 0.978119 0.971283
0.065765 0.978119 0.971069
0.066681 0.978119 0.976440
0.320679 0.966675 0.982635
0.572571 0.951477 0.989075
0.771667 0.935852 0.994049
0.903137 0.919250 0.997437
0.995514 0.916199 0.997681
0.051788 0.978363 0.875336
0.051941 0.978363 0.877350
0.052460 0.978363 0.881805
0.303040 0.982605 0.903625
0.565613 0.989014 0.931061
0.774078 0.994110 0.959564
0.938293 0.998199 0.987671
1.000000 1.000000 1.000000
