lut/彩色负片.cube
#Created by: Adobe Photoshop Export Color Lookup Plugin
#Copyright: (C) Copyright 2026 汉图
TITLE "mint本征源文件-适配lut筛选-恢复的.psd"
#LUT size
LUT_3D_SIZE 7
#data domain
#LUT data points
DOMAIN_MIN 0.000000 0.000000 0.000000
DOMAIN_MAX 0.909091 0.909091 0.909091
0.174866 0.174866 0.174866
0.196259 0.174866 0.174866
0.217651 0.174866 0.174866
0.313965 0.174866 0.174866
0.511658 0.174866 0.174866
0.719330 0.174866 0.174866
0.878326 0.174866 0.174866
0.174866 0.196259 0.174866
0.196259 0.196259 0.174866
0.217651 0.196259 0.174866
0.341766 0.196259 0.174866
0.558136 0.196259 0.174866
0.770477 0.196259 0.174866
0.928192 0.196259 0.184113
0.174866 0.261932 0.174866
0.196259 0.278809 0.174866
0.224701 0.287842 0.174866
0.356476 0.285248 0.174866
0.565460 0.306030 0.174866
0.765076 0.328369 0.174866
0.912811 0.352478 0.174866
0.174866 0.424622 0.174866
0.196259 0.451691 0.174866
0.268494 0.469604 0.174866
0.409729 0.479065 0.174866
0.581177 0.472778 0.174866
0.772888 0.500732 0.174866
0.915192 0.529175 0.174866
0.174866 0.592743 0.174866
0.212067 0.622467 0.174866
0.314209 0.643127 0.174866
0.458710 0.654572 0.174866
0.631622 0.661102 0.174866
0.782898 0.656708 0.174866
0.919708 0.680481 0.182129
0.191498 0.732422 0.174866
0.258148 0.758301 0.174866
0.362244 0.777710 0.174866
0.509460 0.789032 0.174866
0.671112 0.795715 0.174866
0.799988 0.786041 0.174866
0.924957 0.798920 0.199982
0.237274 0.842773 0.174866
0.306335 0.863708 0.174866
0.412506 0.880188 0.174866
0.558105 0.890137 0.175262
0.707428 0.896179 0.187103
0.837860 0.900085 0.197968
0.930420 0.890656 0.218445
0.174866 0.174866 0.196259
0.196259 0.174866 0.196259
0.217651 0.174866 0.196259
0.314301 0.174866 0.196259
0.512207 0.174866 0.196259
0.719971 0.174866 0.196259
0.879120 0.174866 0.196259
0.174866 0.196259 0.196259
0.196259 0.196259 0.196259
0.217651 0.196259 0.196259
0.346344 0.196259 0.196259
0.563416 0.196259 0.196259
0.774414 0.196259 0.196259
0.930206 0.210785 0.243958
0.174866 0.266174 0.196259
0.196259 0.283020 0.196259
0.227936 0.292389 0.196259
0.361481 0.290710 0.196259
0.571198 0.311737 0.196259
0.769012 0.334381 0.196259
0.915283 0.358704 0.196259
0.174866 0.429688 0.196259
0.196259 0.457336 0.196259
0.272217 0.475403 0.196259
0.414246 0.484985 0.196259
0.586700 0.479675 0.196259
0.776947 0.507629 0.196259
0.917542 0.535889 0.203461
0.174866 0.598145 0.196259
0.215851 0.627563 0.196259
0.318573 0.648193 0.196259
0.463867 0.659485 0.196259
0.636169 0.666107 0.196259
0.786926 0.662384 0.196259
0.921997 0.685791 0.218445
0.195129 0.736816 0.196259
0.262207 0.762451 0.196259
0.367065 0.781647 0.196259
0.514832 0.792938 0.196259
0.675537 0.799500 0.196259
0.803802 0.790436 0.198608
0.927185 0.803131 0.235504
0.241455 0.846161 0.196259
0.311005 0.866852 0.196259
0.417816 0.883057 0.196259
0.563293 0.892944 0.209534
0.711578 0.898956 0.221649
0.840881 0.902740 0.232666
0.932587 0.893799 0.253510
0.174866 0.174866 0.217651
0.196259 0.174866 0.217651
0.217651 0.174866 0.217651
0.314667 0.174866 0.217651
0.513062 0.174866 0.217651
0.720917 0.174866 0.217651
0.880035 0.174866 0.217651
0.174866 0.196259 0.217651
0.196259 0.196259 0.217651
0.217651 0.196259 0.217651
0.351501 0.196259 0.217651
0.569305 0.196259 0.217651
0.778259 0.196259 0.217651
0.931122 0.211945 0.285828
0.174866 0.270447 0.217651
0.196259 0.287933 0.217651
0.231232 0.297241 0.217651
0.366486 0.296478 0.217651
0.576721 0.317749 0.217651
0.773041 0.340546 0.217651
0.917542 0.365143 0.233398
0.174866 0.435333 0.217651
0.196259 0.463226 0.217651
0.276031 0.481537 0.217651
0.418945 0.491028 0.217651
0.592346 0.486816 0.217651
0.781006 0.514679 0.217651
0.919861 0.542511 0.242889
0.174866 0.603546 0.217651
0.219391 0.632935 0.217651
0.322662 0.653381 0.217651
0.468964 0.664581 0.217651
0.640869 0.671021 0.217651
0.790802 0.667969 0.218689
0.924347 0.691345 0.257111
0.198975 0.741089 0.217651
0.266357 0.766663 0.217651
0.371643 0.785706 0.217651
0.520050 0.796783 0.217651
0.679840 0.803345 0.225861
0.807587 0.794800 0.235809
0.929413 0.807373 0.273285
0.245422 0.849609 0.217651
0.315369 0.870026 0.217651
0.422852 0.886047 0.230194
0.568329 0.895782 0.246033
0.715668 0.901611 0.258362
0.843842 0.905426 0.269470
0.934784 0.896881 0.290527
0.174866 0.174866 0.361633
0.196259 0.174866 0.369476
0.217651 0.174866 0.369080
0.307190 0.174866 0.371185
0.514313 0.174866 0.414459
0.722931 0.174866 0.458282
0.882019 0.174866 0.507843
0.174866 0.196259 0.381592
0.196259 0.196259 0.399048
0.219666 0.196259 0.414917
0.362915 0.196259 0.423645
0.583405 0.196259 0.475555
0.786072 0.197479 0.541107
0.934601 0.214172 0.621826
0.174866 0.302124 0.377869
0.196259 0.324677 0.405151
0.255707 0.345825 0.434845
0.413452 0.358459 0.461334
0.619476 0.379547 0.502136
0.801880 0.410431 0.554260
0.933014 0.443298 0.608978
0.174866 0.448700 0.372955
0.196259 0.483276 0.406525
0.286865 0.517487 0.444153
0.455872 0.549194 0.485840
0.648468 0.565674 0.519135
0.819855 0.590698 0.561310
0.941864 0.615662 0.605652
0.174866 0.621490 0.393188
0.215607 0.654541 0.429962
0.332275 0.685242 0.471405
0.503906 0.711975 0.515289
0.680878 0.720673 0.541107
0.828522 0.728516 0.570923
0.945526 0.748779 0.613342
0.191284 0.759521 0.413849
0.262543 0.786865 0.453125
0.380432 0.812225 0.498108
0.558319 0.833588 0.550598
0.717377 0.839996 0.572174
0.843628 0.840607 0.582947
0.949677 0.850647 0.622406
0.238281 0.866486 0.435333
0.311737 0.887451 0.476776
0.431061 0.906799 0.523712
0.612396 0.922119 0.586639
0.750580 0.927002 0.600769
0.868347 0.930145 0.612061
0.954010 0.927917 0.632141
0.174866 0.174866 0.842896
0.196259 0.174866 0.863708
0.217651 0.174866 0.851715
0.359039 0.174866 0.850586
0.539429 0.174866 0.851166
0.718536 0.174866 0.852386
0.862610 0.174866 0.854004
0.174866 0.243958 0.859192
0.196259 0.271179 0.875427
0.269470 0.238159 0.877014
0.428253 0.235016 0.879059
0.621155 0.231873 0.884277
0.794159 0.225952 0.893311
0.931610 0.211212 0.910614
0.174866 0.430145 0.862885
0.196259 0.446686 0.871490
0.324677 0.463684 0.880676
0.477600 0.450836 0.889740
0.656189 0.451569 0.892456
0.809082 0.451263 0.896149
0.925568 0.449371 0.900879
0.174866 0.580292 0.857361
0.216644 0.605530 0.870514
0.348236 0.627289 0.882568
0.532990 0.647461 0.894135
0.694824 0.643860 0.902557
0.834106 0.645691 0.905426
0.938934 0.646271 0.908813
0.174866 0.705200 0.854523
0.248077 0.730927 0.870331
0.374939 0.752625 0.884369
0.554626 0.770599 0.896515
0.732117 0.787262 0.907959
0.857239 0.786224 0.913940
0.951508 0.787720 0.916718
0.205658 0.807983 0.853455
0.279846 0.830383 0.870575
0.403809 0.849487 0.885925
0.577209 0.864594 0.898743
0.745850 0.877716 0.910187
0.880707 0.889923 0.920776
0.962524 0.888763 0.923828
0.237640 0.890869 0.853241
0.312286 0.908722 0.871063
0.434296 0.924255 0.887421
0.600220 0.936157 0.900787
0.759918 0.945923 0.912384
0.888184 0.954498 0.922729
0.971802 0.959656 0.929962
0.174866 0.174866 0.888580
0.196259 0.174866 0.906769
0.219543 0.174866 0.896820
0.363983 0.174866 0.895508
0.545410 0.174866 0.895905
0.723083 0.174866 0.896912
0.865723 0.174866 0.898224
0.174866 0.253021 0.903412
0.196259 0.284241 0.918579
0.274231 0.246124 0.918793
0.434967 0.242279 0.920349
0.627808 0.238892 0.924652
0.799347 0.232605 0.932312
0.922546 0.228882 0.936554
0.174866 0.441284 0.906128
0.196259 0.460693 0.914215
0.331299 0.476166 0.921448
0.483765 0.460510 0.928894
0.661621 0.460846 0.931061
0.813171 0.460480 0.934082
0.928040 0.458435 0.937958
0.174866 0.593048 0.902130
0.221191 0.616821 0.912994
0.354919 0.637482 0.922852
0.540894 0.657013 0.932373
0.699646 0.651489 0.939270
0.837524 0.653107 0.941589
0.941010 0.653656 0.944305
0.177216 0.714844 0.899139
0.253540 0.739624 0.912567
0.382019 0.760437 0.924194
0.562317 0.777863 0.934235
0.738037 0.794037 0.943604
0.860321 0.791656 0.948395
0.953308 0.793121 0.950623
0.210876 0.815338 0.898041
0.285736 0.836975 0.912628
0.411285 0.855377 0.925476
0.584747 0.869995 0.936035
0.751526 0.882690 0.945374
0.884338 0.894470 0.953766
0.964020 0.892395 0.956116
0.243652 0.896301 0.897644
0.318756 0.913513 0.912903
0.442078 0.928467 0.926636
0.607452 0.939850 0.937683
0.765350 0.949280 0.947113
0.891602 0.957489 0.955261
0.973053 0.961884 0.960785
0.174866 0.174866 0.928925
0.196259 0.174866 0.944641
0.222565 0.174866 0.936584
0.368317 0.174866 0.935242
0.550568 0.174866 0.935425
0.727356 0.174866 0.936249
0.868591 0.174866 0.937378
0.174866 0.261322 0.942230
0.196259 0.295013 0.954132
0.278778 0.253265 0.955627
0.441193 0.248871 0.956757
0.632233 0.245667 0.958740
0.793274 0.244354 0.958710
0.911774 0.246979 0.958832
0.174866 0.451660 0.944244
0.196259 0.473907 0.951874
0.337036 0.487488 0.957458
0.490631 0.470398 0.963562
0.666473 0.469452 0.965332
0.815460 0.469879 0.966675
0.925323 0.474274 0.966797
0.174866 0.604645 0.941681
0.225372 0.626801 0.950409
0.361115 0.646515 0.958496
0.548096 0.665466 0.966309
0.703949 0.658203 0.971924
0.839722 0.660553 0.972504
0.939331 0.665314 0.972687
0.181030 0.723450 0.938568
0.258362 0.747437 0.949890
0.388336 0.767487 0.959564
0.569275 0.784332 0.967834
0.743561 0.799957 0.974915
0.862213 0.796936 0.977264
0.951599 0.801941 0.977478
0.215607 0.821808 0.937408
0.291229 0.842682 0.949799
0.417755 0.860596 0.960571
0.591339 0.874695 0.969208
0.758270 0.886353 0.975555
0.887573 0.897797 0.980804
0.962524 0.898407 0.981415
0.248749 0.901062 0.936951
0.324524 0.917786 0.949951
0.448944 0.932159 0.961456
0.613800 0.943176 0.970551
0.776398 0.950928 0.976318
0.898712 0.958710 0.981445
0.972687 0.964813 0.984680
