lut/彩色负片.cube
#Created by: Adobe Photoshop Export Color Lookup Plugin
#Copyright: (C) Copyright 2026 汉图
TITLE "mint本征源文件-适配lut筛选-恢复的.psd"
#LUT size
LUT_3D_SIZE 34
#data domain
DOMAIN_MIN 0.0 0.0 0.0
DOMAIN_MAX 1.0 1.0 1.0
#LUT data points
0.174866 0.174866 0.174866
0.179138 0.174866 0.174866
0.183411 0.174866 0.174866
0.187714 0.174866 0.174866
0.191986 0.174866 0.174866
0.196259 0.174866 0.174866
0.200531 0.174866 0.174866
0.204803 0.174866 0.174866
0.209106 0.174866 0.174866
0.213379 0.174866 0.174866
0.217651 0.174866 0.174866
0.221924 0.174866 0.174866
0.226196 0.174866 0.174866
0.249329 0.174866 0.174866
0.280640 0.174866 0.174866
0.313965 0.174866 0.174866
0.349304 0.174866 0.174866
0.386688 0.174866 0.174866
0.426025 0.174866 0.174866
0.467682 0.174866 0.174866
0.511658 0.174866 0.174866
0.556335 0.174866 0.174866
0.599640 0.174866 0.174866
0.641296 0.174866 0.174866
0.681183 0.174866 0.174866
0.719330 0.174866 0.174866
0.755310 0.174866 0.174866
0.789337 0.174866 0.174866
0.821198 0.174866 0.174866
0.850830 0.174866 0.174866
0.878326 0.174866 0.174866
0.903656 0.174866 0.174866
0.926788 0.174866 0.174866
0.947723 0.174866 0.174866
0.174866 0.179138 0.174866
0.179138 0.179138 0.174866
0.183411 0.179138 0.174866
0.187714 0.179138 0.174866
0.191986 0.179138 0.174866
0.196259 0.179138 0.174866
0.200531 0.179138 0.174866
0.204803 0.179138 0.174866
0.209106 0.179138 0.174866
0.213379 0.179138 0.174866
0.217651 0.179138 0.174866
0.221924 0.179138 0.174866
0.226196 0.179138 0.174866
0.253784 0.179138 0.174866
0.285400 0.179138 0.174866
0.318817 0.179138 0.174866
0.354431 0.179138 0.174866
0.392090 0.179138 0.174866
0.431702 0.179138 0.174866
0.473816 0.179138 0.174866
0.518097 0.179138 0.174866
0.562561 0.179138 0.174866
0.605438 0.179138 0.174866
0.646759 0.179138 0.174866
0.686371 0.179138 0.174866
0.724091 0.179138 0.174866
0.759918 0.179138 0.174866
0.793518 0.179138 0.174866
0.825104 0.179138 0.174866
0.854401 0.179138 0.174866
0.881500 0.179138 0.174866
0.906433 0.179138 0.174866
0.929230 0.179138 0.174866
0.949890 0.179138 0.174866
0.174866 0.183411 0.174866
0.179138 0.183411 0.174866
0.183411 0.183411 0.174866
0.187714 0.183411 0.174866
0.191986 0.183411 0.174866
0.196259 0.183411 0.174866
0.200531 0.183411 0.174866
0.204803 0.183411 0.174866
0.209106 0.183411 0.174866
0.213379 0.183411 0.174866
0.217651 0.183411 0.174866
0.221924 0.183411 0.174866
0.228241 0.183411 0.174866
0.258209 0.183411 0.174866
0.290131 0.183411 0.174866
0.323822 0.183411 0.174866
0.359772 0.183411 0.174866
0.397583 0.183411 0.174866
0.437653 0.183411 0.174866
0.480042 0.183411 0.174866
0.524353 0.183411 0.174866
0.568481 0.183411 0.174866
0.611267 0.183411 0.174866
0.652283 0.183411 0.174866
0.691528 0.183411 0.174866
0.728943 0.183411 0.174866
0.764374 0.183411 0.174866
0.797668 0.183411 0.174866
0.828796 0.183411 0.174866
0.857880 0.183411 0.174866
0.884644 0.183411 0.174866
0.909210 0.183411 0.174866
0.931702 0.183411 0.174866
0.952026 0.183411 0.174866
0.174866 0.187714 0.174866
0.179138 0.187714 0.174866
0.183411 0.187714 0.174866
0.187714 0.187714 0.174866
0.191986 0.187714 0.174866
0.196259 0.187714 0.174866
0.200531 0.187714 0.174866
0.204803 0.187714 0.174866
0.209106 0.187714 0.174866
0.213379 0.187714 0.174866
0.217651 0.187714 0.174866
0.221924 0.187714 0.174866
0.239594 0.187714 0.174866
0.274048 0.187714 0.174866
0.310333 0.187714 0.174866
0.349945 0.187714 0.174866
0.392303 0.187714 0.174866
0.437653 0.187714 0.174866
0.482361 0.187714 0.174866
0.526367 0.187714 0.174866
0.569946 0.187714 0.174866
0.611969 0.187714 0.174866
0.652435 0.187714 0.174866
0.691193 0.187714 0.174866
0.728088 0.187714 0.174866
0.762909 0.187714 0.174866
0.795837 0.187714 0.174866
0.826630 0.187714 0.174866
0.855255 0.187714 0.174866
0.881744 0.187714 0.174866
0.906067 0.187714 0.174866
0.928314 0.187714 0.174866
0.948425 0.187714 0.181396
0.966339 0.187714 0.191254
0.174866 0.191986 0.174866
0.179138 0.191986 0.174866
0.183411 0.191986 0.174866
0.187714 0.191986 0.174866
0.191986 0.191986 0.174866
0.196259 0.191986 0.174866
0.200531 0.191986 0.174866
0.204803 0.191986 0.174866
0.209106 0.191986 0.174866
0.213379 0.191986 0.174866
0.217651 0.191986 0.174866
0.221924 0.191986 0.174866
0.238495 0.191986 0.174866
0.269836 0.191986 0.174866
0.304443 0.191986 0.174866
0.340942 0.191986 0.174866
0.380707 0.191986 0.174866
0.422882 0.191986 0.174866
0.467926 0.191986 0.174866
0.516663 0.191986 0.174866
0.565704 0.191986 0.174866
0.614227 0.191986 0.174866
0.661163 0.191986 0.174866
0.706421 0.191986 0.174866
0.751038 0.191986 0.174866
0.792938 0.191986 0.174866
0.830627 0.191986 0.174866
0.860016 0.191986 0.175537
0.885498 0.191986 0.184570
0.908813 0.191986 0.193817
0.930023 0.191986 0.203308
0.949310 0.191986 0.213043
0.963745 0.191986 0.223663
0.968597 0.191986 0.236389
0.174866 0.196259 0.174866
0.179138 0.196259 0.174866
0.183411 0.196259 0.174866
0.187714 0.196259 0.174866
0.191986 0.196259 0.174866
0.196259 0.196259 0.174866
0.200531 0.196259 0.174866
0.204803 0.196259 0.174866
0.209106 0.196259 0.174866
0.213379 0.196259 0.174866
0.217651 0.196259 0.174866
0.221924 0.196259 0.174866
0.240784 0.196259 0.174866
0.272125 0.196259 0.174866
0.305847 0.196259 0.174866
0.341766 0.196259 0.174866
0.380127 0.196259 0.174866
0.420837 0.196259 0.174866
0.464539 0.196259 0.174866
0.511139 0.196259 0.174866
0.558136 0.196259 0.174866
0.604279 0.196259 0.174866
0.648682 0.196259 0.174866
0.691101 0.196259 0.174866
0.731812 0.196259 0.174866
0.770477 0.196259 0.174866
0.806763 0.196259 0.174866
0.840790 0.196259 0.174866
0.872375 0.196259 0.174866
0.901581 0.196259 0.174866
0.928192 0.196259 0.184113
0.952332 0.207886 0.217865
0.965881 0.216187 0.246338
0.970612 0.225494 0.275208
0.174866 0.200531 0.174866
0.179138 0.200531 0.174866
0.183411 0.200531 0.174866
0.187714 0.200531 0.174866
0.191986 0.200531 0.174866
0.196259 0.200531 0.174866
0.200531 0.200531 0.174866
0.204803 0.200531 0.174866
0.209106 0.200531 0.174866
0.213379 0.200531 0.174866
0.217651 0.200531 0.174866
0.221924 0.200531 0.174866
0.243866 0.200531 0.174866
0.274902 0.200531 0.174866
0.308533 0.200531 0.174866
0.344238 0.200531 0.174866
0.382172 0.200531 0.174866
0.422455 0.200531 0.174866
0.465515 0.200531 0.174866
0.511169 0.200531 0.174866
0.557495 0.200531 0.174866
0.602539 0.200531 0.174866
0.646149 0.200531 0.174866
0.687958 0.200531 0.174866
0.727722 0.200531 0.174866
0.765533 0.200531 0.174866
0.800964 0.200531 0.174866
0.834229 0.202423 0.174866
0.864990 0.206055 0.174866
0.893311 0.209778 0.174866
0.919067 0.213379 0.174866
0.942322 0.217072 0.174866
0.962982 0.220764 0.181427
0.970612 0.233063 0.203918
0.174866 0.204803 0.174866
0.179138 0.204803 0.174866
0.183411 0.204803 0.174866
0.187714 0.204803 0.174866
0.191986 0.204803 0.174866
0.196259 0.204803 0.174866
0.200531 0.204803 0.174866
0.204803 0.204803 0.174866
0.209106 0.204803 0.174866
0.213379 0.204803 0.174866
0.217651 0.204803 0.174866
0.221924 0.204803 0.174866
0.247009 0.204803 0.174866
0.278168 0.204803 0.174866
0.311279 0.204803 0.174866
0.346802 0.204803 0.174866
0.384552 0.204803 0.174866
0.424805 0.204803 0.174866
0.467377 0.204803 0.174866
0.512665 0.206085 0.174866
0.558563 0.209717 0.174866
0.603119 0.213287 0.174866
0.646149 0.216980 0.174866
0.687225 0.220764 0.174866
0.726715 0.224518 0.174866
0.763977 0.228485 0.174866
0.798889 0.232391 0.174866
0.831635 0.236328 0.174866
0.862000 0.240356 0.174866
0.890137 0.244324 0.174866
0.915497 0.248413 0.174866
0.938660 0.252502 0.174866
0.959167 0.256653 0.174866
0.970093 0.267120 0.193573
0.174866 0.209106 0.174866
0.179138 0.209106 0.174866
0.183411 0.209106 0.174866
0.187714 0.209106 0.174866
0.191986 0.210236 0.174866
0.196259 0.212402 0.174866
0.200531 0.214172 0.174866
0.204803 0.215424 0.174866
0.209106 0.216614 0.174866
0.213379 0.217651 0.174866
0.217651 0.218475 0.174866
0.231445 0.219208 0.174866
0.250305 0.212646 0.174866
0.281342 0.216095 0.174866
0.314423 0.219513 0.174866
0.349792 0.222992 0.174866
0.387512 0.226532 0.174866
0.427460 0.230286 0.174866
0.470001 0.233887 0.174866
0.515137 0.237701 0.174866
0.560486 0.241547 0.174866
0.604553 0.245361 0.174866
0.647125 0.249359 0.174866
0.687805 0.253418 0.174866
0.726837 0.257477 0.174866
0.763641 0.261658 0.174866
0.798309 0.265808 0.174866
0.830719 0.270081 0.174866
0.860840 0.274353 0.174866
0.888550 0.278748 0.174866
0.913818 0.283051 0.174866
0.936768 0.287476 0.174866
0.957214 0.291962 0.174866
0.969879 0.301636 0.189545
0.174866 0.231049 0.174866
0.179138 0.233337 0.174866
0.183411 0.236450 0.174866
0.187714 0.240143 0.174866
0.191986 0.243042 0.174866
0.196259 0.245453 0.174866
0.200531 0.247559 0.174866
0.204803 0.249237 0.174866
0.209106 0.250732 0.174866
0.213379 0.251923 0.174866
0.217651 0.253143 0.174866
0.240204 0.254059 0.174866
0.265961 0.254791 0.174866
0.284576 0.246643 0.174866
0.317780 0.250275 0.174866
0.353119 0.254059 0.174866
0.390717 0.257874 0.174866
0.430573 0.261780 0.174866
0.473022 0.265656 0.174866
0.517853 0.269714 0.174866
0.562927 0.273651 0.174866
0.606506 0.277832 0.174866
0.648743 0.281952 0.174866
0.689056 0.286346 0.174866
0.727631 0.290588 0.174866
0.764130 0.294983 0.174866
0.798462 0.299408 0.174866
0.830566 0.304047 0.174866
0.860443 0.308441 0.174866
0.888031 0.313171 0.174866
0.913086 0.317871 0.174866
0.935883 0.322449 0.174866
0.956146 0.327423 0.174866
0.969818 0.336700 0.188202
0.174866 0.261932 0.174866
0.179138 0.264618 0.174866
0.183411 0.268524 0.174866
0.187714 0.272491 0.174866
0.191986 0.275848 0.174866
0.196259 0.278809 0.174866
0.200531 0.281189 0.174866
0.204803 0.283234 0.174866
0.209106 0.285187 0.174866
0.213379 0.286682 0.174866
0.224701 0.287842 0.174866
0.248962 0.288971 0.174866
0.274811 0.290009 0.174866
0.302246 0.290863 0.174866
0.321167 0.281219 0.174866
0.356476 0.285248 0.174866
0.394012 0.289215 0.174866
0.433929 0.293304 0.174866
0.476288 0.297394 0.174866
0.520813 0.301666 0.174866
0.565460 0.306030 0.174866
0.608795 0.310364 0.174866
0.650604 0.314819 0.174866
0.690674 0.319153 0.174866
0.728729 0.323792 0.174866
0.765076 0.328369 0.174866
0.799103 0.333069 0.174866
0.831024 0.337860 0.174866
0.860626 0.342712 0.174866
0.887909 0.347534 0.174866
0.912811 0.352478 0.174866
0.935455 0.357422 0.174866
0.955688 0.362549 0.174866
0.969818 0.371796 0.188477
0.174866 0.293488 0.174866
0.179138 0.296967 0.174866
0.183411 0.301056 0.174866
0.187714 0.305237 0.174866
0.191986 0.309204 0.174866
0.196259 0.312592 0.174866
0.200531 0.315399 0.174866
0.204803 0.317963 0.174866
0.209106 0.320038 0.174866
0.213379 0.321869 0.174866
0.233368 0.323273 0.174866
0.257812 0.324615 0.174866
0.283844 0.325836 0.174866
0.311432 0.326935 0.174866
0.340607 0.327698 0.174866
0.360077 0.316742 0.174866
0.397614 0.320984 0.174866
0.437439 0.325256 0.174866
0.479614 0.329712 0.174866
0.524231 0.334167 0.174866
0.568451 0.338684 0.174866
0.611481 0.343231 0.174866
0.652832 0.347870 0.174866
0.692596 0.352509 0.174866
0.730347 0.357422 0.174866
0.766357 0.362213 0.174866
0.800049 0.367157 0.174866
0.831726 0.372223 0.174866
0.861115 0.377258 0.174866
0.888184 0.382385 0.174866
0.912903 0.387482 0.174866
0.935394 0.392792 0.174866
0.955536 0.398010 0.174866
0.969910 0.407349 0.189789
0.174866 0.325562 0.174866
0.179138 0.328979 0.174866
0.183411 0.333710 0.174866
0.187714 0.338379 0.174866
0.191986 0.342773 0.174866
0.196259 0.346619 0.174866
0.200531 0.350006 0.174866
0.204803 0.352844 0.174866
0.209106 0.355103 0.174866
0.219116 0.357269 0.174866
0.242157 0.359039 0.174866
0.266602 0.360596 0.174866
0.292603 0.362213 0.174866
0.320526 0.363281 0.174866
0.349884 0.364349 0.174866
0.378113 0.362244 0.174866
0.401154 0.353149 0.174866
0.440979 0.357635 0.174866
0.483246 0.362213 0.174866
0.527710 0.366882 0.174866
0.571472 0.371582 0.174866
0.614075 0.376282 0.174866
0.655151 0.381226 0.174866
0.694641 0.386261 0.174866
0.732147 0.391144 0.174866
0.767761 0.396332 0.174866
0.801331 0.401398 0.174866
0.832733 0.406647 0.174866
0.861877 0.411835 0.174866
0.888733 0.417175 0.174866
0.913269 0.422607 0.174866
0.935577 0.428162 0.174866
0.955597 0.433807 0.175507
0.970032 0.443512 0.191833
0.174866 0.358063 0.174866
0.179138 0.362244 0.174866
0.183411 0.367065 0.174866
0.187714 0.372253 0.174866
0.191986 0.377136 0.174866
0.196259 0.381226 0.174866
0.200531 0.385010 0.174866
0.204803 0.388153 0.174866
0.209106 0.391083 0.174866
0.227722 0.393433 0.174866
0.250824 0.395508 0.174866
0.275360 0.397400 0.174866
0.301727 0.399048 0.174866
0.329620 0.400421 0.174866
0.359375 0.401611 0.174866
0.390594 0.402679 0.174866
0.416473 0.396454 0.174866
0.444824 0.390381 0.174866
0.486877 0.395172 0.174866
0.531067 0.400116 0.174866
0.574677 0.404968 0.174866
0.616821 0.410004 0.174866
0.657684 0.415100 0.174866
0.696808 0.420319 0.174866
0.734039 0.425598 0.174866
0.769409 0.430725 0.174866
0.802704 0.436127 0.174866
0.833801 0.441650 0.174866
0.862732 0.447174 0.174866
0.889404 0.452637 0.174866
0.913757 0.458252 0.174866
0.935944 0.464081 0.174866
0.955811 0.469788 0.177856
0.970154 0.479950 0.194763
0.174866 0.391052 0.174866
0.179138 0.395233 0.174866
0.183411 0.400726 0.174866
0.187714 0.406342 0.174866
0.191986 0.411560 0.174866
0.196259 0.416260 0.174866
0.200531 0.420441 0.174866
0.204803 0.424011 0.174866
0.214813 0.427155 0.174866
0.236267 0.430054 0.174866
0.259674 0.432220 0.174866
0.284332 0.434418 0.174866
0.310791 0.436340 0.174866
0.338867 0.437866 0.174866
0.368713 0.439270 0.174866
0.400238 0.440521 0.174866
0.433319 0.441803 0.174866
0.455566 0.430084 0.174866
0.490662 0.428528 0.174866
0.534637 0.433563 0.174866
0.577911 0.438690 0.174866
0.619720 0.443909 0.174866
0.660278 0.449188 0.174866
0.699097 0.454620 0.174866
0.736053 0.460052 0.174866
0.771088 0.465576 0.174866
0.804230 0.471191 0.174866
0.835022 0.476685 0.174866
0.863770 0.482635 0.174866
0.890198 0.488312 0.174866
0.914398 0.494293 0.174866
0.936401 0.500183 0.174866
0.956177 0.505859 0.180573
0.970337 0.516083 0.197998
0.174866 0.424622 0.174866
0.179138 0.428986 0.174866
0.183411 0.434906 0.174866
0.187714 0.440918 0.174866
0.191986 0.446564 0.174866
0.196259 0.451691 0.174866
0.200531 0.456299 0.174866
0.204803 0.460419 0.174866
0.223511 0.463928 0.174866
0.245148 0.467072 0.174866
0.268494 0.469604 0.174866
0.293304 0.471954 0.174866
0.319733 0.474152 0.174866
0.348083 0.475891 0.174866
0.378082 0.477600 0.174866
0.409729 0.479065 0.174866
0.443054 0.480286 0.174866
0.478271 0.481476 0.174866
0.495270 0.462830 0.174866
0.538361 0.467407 0.174866
0.581177 0.472778 0.174866
0.622772 0.478271 0.174866
0.662872 0.483765 0.174866
0.701477 0.489258 0.174866
0.738159 0.494934 0.174866
0.772888 0.500732 0.174866
0.805786 0.506256 0.174866
0.836426 0.512085 0.174866
0.864899 0.517761 0.174866
0.891174 0.523438 0.174866
0.915192 0.529175 0.174866
0.936981 0.534851 0.174866
0.956573 0.540314 0.183167
0.970520 0.550659 0.201996
0.174866 0.458466 0.174866
0.179138 0.463684 0.174866
0.183411 0.469696 0.174866
0.187714 0.476105 0.174866
0.191986 0.482361 0.174866
0.196259 0.487976 0.174866
0.200531 0.492920 0.174866
0.212280 0.497223 0.174866
0.232300 0.501190 0.174866
0.253998 0.504517 0.174866
0.277405 0.507568 0.174866
0.302399 0.510193 0.174866
0.329224 0.512268 0.174866
0.357330 0.514465 0.174866
0.387665 0.516144 0.174866
0.419281 0.517761 0.174866
0.453033 0.519104 0.174866
0.488373 0.520386 0.174866
0.525177 0.521637 0.174866
0.542084 0.501801 0.174866
0.584503 0.507355 0.174866
0.625916 0.512848 0.174866
0.665741 0.518280 0.174866
0.703949 0.523956 0.174866
0.740356 0.529388 0.174866
0.774963 0.534882 0.174866
0.807434 0.540314 0.174866
0.837830 0.545959 0.174866
0.866028 0.551361 0.174866
0.892151 0.556915 0.174866
0.915955 0.562531 0.174866
0.937622 0.567963 0.177429
0.957092 0.573395 0.186127
0.970764 0.583405 0.206451
0.174866 0.493195 0.174866
0.179138 0.498260 0.174866
0.183411 0.504944 0.174866
0.187714 0.511780 0.174866
0.191986 0.517975 0.174866
0.196259 0.523865 0.174866
0.202454 0.528992 0.174866
0.220947 0.533539 0.174866
0.241180 0.537506 0.174866
0.263000 0.540924 0.174866
0.286591 0.543915 0.174866
0.311584 0.546570 0.174866
0.338379 0.548950 0.174866
0.366913 0.551086 0.174866
0.397064 0.552979 0.174866
0.429047 0.554535 0.174866
0.462891 0.556122 0.174866
0.498383 0.557434 0.174866
0.535004 0.558594 0.174866
0.568176 0.556671 0.174866
0.588013 0.540680 0.174866
0.629028 0.546051 0.174866
0.668549 0.551514 0.174866
0.706421 0.556793 0.174866
0.742554 0.562073 0.174866
0.776794 0.567444 0.174866
0.809082 0.572784 0.174866
0.839264 0.578094 0.174866
0.867340 0.583405 0.174866
0.893158 0.588654 0.174866
0.916840 0.593933 0.174866
0.938324 0.599457 0.180481
0.957642 0.604553 0.189178
0.970947 0.614624 0.211365
0.174866 0.527710 0.174866
0.179138 0.533203 0.174866
0.183411 0.539459 0.174866
0.187714 0.546387 0.174866
0.191986 0.552582 0.174866
0.196259 0.558350 0.174866
0.211334 0.563538 0.174866
0.229950 0.568115 0.174866
0.250214 0.572144 0.174866
0.272186 0.575653 0.174866
0.295624 0.578949 0.174866
0.320923 0.581512 0.174866
0.347809 0.583954 0.174866
0.376465 0.586151 0.174866
0.406799 0.588074 0.174866
0.438904 0.589783 0.174866
0.472900 0.591309 0.174866
0.508667 0.592682 0.174866
0.544678 0.593933 0.174866
0.580261 0.595001 0.174866
0.604553 0.585266 0.174866
0.632111 0.577911 0.174866
0.671387 0.583130 0.174866
0.708954 0.588318 0.174866
0.744812 0.593536 0.174866
0.778778 0.598633 0.174866
0.810913 0.603821 0.174866
0.840729 0.608917 0.174866
0.868652 0.614166 0.174866
0.894318 0.619263 0.174866
0.917755 0.624329 0.175476
0.939117 0.629456 0.183594
0.958252 0.634521 0.192383
0.971252 0.644379 0.216949
0.174866 0.561005 0.174866
0.179138 0.566162 0.174866
0.183411 0.572510 0.174866
0.187714 0.579193 0.174866
0.191986 0.585449 0.174866
0.203064 0.591125 0.174866
0.220276 0.596313 0.174866
0.239014 0.600891 0.174866
0.259277 0.604980 0.174866
0.281311 0.608612 0.174866
0.304810 0.611847 0.174866
0.330139 0.614655 0.174866
0.357208 0.617065 0.174866
0.385956 0.619293 0.174866
0.416443 0.621277 0.174866
0.448761 0.622986 0.174866
0.482788 0.624603 0.174866
0.518585 0.625977 0.174866
0.553925 0.627258 0.174866
0.589081 0.628387 0.174866
0.623444 0.629456 0.174866
0.638885 0.611664 0.174866
0.674347 0.613281 0.174866
0.711548 0.618286 0.174866
0.747223 0.623291 0.174866
0.780914 0.628265 0.174866
0.812622 0.633179 0.174866
0.842346 0.638275 0.174866
0.869995 0.643250 0.174866
0.895416 0.648102 0.174866
0.918732 0.653076 0.178680
0.939850 0.658051 0.187042
0.958832 0.662781 0.195618
0.971527 0.672791 0.222900
0.174866 0.592743 0.174866
0.179138 0.597870 0.174866
0.183411 0.604187 0.174866
0.187714 0.610596 0.174866
0.196472 0.616791 0.174866
0.212067 0.622467 0.174866
0.229187 0.627686 0.174866
0.247864 0.632355 0.174866
0.268524 0.636230 0.174866
0.290466 0.640015 0.174866
0.314209 0.643127 0.174866
0.339630 0.645966 0.174866
0.366669 0.648560 0.174866
0.395569 0.650757 0.174866
0.426239 0.652740 0.174866
0.458710 0.654572 0.174866
0.492981 0.656189 0.174866
0.528412 0.657593 0.174866
0.563354 0.658875 0.174866
0.597809 0.660004 0.174866
0.631622 0.661102 0.174866
0.664703 0.662109 0.174866
0.677155 0.642151 0.174866
0.714233 0.647125 0.174866
0.749481 0.651825 0.174866
0.782898 0.656708 0.174866
0.814514 0.661469 0.174866
0.844025 0.666199 0.174866
0.871338 0.671021 0.174866
0.896637 0.675751 0.174866
0.919708 0.680481 0.182129
0.940643 0.685272 0.190491
0.959473 0.689911 0.198883
0.971863 0.699799 0.229401
0.174866 0.623383 0.174866
0.179138 0.628387 0.174866
0.183411 0.634430 0.174866
0.191162 0.640656 0.174866
0.205292 0.646851 0.174866
0.221161 0.652405 0.174866
0.238312 0.657593 0.174866
0.257202 0.662048 0.174866
0.277679 0.666138 0.174866
0.299896 0.669708 0.174866
0.323547 0.673004 0.174866
0.349121 0.675842 0.174866
0.376404 0.678284 0.174866
0.405243 0.680664 0.174866
0.436218 0.682678 0.174866
0.468719 0.684479 0.174866
0.503296 0.686035 0.174866
0.538025 0.687592 0.174866
0.572601 0.688904 0.174866
0.606567 0.690094 0.174866
0.639862 0.691162 0.174866
0.672302 0.692108 0.174866
0.697388 0.686493 0.174866
0.716858 0.674469 0.174866
0.751862 0.679108 0.174866
0.785034 0.683685 0.174866
0.816345 0.688354 0.174866
0.845551 0.692871 0.174866
0.872742 0.697449 0.174866
0.897827 0.701996 0.177582
0.920685 0.706573 0.185547
0.941528 0.711151 0.193726
0.960175 0.715546 0.202454
0.972168 0.725433 0.236572
0.174866 0.652435 0.174866
0.179138 0.657257 0.174866
0.187042 0.663300 0.174866
0.199982 0.669373 0.174866
0.214386 0.675354 0.174866
0.230316 0.680756 0.174866
0.247620 0.685699 0.174866
0.266571 0.690277 0.174866
0.286926 0.694397 0.174866
0.309204 0.698059 0.174866
0.333069 0.701294 0.174866
0.358582 0.704193 0.174866
0.386139 0.706665 0.174866
0.415222 0.708893 0.174866
0.446167 0.710907 0.174866
0.478943 0.712769 0.174866
0.513214 0.714386 0.174866
0.547546 0.715912 0.174866
0.581543 0.717194 0.174866
0.615082 0.718445 0.174866
0.647858 0.719543 0.174866
0.679749 0.720490 0.174866
0.710846 0.721466 0.174866
0.726562 0.707581 0.174866
0.754303 0.704987 0.174866
0.787262 0.709442 0.174866
0.818237 0.713837 0.174866
0.847229 0.718231 0.174866
0.874176 0.722626 0.174866
0.898987 0.726929 0.181213
0.921753 0.731354 0.189178
0.942352 0.735687 0.197266
0.960876 0.740021 0.205872
0.972534 0.749756 0.244598
0.174866 0.680450 0.174866
0.184204 0.685181 0.174866
0.196198 0.690765 0.174866
0.209290 0.696777 0.174866
0.223511 0.702637 0.174866
0.239502 0.707977 0.174866
0.256805 0.712982 0.174866
0.275726 0.717438 0.174866
0.296478 0.721344 0.174866
0.318726 0.724945 0.174866
0.342682 0.728210 0.174866
0.368439 0.731018 0.174866
0.395935 0.733490 0.174866
0.425110 0.735840 0.174866
0.456207 0.737854 0.174866
0.489105 0.739624 0.174866
0.523102 0.741272 0.174866
0.556946 0.742859 0.174866
0.590515 0.744110 0.174866
0.623352 0.745300 0.174866
0.655731 0.746399 0.174866
0.687164 0.747406 0.174866
0.717804 0.748413 0.174866
0.747223 0.749237 0.174866
0.756744 0.729889 0.174866
0.789368 0.734131 0.174866
0.820160 0.738312 0.174866
0.848907 0.742615 0.174866
0.875641 0.746704 0.176941
0.900269 0.750854 0.184601
0.922791 0.755005 0.192566
0.943268 0.759186 0.200958
0.961609 0.763336 0.209412
0.972900 0.772980 0.252991
0.182434 0.706970 0.174866
0.193115 0.711548 0.174866
0.205139 0.717133 0.174866
0.218323 0.722931 0.174866
0.232819 0.728485 0.174866
0.248779 0.733734 0.174866
0.266205 0.738525 0.174866
0.285339 0.742859 0.174866
0.305817 0.746887 0.174866
0.328217 0.750397 0.174866
0.352478 0.753540 0.174866
0.378113 0.756409 0.174866
0.405884 0.758881 0.174866
0.435272 0.761139 0.174866
0.466309 0.763153 0.174866
0.499298 0.764984 0.174866
0.532867 0.766602 0.174866
0.566162 0.768036 0.174866
0.599182 0.769409 0.174866
0.631592 0.770630 0.174866
0.663574 0.771729 0.174866
0.694427 0.772736 0.174866
0.724518 0.773682 0.174866
0.753540 0.774506 0.174866
0.775269 0.769012 0.174866
0.791626 0.757446 0.174866
0.822083 0.761475 0.174866
0.850586 0.765594 0.174866
0.877045 0.769623 0.180664
0.901520 0.773499 0.188354
0.923828 0.777496 0.196320
0.944122 0.781372 0.204498
0.962341 0.785309 0.213043
0.973358 0.794922 0.262787
0.191498 0.732422 0.174866
0.202179 0.736908 0.174866
0.214264 0.742249 0.174866
0.227509 0.747864 0.174866
0.242218 0.753235 0.174866
0.258148 0.758301 0.174866
0.275726 0.762939 0.174866
0.294952 0.767212 0.174866
0.315582 0.771149 0.174866
0.337982 0.774628 0.174866
0.362244 0.777710 0.174866
0.388123 0.780487 0.174866
0.415710 0.782990 0.174866
0.445160 0.785217 0.174866
0.476654 0.787231 0.174866
0.509460 0.789032 0.174866
0.542542 0.790619 0.174866
0.575470 0.792084 0.174866
0.607971 0.793457 0.174866
0.639801 0.794647 0.174866
0.671112 0.795715 0.174866
0.701630 0.796753 0.174866
0.731171 0.797699 0.174866
0.759796 0.798492 0.174866
0.787109 0.799255 0.174866
0.799988 0.786041 0.174866
0.823975 0.783752 0.174866
0.852264 0.787506 0.176758
0.878571 0.791351 0.184326
0.902771 0.795197 0.191986
