lut/彩色负片.cube
#Created by: Adobe Photoshop Export Color Lookup Plugin
#Copyright: (C) Copyright 2026 汉图
TITLE "mint本征源文件-适配lut筛选-恢复的.psd"
#LUT size
LUT_3D_SIZE 4
#data domain
DOMAIN_MIN 0.0 0.0 0.0
DOMAIN_MAX 1.0 1.0 1.0
#LUT data points
0.174866 0.174866 0.174866
0.221924 0.174866 0.174866
0.599640 0.174866 0.174866
0.947723 0.174866 0.174866
0.174866 0.293488 0.174866
0.257812 0.324615 0.174866
0.652832 0.347870 0.174866
0.969910 0.407349 0.189789
0.174866 0.652435 0.174866
0.358582 0.704193 0.174866
0.710846 0.721466 0.174866
0.972534 0.749756 0.244598
0.265747 0.896973 0.174866
0.470612 0.931061 0.181335
0.780243 0.944641 0.212006
0.979614 0.947937 0.430817
0.174866 0.174866 0.221924
0.221924 0.174866 0.221924
0.601410 0.174866 0.221924
0.949219 0.174866 0.237213
0.174866 0.303711 0.221924
0.265594 0.335602 0.221924
0.663757 0.361633 0.221924
0.972046 0.423798 0.280609
0.174866 0.663422 0.221924
0.368774 0.714264 0.221924
0.719788 0.731354 0.221924
0.974518 0.761749 0.337952
0.275299 0.903168 0.221924
0.482666 0.936218 0.258575
0.787994 0.949371 0.291077
0.981934 0.954071 0.547974
0.174866 0.174866 0.863129
0.243622 0.174866 0.871185
0.617249 0.174866 0.871338
0.950623 0.174866 0.896973
0.174866 0.472778 0.882874
0.365570 0.509949 0.900879
0.730316 0.499420 0.912476
0.981140 0.524200 0.926056
0.188171 0.752991 0.873688
0.421539 0.801147 0.904785
0.800415 0.835144 0.928253
0.992371 0.852417 0.935944
0.260376 0.921875 0.858948
0.488525 0.956177 0.899017
0.824707 0.979492 0.929596
0.999695 0.997803 0.951111
0.174866 0.174866 0.951904
0.250916 0.174866 0.958649
0.627747 0.174866 0.958130
0.935364 0.174866 0.960297
0.174866 0.494934 0.965851
0.380341 0.531708 0.976196
0.734985 0.520233 0.980988
0.969727 0.540253 0.981689
0.197815 0.769592 0.960358
0.443756 0.812347 0.978485
0.811371 0.844208 0.990356
0.988464 0.858093 0.992676
0.272034 0.942963 0.959167
0.522614 0.968262 0.981079
0.858490 0.982269 0.992706
1.000000 1.000000 1.000000
