lut/怀旧绿-f.cube
#Created by: Adobe Photoshop Export Color Lookup Plugin
TITLE "多场景样片-v1.0.psd"
#LUT size
LUT_3D_SIZE 7
#data domain
#LUT data points
DOMAIN_MIN 0.000000 0.000000 0.000000
DOMAIN_MAX 0.909091 0.909091 0.909091
0.045532 0.080353 0.073456
0.166718 0.080811 0.065491
0.352173 0.080811 0.057068
0.552490 0.079620 0.050659
0.705872 0.076935 0.050659
0.826141 0.077209 0.050659
0.943695 0.077911 0.050659
0.038635 0.215881 0.072968
0.155670 0.215576 0.063843
0.351776 0.228302 0.055115
0.552307 0.230103 0.050659
0.705780 0.231873 0.050659
0.826050 0.236572 0.050659
0.943604 0.242493 0.050659
0.030304 0.382599 0.070435
0.136230 0.382446 0.052917
0.321869 0.382111 0.050934
0.551697 0.409760 0.050659
0.705444 0.412140 0.050659
0.825775 0.415344 0.050659
0.943329 0.420807 0.050659
0.027313 0.561005 0.064026
0.116272 0.560944 0.050659
0.295105 0.560760 0.050659
0.511475 0.560364 0.050659
0.704865 0.598450 0.050659
0.825317 0.598694 0.050659
0.942871 0.602051 0.050659
0.027313 0.716827 0.052917
0.094696 0.716827 0.050659
0.267731 0.716736 0.050659
0.485596 0.716522 0.050659
0.665405 0.716187 0.050659
0.824585 0.752106 0.050659
0.942200 0.753296 0.050659
0.027313 0.841614 0.050659
0.074127 0.841583 0.050659
0.243042 0.841522 0.050659
0.458374 0.841400 0.050659
0.643463 0.841187 0.050659
0.781555 0.840881 0.050659
0.941345 0.882324 0.050659
0.027313 0.954071 0.050659
0.048645 0.954041 0.050659
0.220367 0.954010 0.050659
0.433838 0.953918 0.050659
0.624268 0.953735 0.050659
0.764496 0.953461 0.050659
0.890625 0.953186 0.050659
0.046753 0.073395 0.199799
0.166748 0.072479 0.190308
0.352203 0.064301 0.173492
0.552490 0.058441 0.156250
0.705902 0.058441 0.138336
0.826141 0.058441 0.123077
0.943695 0.058441 0.106812
0.038727 0.205139 0.199371
0.158691 0.207611 0.192383
0.342743 0.206573 0.182068
0.544128 0.205414 0.171173
0.700348 0.205536 0.160889
0.827026 0.205902 0.150482
0.950470 0.206451 0.139435
0.030304 0.382599 0.209503
0.143097 0.375458 0.187714
0.328003 0.374664 0.177399
0.543579 0.386871 0.169220
0.700073 0.388214 0.158783
0.826813 0.390137 0.148132
0.950256 0.392242 0.136780
0.027313 0.561005 0.209625
0.130707 0.553314 0.186249
0.296570 0.553009 0.165863
0.516449 0.552612 0.164398
0.699493 0.578247 0.154358
0.826355 0.580383 0.143341
0.949799 0.582733 0.131348
0.027313 0.716827 0.208862
0.117737 0.711151 0.184418
0.267303 0.711029 0.152588
0.489014 0.710815 0.151123
0.669464 0.710449 0.148590
0.825623 0.741241 0.134888
0.949097 0.743286 0.122162
0.027313 0.841614 0.210114
0.102814 0.842590 0.181519
0.238342 0.842529 0.136414
0.461090 0.842377 0.134766
0.649841 0.842163 0.131897
0.790192 0.841858 0.127899
0.948212 0.878052 0.108276
0.027313 0.954071 0.212158
0.085846 0.960205 0.178009
0.209320 0.960144 0.116241
0.432251 0.960052 0.114349
0.629730 0.959869 0.110901
0.773865 0.959595 0.105804
0.904541 0.959290 0.099304
0.048523 0.067413 0.333984
0.180389 0.066376 0.333862
0.352203 0.064270 0.314484
0.552490 0.058441 0.297424
0.705902 0.058441 0.280121
0.826141 0.058441 0.264740
0.943695 0.058441 0.250885
0.034119 0.186707 0.333832
0.156677 0.193054 0.328217
0.343323 0.192719 0.317688
0.544159 0.182800 0.298248
0.700348 0.171753 0.279816
0.827057 0.160065 0.261444
0.950500 0.147919 0.242920
0.030945 0.357910 0.333282
0.143097 0.362366 0.327728
0.330627 0.364075 0.319092
0.534790 0.364197 0.309235
0.693909 0.362061 0.297455
0.821075 0.361481 0.286621
0.944366 0.362396 0.276794
0.027313 0.561005 0.353851
0.130707 0.553314 0.335938
0.307251 0.545837 0.313446
0.522125 0.545074 0.302673
0.693329 0.556244 0.295868
0.820648 0.556793 0.284943
0.943939 0.558350 0.274963
0.027313 0.716827 0.354675
0.117737 0.711151 0.335724
0.288269 0.705048 0.311096
0.489746 0.704773 0.290161
0.673401 0.704437 0.289185
0.820007 0.724091 0.280762
0.943268 0.725403 0.272003
0.027313 0.841614 0.355774
0.102814 0.842590 0.335724
0.271393 0.836853 0.310120
0.459167 0.836670 0.278534
0.651489 0.836426 0.277527
0.793152 0.836121 0.276123
0.942444 0.862823 0.265686
0.027313 0.954071 0.358612
0.085846 0.960205 0.335724
0.255066 0.954895 0.309723
0.428894 0.954773 0.266968
0.630188 0.954590 0.265930
0.775421 0.954315 0.264496
0.907013 0.953979 0.262817
0.050995 0.062500 0.471924
0.183563 0.061523 0.471863
0.385498 0.058960 0.471649
0.552490 0.058441 0.442169
0.705902 0.058441 0.424622
0.826141 0.058441 0.407043
0.943695 0.058441 0.391937
0.030243 0.169495 0.471863
0.158447 0.184021 0.465637
0.358582 0.182953 0.465454
0.544250 0.181671 0.445282
0.700378 0.171448 0.426819
0.827057 0.159973 0.408844
0.950500 0.147858 0.390991
0.027435 0.336884 0.471527
0.134430 0.336975 0.465485
0.325958 0.345612 0.459442
0.536072 0.345764 0.448425
0.694061 0.334778 0.427673
0.821136 0.322205 0.408234
0.944427 0.310120 0.389374
0.027313 0.523895 0.470825
0.131226 0.528076 0.464752
0.307129 0.532349 0.458771
0.523560 0.533630 0.449402
0.686371 0.534821 0.440216
0.814758 0.533630 0.429077
0.938110 0.533142 0.418243
0.027313 0.716827 0.500885
0.117737 0.711151 0.484467
0.288269 0.705048 0.465790
0.502045 0.698364 0.444061
0.677246 0.697876 0.433105
0.814117 0.706879 0.427673
0.937469 0.707092 0.416748
0.027313 0.841614 0.500305
0.102814 0.842590 0.485199
0.271393 0.836853 0.465057
0.483093 0.831146 0.441345
0.652161 0.830872 0.420074
0.796326 0.830505 0.419281
0.936676 0.847260 0.410797
0.027313 0.954071 0.502197
0.085846 0.960205 0.486084
0.255066 0.954895 0.465332
0.466522 0.949524 0.440613
0.628723 0.949341 0.408691
0.776489 0.949036 0.407990
0.909637 0.948761 0.407074
0.054016 0.058441 0.603912
0.187378 0.058441 0.603851
0.389435 0.058441 0.603699
0.591919 0.058441 0.603455
0.705902 0.058441 0.567566
0.826141 0.058441 0.548676
0.943695 0.058441 0.532806
0.027313 0.153564 0.603851
0.161499 0.176392 0.598663
0.361511 0.175293 0.598541
0.571594 0.173248 0.598328
0.700378 0.170990 0.571014
0.827057 0.159851 0.554260
0.950500 0.147797 0.537537
0.027313 0.316467 0.603668
0.127411 0.314880 0.598572
0.326111 0.332947 0.592987
0.547821 0.332001 0.592743
0.694275 0.331482 0.573914
0.821167 0.321014 0.555634
0.944427 0.309570 0.538055
0.027313 0.502045 0.603271
0.124420 0.504578 0.598206
0.292114 0.504150 0.592743
0.519043 0.515015 0.586761
0.687714 0.515320 0.576569
0.815063 0.504883 0.556885
0.938232 0.492432 0.538239
0.027313 0.676575 0.602539
0.119080 0.680573 0.597443
0.288696 0.684113 0.591949
0.501923 0.687378 0.585999
0.678009 0.688263 0.577179
0.807648 0.689911 0.569336
0.931458 0.690033 0.560059
0.027313 0.841614 0.634583
0.102814 0.842590 0.624573
0.271393 0.836853 0.608826
0.483093 0.831146 0.591797
0.663330 0.824768 0.573395
0.799347 0.824432 0.563293
0.930634 0.832581 0.558411
0.027313 0.954071 0.635101
0.085846 0.960205 0.625702
0.255066 0.954895 0.608948
0.466522 0.949524 0.590485
0.649597 0.944000 0.570953
0.777496 0.943756 0.551178
0.912415 0.943451 0.550629
0.060333 0.058441 0.722290
0.194519 0.058441 0.722260
0.394562 0.058441 0.722137
0.592804 0.058441 0.721924
0.740540 0.058441 0.721619
0.826141 0.058441 0.678436
0.943695 0.058441 0.662109
0.027313 0.142303 0.722290
0.164948 0.169159 0.723206
0.365448 0.168030 0.723114
0.574432 0.165924 0.722931
0.730255 0.162598 0.722626
0.827057 0.159607 0.686981
0.950500 0.147675 0.671326
0.027313 0.299164 0.722137
0.120972 0.293976 0.723145
0.329071 0.322754 0.717194
0.549072 0.321777 0.717010
0.713776 0.320312 0.716736
0.821228 0.319275 0.689514
0.944427 0.308777 0.672852
0.027313 0.480347 0.721802
0.118073 0.482239 0.722809
0.280334 0.479340 0.717010
0.517883 0.500732 0.711090
0.695526 0.499969 0.710785
0.815369 0.499969 0.692169
0.938293 0.490021 0.673981
0.027313 0.655365 0.721252
0.112854 0.661743 0.722229
0.277039 0.662933 0.716400
0.486023 0.662872 0.710632
0.675293 0.674011 0.704224
0.808838 0.674225 0.694366
0.931702 0.666107 0.675659
0.027313 0.798218 0.720459
0.105194 0.807068 0.721405
0.272430 0.809845 0.715576
0.483368 0.812683 0.709778
0.663269 0.815277 0.703400
0.800323 0.816345 0.695038
0.924377 0.818054 0.687897
0.027313 0.954071 0.763123
0.085846 0.960205 0.758392
0.255066 0.954895 0.742310
0.466522 0.949524 0.725769
0.649597 0.944000 0.708862
0.789032 0.938110 0.692841
0.915222 0.937805 0.683319
0.066833 0.058441 0.847198
0.203094 0.058441 0.847107
0.402405 0.058441 0.847046
0.596832 0.058441 0.846832
0.742096 0.058441 0.846527
0.868256 0.058441 0.846161
0.943695 0.058441 0.791687
0.027313 0.132233 0.847168
0.168579 0.162292 0.854645
0.369659 0.161072 0.854523
0.577606 0.158813 0.854340
0.732544 0.155273 0.854004
0.863800 0.150757 0.853668
0.950500 0.147552 0.806519
0.027313 0.284241 0.847046
0.114807 0.273834 0.854584
0.333160 0.313568 0.847900
0.551819 0.312561 0.847717
0.715118 0.311035 0.847443
0.848328 0.309052 0.847046
0.944458 0.307739 0.808960
0.027313 0.461884 0.846741
0.112030 0.460266 0.854248
0.269897 0.456177 0.847717
0.519592 0.489075 0.841064
0.695526 0.488251 0.840790
0.832214 0.487213 0.840393
0.938324 0.486908 0.811371
0.027313 0.637482 0.846191
0.106964 0.642883 0.853699
0.266754 0.642822 0.847107
0.472931 0.640747 0.840607
0.674042 0.661804 0.833832
0.815430 0.661224 0.833466
0.931946 0.661469 0.813660
0.027313 0.781525 0.845428
0.099243 0.791199 0.852875
0.262177 0.792633 0.846283
0.470306 0.793427 0.839783
0.651276 0.794128 0.833130
0.799011 0.805603 0.825989
0.925018 0.805603 0.815765
0.027313 0.907867 0.844482
0.089386 0.920929 0.851929
0.256622 0.923157 0.845337
0.467163 0.925323 0.838776
0.649780 0.927582 0.832123
0.789062 0.929871 0.825012
0.917206 0.931458 0.817108
