lut/怀旧绿-f.cube
#Created by: Adobe Photoshop Export Color Lookup Plugin
TITLE "多场景样片-v1.0.psd"
#LUT size
LUT_3D_SIZE 4
#data domain
DOMAIN_MIN 0.0 0.0 0.0
DOMAIN_MAX 1.0 1.0 1.0
#LUT data points
0.045532 0.080353 0.073456
0.393921 0.080750 0.055450
0.755219 0.077057 0.050659
0.984436 0.107605 0.050659
0.028473 0.418182 0.069580
0.360168 0.417633 0.050659
0.754761 0.450623 0.050659
0.984436 0.468811 0.050659
0.027313 0.768494 0.050659
0.299469 0.768372 0.050659
0.713959 0.767822 0.050659
0.984436 0.796173 0.050659
0.027313 0.992218 0.059631
0.266205 0.992218 0.050659
0.669128 0.992218 0.050659
0.935425 0.992218 0.050659
0.049042 0.066498 0.361389
0.393951 0.062836 0.339783
0.755219 0.058441 0.302246
0.984436 0.058441 0.283630
0.029266 0.390625 0.360565
0.370026 0.397614 0.344910
0.745148 0.395660 0.321198
0.984436 0.431976 0.330292
0.027313 0.768494 0.383942
0.322784 0.758636 0.336517
0.723969 0.757965 0.312225
0.984436 0.776093 0.326050
0.027313 0.992218 0.395508
0.333649 0.992218 0.363037
0.684906 0.992218 0.319763
0.951874 0.992218 0.317261
0.056458 0.058441 0.651154
0.434296 0.058441 0.650940
0.755219 0.058441 0.612549
0.984436 0.058441 0.572540
0.027313 0.344818 0.650909
0.365265 0.363342 0.641571
0.745514 0.361664 0.621277
0.984436 0.377747 0.587189
0.027313 0.727386 0.649658
0.323273 0.737152 0.640411
0.728851 0.741699 0.624817
0.984436 0.757416 0.621582
0.027313 0.992218 0.675262
0.333649 0.992218 0.655243
0.717255 0.992218 0.632080
0.968109 0.992218 0.613068
0.088104 0.077606 0.891052
0.457336 0.072937 0.891052
0.783234 0.059601 0.891052
0.984436 0.058441 0.840240
0.040131 0.324646 0.891052
0.412170 0.379852 0.891052
0.763153 0.377563 0.891052
0.984436 0.375122 0.858093
0.027313 0.683380 0.891052
0.343689 0.699036 0.891052
0.738617 0.732025 0.891052
0.984436 0.731720 0.874908
0.027313 0.949493 0.891052
0.334869 0.964142 0.891052
0.717438 0.978271 0.891052
0.984436 0.992218 0.891052
