lut/怀旧绿-f.cube
#Created by: Adobe Photoshop Export Color Lookup Plugin
TITLE "多场景样片-v1.0.psd"
#LUT size
LUT_3D_SIZE 34
#data domain
DOMAIN_MIN 0.0 0.0 0.0
DOMAIN_MAX 1.0 1.0 1.0
#LUT data points
0.045532 0.080353 0.073456
0.065552 0.080719 0.072083
0.087372 0.080902 0.070618
0.111298 0.080902 0.068970
0.137604 0.080872 0.067291
0.166718 0.080811 0.065491
0.198822 0.080750 0.063782
0.233795 0.080688 0.062103
0.271362 0.080750 0.060425
0.311035 0.080811 0.058746
0.352173 0.080811 0.057068
0.393921 0.080750 0.055450
0.435516 0.080597 0.053741
0.476227 0.080353 0.051910
0.515320 0.080048 0.050659
0.552490 0.079620 0.050659
0.587555 0.079193 0.050659
0.620209 0.078613 0.050659
0.650726 0.077850 0.050659
0.679504 0.077057 0.050659
0.705872 0.076935 0.050659
0.730927 0.077026 0.050659
0.755219 0.077057 0.050659
0.779083 0.077087 0.050659
0.802704 0.077209 0.050659
0.826141 0.077209 0.050659
0.849579 0.077301 0.050659
0.873108 0.077362 0.050659
0.896820 0.077454 0.050659
0.920471 0.077637 0.050659
0.943695 0.077911 0.050659
0.966248 0.078186 0.050659
0.984436 0.081238 0.050659
0.984436 0.107605 0.050659
0.044342 0.104706 0.073608
0.064117 0.104614 0.071808
0.087280 0.106689 0.070404
0.111206 0.106842 0.068756
0.137543 0.106903 0.067108
0.166656 0.106934 0.065308
0.198761 0.106995 0.063568
0.233734 0.107056 0.061890
0.271332 0.107178 0.060211
0.310974 0.107330 0.058563
0.352173 0.107422 0.056885
0.393860 0.107544 0.055267
0.435486 0.107574 0.053558
0.476166 0.107513 0.051727
0.515289 0.107391 0.050659
0.552460 0.107239 0.050659
0.587524 0.106964 0.050659
0.620178 0.106598 0.050659
0.650696 0.106201 0.050659
0.679474 0.105743 0.050659
0.705872 0.105957 0.050659
0.730896 0.106537 0.050659
0.755188 0.106964 0.050659
0.779083 0.107574 0.050659
0.802704 0.108185 0.050659
0.826141 0.108673 0.050659
0.849579 0.109222 0.050659
0.873108 0.109833 0.050659
0.896790 0.110413 0.050659
0.920441 0.111145 0.050659
0.943695 0.111816 0.050659
0.966248 0.112457 0.050659
0.984436 0.115723 0.050659
0.984436 0.139313 0.050659
0.043060 0.130341 0.073669
0.061279 0.130280 0.070251
0.084015 0.130157 0.070038
0.111115 0.134186 0.068481
0.137451 0.134430 0.066833
0.166595 0.134583 0.065033
0.198669 0.134766 0.063324
0.233673 0.134888 0.061615
0.271271 0.135101 0.059937
0.310913 0.135376 0.058319
0.352081 0.135620 0.056580
0.393860 0.135803 0.054962
0.435486 0.135986 0.053253
0.476135 0.136047 0.051453
0.515259 0.136108 0.050659
0.552460 0.136169 0.050659
0.587494 0.136169 0.050659
0.620148 0.136108 0.050659
0.650696 0.135956 0.050659
0.679443 0.135742 0.050659
0.705841 0.136200 0.050659
0.730896 0.136932 0.050659
0.755188 0.137604 0.050659
0.779053 0.138428 0.050659
0.802673 0.139191 0.050659
0.826111 0.139923 0.050659
0.849548 0.140747 0.050659
0.873077 0.141571 0.050659
0.896790 0.142517 0.050659
0.920441 0.143341 0.050659
0.943665 0.144257 0.050659
0.966248 0.145264 0.050659
0.984436 0.148376 0.050659
0.984436 0.170166 0.050659
0.041626 0.157349 0.073517
0.058411 0.157288 0.068420
0.081085 0.157257 0.068329
0.105743 0.157166 0.068115
0.137360 0.163300 0.066406
0.166473 0.163574 0.064697
0.198578 0.163849 0.062958
0.233582 0.164124 0.061249
0.271179 0.164429 0.059540
0.310822 0.164734 0.057922
0.351990 0.165039 0.056213
0.393768 0.165344 0.054565
0.435425 0.165588 0.052887
0.476105 0.165924 0.051178
0.515198 0.166046 0.050659
0.552429 0.166229 0.050659
0.587463 0.166321 0.050659
0.620148 0.166443 0.050659
0.650665 0.166473 0.050659
0.679413 0.166473 0.050659
0.705811 0.166992 0.050659
0.730865 0.167877 0.050659
0.755157 0.168610 0.050659
0.779053 0.169556 0.050659
0.802643 0.170410 0.050659
0.826111 0.171326 0.050659
0.849548 0.172302 0.050659
0.873077 0.173279 0.050659
0.896759 0.174255 0.050659
0.920410 0.175323 0.050659
0.943634 0.176300 0.050659
0.966217 0.177460 0.050659
0.984436 0.180542 0.050659
0.984436 0.200989 0.050659
0.040161 0.185944 0.073303
0.055511 0.185883 0.066589
0.077972 0.185852 0.066467
0.102539 0.185791 0.066315
0.129547 0.185699 0.066071
0.166321 0.194183 0.064087
0.198395 0.194519 0.062469
0.233459 0.194885 0.060699
0.271057 0.195221 0.059021
0.310699 0.195587 0.057404
0.351898 0.195953 0.055725
0.393707 0.196350 0.054077
0.435364 0.196594 0.052399
0.476044 0.196960 0.050812
0.515137 0.197235 0.050659
0.552368 0.197571 0.050659
0.587402 0.197723 0.050659
0.620087 0.197968 0.050659
0.650635 0.198120 0.050659
0.679382 0.198181 0.050659
0.705811 0.198792 0.050659
0.730835 0.199677 0.050659
0.755157 0.200531 0.050659
0.779022 0.201447 0.050659
0.802612 0.202515 0.050659
0.826080 0.203430 0.050659
0.849518 0.204468 0.050659
0.873047 0.205536 0.050659
0.896729 0.206604 0.050659
0.920380 0.207733 0.050659
0.943634 0.209015 0.050659
0.966217 0.210175 0.050659
0.984436 0.213318 0.050659
0.984436 0.232452 0.050659
0.038635 0.215881 0.072968
0.052490 0.215851 0.064545
0.074860 0.215820 0.064453
0.099243 0.215759 0.064301
0.125977 0.215698 0.064117
0.155670 0.215576 0.063843
0.198273 0.226746 0.061737
0.233276 0.227112 0.060028
0.270935 0.227478 0.058380
0.310547 0.227905 0.056793
0.351776 0.228302 0.055115
0.393585 0.228699 0.053467
0.435242 0.229126 0.051788
0.475922 0.229462 0.050659
0.515076 0.229858 0.050659
0.552307 0.230103 0.050659
0.587341 0.230469 0.050659
0.620026 0.230774 0.050659
0.650574 0.230988 0.050659
0.679352 0.231232 0.050659
0.705780 0.231873 0.050659
0.730804 0.232727 0.050659
0.755127 0.233643 0.050659
0.778992 0.234619 0.050659
0.802612 0.235535 0.050659
0.826050 0.236572 0.050659
0.849487 0.237610 0.050659
0.873016 0.238831 0.050659
0.896698 0.239929 0.050659
0.920349 0.241272 0.050659
0.943604 0.242493 0.050659
0.966187 0.243622 0.050659
0.984436 0.246826 0.050659
0.984436 0.264648 0.050659
0.037018 0.247192 0.072571
0.049377 0.247162 0.062531
0.071716 0.247131 0.062408
0.095917 0.247070 0.062256
0.122375 0.247040 0.062103
0.151794 0.246948 0.061829
0.184265 0.246857 0.061493
0.233093 0.260742 0.059174
0.270721 0.261139 0.057617
0.310394 0.261566 0.056030
0.351624 0.261993 0.054291
0.393433 0.262512 0.052673
0.435120 0.262909 0.051178
0.475800 0.263306 0.050659
0.514984 0.263702 0.050659
0.552216 0.264160 0.050659
0.587250 0.264557 0.050659
0.619965 0.264862 0.050659
0.650513 0.265198 0.050659
0.679321 0.265564 0.050659
0.705719 0.266174 0.050659
0.730743 0.266998 0.050659
0.755096 0.267700 0.050659
0.778961 0.268738 0.050659
0.802582 0.269775 0.050659
0.826019 0.270721 0.050659
0.849457 0.271881 0.050659
0.872986 0.273010 0.050659
0.896667 0.274170 0.050659
0.920319 0.275360 0.050659
0.943542 0.276672 0.050659
0.966156 0.278107 0.050659
0.984436 0.280945 0.050659
0.984436 0.297546 0.050659
0.035431 0.279694 0.072083
0.046112 0.279663 0.060333
0.068481 0.279633 0.060211
0.092529 0.279602 0.060059
0.118774 0.279541 0.059875
0.147888 0.279480 0.059601
0.180054 0.279388 0.059326
0.215454 0.279297 0.058960
0.270508 0.295990 0.056641
0.310211 0.296478 0.055115
0.351410 0.296906 0.053436
0.393280 0.297394 0.051788
0.434998 0.297913 0.050751
0.475677 0.298340 0.050659
0.514862 0.298798 0.050659
0.552124 0.299255 0.050659
0.587189 0.299713 0.050659
0.619904 0.300079 0.050659
0.650482 0.300507 0.050659
0.679230 0.300903 0.050659
0.705658 0.301422 0.050659
0.730713 0.302216 0.050659
0.755035 0.302917 0.050659
0.778931 0.303925 0.050659
0.802521 0.304810 0.050659
0.825958 0.305817 0.050659
0.849396 0.307007 0.050659
0.872955 0.308136 0.050659
0.896637 0.309326 0.050659
0.920288 0.310547 0.050659
0.943481 0.311829 0.050659
0.966095 0.313263 0.050659
0.984436 0.315887 0.050659
0.984436 0.331055 0.050659
0.033722 0.313141 0.071594
0.043091 0.313080 0.058075
0.065216 0.313080 0.057983
0.089172 0.313019 0.057831
0.115234 0.312988 0.057678
0.143921 0.312927 0.057404
0.175812 0.312897 0.057159
0.210846 0.312805 0.056824
0.248932 0.312714 0.056427
0.309601 0.332001 0.053955
0.351166 0.332825 0.052307
0.393097 0.333313 0.050934
0.434814 0.333862 0.050659
0.475555 0.334320 0.050659
0.514771 0.334869 0.050659
0.552002 0.335358 0.050659
0.587067 0.335815 0.050659
0.619843 0.336243 0.050659
0.650391 0.336761 0.050659
0.679169 0.337219 0.050659
0.705597 0.337677 0.050659
0.730621 0.338318 0.050659
0.754974 0.338989 0.050659
0.778870 0.339935 0.050659
0.802490 0.340881 0.050659
0.825897 0.341766 0.050659
0.849365 0.342865 0.050659
0.872894 0.344055 0.050659
0.896545 0.345184 0.050659
0.920227 0.346466 0.050659
0.943451 0.347717 0.050659
0.966034 0.349060 0.050659
0.984436 0.351532 0.050659
0.984436 0.364960 0.050659
0.032043 0.347473 0.071075
0.040253 0.347443 0.056061
0.061859 0.347412 0.055817
0.085785 0.347382 0.055664
0.111633 0.347382 0.055511
0.140045 0.347321 0.055267
0.171570 0.347260 0.055023
0.206268 0.347198 0.054688
0.244019 0.347137 0.054291
0.284515 0.347046 0.053772
0.350098 0.368835 0.051086
0.392853 0.369995 0.050659
0.434601 0.370636 0.050659
0.475372 0.371124 0.050659
0.514587 0.371613 0.050659
0.551849 0.372192 0.050659
0.586975 0.372711 0.050659
0.619720 0.373199 0.050659
0.650330 0.373718 0.050659
0.679138 0.374176 0.050659
0.705536 0.374542 0.050659
0.730591 0.375092 0.050659
0.754944 0.375671 0.050659
0.778839 0.376465 0.050659
0.802429 0.377380 0.050659
0.825836 0.378296 0.050659
0.849304 0.379395 0.050659
0.872833 0.380402 0.050659
0.896484 0.381714 0.050659
0.920166 0.382721 0.050659
0.943390 0.384064 0.050659
0.966003 0.385315 0.050659
0.984436 0.387848 0.050659
0.984436 0.399445 0.050659
0.030304 0.382599 0.070435
0.037384 0.382568 0.053925
0.058472 0.382568 0.053406
0.082367 0.382538 0.053284
0.108063 0.382538 0.053131
0.136230 0.382446 0.052917
0.167389 0.382416 0.052643
0.201660 0.382355 0.052338
0.239166 0.382263 0.051941
0.279449 0.382172 0.051514
0.321869 0.382111 0.050934
0.391174 0.406281 0.050659
0.434387 0.408051 0.050659
0.475159 0.408539 0.050659
0.514374 0.409119 0.050659
0.551697 0.409760 0.050659
0.586853 0.410187 0.050659
0.619598 0.410706 0.050659
0.650208 0.411255 0.050659
0.679016 0.411743 0.050659
0.705444 0.412140 0.050659
0.730469 0.412537 0.050659
0.754822 0.413025 0.050659
0.778748 0.413666 0.050659
0.802368 0.414612 0.050659
0.825775 0.415344 0.050659
0.849243 0.416382 0.050659
0.872772 0.417389 0.050659
0.896423 0.418579 0.050659
0.920105 0.419678 0.050659
0.943329 0.420807 0.050659
0.965912 0.422150 0.050659
0.984436 0.424286 0.050659
0.984436 0.434113 0.050659
0.028473 0.418182 0.069580
0.034424 0.418152 0.051880
0.054810 0.418152 0.051086
0.078918 0.418121 0.051056
0.104431 0.418091 0.050995
0.132355 0.418060 0.050903
0.163208 0.418030 0.050873
0.197205 0.417969 0.050781
0.234314 0.417877 0.050659
0.274231 0.417816 0.050659
0.316498 0.417755 0.050659
0.360168 0.417633 0.050659
0.432037 0.444000 0.050659
0.474945 0.446381 0.050659
0.514191 0.446899 0.050659
0.551544 0.447479 0.050659
0.586731 0.448059 0.050659
0.619476 0.448639 0.050659
0.650085 0.449158 0.050659
0.678925 0.449646 0.050659
0.705353 0.450012 0.050659
0.730377 0.450195 0.050659
0.754761 0.450623 0.050659
0.778656 0.451172 0.050659
0.802277 0.451874 0.050659
0.825714 0.452728 0.050659
0.849152 0.453522 0.050659
0.872711 0.454498 0.050659
0.896362 0.455444 0.050659
0.920013 0.456543 0.050659
0.943268 0.457825 0.050659
0.965851 0.459167 0.050659
0.984436 0.460907 0.050659
0.984436 0.468811 0.050659
0.027313 0.454071 0.068512
0.031433 0.454071 0.051483
0.051117 0.454041 0.050659
0.075256 0.454041 0.050659
0.100647 0.454010 0.050659
0.128479 0.453979 0.050659
0.158966 0.453949 0.050659
0.192566 0.453918 0.050659
0.229431 0.453827 0.050659
0.269073 0.453796 0.050659
0.311157 0.453705 0.050659
0.354706 0.453583 0.050659
0.398895 0.453491 0.050659
0.471985 0.481873 0.050659
0.513977 0.484894 0.050659
0.551361 0.485413 0.050659
0.586548 0.486023 0.050659
0.619324 0.486511 0.050659
0.649963 0.487061 0.050659
0.678772 0.487701 0.050659
0.705261 0.487762 0.050659
0.730316 0.487946 0.050659
0.754669 0.488312 0.050659
0.778564 0.488708 0.050659
0.802216 0.489197 0.050659
0.825653 0.489929 0.050659
0.849091 0.490631 0.050659
0.872620 0.491547 0.050659
0.896271 0.492523 0.050659
0.919952 0.493622 0.050659
0.943176 0.494781 0.050659
0.965759 0.495911 0.050659
0.984436 0.497528 0.050659
0.984436 0.503296 0.050659
0.027313 0.489960 0.067291
0.028778 0.489929 0.051178
0.047333 0.489899 0.050659
0.071472 0.489899 0.050659
0.096924 0.489868 0.050659
0.124451 0.489838 0.050659
0.154755 0.489807 0.050659
0.188110 0.489777 0.050659
0.224487 0.489746 0.050659
0.263947 0.489716 0.050659
0.305817 0.489624 0.050659
0.349304 0.489563 0.050659
0.393463 0.489471 0.050659
0.437439 0.489410 0.050659
0.510559 0.519501 0.050659
0.551117 0.523071 0.050659
0.586334 0.523712 0.050659
0.619171 0.524170 0.050659
0.649811 0.524750 0.050659
0.678650 0.525391 0.050659
0.705139 0.525482 0.050659
0.730194 0.525391 0.050659
0.754578 0.525574 0.050659
0.778473 0.525879 0.050659
0.802094 0.526337 0.050659
0.825531 0.526917 0.050659
0.848999 0.527618 0.050659
0.872559 0.528473 0.050659
0.896179 0.529236 0.050659
0.919861 0.530304 0.050659
0.943085 0.531403 0.050659
0.965668 0.532440 0.050659
0.984436 0.533752 0.050659
0.984436 0.537567 0.050659
0.027313 0.525696 0.065735
0.027313 0.525665 0.050842
0.043365 0.525665 0.050659
0.067383 0.525665 0.050659
0.093018 0.525635 0.050659
0.120514 0.525635 0.050659
0.150482 0.525604 0.050659
0.183502 0.525604 0.050659
0.219696 0.525574 0.050659
0.258728 0.525482 0.050659
0.300507 0.525421 0.050659
0.343872 0.525330 0.050659
0.388031 0.525269 0.050659
0.432068 0.525177 0.050659
0.475159 0.525116 0.050659
0.547424 0.556976 0.050659
0.586090 0.560822 0.050659
0.618958 0.561371 0.050659
0.649658 0.561951 0.050659
0.678497 0.562592 0.050659
0.705017 0.562469 0.050659
0.730103 0.562378 0.050659
0.754456 0.562408 0.050659
0.778351 0.562653 0.050659
0.801971 0.562836 0.050659
0.825409 0.563263 0.050659
0.848907 0.563965 0.050659
0.872437 0.564575 0.050659
0.896088 0.565491 0.050659
0.919739 0.566315 0.050659
0.942993 0.567230 0.050659
0.965576 0.568451 0.050659
0.984436 0.569336 0.050659
0.984436 0.571350 0.050659
0.027313 0.561005 0.064026
0.027313 0.561005 0.050659
0.039246 0.561005 0.050659
0.063171 0.560974 0.050659
0.089050 0.560974 0.050659
0.116272 0.560944 0.050659
0.146149 0.560944 0.050659
0.178864 0.560913 0.050659
0.214752 0.560883 0.050659
0.253540 0.560822 0.050659
0.295105 0.560760 0.050659
0.338318 0.560699 0.050659
0.382599 0.560638 0.050659
0.426697 0.560547 0.050659
0.469940 0.560455 0.050659
0.511475 0.560364 0.050659
0.582062 0.593292 0.050659
0.618774 0.597382 0.050659
0.649475 0.597992 0.050659
0.678314 0.598572 0.050659
0.704865 0.598450 0.050659
0.729950 0.598083 0.050659
0.754333 0.598053 0.050659
0.778229 0.597992 0.050659
0.801849 0.598358 0.050659
0.825317 0.598694 0.050659
0.848785 0.599121 0.050659
0.872345 0.599731 0.050659
0.895996 0.600525 0.050659
0.919678 0.601257 0.050659
0.942871 0.602051 0.050659
0.965454 0.603058 0.050659
0.984436 0.603790 0.050659
0.984436 0.603607 0.050659
0.027313 0.595276 0.062073
0.027313 0.595276 0.050659
0.035126 0.595276 0.050659
0.058624 0.595245 0.050659
0.084808 0.595245 0.050659
0.112091 0.595245 0.050659
0.141785 0.595215 0.050659
0.174225 0.595184 0.050659
0.209747 0.595154 0.050659
0.248352 0.595123 0.050659
0.289581 0.595062 0.050659
0.332764 0.595001 0.050659
0.377014 0.594940 0.050659
0.421326 0.594879 0.050659
0.464722 0.594818 0.050659
0.506561 0.594696 0.050659
0.546234 0.594635 0.050659
0.613953 0.627411 0.050659
0.649292 0.632385 0.050659
0.678162 0.632965 0.050659
0.704681 0.632782 0.050659
0.729797 0.632324 0.050659
0.754211 0.632050 0.050659
0.778107 0.631958 0.050659
0.801727 0.632080 0.050659
0.825195 0.632385 0.050659
0.848633 0.632690 0.050659
0.872192 0.633209 0.050659
0.895844 0.633850 0.050659
0.919525 0.634430 0.050659
0.942749 0.635315 0.050659
0.965332 0.636078 0.050659
0.984436 0.636597 0.050659
0.984436 0.634705 0.050659
0.027313 0.628113 0.059875
0.027313 0.628113 0.050659
0.031677 0.628113 0.050659
0.053741 0.628113 0.050659
0.080414 0.628082 0.050659
0.107758 0.628082 0.050659
0.137238 0.628052 0.050659
0.169525 0.628052 0.050659
0.204742 0.628021 0.050659
0.243042 0.627991 0.050659
0.284149 0.627960 0.050659
0.327240 0.627899 0.050659
0.371338 0.627838 0.050659
0.415710 0.627777 0.050659
0.459381 0.627686 0.050659
0.501404 0.627655 0.050659
0.541443 0.627563 0.050659
0.579102 0.627502 0.050659
0.642761 0.658661 0.050659
0.677979 0.665527 0.050659
0.704498 0.665192 0.050659
0.729614 0.664673 0.050659
0.754059 0.664337 0.050659
0.777985 0.664154 0.050659
0.801575 0.664215 0.050659
0.825073 0.664398 0.050659
0.848541 0.664612 0.050659
0.872040 0.664978 0.050659
0.895691 0.665558 0.050659
0.919373 0.666046 0.050659
0.942627 0.666656 0.050659
0.965240 0.667389 0.050659
0.984436 0.667755 0.050659
0.984436 0.664368 0.050659
0.027313 0.659363 0.057465
0.027313 0.659363 0.050659
0.029419 0.659363 0.050659
0.048706 0.659363 0.050659
0.075928 0.659363 0.050659
0.103394 0.659332 0.050659
0.132751 0.659332 0.050659
0.164795 0.659302 0.050659
0.199768 0.659271 0.050659
0.237793 0.659241 0.050659
0.278656 0.659210 0.050659
0.321594 0.659180 0.050659
0.365723 0.659119 0.050659
0.410156 0.659058 0.050659
0.454041 0.658997 0.050659
0.496338 0.658966 0.050659
0.536591 0.658905 0.050659
0.574585 0.658844 0.050659
0.610077 0.658752 0.050659
0.669891 0.688507 0.050659
0.704285 0.696228 0.050659
0.729462 0.695557 0.050659
0.753876 0.695068 0.050659
0.777832 0.694824 0.050659
0.801422 0.694702 0.050659
0.824921 0.694824 0.050659
0.848358 0.694946 0.050659
0.871887 0.695343 0.050659
0.895569 0.695618 0.050659
0.919220 0.696198 0.050659
0.942505 0.696686 0.050659
0.965088 0.697388 0.050659
0.984314 0.697449 0.050659
0.984436 0.692627 0.050659
0.027313 0.689209 0.054962
0.027313 0.689209 0.050659
0.027313 0.689209 0.050659
0.043610 0.689209 0.050659
0.071075 0.689178 0.050659
0.098816 0.689178 0.050659
0.128235 0.689148 0.050659
0.160004 0.689148 0.050659
0.194763 0.689117 0.050659
0.232391 0.689087 0.050659
0.273071 0.689056 0.050659
0.315918 0.689026 0.050659
0.360138 0.689026 0.050659
0.404602 0.688965 0.050659
0.448700 0.688904 0.050659
0.491302 0.688873 0.050659
0.531860 0.688812 0.050659
0.570129 0.688751 0.050659
0.605835 0.688660 0.050659
0.639008 0.688599 0.050659
0.694550 0.716095 0.050659
0.729279 0.725098 0.050659
0.753693 0.724579 0.050659
0.777649 0.724274 0.050659
0.801270 0.724121 0.050659
0.824768 0.724060 0.050659
0.848206 0.724060 0.050659
0.871796 0.724243 0.050659
0.895416 0.724548 0.050659
0.919067 0.725006 0.050659
0.942352 0.725525 0.050659
0.964905 0.726074 0.050659
0.984192 0.725861 0.050659
0.984436 0.719666 0.050659
0.027313 0.716827 0.052917
0.027313 0.716827 0.050659
0.027313 0.716827 0.050659
0.039062 0.716827 0.050659
0.066559 0.716827 0.050659
0.094696 0.716827 0.050659
0.124054 0.716797 0.050659
0.155579 0.716766 0.050659
0.190033 0.716766 0.050659
0.227325 0.716736 0.050659
0.267731 0.716736 0.050659
0.310303 0.716705 0.050659
0.354156 0.716644 0.050659
0.398743 0.716614 0.050659
0.442780 0.716553 0.050659
0.485596 0.716522 0.050659
0.526398 0.716461 0.050659
0.564850 0.716400 0.050659
0.600952 0.716309 0.050659
0.634430 0.716248 0.050659
0.665405 0.716187 0.050659
0.718201 0.742279 0.050659
0.753540 0.752899 0.050659
0.777466 0.752441 0.050659
0.801086 0.752228 0.050659
0.824585 0.752106 0.050659
0.848083 0.752075 0.050659
0.871643 0.752228 0.050659
0.895294 0.752441 0.050659
0.918945 0.752899 0.050659
0.942200 0.753296 0.050659
0.964783 0.753784 0.050659
0.984100 0.753387 0.050659
0.984436 0.745850 0.050659
0.027313 0.743011 0.051117
0.027313 0.743011 0.050659
0.027313 0.743011 0.050659
0.034821 0.743011 0.050659
0.062225 0.743011 0.050659
0.090820 0.742981 0.050659
0.120148 0.742981 0.050659
0.151489 0.742981 0.050659
0.185577 0.742950 0.050659
0.222565 0.742950 0.050659
0.262604 0.742920 0.050659
0.304779 0.742859 0.050659
0.348511 0.742828 0.050659
0.392792 0.742798 0.050659
0.437012 0.742767 0.050659
0.479736 0.742737 0.050659
0.520782 0.742676 0.050659
0.559540 0.742615 0.050659
0.595764 0.742584 0.050659
0.629486 0.742493 0.050659
0.660675 0.742432 0.050659
0.690125 0.742371 0.050659
0.741028 0.767731 0.050659
0.777313 0.779938 0.050659
0.800934 0.779572 0.050659
0.824432 0.779419 0.050659
0.847931 0.779327 0.050659
0.871460 0.779449 0.050659
0.895111 0.779572 0.050659
0.918793 0.779816 0.050659
0.942047 0.780151 0.050659
0.964630 0.780579 0.050659
0.983978 0.780151 0.050659
0.984436 0.771423 0.050659
0.027313 0.768494 0.050659
0.027313 0.768494 0.050659
0.027313 0.768494 0.050659
0.030914 0.768494 0.050659
0.057648 0.768494 0.050659
0.086884 0.768463 0.050659
0.116119 0.768463 0.050659
0.147339 0.768463 0.050659
0.181122 0.768433 0.050659
0.217834 0.768433 0.050659
0.257507 0.768433 0.050659
0.299469 0.768372 0.050659
0.343048 0.768372 0.050659
0.387238 0.768311 0.050659
0.431274 0.768311 0.050659
0.474274 0.768250 0.050659
0.515320 0.768188 0.050659
0.554260 0.768127 0.050659
0.590790 0.768097 0.050659
0.624756 0.768036 0.050659
0.656158 0.767975 0.050659
0.685760 0.767914 0.050659
0.713959 0.767822 0.050659
0.763367 0.792603 0.050659
0.800781 0.806305 0.050659
0.824249 0.806061 0.050659
0.847717 0.805969 0.050659
0.871246 0.805939 0.050659
0.894928 0.806061 0.050659
0.918640 0.806244 0.050659
0.941833 0.806488 0.050659
0.964478 0.806824 0.050659
0.983887 0.806244 0.050659
0.984436 0.796173 0.050659
0.027313 0.793365 0.050659
0.027313 0.793365 0.050659
0.027313 0.793365 0.050659
0.029633 0.793365 0.050659
0.052643 0.793365 0.050659
0.082703 0.793335 0.050659
0.112274 0.793335 0.050659
0.143402 0.793335 0.050659
0.177002 0.793304 0.050659
0.213196 0.793274 0.050659
0.252563 0.793243 0.050659
0.294312 0.793243 0.050659
0.337585 0.793243 0.050659
0.381744 0.793182 0.050659
0.425812 0.793152 0.050659
0.468689 0.793152 0.050659
0.509979 0.793091 0.050659
0.549133 0.793060 0.050659
0.585968 0.793030 0.050659
0.620148 0.792938 0.050659
0.651764 0.792877 0.050659
0.681519 0.792816 0.050659
0.709778 0.792755 0.050659
0.737000 0.792694 0.050659
0.785400 0.816956 0.050659
0.824066 0.832184 0.050659
0.847534 0.831970 0.050659
0.871094 0.831940 0.050659
0.894745 0.831970 0.050659
0.918457 0.832153 0.050659
0.941681 0.832367 0.050659
0.964325 0.832581 0.050659
0.983704 0.831635 0.050659
0.984436 0.820557 0.050659
0.027313 0.817749 0.050659
0.027313 0.817749 0.050659
0.027313 0.817749 0.050659
0.028107 0.817749 0.050659
0.047455 0.817749 0.050659
0.078491 0.817749 0.050659
0.108246 0.817719 0.050659
0.139282 0.817719 0.050659
0.172760 0.817688 0.050659
0.208771 0.817688 0.050659
0.247894 0.817657 0.050659
0.289215 0.817627 0.050659
0.332336 0.817627 0.050659
0.376312 0.817596 0.050659
0.420227 0.817566 0.050659
0.463501 0.817505 0.050659
0.504791 0.817474 0.050659
0.544281 0.817413 0.050659
0.581238 0.817383 0.050659
0.615753 0.817352 0.050659
0.647552 0.817291 0.050659
0.677429 0.817230 0.050659
0.705841 0.817169 0.050659
0.733002 0.817078 0.050659
0.759521 0.817017 0.050659
0.807068 0.840820 0.050659
0.846954 0.857147 0.050659
0.870911 0.857391 0.050659
0.894592 0.857452 0.050659
0.918274 0.857422 0.050659
0.941528 0.857635 0.050659
0.964142 0.857819 0.050659
0.983582 0.856750 0.050659
0.984436 0.844482 0.050659
0.027313 0.841614 0.050659
0.027313 0.841614 0.050659
0.027313 0.841614 0.050659
0.027313 0.841614 0.050659
0.042450 0.841614 0.050659
0.074127 0.841583 0.050659
0.104218 0.841583 0.050659
0.135254 0.841583 0.050659
0.168365 0.841553 0.050659
0.204224 0.841553 0.050659
0.243042 0.841522 0.050659
0.284363 0.841522 0.050659
0.327209 0.841492 0.050659
0.371124 0.841461 0.050659
0.414948 0.841431 0.050659
0.458374 0.841400 0.050659
0.499908 0.841339 0.050659
0.539459 0.841309 0.050659
0.576721 0.841278 0.050659
0.611389 0.841248 0.050659
0.643463 0.841187 0.050659
0.673523 0.841125 0.050659
0.701996 0.841064 0.050659
0.729309 0.841003 0.050659
0.755707 0.840942 0.050659
0.781555 0.840881 0.050659
0.828735 0.864258 0.050659
0.869568 0.881226 0.050659
0.894409 0.882233 0.050659
0.918060 0.882324 0.050659
0.941345 0.882324 0.050659
0.963959 0.882599 0.050659
