lut/蓝调时光-f.cube
#Created by: Adobe Photoshop Export Color Lookup Plugin
TITLE "多场景样片-v1.0.psd"
#LUT size
LUT_3D_SIZE 34
#data domain
DOMAIN_MIN 0.0 0.0 0.0
DOMAIN_MAX 1.0 1.0 1.0
#LUT data points
0.035187 0.060059 0.052887
0.036652 0.059753 0.053040
0.049957 0.051300 0.053802
0.069641 0.052582 0.049377
0.093628 0.053986 0.049896
0.121490 0.055359 0.051544
0.151672 0.056854 0.053162
0.182800 0.058319 0.054749
0.212708 0.060028 0.055695
0.241028 0.061798 0.056122
0.268005 0.063690 0.056580
0.293701 0.065643 0.057129
0.318451 0.067719 0.057678
0.342590 0.069763 0.058289
0.366730 0.071899 0.058990
0.391876 0.074249 0.059723
0.418915 0.076569 0.060516
0.448944 0.078949 0.061371
0.482574 0.081360 0.062225
0.519409 0.083832 0.063171
0.558929 0.086334 0.064178
0.600220 0.088928 0.065186
0.642517 0.091553 0.066345
0.685089 0.094269 0.067444
0.727142 0.097015 0.068665
0.767914 0.099792 0.069977
0.806671 0.102631 0.071259
0.842804 0.105713 0.072784
0.875763 0.109711 0.075104
0.904724 0.113770 0.077454
0.929932 0.117859 0.079926
0.952087 0.122009 0.082428
0.971985 0.126160 0.085052
0.988129 0.129913 0.087341
0.035217 0.063446 0.052917
0.036713 0.063141 0.053070
0.049530 0.055634 0.053955
0.069946 0.056244 0.050201
0.093994 0.057648 0.050873
0.122009 0.058960 0.052460
0.152130 0.060486 0.054047
0.183044 0.062042 0.055328
0.212830 0.063660 0.055908
0.241180 0.065491 0.056366
0.268158 0.067352 0.056824
0.293793 0.069214 0.057312
0.318604 0.071289 0.057861
0.342712 0.073395 0.058533
0.366882 0.075500 0.059204
0.391998 0.077728 0.059937
0.419037 0.080017 0.060730
0.449097 0.082397 0.061554
0.482727 0.084747 0.062469
0.519562 0.087189 0.063385
0.559113 0.089691 0.064362
0.600372 0.092255 0.065430
0.642700 0.094849 0.066498
0.685242 0.097565 0.067657
0.727295 0.100739 0.069275
0.768036 0.104492 0.071289
0.806854 0.108124 0.073273
0.842957 0.111755 0.075317
0.875885 0.115784 0.077637
0.904846 0.119873 0.080078
0.930023 0.123962 0.082489
0.952179 0.128021 0.085022
0.972046 0.132202 0.087616
0.988190 0.135864 0.089935
0.037018 0.077606 0.054230
0.038361 0.077789 0.054321
0.052612 0.079926 0.055115
0.071747 0.079895 0.055176
0.096008 0.081848 0.056183
0.123718 0.083923 0.057312
0.153564 0.086121 0.058197
0.184143 0.088379 0.059052
0.213806 0.090576 0.059845
0.242065 0.092865 0.060699
0.268921 0.095276 0.061646
0.294617 0.097809 0.062744
0.319305 0.100372 0.063873
0.343414 0.102936 0.064941
0.367584 0.106110 0.066467
0.392731 0.109375 0.068085
0.419830 0.112640 0.069763
0.450012 0.115997 0.071503
0.483704 0.119476 0.073273
0.520660 0.122833 0.075134
0.560242 0.126373 0.077057
0.601532 0.129883 0.079041
0.643799 0.133514 0.081085
0.686340 0.137177 0.083160
0.728424 0.140900 0.085266
0.769043 0.144531 0.087524
0.807831 0.148315 0.089813
0.843842 0.152100 0.092102
0.876678 0.155884 0.094513
0.905518 0.159821 0.096954
0.930603 0.163696 0.099518
0.952667 0.167603 0.102081
0.972504 0.171570 0.104736
0.988647 0.175140 0.107117
0.039551 0.102417 0.058411
0.041046 0.102570 0.058624
0.055603 0.104218 0.060608
0.071991 0.105591 0.059021
0.096558 0.108551 0.057281
0.124725 0.111084 0.058380
0.154205 0.113251 0.059692
0.184692 0.115723 0.060913
0.214203 0.118286 0.062164
0.242432 0.121063 0.063446
0.269257 0.123901 0.064758
0.294922 0.126831 0.066162
0.319611 0.129822 0.067627
0.343689 0.132874 0.069092
0.367828 0.135956 0.070709
0.392975 0.139130 0.072327
0.420166 0.142303 0.074005
0.450287 0.145599 0.075775
0.484070 0.148895 0.077576
0.520966 0.152252 0.079437
0.560608 0.155701 0.081390
0.601898 0.159119 0.083374
0.644165 0.162659 0.085449
0.686707 0.166199 0.087585
0.728729 0.169769 0.089661
0.769409 0.173340 0.091919
0.808075 0.177063 0.094208
0.844116 0.180756 0.096558
0.876892 0.184448 0.098999
0.905731 0.188263 0.101440
0.930756 0.192078 0.104004
0.952820 0.195953 0.106598
0.972656 0.199860 0.109283
0.988770 0.203247 0.111725
0.042725 0.128784 0.066193
0.044098 0.128998 0.066406
0.058899 0.130554 0.067688
0.073914 0.131622 0.064117
0.091888 0.133087 0.059204
0.123627 0.136810 0.058472
0.155579 0.140808 0.059509
0.185822 0.142792 0.060852
0.215271 0.144958 0.062103
0.243042 0.147247 0.063599
0.269592 0.149750 0.065063
0.295105 0.152344 0.066498
0.319763 0.155212 0.068054
0.343811 0.158112 0.069519
0.367950 0.161224 0.071106
0.393097 0.164276 0.072723
0.420288 0.167511 0.074432
0.450439 0.170715 0.076172
0.484192 0.173920 0.078003
0.521057 0.177216 0.079834
0.560730 0.180603 0.081818
0.602051 0.184021 0.083832
0.644287 0.187469 0.085876
0.686829 0.190979 0.088013
0.728851 0.194458 0.090179
0.769501 0.198059 0.092346
0.808197 0.201660 0.094666
0.844177 0.205231 0.096985
0.877014 0.208954 0.099426
0.905792 0.212738 0.101898
0.930817 0.216461 0.104492
0.952881 0.220276 0.107056
0.972687 0.224091 0.109772
0.988770 0.227509 0.112183
0.045959 0.155426 0.074280
0.047516 0.155548 0.074493
0.062347 0.156952 0.074463
0.076843 0.158020 0.069794
0.088928 0.158844 0.062408
0.117767 0.161072 0.060364
0.148468 0.162048 0.059723
0.187073 0.170868 0.060730
0.216125 0.172852 0.062225
0.244141 0.174988 0.063538
0.270447 0.177216 0.065155
0.296051 0.179535 0.066528
0.320709 0.181976 0.067902
0.344360 0.184601 0.069702
0.368103 0.187347 0.071594
0.393280 0.190063 0.073242
0.420441 0.192963 0.074890
0.450592 0.196198 0.076660
0.484344 0.199402 0.078491
0.521240 0.202728 0.080322
0.560913 0.205963 0.082275
0.602203 0.209412 0.084320
0.644440 0.212799 0.086395
0.687012 0.216125 0.088501
0.728973 0.219696 0.090698
0.769623 0.223236 0.092896
0.808319 0.226807 0.095184
0.844269 0.230377 0.097534
0.877106 0.234039 0.099915
0.905853 0.237762 0.102417
0.930878 0.241425 0.105011
0.952911 0.245178 0.107605
0.972717 0.248993 0.110321
0.988831 0.252350 0.112671
0.049408 0.182129 0.082550
0.050873 0.182281 0.082397
0.065918 0.183533 0.081024
0.080658 0.184570 0.076141
0.086914 0.184784 0.065643
0.113373 0.186951 0.063629
0.146362 0.189453 0.061401
0.177216 0.189880 0.061249
0.216919 0.200500 0.062286
0.245361 0.203491 0.063477
0.271942 0.205475 0.064880
0.296936 0.207581 0.066650
0.321442 0.209900 0.068085
0.345123 0.212219 0.069885
0.369263 0.214722 0.071442
0.393982 0.217407 0.073486
0.421326 0.220032 0.075012
0.451630 0.222748 0.076752
0.484558 0.225769 0.079071
0.522247 0.228485 0.080505
0.561096 0.231750 0.082886
0.602386 0.235077 0.084900
0.644623 0.238464 0.086945
0.687134 0.241943 0.089081
0.729187 0.245209 0.091248
0.769745 0.248810 0.093445
0.808411 0.252380 0.095795
0.844391 0.255920 0.098083
0.877197 0.259521 0.100555
0.905945 0.263214 0.103027
0.930969 0.266876 0.105591
0.952972 0.270660 0.108185
0.972778 0.274475 0.110962
0.988892 0.277802 0.113312
0.052795 0.208984 0.089630
0.054260 0.209106 0.089447
0.069611 0.210297 0.087769
0.084595 0.211395 0.082764
0.086395 0.211426 0.069153
0.110291 0.213074 0.067017
0.140991 0.215363 0.064911
0.176147 0.217865 0.062775
0.205475 0.218079 0.062897
0.243225 0.228455 0.063873
0.272675 0.234009 0.065186
0.298035 0.236328 0.066711
0.322418 0.238403 0.068298
0.346161 0.240570 0.070007
0.369995 0.242981 0.071747
0.395264 0.245453 0.073395
0.422119 0.247986 0.075287
0.452240 0.250702 0.077209
0.486023 0.253448 0.079041
0.523376 0.256195 0.080811
0.562225 0.259094 0.083099
0.603333 0.261993 0.085236
0.644806 0.265045 0.087646
0.687347 0.268250 0.089722
0.729340 0.271484 0.091888
0.769897 0.274811 0.094147
0.808563 0.278442 0.096466
0.844513 0.281982 0.098785
0.877319 0.285553 0.101227
0.906036 0.289185 0.103699
0.931061 0.292908 0.106293
0.953064 0.296692 0.108887
0.972839 0.300415 0.111633
0.988922 0.303741 0.113983
0.056366 0.235962 0.096741
0.057892 0.236084 0.096558
0.073486 0.237244 0.094849
0.088745 0.238312 0.089630
0.089325 0.238312 0.074860
0.108002 0.239288 0.070587
0.136993 0.241791 0.068298
0.170258 0.244080 0.066254
0.204742 0.246338 0.064392
0.232574 0.246460 0.064636
0.268768 0.257172 0.065704
0.298859 0.264893 0.067108
0.323242 0.267487 0.068634
0.347046 0.269531 0.070282
0.370880 0.271729 0.072083
0.396210 0.274078 0.073669
0.423309 0.276520 0.075500
0.453583 0.279053 0.077301
0.487610 0.281677 0.079102
0.524170 0.284454 0.081329
0.563477 0.287262 0.083405
0.605225 0.290070 0.085205
0.646912 0.292969 0.087555
0.689117 0.295898 0.089783
0.729675 0.299225 0.092621
0.771210 0.301910 0.094299
0.808716 0.305267 0.097229
0.844666 0.308441 0.099548
0.877411 0.312073 0.101959
0.906158 0.315582 0.104462
0.931122 0.319275 0.107056
0.953125 0.322906 0.109650
0.972900 0.326782 0.112396
0.988983 0.330109 0.114777
0.060272 0.263184 0.104095
0.061768 0.263275 0.103943
0.077637 0.264496 0.102112
0.093079 0.265594 0.096832
0.093140 0.265594 0.081238
0.106293 0.265900 0.074188
0.134064 0.268188 0.072052
0.165741 0.270721 0.069855
0.199646 0.273132 0.067749
0.231903 0.275085 0.066345
0.258423 0.275238 0.066620
0.293518 0.286591 0.067719
0.323883 0.295898 0.069275
0.348022 0.299225 0.070587
0.372101 0.301361 0.072327
0.397095 0.303467 0.074127
0.424744 0.305847 0.075684
0.454926 0.308228 0.077637
0.488342 0.310730 0.079834
0.524597 0.313293 0.082123
0.564728 0.316040 0.083832
0.606476 0.318848 0.085663
0.647308 0.321686 0.088379
0.690765 0.324493 0.089966
0.732727 0.327423 0.092102
0.771881 0.330597 0.094971
0.809662 0.333679 0.097656
0.846344 0.336609 0.099548
0.877655 0.340302 0.102783
0.907257 0.342773 0.104492
0.931213 0.346527 0.107910
0.953308 0.349854 0.110413
0.972961 0.353607 0.113220
0.989044 0.356964 0.115601
0.064178 0.290710 0.111816
0.065796 0.290833 0.111603
0.081940 0.292023 0.109741
0.097626 0.293121 0.104279
0.097626 0.293121 0.088135
0.105011 0.293121 0.077728
0.131439 0.295319 0.075653
0.162140 0.297577 0.073517
0.194733 0.300110 0.071411
0.228027 0.302612 0.069397
0.257751 0.304169 0.068359
0.283051 0.304321 0.068665
0.315247 0.313904 0.069733
0.348419 0.327423 0.071503
0.372864 0.330963 0.072876
0.397919 0.333435 0.074677
0.425262 0.335571 0.076508
0.455627 0.337891 0.078400
0.489563 0.340302 0.080353
0.526978 0.342987 0.082092
0.566101 0.345398 0.084381
0.607544 0.348236 0.086304
0.649506 0.350983 0.088470
0.691315 0.353729 0.090881
0.733124 0.356781 0.093048
0.773468 0.359650 0.095276
0.811493 0.362701 0.097809
0.846924 0.365784 0.100311
0.878876 0.369080 0.102997
0.907593 0.372162 0.105316
0.932007 0.375488 0.108215
0.953796 0.378723 0.111023
0.973053 0.382263 0.114166
0.989136 0.385284 0.116547
0.068420 0.318542 0.119720
0.070007 0.318695 0.119476
0.086426 0.319916 0.117615
0.102386 0.321014 0.112000
0.102386 0.321014 0.095398
0.104645 0.321045 0.081238
0.129425 0.322601 0.079437
0.159210 0.324646 0.077545
0.190826 0.327393 0.075195
0.223114 0.329926 0.073120
0.255096 0.332703 0.070984
0.282471 0.333618 0.070557
0.306763 0.333740 0.070862
0.337219 0.342468 0.071899
0.373199 0.359467 0.073975
0.398895 0.363129 0.075409
0.426361 0.366180 0.077118
0.456940 0.368347 0.079010
0.491577 0.370911 0.080597
0.528198 0.373138 0.082794
0.567444 0.375549 0.085022
0.608490 0.378143 0.087128
0.650818 0.381012 0.089142
0.693024 0.383698 0.091370
0.733582 0.386597 0.094055
0.774475 0.389526 0.096039
0.812469 0.392578 0.098450
0.848206 0.395508 0.100739
0.880127 0.398712 0.103363
0.907928 0.401917 0.106262
0.933258 0.404938 0.108246
0.954468 0.408325 0.111511
0.974121 0.411682 0.114075
0.989532 0.414886 0.117249
0.072784 0.346832 0.127869
0.074402 0.346954 0.127655
0.091125 0.348175 0.125763
0.107208 0.349335 0.119934
0.107208 0.349335 0.102875
0.107208 0.349335 0.086670
0.128174 0.349884 0.083740
0.156799 0.352386 0.081421
0.187347 0.355408 0.078888
0.218964 0.357574 0.076996
0.250214 0.360352 0.074799
0.280762 0.362976 0.072937
0.306244 0.363556 0.072845
0.329803 0.363678 0.073212
0.359314 0.371796 0.074219
0.399200 0.392029 0.076569
0.427155 0.395844 0.078003
0.458466 0.399689 0.079590
0.492584 0.401917 0.081512
0.529480 0.404053 0.083588
0.568817 0.406433 0.085785
0.611023 0.409210 0.087372
0.652679 0.411896 0.089661
0.694885 0.414520 0.091827
0.736023 0.417175 0.094238
0.775452 0.420044 0.096863
0.813507 0.423065 0.099213
0.848663 0.426025 0.101746
0.880859 0.429169 0.104187
0.908661 0.432251 0.106995
0.933838 0.435455 0.109100
0.955017 0.438782 0.112213
0.974976 0.441833 0.114410
0.990265 0.445160 0.117676
0.077393 0.375488 0.136322
0.079071 0.375641 0.136108
0.095978 0.376892 0.134186
0.112213 0.377991 0.128204
0.112213 0.377991 0.110687
0.112213 0.377991 0.093964
0.126923 0.378326 0.087433
0.154633 0.380676 0.085358
0.184662 0.383209 0.083099
0.215424 0.385498 0.081085
0.246002 0.388641 0.078674
0.276215 0.391357 0.076599
0.305542 0.393860 0.074951
0.329285 0.393982 0.075256
0.352478 0.394073 0.075653
0.381989 0.401581 0.076660
0.426971 0.424713 0.079254
0.458832 0.429199 0.080872
0.493744 0.433136 0.082428
0.530853 0.435852 0.084503
0.570587 0.438141 0.086456
0.611816 0.440704 0.088562
0.654022 0.443268 0.090546
0.695435 0.445801 0.093079
0.737244 0.448639 0.095184
0.777679 0.451477 0.097198
0.814880 0.454315 0.099945
0.850037 0.457184 0.102356
0.882355 0.460205 0.104614
0.909821 0.463440 0.107513
0.933960 0.466644 0.110382
0.955963 0.469788 0.112610
0.974548 0.473267 0.116302
0.991241 0.475861 0.117798
0.082214 0.404663 0.144928
0.083923 0.404816 0.144775
0.100983 0.406036 0.142792
0.117340 0.407227 0.136688
0.117340 0.407227 0.118774
0.117340 0.407227 0.101532
0.126373 0.407227 0.091400
0.153168 0.408905 0.089722
0.182404 0.411682 0.087311
0.212189 0.414764 0.084808
0.242401 0.416656 0.083130
0.271973 0.419922 0.080719
0.301208 0.422760 0.078644
0.328796 0.424805 0.077362
0.351959 0.424896 0.077759
0.375519 0.425018 0.078186
0.406158 0.432037 0.079254
0.456635 0.456726 0.082092
0.494263 0.463287 0.083801
0.532227 0.467285 0.085480
0.572662 0.471008 0.087219
0.613342 0.473083 0.089478
0.654510 0.475311 0.091919
0.698517 0.478577 0.093323
0.739136 0.480988 0.095856
0.778534 0.483643 0.098389
0.816376 0.486389 0.100677
0.851471 0.489410 0.103088
0.882599 0.492188 0.106018
0.910706 0.495361 0.108307
0.935211 0.498505 0.110779
0.956482 0.501740 0.113647
0.975555 0.504913 0.116669
0.991333 0.507965 0.119141
0.087158 0.434296 0.153931
0.088867 0.434418 0.153748
0.106201 0.435699 0.151703
0.122559 0.436859 0.145447
0.122559 0.436859 0.127014
0.122559 0.436859 0.109314
0.127197 0.436859 0.095825
0.151855 0.437775 0.094086
0.180206 0.440857 0.091492
0.209991 0.443207 0.089355
0.239258 0.445923 0.087219
0.268250 0.449249 0.084747
0.296906 0.451508 0.082977
0.325592 0.455139 0.080597
0.351562 0.456299 0.080017
0.375031 0.456421 0.080475
0.399719 0.456543 0.080933
0.432617 0.463318 0.082031
0.489288 0.489197 0.084991
0.532745 0.498047 0.086975
0.573181 0.502228 0.088654
0.615143 0.506348 0.090454
0.657379 0.509064 0.092499
0.698975 0.511200 0.094818
0.739532 0.513733 0.097351
0.780121 0.516724 0.099304
0.817413 0.519226 0.101837
0.852509 0.522186 0.104156
0.884064 0.525146 0.106720
0.911896 0.528168 0.109070
0.935394 0.531250 0.112274
0.957001 0.534363 0.114716
0.976288 0.537659 0.117493
0.992249 0.540741 0.119781
0.092285 0.464417 0.163116
0.094025 0.464569 0.162872
0.111481 0.465912 0.160767
0.127960 0.467041 0.154419
0.127960 0.467041 0.135590
0.127960 0.467041 0.117371
0.128510 0.467041 0.100555
0.150604 0.467499 0.098389
0.178680 0.470123 0.096069
0.207550 0.472931 0.093628
0.236328 0.475983 0.091217
0.264954 0.478516 0.089203
0.293182 0.481598 0.087006
0.321198 0.484161 0.085114
0.349518 0.487793 0.082886
0.374573 0.488403 0.082825
0.399139 0.488556 0.083252
0.425934 0.488678 0.083771
0.462036 0.495270 0.084869
0.524933 0.522491 0.088043
0.573669 0.533691 0.090240
0.615631 0.537994 0.092041
0.658386 0.542267 0.093933
0.700531 0.545380 0.096008
0.742462 0.548157 0.097900
0.780853 0.550171 0.100800
0.818512 0.552948 0.103088
0.853485 0.555939 0.105438
0.885162 0.558777 0.107788
0.913086 0.561981 0.110016
0.936646 0.564850 0.112915
0.957764 0.568085 0.115723
0.976624 0.571136 0.118805
0.993073 0.574371 0.120483
0.097565 0.495209 0.172485
0.099274 0.495331 0.172272
0.116943 0.496643 0.170166
0.133423 0.497833 0.163605
0.133423 0.497833 0.144379
0.133423 0.497833 0.125732
0.133423 0.497833 0.108093
0.149872 0.497955 0.102509
0.177368 0.500122 0.100616
0.205688 0.503052 0.098145
0.234283 0.505402 0.096100
0.262054 0.508698 0.093658
0.289886 0.511169 0.091766
0.317383 0.514435 0.089447
0.344971 0.517517 0.087433
0.373199 0.520538 0.085663
0.398682 0.521149 0.085724
0.425385 0.521332 0.086212
0.454987 0.521484 0.086731
0.494629 0.527985 0.087891
0.563538 0.556915 0.091248
0.616180 0.569977 0.093689
0.658905 0.574402 0.095581
0.701630 0.578857 0.097443
0.743561 0.582733 0.099396
0.782318 0.585022 0.102020
0.820435 0.587982 0.104095
0.854370 0.590302 0.106842
0.886017 0.593262 0.109131
0.913788 0.596313 0.111420
0.937561 0.599396 0.114044
0.958740 0.602448 0.116669
0.977692 0.605652 0.119507
0.993042 0.608398 0.122406
0.102997 0.526459 0.182129
0.104767 0.526611 0.181885
0.122467 0.528015 0.179688
0.138977 0.529205 0.173035
0.138977 0.529205 0.153351
0.138977 0.529205 0.134369
0.138977 0.529205 0.116211
0.149658 0.529205 0.106567
0.176300 0.530487 0.105438
0.203796 0.534088 0.102509
0.231903 0.536621 0.100372
0.259552 0.539398 0.098175
0.286896 0.542328 0.096008
0.313904 0.546173 0.093445
0.341125 0.548065 0.092010
0.368988 0.551605 0.089844
0.398071 0.554474 0.088287
0.424835 0.554596 0.088715
0.454407 0.554749 0.089233
0.487335 0.554932 0.089813
0.530426 0.561432 0.091034
0.603699 0.592072 0.094666
0.659485 0.607117 0.097321
0.702148 0.611603 0.099213
0.744019 0.616180 0.101166
0.784302 0.620422 0.103149
0.821899 0.623383 0.105408
0.855865 0.625702 0.108093
0.887665 0.629059 0.110199
0.914032 0.631226 0.113220
0.937653 0.634247 0.115967
0.959259 0.637482 0.118134
0.977844 0.640411 0.121307
0.993866 0.643616 0.123322
0.108582 0.558380 0.191986
0.110321 0.558533 0.191650
0.128113 0.559875 0.189484
0.144714 0.561127 0.182739
0.144714 0.561127 0.162628
0.144714 0.561127 0.143188
0.144714 0.561127 0.124512
0.150635 0.561127 0.111267
0.175323 0.561829 0.110107
0.202209 0.565460 0.107178
0.230255 0.567413 0.105347
0.257111 0.571045 0.102570
0.284241 0.573944 0.100494
0.310883 0.576691 0.098389
0.337433 0.580566 0.095917
0.364685 0.582672 0.094513
0.394257 0.586914 0.092072
0.424316 0.588470 0.091370
0.453735 0.588623 0.091858
0.486572 0.588806 0.092407
0.522614 0.588989 0.093079
0.568054 0.595642 0.094299
0.643951 0.627289 0.098175
0.702698 0.644867 0.101074
0.744537 0.649475 0.103027
0.784790 0.654144 0.105042
0.822754 0.658905 0.107147
0.857727 0.662384 0.109222
0.889130 0.665253 0.111450
0.914459 0.666992 0.115051
0.938721 0.670288 0.117188
0.960297 0.673676 0.119293
0.978271 0.676025 0.122925
0.994751 0.679504 0.124420
0.114319 0.590881 0.202026
0.116150 0.591003 0.201813
0.133942 0.592407 0.199524
0.150360 0.593689 0.192596
0.150360 0.593689 0.172150
0.150360 0.593689 0.152191
0.150360 0.593689 0.133087
0.153137 0.593689 0.117157
0.174469 0.594055 0.114624
0.201691 0.596130 0.112671
0.228607 0.599518 0.110046
0.255341 0.602448 0.107697
0.281769 0.605957 0.105133
0.308197 0.608337 0.103271
0.334381 0.611664 0.101044
0.361053 0.615570 0.098663
0.389496 0.618042 0.097076
0.421448 0.621948 0.095001
0.453278 0.623199 0.094666
0.485901 0.623322 0.095245
0.521759 0.623474 0.095825
0.559967 0.623627 0.096436
0.607330 0.630524 0.097778
0.684265 0.662933 0.101746
0.745056 0.683594 0.105011
0.785278 0.688263 0.106995
0.823151 0.693024 0.109100
0.858124 0.697784 0.111267
0.889618 0.701843 0.113403
0.915710 0.704071 0.116364
0.939819 0.707275 0.118561
0.960327 0.709778 0.121460
0.979340 0.712738 0.124054
0.994720 0.715485 0.126678
0.120148 0.623932 0.212250
0.121979 0.624084 0.211975
0.139740 0.625549 0.209717
0.156158 0.626801 0.202728
0.156158 0.626801 0.181885
0.156158 0.626801 0.161530
0.156158 0.626801 0.141998
0.156158 0.626801 0.123444
0.174347 0.626831 0.119202
0.200531 0.628662 0.117554
0.226746 0.632782 0.114441
0.253601 0.634979 0.112549
0.279602 0.638367 0.110046
0.305573 0.641266 0.107910
0.331482 0.644226 0.105835
0.357635 0.648376 0.103241
0.385437 0.650696 0.101746
0.416229 0.654785 0.099457
0.451569 0.657959 0.097839
0.485291 0.658539 0.098053
0.521088 0.658691 0.098602
0.559204 0.658844 0.099243
0.598969 0.659027 0.099945
0.647522 0.666168 0.101318
0.724426 0.699432 0.105530
0.785767 0.722565 0.109070
0.823639 0.727417 0.111176
0.858521 0.732056 0.113312
0.889923 0.737000 0.115540
0.917175 0.741425 0.117737
0.940918 0.744476 0.120026
0.961121 0.746460 0.123077
0.980072 0.749512 0.125671
0.995605 0.752258 0.128052
0.126129 0.657593 0.222748
0.127930 0.657715 0.222504
0.145599 0.659149 0.220093
0.161957 0.660431 0.213043
0.161957 0.660431 0.191803
0.161957 0.660431 0.171051
0.161957 0.660431 0.151093
0.161957 0.660431 0.132080
0.174561 0.660461 0.123596
0.199707 0.661865 0.122498
0.225739 0.665405 0.119690
0.252014 0.667847 0.117584
0.277710 0.671143 0.115112
0.303162 0.674866 0.112549
0.329010 0.677277 0.110718
0.354614 0.680817 0.108429
0.381744 0.684326 0.106262
0.411438 0.687347 0.104462
0.445831 0.691254 0.102386
0.484344 0.694244 0.101013
0.520416 0.694427 0.101562
0.558502 0.694550 0.102173
0.598145 0.694702 0.102783
0.638916 0.694855 0.103546
0.688110 0.702454 0.105072
0.763641 0.736237 0.109406
0.824127 0.761475 0.113342
0.858948 0.766174 0.115479
0.890259 0.770874 0.117676
0.917511 0.775696 0.119934
0.941254 0.780243 0.122192
0.962219 0.783569 0.124573
0.981201 0.786469 0.126984
0.996185 0.788513 0.129852
0.132141 0.691589 0.233398
0.133942 0.691772 0.233124
0.151611 0.693237 0.230682
0.167816 0.694580 0.223572
0.167816 0.694580 0.201996
0.167816 0.694580 0.180756
0.167816 0.694580 0.160461
0.167816 0.694580 0.140961
0.174896 0.694580 0.128082
0.199524 0.694733 0.127991
0.225525 0.697174 0.125732
0.250397 0.701813 0.122345
0.275909 0.704773 0.120056
0.301331 0.707642 0.117798
0.326538 0.711304 0.115387
0.351898 0.713837 0.113586
0.378357 0.717468 0.111328
0.407379 0.720612 0.109375
0.440277 0.724609 0.107239
0.479004 0.728638 0.105194
0.519714 0.730347 0.104553
0.557861 0.730499 0.105164
0.597473 0.730652 0.105835
0.638153 0.730865 0.106506
0.679138 0.730988 0.107239
0.728271 0.738983 0.108887
0.801270 0.772949 0.113525
0.859375 0.799622 0.117706
0.890625 0.804291 0.119934
0.917816 0.808899 0.122131
0.941528 0.813599 0.124451
0.962524 0.818115 0.126801
0.980835 0.820923 0.129852
0.996460 0.823639 0.132080
0.138214 0.726044 0.244202
0.139954 0.726166 0.243896
0.157623 0.727661 0.241516
0.173676 0.728943 0.234131
0.173676 0.728943 0.212311
0.173676 0.728943 0.190735
0.173676 0.728943 0.170013
0.173676 0.728943 0.149994
0.176910 0.728943 0.133789
0.198853 0.729095 0.132629
0.224182 0.731720 0.130493
0.249084 0.735779 0.127350
0.274506 0.738373 0.125244
0.299561 0.740997 0.123108
0.324158 0.745117 0.120300
0.349335 0.747772 0.118378
0.375427 0.750488 0.116577
0.403717 0.754761 0.113983
0.435455 0.757446 0.112366
0.472473 0.760284 0.110840
0.515717 0.764435 0.108765
0.557159 0.766266 0.108307
0.596771 0.766418 0.108917
0.637329 0.766571 0.109650
0.678375 0.766724 0.110382
0.719055 0.766876 0.111176
0.767273 0.775299 0.112915
0.836578 0.808929 0.117706
0.890961 0.836700 0.122253
0.918091 0.841125 0.124512
0.941803 0.845612 0.126801
0.962769 0.850037 0.129150
0.981812 0.854492 0.131561
0.997467 0.858185 0.133789
0.144409 0.760254 0.255188
0.146210 0.760406 0.254913
0.163635 0.761810 0.252594
0.179535 0.763092 0.245087
0.179535 0.763092 0.222870
0.179535 0.763092 0.200928
0.179535 0.763092 0.179718
0.179535 0.763092 0.159332
0.180908 0.763092 0.141266
0.199127 0.763123 0.137421
0.223938 0.764404 0.136169
0.248383 0.768127 0.133270
0.273193 0.771332 0.130707
0.298035 0.774017 0.128479
0.322418 0.777222 0.126068
0.346924 0.780975 0.123474
0.372742 0.783722 0.121582
0.400269 0.787506 0.119171
0.431244 0.790710 0.117218
0.467224 0.793976 0.115356
0.509216 0.798279 0.113129
0.555267 0.801117 0.111755
0.596161 0.801453 0.112213
0.636688 0.801605 0.112885
0.677643 0.801727 0.113586
0.718323 0.801910 0.114380
0.757996 0.802063 0.115204
0.804535 0.810791 0.117065
0.869385 0.843964 0.122101
0.918396 0.871948 0.126923
0.942017 0.876282 0.129211
0.962982 0.880463 0.131622
