lut/蓝调时光-f.cube
#Created by: Adobe Photoshop Export Color Lookup Plugin
TITLE "多场景样片-v1.0.psd"
#LUT size
LUT_3D_SIZE 4
#data domain
DOMAIN_MIN 0.0 0.0 0.0
DOMAIN_MAX 1.0 1.0 1.0
#LUT data points
0.035187 0.060059 0.052887
0.293701 0.065643 0.057129
0.642517 0.091553 0.066345
0.988129 0.129913 0.087341
0.068420 0.318542 0.119720
0.282471 0.333618 0.070557
0.650818 0.381012 0.089142
0.989532 0.414886 0.117249
0.126129 0.657593 0.222748
0.252014 0.667847 0.117584
0.598145 0.694702 0.102783
0.996185 0.788513 0.129852
0.183350 0.948883 0.327026
0.246246 0.951019 0.168640
0.561249 0.977417 0.142944
0.960205 0.990936 0.144073
0.043549 0.138092 0.310211
0.344208 0.073700 0.329865
0.625854 0.094421 0.256683
0.985107 0.123657 0.300201
0.065948 0.311493 0.324921
0.307007 0.336395 0.351807
0.655884 0.354614 0.362366
0.993073 0.386261 0.384064
0.121185 0.651581 0.453949
0.343475 0.676392 0.491302
0.635284 0.699768 0.385620
0.997192 0.761261 0.414886
0.180176 0.946991 0.600861
0.377045 0.962708 0.604614
0.588959 0.975098 0.445190
0.976257 0.994293 0.419739
0.052765 0.210358 0.630341
0.230530 0.073944 0.645142
0.627197 0.096954 0.527679
0.974548 0.128387 0.504944
0.073120 0.392761 0.653229
0.312592 0.428741 0.668640
0.654327 0.357513 0.631683
0.988129 0.380676 0.638763
0.116272 0.646027 0.676636
0.338654 0.669434 0.697479
0.679749 0.700653 0.735443
0.998413 0.742676 0.743744
0.172821 0.939178 0.763672
0.372742 0.958466 0.804504
0.727509 0.980042 0.825592
0.990021 0.997284 0.742706
0.062286 0.277893 0.876373
0.098694 0.077209 0.879852
0.790222 0.108093 0.909210
0.971283 0.129608 0.744537
0.083069 0.494019 0.886597
0.320862 0.503571 0.900024
0.635162 0.362091 0.915649
0.982117 0.384033 0.828125
0.134033 0.653687 0.899017
0.345490 0.705902 0.916443
0.683105 0.780670 0.927979
0.994843 0.729095 0.908783
0.169708 0.936035 0.917755
0.368591 0.953705 0.929321
0.720886 0.975769 0.945465
1.000000 0.999969 0.951050
