lut/蓝调时光-f.cube
#Created by: Adobe Photoshop Export Color Lookup Plugin
TITLE "多场景样片-v1.0.psd"
#LUT size
LUT_3D_SIZE 7
#data domain
#LUT data points
DOMAIN_MIN 0.000000 0.000000 0.000000
DOMAIN_MAX 0.909091 0.909091 0.909091
0.035187 0.060059 0.052887
0.121490 0.055359 0.051544
0.268005 0.063690 0.056580
0.391876 0.074249 0.059723
0.558929 0.086334 0.064178
0.767914 0.099792 0.069977
0.929932 0.117859 0.079926
0.045959 0.155426 0.074280
0.117767 0.161072 0.060364
0.270447 0.177216 0.065155
0.393280 0.190063 0.073242
0.560913 0.205963 0.082275
0.769623 0.223236 0.092896
0.930878 0.241425 0.105011
0.064178 0.290710 0.111816
0.105011 0.293121 0.077728
0.257751 0.304169 0.068359
0.397919 0.333435 0.074677
0.566101 0.345398 0.084381
0.773468 0.359650 0.095276
0.932007 0.375488 0.108215
0.087158 0.434296 0.153931
0.122559 0.436859 0.109314
0.239258 0.445923 0.087219
0.375031 0.456421 0.080475
0.573181 0.502228 0.088654
0.780121 0.516724 0.099304
0.935394 0.531250 0.112274
0.114319 0.590881 0.202026
0.150360 0.593689 0.152191
0.228607 0.599518 0.110046
0.361053 0.615570 0.098663
0.521759 0.623474 0.095825
0.785278 0.688263 0.106995
0.939819 0.707275 0.118561
0.144409 0.760254 0.255188
0.179535 0.763092 0.200928
0.223938 0.764404 0.136169
0.346924 0.780975 0.123474
0.509216 0.798279 0.113129
0.718323 0.801910 0.114380
0.942017 0.876282 0.129211
0.175842 0.916687 0.312775
0.208466 0.918976 0.254791
0.224091 0.919006 0.162354
0.338318 0.929504 0.151428
0.482239 0.943542 0.139465
0.714935 0.955658 0.131775
0.891235 0.956238 0.136017
0.038757 0.095673 0.149933
0.120453 0.057281 0.155701
0.261047 0.065826 0.121643
0.387238 0.075653 0.135040
0.554901 0.087158 0.149628
0.767456 0.099670 0.165161
0.929932 0.114349 0.174561
0.047699 0.156830 0.155609
0.130859 0.175079 0.162201
0.270447 0.169434 0.159668
0.395294 0.177612 0.169403
0.563965 0.187378 0.173126
0.772522 0.198181 0.177734
0.932526 0.210083 0.183685
0.061615 0.287720 0.184540
0.151978 0.295410 0.199280
0.265808 0.304169 0.178772
0.398987 0.323059 0.183624
0.567932 0.336304 0.195404
0.775177 0.352509 0.208252
0.933960 0.370483 0.221924
0.085449 0.432281 0.249451
0.177399 0.440491 0.261963
0.255127 0.445526 0.204193
0.385620 0.458527 0.187714
0.575653 0.492310 0.195282
0.781464 0.505310 0.208984
0.936432 0.520935 0.223846
0.113953 0.589630 0.321259
0.202911 0.597565 0.317871
0.269928 0.603027 0.250031
0.368164 0.613678 0.214508
0.537750 0.625732 0.202393
0.787506 0.678070 0.212250
0.940155 0.694031 0.226685
0.144409 0.760254 0.390656
0.228088 0.767120 0.377319
0.290375 0.772644 0.306366
0.357788 0.779816 0.244354
0.516144 0.795898 0.226105
0.734772 0.804077 0.219879
0.943207 0.867218 0.232727
0.175842 0.916687 0.452759
0.252777 0.922150 0.439209
0.310791 0.926544 0.366333
0.352081 0.928009 0.278015
0.493500 0.941467 0.258148
0.722473 0.954956 0.240204
0.902191 0.957855 0.240112
0.042786 0.131256 0.281769
0.055908 0.059448 0.283813
0.316498 0.071075 0.300323
0.381439 0.077545 0.222290
0.543976 0.089142 0.231659
0.755768 0.102173 0.251129
0.925568 0.115173 0.270386
0.048340 0.207123 0.289032
0.135437 0.215790 0.295471
0.276520 0.171082 0.307861
0.388672 0.179749 0.259979
0.556641 0.189056 0.278809
0.769379 0.198547 0.297119
0.932190 0.209991 0.316650
0.062714 0.284943 0.294891
0.152435 0.293365 0.304413
0.280457 0.309143 0.318604
0.399811 0.313324 0.322540
0.570648 0.322479 0.327606
0.778625 0.332306 0.331604
0.935913 0.344055 0.337891
0.081482 0.428406 0.329437
0.173157 0.436646 0.347198
0.296967 0.448792 0.372742
0.392303 0.458191 0.338654
0.576202 0.480682 0.344055
0.782593 0.495148 0.358154
0.937164 0.512054 0.374023
0.109833 0.585236 0.405487
0.200623 0.594147 0.423920
0.315430 0.607178 0.442444
0.381134 0.612549 0.369995
0.553802 0.628052 0.348389
0.789642 0.667572 0.357147
0.940552 0.681732 0.374603
0.140839 0.756165 0.485046
0.226044 0.766571 0.503540
0.333527 0.776825 0.503845
0.388123 0.782135 0.414856
0.526428 0.794373 0.379486
0.750916 0.806274 0.364563
0.944397 0.858154 0.375671
0.173279 0.914825 0.565155
0.252594 0.922150 0.583252
0.352081 0.929810 0.565857
0.407227 0.933990 0.477203
0.508728 0.940765 0.413239
0.729492 0.953857 0.390167
0.912354 0.959442 0.383118
0.046844 0.164917 0.427277
0.047821 0.090607 0.427338
0.259918 0.069824 0.445526
0.429016 0.082092 0.410278
0.536896 0.090668 0.333649
0.745087 0.104218 0.339874
0.918518 0.117737 0.362610
0.051544 0.253998 0.431580
0.141113 0.250000 0.442047
0.214874 0.172913 0.449799
0.436920 0.183594 0.452240
0.546997 0.191162 0.373688
0.758392 0.201416 0.392365
0.926056 0.212616 0.414215
0.065521 0.313843 0.449951
0.154297 0.332031 0.455994
0.282288 0.357483 0.463501
0.411255 0.315094 0.478943
0.563171 0.323914 0.438263
0.773743 0.333679 0.459137
0.935150 0.343231 0.478912
0.080780 0.423035 0.450592
0.171539 0.432098 0.460938
0.295013 0.445007 0.475555
0.408661 0.457703 0.489594
0.577942 0.472900 0.502228
0.785156 0.490784 0.515808
0.939484 0.509308 0.529877
0.105408 0.582031 0.489014
0.196198 0.590271 0.507355
0.312958 0.602966 0.533783
0.427460 0.617523 0.561951
0.563660 0.627960 0.509521
0.790375 0.655426 0.515594
0.941101 0.671387 0.532257
0.136475 0.752594 0.568176
0.223389 0.760651 0.586151
0.331879 0.774323 0.612213
0.447845 0.787201 0.621948
0.542877 0.793610 0.541931
0.765808 0.808258 0.520447
0.945465 0.849335 0.529724
0.169556 0.911163 0.645966
0.250000 0.917633 0.663361
0.351776 0.928589 0.687927
0.470673 0.937927 0.680267
0.533600 0.941010 0.573273
0.738953 0.952576 0.550720
0.921478 0.960968 0.536621
0.051086 0.197540 0.573975
0.051666 0.122894 0.574036
0.198853 0.071564 0.586517
0.454193 0.084259 0.608795
0.565826 0.092682 0.496704
0.739594 0.105011 0.449066
0.911743 0.120026 0.454254
0.055420 0.297913 0.574799
0.146881 0.283356 0.588501
0.178070 0.192688 0.592102
0.407257 0.183441 0.614044
0.576202 0.192780 0.538879
0.749603 0.203491 0.490784
0.920746 0.214172 0.508698
0.068665 0.361267 0.594574
0.157898 0.379364 0.598938
0.286377 0.392334 0.609314
0.358459 0.316437 0.619507
0.589752 0.326080 0.591339
0.764313 0.335876 0.554108
0.929443 0.345856 0.576385
0.091248 0.431000 0.598480
0.183899 0.440613 0.608521
0.297638 0.470978 0.625641
0.410370 0.500671 0.633484
0.603729 0.470673 0.643433
0.780731 0.479645 0.622711
0.938690 0.489471 0.641785
0.105560 0.580780 0.616150
0.194977 0.589081 0.624359
0.310822 0.600922 0.635803
0.424408 0.613861 0.648071
0.592224 0.628082 0.670044
0.790924 0.645447 0.668518
0.942535 0.665283 0.681549
0.133759 0.747009 0.645844
0.219177 0.757202 0.664154
0.328735 0.770264 0.688660
0.445160 0.784546 0.714600
0.618439 0.798035 0.728058
0.777100 0.809265 0.672607
0.946045 0.838684 0.679901
0.166290 0.907440 0.719971
0.246460 0.914429 0.735992
0.348267 0.925842 0.759003
0.469177 0.937012 0.782379
0.645386 0.946381 0.779724
0.752930 0.951721 0.702972
0.929840 0.962433 0.684509
0.055267 0.229401 0.710144
0.055634 0.154358 0.710297
0.132782 0.072083 0.718750
0.395447 0.083435 0.738647
0.718048 0.103394 0.744324
0.739594 0.105011 0.587036
0.908875 0.120270 0.562805
0.060333 0.330902 0.710876
0.152649 0.316193 0.723236
0.183228 0.224670 0.726532
0.356323 0.185486 0.740936
0.688904 0.199707 0.757935
0.749603 0.203400 0.628082
0.915039 0.216644 0.603821
0.072693 0.408051 0.726105
0.161560 0.426727 0.730042
0.290527 0.426758 0.741669
0.328552 0.334564 0.746765
0.611694 0.328064 0.766418
0.762329 0.336121 0.678040
0.923492 0.348694 0.664978
0.090302 0.472839 0.741272
0.179443 0.492950 0.747589
0.299622 0.520721 0.753662
0.413330 0.544434 0.761139
0.535614 0.471710 0.771393
0.775330 0.481018 0.726654
0.933533 0.491943 0.728760
0.112396 0.578857 0.737671
0.202789 0.588654 0.746460
0.317169 0.602478 0.758789
0.430603 0.620636 0.771942
0.592987 0.656281 0.783661
0.788422 0.640350 0.772949
0.942352 0.651062 0.787018
0.133209 0.746918 0.760101
0.218475 0.755585 0.767059
0.327179 0.767792 0.776764
0.442078 0.780792 0.787048
0.615173 0.794952 0.805511
0.789001 0.807922 0.807556
0.946289 0.828918 0.810089
0.163116 0.903656 0.785828
0.242188 0.912201 0.801270
0.345947 0.921875 0.820892
0.465912 0.933105 0.841492
0.643677 0.945038 0.862000
0.809875 0.954102 0.850006
0.937622 0.963776 0.812256
0.059845 0.260864 0.825409
0.059753 0.185181 0.825531
0.075531 0.075073 0.827911
0.346588 0.084839 0.844147
0.675873 0.100037 0.860748
0.852112 0.114197 0.800415
0.908875 0.120270 0.692993
0.065369 0.363647 0.826019
0.158356 0.348816 0.836029
0.188385 0.256104 0.838684
0.308624 0.186188 0.847748
0.611084 0.196686 0.864166
0.860077 0.211243 0.832031
0.915039 0.216614 0.730499
0.077728 0.454834 0.835480
0.166046 0.474060 0.838806
0.294586 0.461304 0.850616
0.332123 0.367401 0.854706
0.533569 0.329163 0.866974
0.869965 0.343323 0.868103
0.922577 0.348602 0.775116
0.094025 0.522247 0.849609
0.184204 0.542023 0.852631
0.301971 0.570740 0.857910
0.417389 0.581177 0.865723
0.473083 0.477631 0.870850
0.846405 0.484802 0.885406
0.930115 0.493744 0.817078
0.123444 0.589172 0.850311
0.210144 0.608826 0.858398
0.316284 0.642395 0.869934
0.428131 0.675171 0.876068
0.595886 0.708527 0.880798
0.779175 0.641937 0.890076
0.937500 0.653778 0.855621
0.135834 0.738678 0.851715
0.221619 0.748749 0.858582
0.330017 0.763153 0.868042
0.445770 0.778442 0.877838
0.618866 0.794312 0.887787
0.804962 0.818329 0.898041
0.946350 0.820526 0.898438
0.162537 0.903595 0.874481
0.241699 0.910583 0.879578
0.343903 0.920380 0.886627
0.461853 0.930695 0.894104
0.638763 0.942078 0.908356
0.825531 0.954041 0.924988
0.942017 0.963196 0.911255
