lut/霸王别姬-蓝.cube
#Created by: Adobe Photoshop Export Color Lookup Plugin
#Copyright: (C) Copyright 2026 汉图
TITLE "mint本征源文件-适配lut筛选-恢复的.psd"
#LUT size
LUT_3D_SIZE 4
#data domain
DOMAIN_MIN 0.0 0.0 0.0
DOMAIN_MAX 1.0 1.0 1.0
#LUT data points
0.000000 0.000000 0.000000
0.286987 0.000000 0.000000
0.648651 0.000000 0.000000
1.000000 0.000000 0.000000
0.000000 0.315643 0.000000
0.286987 0.315643 0.000000
0.648651 0.315643 0.000000
1.000000 0.315643 0.000000
0.000000 0.672516 0.000000
0.286987 0.672516 0.000000
0.648651 0.672516 0.000000
1.000000 0.672516 0.000000
0.000000 1.000000 0.000000
0.286987 1.000000 0.000000
0.648651 1.000000 0.000000
1.000000 1.000000 0.000000
0.000000 0.000000 0.581970
0.286987 0.000000 0.581970
0.648651 0.000000 0.581970
1.000000 0.000000 0.581970
0.000000 0.315643 0.581970
0.286987 0.315643 0.581970
0.648651 0.315643 0.581970
1.000000 0.315643 0.581970
0.000000 0.672516 0.581970
0.286987 0.672516 0.581970
0.648651 0.672516 0.581970
1.000000 0.672516 0.581970
0.000000 1.000000 0.581970
0.286987 1.000000 0.581970
0.648651 1.000000 0.581970
1.000000 1.000000 0.581970
0.000000 0.000000 0.847992
0.286987 0.000000 0.847992
0.648651 0.000000 0.847992
1.000000 0.000000 0.847992
0.000000 0.315643 0.847992
0.286987 0.315643 0.847992
0.648651 0.315643 0.847992
1.000000 0.315643 0.847992
0.000000 0.672516 0.847992
0.286987 0.672516 0.847992
0.648651 0.672516 0.847992
1.000000 0.672516 0.847992
0.000000 1.000000 0.847992
0.286987 1.000000 0.847992
0.648651 1.000000 0.847992
1.000000 1.000000 0.847992
0.000000 0.000000 1.000000
0.286987 0.000000 1.000000
0.648651 0.000000 1.000000
1.000000 0.000000 1.000000
0.000000 0.315643 1.000000
0.286987 0.315643 1.000000
0.648651 0.315643 1.000000
1.000000 0.315643 1.000000
0.000000 0.672516 1.000000
0.286987 0.672516 1.000000
0.648651 0.672516 1.000000
1.000000 0.672516 1.000000
0.000000 1.000000 1.000000
0.286987 1.000000 1.000000
0.648651 1.000000 1.000000
1.000000 1.000000 1.000000
