lut/霸王别姬-蓝.cube
#Created by: Adobe Photoshop Export Color Lookup Plugin
#Copyright: (C) Copyright 2026 汉图
TITLE "mint本征源文件-适配lut筛选-恢复的.psd"
#LUT size
LUT_3D_SIZE 34
#data domain
DOMAIN_MIN 0.0 0.0 0.0
DOMAIN_MAX 1.0 1.0 1.0
#LUT data points
0.000000 0.000000 0.000000
0.013794 0.000000 0.000000
0.033569 0.000000 0.000000
0.056427 0.000000 0.000000
0.081390 0.000000 0.000000
0.108002 0.000000 0.000000
0.135864 0.000000 0.000000
0.164734 0.000000 0.000000
0.194427 0.000000 0.000000
0.224792 0.000000 0.000000
0.255646 0.000000 0.000000
0.286987 0.000000 0.000000
0.318573 0.000000 0.000000
0.350403 0.000000 0.000000
0.382385 0.000000 0.000000
0.414429 0.000000 0.000000
0.446472 0.000000 0.000000
0.478424 0.000000 0.000000
0.510376 0.000000 0.000000
0.543304 0.000000 0.000000
0.577454 0.000000 0.000000
0.612640 0.000000 0.000000
0.648651 0.000000 0.000000
0.685211 0.000000 0.000000
0.722076 0.000000 0.000000
0.758881 0.000000 0.000000
0.795258 0.000000 0.000000
0.830811 0.000000 0.000000
0.865112 0.000000 0.000000
0.897675 0.000000 0.000000
0.927979 0.000000 0.000000
0.955536 0.000000 0.000000
0.979736 0.000000 0.000000
1.000000 0.000000 0.000000
0.000000 0.019073 0.000000
0.013794 0.019073 0.000000
0.033569 0.019073 0.000000
0.056427 0.019073 0.000000
0.081390 0.019073 0.000000
0.108002 0.019073 0.000000
0.135864 0.019073 0.000000
0.164734 0.019073 0.000000
0.194427 0.019073 0.000000
0.224792 0.019073 0.000000
0.255646 0.019073 0.000000
0.286987 0.019073 0.000000
0.318573 0.019073 0.000000
0.350403 0.019073 0.000000
0.382385 0.019073 0.000000
0.414429 0.019073 0.000000
0.446472 0.019073 0.000000
0.478424 0.019073 0.000000
0.510376 0.019073 0.000000
0.543304 0.019073 0.000000
0.577454 0.019073 0.000000
0.612640 0.019073 0.000000
0.648651 0.019073 0.000000
0.685211 0.019073 0.000000
0.722076 0.019073 0.000000
0.758881 0.019073 0.000000
0.795258 0.019073 0.000000
0.830811 0.019073 0.000000
0.865112 0.019073 0.000000
0.897675 0.019073 0.000000
0.927979 0.019073 0.000000
0.955536 0.019073 0.000000
0.979736 0.019073 0.000000
1.000000 0.019073 0.000000
0.000000 0.043549 0.000000
0.013794 0.043549 0.000000
0.033569 0.043549 0.000000
0.056427 0.043549 0.000000
0.081390 0.043549 0.000000
0.108002 0.043549 0.000000
0.135864 0.043549 0.000000
0.164734 0.043549 0.000000
0.194427 0.043549 0.000000
0.224792 0.043549 0.000000
0.255646 0.043549 0.000000
0.286987 0.043549 0.000000
0.318573 0.043549 0.000000
0.350403 0.043549 0.000000
0.382385 0.043549 0.000000
0.414429 0.043549 0.000000
0.446472 0.043549 0.000000
0.478424 0.043549 0.000000
0.510376 0.043549 0.000000
0.543304 0.043549 0.000000
0.577454 0.043549 0.000000
0.612640 0.043549 0.000000
0.648651 0.043549 0.000000
0.685211 0.043549 0.000000
0.722076 0.043549 0.000000
0.758881 0.043549 0.000000
0.795258 0.043549 0.000000
0.830811 0.043549 0.000000
0.865112 0.043549 0.000000
0.897675 0.043549 0.000000
0.927979 0.043549 0.000000
0.955536 0.043549 0.000000
0.979736 0.043549 0.000000
1.000000 0.043549 0.000000
0.000000 0.070374 0.000000
0.013794 0.070374 0.000000
0.033569 0.070374 0.000000
0.056427 0.070374 0.000000
0.081390 0.070374 0.000000
0.108002 0.070374 0.000000
0.135864 0.070374 0.000000
0.164734 0.070374 0.000000
0.194427 0.070374 0.000000
0.224792 0.070374 0.000000
0.255646 0.070374 0.000000
0.286987 0.070374 0.000000
0.318573 0.070374 0.000000
0.350403 0.070374 0.000000
0.382385 0.070374 0.000000
0.414429 0.070374 0.000000
0.446472 0.070374 0.000000
0.478424 0.070374 0.000000
0.510376 0.070374 0.000000
0.543304 0.070374 0.000000
0.577454 0.070374 0.000000
0.612640 0.070374 0.000000
0.648651 0.070374 0.000000
0.685211 0.070374 0.000000
0.722076 0.070374 0.000000
0.758881 0.070374 0.000000
0.795258 0.070374 0.000000
0.830811 0.070374 0.000000
0.865112 0.070374 0.000000
0.897675 0.070374 0.000000
0.927979 0.070374 0.000000
0.955536 0.070374 0.000000
0.979736 0.070374 0.000000
1.000000 0.070374 0.000000
0.000000 0.098724 0.000000
0.013794 0.098724 0.000000
0.033569 0.098724 0.000000
0.056427 0.098724 0.000000
0.081390 0.098724 0.000000
0.108002 0.098724 0.000000
0.135864 0.098724 0.000000
0.164734 0.098724 0.000000
0.194427 0.098724 0.000000
0.224792 0.098724 0.000000
0.255646 0.098724 0.000000
0.286987 0.098724 0.000000
0.318573 0.098724 0.000000
0.350403 0.098724 0.000000
0.382385 0.098724 0.000000
0.414429 0.098724 0.000000
0.446472 0.098724 0.000000
0.478424 0.098724 0.000000
0.510376 0.098724 0.000000
0.543304 0.098724 0.000000
0.577454 0.098724 0.000000
0.612640 0.098724 0.000000
0.648651 0.098724 0.000000
0.685211 0.098724 0.000000
0.722076 0.098724 0.000000
0.758881 0.098724 0.000000
0.795258 0.098724 0.000000
0.830811 0.098724 0.000000
0.865112 0.098724 0.000000
0.897675 0.098724 0.000000
0.927979 0.098724 0.000000
0.955536 0.098724 0.000000
0.979736 0.098724 0.000000
1.000000 0.098724 0.000000
0.000000 0.128204 0.000000
0.013794 0.128204 0.000000
0.033569 0.128204 0.000000
0.056427 0.128204 0.000000
0.081390 0.128204 0.000000
0.108002 0.128204 0.000000
0.135864 0.128204 0.000000
0.164734 0.128204 0.000000
0.194427 0.128204 0.000000
0.224792 0.128204 0.000000
0.255646 0.128204 0.000000
0.286987 0.128204 0.000000
0.318573 0.128204 0.000000
0.350403 0.128204 0.000000
0.382385 0.128204 0.000000
0.414429 0.128204 0.000000
0.446472 0.128204 0.000000
0.478424 0.128204 0.000000
0.510376 0.128204 0.000000
0.543304 0.128204 0.000000
0.577454 0.128204 0.000000
0.612640 0.128204 0.000000
0.648651 0.128204 0.000000
0.685211 0.128204 0.000000
0.722076 0.128204 0.000000
0.758881 0.128204 0.000000
0.795258 0.128204 0.000000
0.830811 0.128204 0.000000
0.865112 0.128204 0.000000
0.897675 0.128204 0.000000
0.927979 0.128204 0.000000
0.955536 0.128204 0.000000
0.979736 0.128204 0.000000
1.000000 0.128204 0.000000
0.000000 0.158447 0.000000
0.013794 0.158447 0.000000
0.033569 0.158447 0.000000
0.056427 0.158447 0.000000
0.081390 0.158447 0.000000
0.108002 0.158447 0.000000
0.135864 0.158447 0.000000
0.164734 0.158447 0.000000
0.194427 0.158447 0.000000
0.224792 0.158447 0.000000
0.255646 0.158447 0.000000
0.286987 0.158447 0.000000
0.318573 0.158447 0.000000
0.350403 0.158447 0.000000
0.382385 0.158447 0.000000
0.414429 0.158447 0.000000
0.446472 0.158447 0.000000
0.478424 0.158447 0.000000
0.510376 0.158447 0.000000
0.543304 0.158447 0.000000
0.577454 0.158447 0.000000
0.612640 0.158447 0.000000
0.648651 0.158447 0.000000
0.685211 0.158447 0.000000
0.722076 0.158447 0.000000
0.758881 0.158447 0.000000
0.795258 0.158447 0.000000
0.830811 0.158447 0.000000
0.865112 0.158447 0.000000
0.897675 0.158447 0.000000
0.927979 0.158447 0.000000
0.955536 0.158447 0.000000
0.979736 0.158447 0.000000
1.000000 0.158447 0.000000
0.000000 0.189301 0.000000
0.013794 0.189301 0.000000
0.033569 0.189301 0.000000
0.056427 0.189301 0.000000
0.081390 0.189301 0.000000
0.108002 0.189301 0.000000
0.135864 0.189301 0.000000
0.164734 0.189301 0.000000
0.194427 0.189301 0.000000
0.224792 0.189301 0.000000
0.255646 0.189301 0.000000
0.286987 0.189301 0.000000
0.318573 0.189301 0.000000
0.350403 0.189301 0.000000
0.382385 0.189301 0.000000
0.414429 0.189301 0.000000
0.446472 0.189301 0.000000
0.478424 0.189301 0.000000
0.510376 0.189301 0.000000
0.543304 0.189301 0.000000
0.577454 0.189301 0.000000
0.612640 0.189301 0.000000
0.648651 0.189301 0.000000
0.685211 0.189301 0.000000
0.722076 0.189301 0.000000
0.758881 0.189301 0.000000
0.795258 0.189301 0.000000
0.830811 0.189301 0.000000
0.865112 0.189301 0.000000
0.897675 0.189301 0.000000
0.927979 0.189301 0.000000
0.955536 0.189301 0.000000
0.979736 0.189301 0.000000
1.000000 0.189301 0.000000
0.000000 0.220520 0.000000
0.013794 0.220520 0.000000
0.033569 0.220520 0.000000
0.056427 0.220520 0.000000
0.081390 0.220520 0.000000
0.108002 0.220520 0.000000
0.135864 0.220520 0.000000
0.164734 0.220520 0.000000
0.194427 0.220520 0.000000
0.224792 0.220520 0.000000
0.255646 0.220520 0.000000
0.286987 0.220520 0.000000
0.318573 0.220520 0.000000
0.350403 0.220520 0.000000
0.382385 0.220520 0.000000
0.414429 0.220520 0.000000
0.446472 0.220520 0.000000
0.478424 0.220520 0.000000
0.510376 0.220520 0.000000
0.543304 0.220520 0.000000
0.577454 0.220520 0.000000
0.612640 0.220520 0.000000
0.648651 0.220520 0.000000
0.685211 0.220520 0.000000
0.722076 0.220520 0.000000
0.758881 0.220520 0.000000
0.795258 0.220520 0.000000
0.830811 0.220520 0.000000
0.865112 0.220520 0.000000
0.897675 0.220520 0.000000
0.927979 0.220520 0.000000
0.955536 0.220520 0.000000
0.979736 0.220520 0.000000
1.000000 0.220520 0.000000
0.000000 0.252075 0.000000
0.013794 0.252075 0.000000
0.033569 0.252075 0.000000
0.056427 0.252075 0.000000
0.081390 0.252075 0.000000
0.108002 0.252075 0.000000
0.135864 0.252075 0.000000
0.164734 0.252075 0.000000
0.194427 0.252075 0.000000
0.224792 0.252075 0.000000
0.255646 0.252075 0.000000
0.286987 0.252075 0.000000
0.318573 0.252075 0.000000
0.350403 0.252075 0.000000
0.382385 0.252075 0.000000
0.414429 0.252075 0.000000
0.446472 0.252075 0.000000
0.478424 0.252075 0.000000
0.510376 0.252075 0.000000
0.543304 0.252075 0.000000
0.577454 0.252075 0.000000
0.612640 0.252075 0.000000
0.648651 0.252075 0.000000
0.685211 0.252075 0.000000
0.722076 0.252075 0.000000
0.758881 0.252075 0.000000
0.795258 0.252075 0.000000
0.830811 0.252075 0.000000
0.865112 0.252075 0.000000
0.897675 0.252075 0.000000
0.927979 0.252075 0.000000
0.955536 0.252075 0.000000
0.979736 0.252075 0.000000
1.000000 0.252075 0.000000
0.000000 0.283783 0.000000
0.013794 0.283783 0.000000
0.033569 0.283783 0.000000
0.056427 0.283783 0.000000
0.081390 0.283783 0.000000
0.108002 0.283783 0.000000
0.135864 0.283783 0.000000
0.164734 0.283783 0.000000
0.194427 0.283783 0.000000
0.224792 0.283783 0.000000
0.255646 0.283783 0.000000
0.286987 0.283783 0.000000
0.318573 0.283783 0.000000
0.350403 0.283783 0.000000
0.382385 0.283783 0.000000
0.414429 0.283783 0.000000
0.446472 0.283783 0.000000
0.478424 0.283783 0.000000
0.510376 0.283783 0.000000
0.543304 0.283783 0.000000
0.577454 0.283783 0.000000
0.612640 0.283783 0.000000
0.648651 0.283783 0.000000
0.685211 0.283783 0.000000
0.722076 0.283783 0.000000
0.758881 0.283783 0.000000
0.795258 0.283783 0.000000
0.830811 0.283783 0.000000
0.865112 0.283783 0.000000
0.897675 0.283783 0.000000
0.927979 0.283783 0.000000
0.955536 0.283783 0.000000
0.979736 0.283783 0.000000
1.000000 0.283783 0.000000
0.000000 0.315643 0.000000
0.013794 0.315643 0.000000
0.033569 0.315643 0.000000
0.056427 0.315643 0.000000
0.081390 0.315643 0.000000
0.108002 0.315643 0.000000
0.135864 0.315643 0.000000
0.164734 0.315643 0.000000
0.194427 0.315643 0.000000
0.224792 0.315643 0.000000
0.255646 0.315643 0.000000
0.286987 0.315643 0.000000
0.318573 0.315643 0.000000
0.350403 0.315643 0.000000
0.382385 0.315643 0.000000
0.414429 0.315643 0.000000
0.446472 0.315643 0.000000
0.478424 0.315643 0.000000
0.510376 0.315643 0.000000
0.543304 0.315643 0.000000
0.577454 0.315643 0.000000
0.612640 0.315643 0.000000
0.648651 0.315643 0.000000
0.685211 0.315643 0.000000
0.722076 0.315643 0.000000
0.758881 0.315643 0.000000
0.795258 0.315643 0.000000
0.830811 0.315643 0.000000
0.865112 0.315643 0.000000
0.897675 0.315643 0.000000
0.927979 0.315643 0.000000
0.955536 0.315643 0.000000
0.979736 0.315643 0.000000
1.000000 0.315643 0.000000
0.000000 0.347504 0.000000
0.013794 0.347504 0.000000
0.033569 0.347504 0.000000
0.056427 0.347504 0.000000
0.081390 0.347504 0.000000
0.108002 0.347504 0.000000
0.135864 0.347504 0.000000
0.164734 0.347504 0.000000
0.194427 0.347504 0.000000
0.224792 0.347504 0.000000
0.255646 0.347504 0.000000
0.286987 0.347504 0.000000
0.318573 0.347504 0.000000
0.350403 0.347504 0.000000
0.382385 0.347504 0.000000
0.414429 0.347504 0.000000
0.446472 0.347504 0.000000
0.478424 0.347504 0.000000
0.510376 0.347504 0.000000
0.543304 0.347504 0.000000
0.577454 0.347504 0.000000
0.612640 0.347504 0.000000
0.648651 0.347504 0.000000
0.685211 0.347504 0.000000
0.722076 0.347504 0.000000
0.758881 0.347504 0.000000
0.795258 0.347504 0.000000
0.830811 0.347504 0.000000
0.865112 0.347504 0.000000
0.897675 0.347504 0.000000
0.927979 0.347504 0.000000
0.955536 0.347504 0.000000
0.979736 0.347504 0.000000
1.000000 0.347504 0.000000
0.000000 0.379303 0.000000
0.013794 0.379303 0.000000
0.033569 0.379303 0.000000
0.056427 0.379303 0.000000
0.081390 0.379303 0.000000
0.108002 0.379303 0.000000
0.135864 0.379303 0.000000
0.164734 0.379303 0.000000
0.194427 0.379303 0.000000
0.224792 0.379303 0.000000
0.255646 0.379303 0.000000
0.286987 0.379303 0.000000
0.318573 0.379303 0.000000
0.350403 0.379303 0.000000
0.382385 0.379303 0.000000
0.414429 0.379303 0.000000
0.446472 0.379303 0.000000
0.478424 0.379303 0.000000
0.510376 0.379303 0.000000
0.543304 0.379303 0.000000
0.577454 0.379303 0.000000
0.612640 0.379303 0.000000
0.648651 0.379303 0.000000
0.685211 0.379303 0.000000
0.722076 0.379303 0.000000
0.758881 0.379303 0.000000
0.795258 0.379303 0.000000
0.830811 0.379303 0.000000
0.865112 0.379303 0.000000
0.897675 0.379303 0.000000
0.927979 0.379303 0.000000
0.955536 0.379303 0.000000
0.979736 0.379303 0.000000
1.000000 0.379303 0.000000
0.000000 0.411041 0.000000
0.013794 0.411041 0.000000
0.033569 0.411041 0.000000
0.056427 0.411041 0.000000
0.081390 0.411041 0.000000
0.108002 0.411041 0.000000
0.135864 0.411041 0.000000
0.164734 0.411041 0.000000
0.194427 0.411041 0.000000
0.224792 0.411041 0.000000
0.255646 0.411041 0.000000
0.286987 0.411041 0.000000
0.318573 0.411041 0.000000
0.350403 0.411041 0.000000
0.382385 0.411041 0.000000
0.414429 0.411041 0.000000
0.446472 0.411041 0.000000
0.478424 0.411041 0.000000
0.510376 0.411041 0.000000
0.543304 0.411041 0.000000
0.577454 0.411041 0.000000
0.612640 0.411041 0.000000
0.648651 0.411041 0.000000
0.685211 0.411041 0.000000
0.722076 0.411041 0.000000
0.758881 0.411041 0.000000
0.795258 0.411041 0.000000
0.830811 0.411041 0.000000
0.865112 0.411041 0.000000
0.897675 0.411041 0.000000
0.927979 0.411041 0.000000
0.955536 0.411041 0.000000
0.979736 0.411041 0.000000
1.000000 0.411041 0.000000
0.000000 0.442566 0.000000
0.013794 0.442566 0.000000
0.033569 0.442566 0.000000
0.056427 0.442566 0.000000
0.081390 0.442566 0.000000
0.108002 0.442566 0.000000
0.135864 0.442566 0.000000
0.164734 0.442566 0.000000
0.194427 0.442566 0.000000
0.224792 0.442566 0.000000
0.255646 0.442566 0.000000
0.286987 0.442566 0.000000
0.318573 0.442566 0.000000
0.350403 0.442566 0.000000
0.382385 0.442566 0.000000
0.414429 0.442566 0.000000
0.446472 0.442566 0.000000
0.478424 0.442566 0.000000
0.510376 0.442566 0.000000
0.543304 0.442566 0.000000
0.577454 0.442566 0.000000
0.612640 0.442566 0.000000
0.648651 0.442566 0.000000
0.685211 0.442566 0.000000
0.722076 0.442566 0.000000
0.758881 0.442566 0.000000
0.795258 0.442566 0.000000
0.830811 0.442566 0.000000
0.865112 0.442566 0.000000
0.897675 0.442566 0.000000
0.927979 0.442566 0.000000
0.955536 0.442566 0.000000
0.979736 0.442566 0.000000
1.000000 0.442566 0.000000
0.000000 0.473938 0.000000
0.013794 0.473938 0.000000
0.033569 0.473938 0.000000
0.056427 0.473938 0.000000
0.081390 0.473938 0.000000
0.108002 0.473938 0.000000
0.135864 0.473938 0.000000
0.164734 0.473938 0.000000
0.194427 0.473938 0.000000
0.224792 0.473938 0.000000
0.255646 0.473938 0.000000
0.286987 0.473938 0.000000
0.318573 0.473938 0.000000
0.350403 0.473938 0.000000
0.382385 0.473938 0.000000
0.414429 0.473938 0.000000
0.446472 0.473938 0.000000
0.478424 0.473938 0.000000
0.510376 0.473938 0.000000
0.543304 0.473938 0.000000
0.577454 0.473938 0.000000
0.612640 0.473938 0.000000
0.648651 0.473938 0.000000
0.685211 0.473938 0.000000
0.722076 0.473938 0.000000
0.758881 0.473938 0.000000
0.795258 0.473938 0.000000
0.830811 0.473938 0.000000
0.865112 0.473938 0.000000
0.897675 0.473938 0.000000
0.927979 0.473938 0.000000
0.955536 0.473938 0.000000
0.979736 0.473938 0.000000
1.000000 0.473938 0.000000
0.000000 0.505005 0.000000
0.013794 0.505005 0.000000
0.033569 0.505005 0.000000
0.056427 0.505005 0.000000
0.081390 0.505005 0.000000
0.108002 0.505005 0.000000
0.135864 0.505005 0.000000
0.164734 0.505005 0.000000
0.194427 0.505005 0.000000
0.224792 0.505005 0.000000
0.255646 0.505005 0.000000
0.286987 0.505005 0.000000
0.318573 0.505005 0.000000
0.350403 0.505005 0.000000
0.382385 0.505005 0.000000
0.414429 0.505005 0.000000
0.446472 0.505005 0.000000
0.478424 0.505005 0.000000
0.510376 0.505005 0.000000
0.543304 0.505005 0.000000
0.577454 0.505005 0.000000
0.612640 0.505005 0.000000
0.648651 0.505005 0.000000
0.685211 0.505005 0.000000
0.722076 0.505005 0.000000
0.758881 0.505005 0.000000
0.795258 0.505005 0.000000
0.830811 0.505005 0.000000
0.865112 0.505005 0.000000
0.897675 0.505005 0.000000
0.927979 0.505005 0.000000
0.955536 0.505005 0.000000
0.979736 0.505005 0.000000
1.000000 0.505005 0.000000
0.000000 0.536774 0.000000
0.013794 0.536774 0.000000
0.033569 0.536774 0.000000
0.056427 0.536774 0.000000
0.081390 0.536774 0.000000
0.108002 0.536774 0.000000
0.135864 0.536774 0.000000
0.164734 0.536774 0.000000
0.194427 0.536774 0.000000
0.224792 0.536774 0.000000
0.255646 0.536774 0.000000
0.286987 0.536774 0.000000
0.318573 0.536774 0.000000
0.350403 0.536774 0.000000
0.382385 0.536774 0.000000
0.414429 0.536774 0.000000
0.446472 0.536774 0.000000
0.478424 0.536774 0.000000
0.510376 0.536774 0.000000
0.543304 0.536774 0.000000
0.577454 0.536774 0.000000
0.612640 0.536774 0.000000
0.648651 0.536774 0.000000
0.685211 0.536774 0.000000
0.722076 0.536774 0.000000
0.758881 0.536774 0.000000
0.795258 0.536774 0.000000
0.830811 0.536774 0.000000
0.865112 0.536774 0.000000
0.897675 0.536774 0.000000
0.927979 0.536774 0.000000
0.955536 0.536774 0.000000
0.979736 0.536774 0.000000
1.000000 0.536774 0.000000
0.000000 0.569611 0.000000
0.013794 0.569611 0.000000
0.033569 0.569611 0.000000
0.056427 0.569611 0.000000
0.081390 0.569611 0.000000
0.108002 0.569611 0.000000
0.135864 0.569611 0.000000
0.164734 0.569611 0.000000
0.194427 0.569611 0.000000
0.224792 0.569611 0.000000
0.255646 0.569611 0.000000
0.286987 0.569611 0.000000
0.318573 0.569611 0.000000
0.350403 0.569611 0.000000
0.382385 0.569611 0.000000
0.414429 0.569611 0.000000
0.446472 0.569611 0.000000
0.478424 0.569611 0.000000
0.510376 0.569611 0.000000
0.543304 0.569611 0.000000
0.577454 0.569611 0.000000
0.612640 0.569611 0.000000
0.648651 0.569611 0.000000
0.685211 0.569611 0.000000
0.722076 0.569611 0.000000
0.758881 0.569611 0.000000
0.795258 0.569611 0.000000
0.830811 0.569611 0.000000
0.865112 0.569611 0.000000
0.897675 0.569611 0.000000
0.927979 0.569611 0.000000
0.955536 0.569611 0.000000
0.979736 0.569611 0.000000
1.000000 0.569611 0.000000
0.000000 0.603271 0.000000
0.013794 0.603271 0.000000
0.033569 0.603271 0.000000
0.056427 0.603271 0.000000
0.081390 0.603271 0.000000
0.108002 0.603271 0.000000
0.135864 0.603271 0.000000
0.164734 0.603271 0.000000
0.194427 0.603271 0.000000
0.224792 0.603271 0.000000
0.255646 0.603271 0.000000
0.286987 0.603271 0.000000
0.318573 0.603271 0.000000
0.350403 0.603271 0.000000
0.382385 0.603271 0.000000
0.414429 0.603271 0.000000
0.446472 0.603271 0.000000
0.478424 0.603271 0.000000
0.510376 0.603271 0.000000
0.543304 0.603271 0.000000
0.577454 0.603271 0.000000
0.612640 0.603271 0.000000
0.648651 0.603271 0.000000
0.685211 0.603271 0.000000
0.722076 0.603271 0.000000
0.758881 0.603271 0.000000
0.795258 0.603271 0.000000
0.830811 0.603271 0.000000
0.865112 0.603271 0.000000
0.897675 0.603271 0.000000
0.927979 0.603271 0.000000
0.955536 0.603271 0.000000
0.979736 0.603271 0.000000
1.000000 0.603271 0.000000
0.000000 0.637665 0.000000
0.013794 0.637665 0.000000
0.033569 0.637665 0.000000
0.056427 0.637665 0.000000
0.081390 0.637665 0.000000
0.108002 0.637665 0.000000
0.135864 0.637665 0.000000
0.164734 0.637665 0.000000
0.194427 0.637665 0.000000
0.224792 0.637665 0.000000
0.255646 0.637665 0.000000
0.286987 0.637665 0.000000
0.318573 0.637665 0.000000
0.350403 0.637665 0.000000
0.382385 0.637665 0.000000
0.414429 0.637665 0.000000
0.446472 0.637665 0.000000
0.478424 0.637665 0.000000
0.510376 0.637665 0.000000
0.543304 0.637665 0.000000
0.577454 0.637665 0.000000
0.612640 0.637665 0.000000
0.648651 0.637665 0.000000
0.685211 0.637665 0.000000
0.722076 0.637665 0.000000
0.758881 0.637665 0.000000
0.795258 0.637665 0.000000
0.830811 0.637665 0.000000
0.865112 0.637665 0.000000
0.897675 0.637665 0.000000
0.927979 0.637665 0.000000
0.955536 0.637665 0.000000
0.979736 0.637665 0.000000
1.000000 0.637665 0.000000
0.000000 0.672516 0.000000
0.013794 0.672516 0.000000
0.033569 0.672516 0.000000
0.056427 0.672516 0.000000
0.081390 0.672516 0.000000
0.108002 0.672516 0.000000
0.135864 0.672516 0.000000
0.164734 0.672516 0.000000
0.194427 0.672516 0.000000
0.224792 0.672516 0.000000
0.255646 0.672516 0.000000
0.286987 0.672516 0.000000
0.318573 0.672516 0.000000
0.350403 0.672516 0.000000
0.382385 0.672516 0.000000
0.414429 0.672516 0.000000
0.446472 0.672516 0.000000
0.478424 0.672516 0.000000
0.510376 0.672516 0.000000
0.543304 0.672516 0.000000
0.577454 0.672516 0.000000
0.612640 0.672516 0.000000
0.648651 0.672516 0.000000
0.685211 0.672516 0.000000
0.722076 0.672516 0.000000
0.758881 0.672516 0.000000
0.795258 0.672516 0.000000
0.830811 0.672516 0.000000
0.865112 0.672516 0.000000
0.897675 0.672516 0.000000
0.927979 0.672516 0.000000
0.955536 0.672516 0.000000
0.979736 0.672516 0.000000
1.000000 0.672516 0.000000
0.000000 0.707550 0.000000
0.013794 0.707550 0.000000
0.033569 0.707550 0.000000
0.056427 0.707550 0.000000
0.081390 0.707550 0.000000
0.108002 0.707550 0.000000
0.135864 0.707550 0.000000
0.164734 0.707550 0.000000
0.194427 0.707550 0.000000
0.224792 0.707550 0.000000
0.255646 0.707550 0.000000
0.286987 0.707550 0.000000
0.318573 0.707550 0.000000
0.350403 0.707550 0.000000
0.382385 0.707550 0.000000
0.414429 0.707550 0.000000
0.446472 0.707550 0.000000
0.478424 0.707550 0.000000
0.510376 0.707550 0.000000
0.543304 0.707550 0.000000
0.577454 0.707550 0.000000
0.612640 0.707550 0.000000
0.648651 0.707550 0.000000
0.685211 0.707550 0.000000
0.722076 0.707550 0.000000
0.758881 0.707550 0.000000
0.795258 0.707550 0.000000
0.830811 0.707550 0.000000
0.865112 0.707550 0.000000
0.897675 0.707550 0.000000
0.927979 0.707550 0.000000
0.955536 0.707550 0.000000
0.979736 0.707550 0.000000
1.000000 0.707550 0.000000
0.000000 0.742615 0.000000
0.013794 0.742615 0.000000
0.033569 0.742615 0.000000
0.056427 0.742615 0.000000
0.081390 0.742615 0.000000
0.108002 0.742615 0.000000
0.135864 0.742615 0.000000
0.164734 0.742615 0.000000
0.194427 0.742615 0.000000
0.224792 0.742615 0.000000
0.255646 0.742615 0.000000
0.286987 0.742615 0.000000
0.318573 0.742615 0.000000
0.350403 0.742615 0.000000
0.382385 0.742615 0.000000
0.414429 0.742615 0.000000
0.446472 0.742615 0.000000
0.478424 0.742615 0.000000
0.510376 0.742615 0.000000
0.543304 0.742615 0.000000
0.577454 0.742615 0.000000
0.612640 0.742615 0.000000
0.648651 0.742615 0.000000
0.685211 0.742615 0.000000
0.722076 0.742615 0.000000
0.758881 0.742615 0.000000
0.795258 0.742615 0.000000
0.830811 0.742615 0.000000
0.865112 0.742615 0.000000
0.897675 0.742615 0.000000
0.927979 0.742615 0.000000
0.955536 0.742615 0.000000
0.979736 0.742615 0.000000
1.000000 0.742615 0.000000
0.000000 0.777374 0.000000
0.013794 0.777374 0.000000
0.033569 0.777374 0.000000
0.056427 0.777374 0.000000
0.081390 0.777374 0.000000
0.108002 0.777374 0.000000
0.135864 0.777374 0.000000
0.164734 0.777374 0.000000
0.194427 0.777374 0.000000
0.224792 0.777374 0.000000
0.255646 0.777374 0.000000
0.286987 0.777374 0.000000
0.318573 0.777374 0.000000
0.350403 0.777374 0.000000
0.382385 0.777374 0.000000
0.414429 0.777374 0.000000
0.446472 0.777374 0.000000
0.478424 0.777374 0.000000
0.510376 0.777374 0.000000
0.543304 0.777374 0.000000
0.577454 0.777374 0.000000
0.612640 0.777374 0.000000
0.648651 0.777374 0.000000
0.685211 0.777374 0.000000
0.722076 0.777374 0.000000
0.758881 0.777374 0.000000
0.795258 0.777374 0.000000
0.830811 0.777374 0.000000
0.865112 0.777374 0.000000
0.897675 0.777374 0.000000
