lut/霸王别姬-蓝.cube
#Created by: Adobe Photoshop Export Color Lookup Plugin
#Copyright: (C) Copyright 2026 汉图
TITLE "mint本征源文件-适配lut筛选-恢复的.psd"
#LUT size
LUT_3D_SIZE 7
#data domain
#LUT data points
DOMAIN_MIN 0.000000 0.000000 0.000000
DOMAIN_MAX 0.909091 0.909091 0.909091
0.000000 0.000000 0.000000
0.108002 0.000000 0.000000
0.255646 0.000000 0.000000
0.414429 0.000000 0.000000
0.577454 0.000000 0.000000
0.758881 0.000000 0.000000
0.927979 0.000000 0.000000
0.000000 0.128204 0.000000
0.108002 0.128204 0.000000
0.255646 0.128204 0.000000
0.414429 0.128204 0.000000
0.577454 0.128204 0.000000
0.758881 0.128204 0.000000
0.927979 0.128204 0.000000
0.000000 0.283783 0.000000
0.108002 0.283783 0.000000
0.255646 0.283783 0.000000
0.414429 0.283783 0.000000
0.577454 0.283783 0.000000
0.758881 0.283783 0.000000
0.927979 0.283783 0.000000
0.000000 0.442566 0.000000
0.108002 0.442566 0.000000
0.255646 0.442566 0.000000
0.414429 0.442566 0.000000
0.577454 0.442566 0.000000
0.758881 0.442566 0.000000
0.927979 0.442566 0.000000
0.000000 0.603271 0.000000
0.108002 0.603271 0.000000
0.255646 0.603271 0.000000
0.414429 0.603271 0.000000
0.577454 0.603271 0.000000
0.758881 0.603271 0.000000
0.927979 0.603271 0.000000
0.000000 0.777374 0.000000
0.108002 0.777374 0.000000
0.255646 0.777374 0.000000
0.414429 0.777374 0.000000
0.577454 0.777374 0.000000
0.758881 0.777374 0.000000
0.927979 0.777374 0.000000
0.000000 0.933960 0.000000
0.108002 0.933960 0.000000
0.255646 0.933960 0.000000
0.414429 0.933960 0.000000
0.577454 0.933960 0.000000
0.758881 0.933960 0.000000
0.927979 0.933960 0.000000
0.000000 0.000000 0.386108
0.108002 0.000000 0.386108
0.255646 0.000000 0.386108
0.414429 0.000000 0.386108
0.577454 0.000000 0.386108
0.758881 0.000000 0.386108
0.927979 0.000000 0.386108
0.000000 0.128204 0.386108
0.108002 0.128204 0.386108
0.255646 0.128204 0.386108
0.414429 0.128204 0.386108
0.577454 0.128204 0.386108
0.758881 0.128204 0.386108
0.927979 0.128204 0.386108
0.000000 0.283783 0.386108
0.108002 0.283783 0.386108
0.255646 0.283783 0.386108
0.414429 0.283783 0.386108
0.577454 0.283783 0.386108
0.758881 0.283783 0.386108
0.927979 0.283783 0.386108
0.000000 0.442566 0.386108
0.108002 0.442566 0.386108
0.255646 0.442566 0.386108
0.414429 0.442566 0.386108
0.577454 0.442566 0.386108
0.758881 0.442566 0.386108
0.927979 0.442566 0.386108
0.000000 0.603271 0.386108
0.108002 0.603271 0.386108
0.255646 0.603271 0.386108
0.414429 0.603271 0.386108
0.577454 0.603271 0.386108
0.758881 0.603271 0.386108
0.927979 0.603271 0.386108
0.000000 0.777374 0.386108
0.108002 0.777374 0.386108
0.255646 0.777374 0.386108
0.414429 0.777374 0.386108
0.577454 0.777374 0.386108
0.758881 0.777374 0.386108
0.927979 0.777374 0.386108
0.000000 0.933960 0.386108
0.108002 0.933960 0.386108
0.255646 0.933960 0.386108
0.414429 0.933960 0.386108
0.577454 0.933960 0.386108
0.758881 0.933960 0.386108
0.927979 0.933960 0.386108
0.000000 0.000000 0.552917
0.108002 0.000000 0.552917
0.255646 0.000000 0.552917
0.414429 0.000000 0.552917
0.577454 0.000000 0.552917
0.758881 0.000000 0.552917
0.927979 0.000000 0.552917
0.000000 0.128204 0.552917
0.108002 0.128204 0.552917
0.255646 0.128204 0.552917
0.414429 0.128204 0.552917
0.577454 0.128204 0.552917
0.758881 0.128204 0.552917
0.927979 0.128204 0.552917
0.000000 0.283783 0.552917
0.108002 0.283783 0.552917
0.255646 0.283783 0.552917
0.414429 0.283783 0.552917
0.577454 0.283783 0.552917
0.758881 0.283783 0.552917
0.927979 0.283783 0.552917
0.000000 0.442566 0.552917
0.108002 0.442566 0.552917
0.255646 0.442566 0.552917
0.414429 0.442566 0.552917
0.577454 0.442566 0.552917
0.758881 0.442566 0.552917
0.927979 0.442566 0.552917
0.000000 0.603271 0.552917
0.108002 0.603271 0.552917
0.255646 0.603271 0.552917
0.414429 0.603271 0.552917
0.577454 0.603271 0.552917
0.758881 0.603271 0.552917
0.927979 0.603271 0.552917
0.000000 0.777374 0.552917
0.108002 0.777374 0.552917
0.255646 0.777374 0.552917
0.414429 0.777374 0.552917
0.577454 0.777374 0.552917
0.758881 0.777374 0.552917
0.927979 0.777374 0.552917
0.000000 0.933960 0.552917
0.108002 0.933960 0.552917
0.255646 0.933960 0.552917
0.414429 0.933960 0.552917
0.577454 0.933960 0.552917
0.758881 0.933960 0.552917
0.927979 0.933960 0.552917
0.000000 0.000000 0.690521
0.108002 0.000000 0.690521
0.255646 0.000000 0.690521
0.414429 0.000000 0.690521
0.577454 0.000000 0.690521
0.758881 0.000000 0.690521
0.927979 0.000000 0.690521
0.000000 0.128204 0.690521
0.108002 0.128204 0.690521
0.255646 0.128204 0.690521
0.414429 0.128204 0.690521
0.577454 0.128204 0.690521
0.758881 0.128204 0.690521
0.927979 0.128204 0.690521
0.000000 0.283783 0.690521
0.108002 0.283783 0.690521
0.255646 0.283783 0.690521
0.414429 0.283783 0.690521
0.577454 0.283783 0.690521
0.758881 0.283783 0.690521
0.927979 0.283783 0.690521
0.000000 0.442566 0.690521
0.108002 0.442566 0.690521
0.255646 0.442566 0.690521
0.414429 0.442566 0.690521
0.577454 0.442566 0.690521
0.758881 0.442566 0.690521
0.927979 0.442566 0.690521
0.000000 0.603271 0.690521
0.108002 0.603271 0.690521
0.255646 0.603271 0.690521
0.414429 0.603271 0.690521
0.577454 0.603271 0.690521
0.758881 0.603271 0.690521
0.927979 0.603271 0.690521
0.000000 0.777374 0.690521
0.108002 0.777374 0.690521
0.255646 0.777374 0.690521
0.414429 0.777374 0.690521
0.577454 0.777374 0.690521
0.758881 0.777374 0.690521
0.927979 0.777374 0.690521
0.000000 0.933960 0.690521
0.108002 0.933960 0.690521
0.255646 0.933960 0.690521
0.414429 0.933960 0.690521
0.577454 0.933960 0.690521
0.758881 0.933960 0.690521
0.927979 0.933960 0.690521
0.000000 0.000000 0.807526
0.108002 0.000000 0.807526
0.255646 0.000000 0.807526
0.414429 0.000000 0.807526
0.577454 0.000000 0.807526
0.758881 0.000000 0.807526
0.927979 0.000000 0.807526
0.000000 0.128204 0.807526
0.108002 0.128204 0.807526
0.255646 0.128204 0.807526
0.414429 0.128204 0.807526
0.577454 0.128204 0.807526
0.758881 0.128204 0.807526
0.927979 0.128204 0.807526
0.000000 0.283783 0.807526
0.108002 0.283783 0.807526
0.255646 0.283783 0.807526
0.414429 0.283783 0.807526
0.577454 0.283783 0.807526
0.758881 0.283783 0.807526
0.927979 0.283783 0.807526
0.000000 0.442566 0.807526
0.108002 0.442566 0.807526
0.255646 0.442566 0.807526
0.414429 0.442566 0.807526
0.577454 0.442566 0.807526
0.758881 0.442566 0.807526
0.927979 0.442566 0.807526
0.000000 0.603271 0.807526
0.108002 0.603271 0.807526
0.255646 0.603271 0.807526
0.414429 0.603271 0.807526
0.577454 0.603271 0.807526
0.758881 0.603271 0.807526
0.927979 0.603271 0.807526
0.000000 0.777374 0.807526
0.108002 0.777374 0.807526
0.255646 0.777374 0.807526
0.414429 0.777374 0.807526
0.577454 0.777374 0.807526
0.758881 0.777374 0.807526
0.927979 0.777374 0.807526
0.000000 0.933960 0.807526
0.108002 0.933960 0.807526
0.255646 0.933960 0.807526
0.414429 0.933960 0.807526
0.577454 0.933960 0.807526
0.758881 0.933960 0.807526
0.927979 0.933960 0.807526
0.000000 0.000000 0.901581
0.108002 0.000000 0.901581
0.255646 0.000000 0.901581
0.414429 0.000000 0.901581
0.577454 0.000000 0.901581
0.758881 0.000000 0.901581
0.927979 0.000000 0.901581
0.000000 0.128204 0.901581
0.108002 0.128204 0.901581
0.255646 0.128204 0.901581
0.414429 0.128204 0.901581
0.577454 0.128204 0.901581
0.758881 0.128204 0.901581
0.927979 0.128204 0.901581
0.000000 0.283783 0.901581
0.108002 0.283783 0.901581
0.255646 0.283783 0.901581
0.414429 0.283783 0.901581
0.577454 0.283783 0.901581
0.758881 0.283783 0.901581
0.927979 0.283783 0.901581
0.000000 0.442566 0.901581
0.108002 0.442566 0.901581
0.255646 0.442566 0.901581
0.414429 0.442566 0.901581
0.577454 0.442566 0.901581
0.758881 0.442566 0.901581
0.927979 0.442566 0.901581
0.000000 0.603271 0.901581
0.108002 0.603271 0.901581
0.255646 0.603271 0.901581
0.414429 0.603271 0.901581
0.577454 0.603271 0.901581
0.758881 0.603271 0.901581
0.927979 0.603271 0.901581
0.000000 0.777374 0.901581
0.108002 0.777374 0.901581
0.255646 0.777374 0.901581
0.414429 0.777374 0.901581
0.577454 0.777374 0.901581
0.758881 0.777374 0.901581
0.927979 0.777374 0.901581
0.000000 0.933960 0.901581
0.108002 0.933960 0.901581
0.255646 0.933960 0.901581
0.414429 0.933960 0.901581
0.577454 0.933960 0.901581
0.758881 0.933960 0.901581
0.927979 0.933960 0.901581
0.000000 0.000000 0.970825
0.108002 0.000000 0.970825
0.255646 0.000000 0.970825
0.414429 0.000000 0.970825
0.577454 0.000000 0.970825
0.758881 0.000000 0.970825
0.927979 0.000000 0.970825
0.000000 0.128204 0.970825
0.108002 0.128204 0.970825
0.255646 0.128204 0.970825
0.414429 0.128204 0.970825
0.577454 0.128204 0.970825
0.758881 0.128204 0.970825
0.927979 0.128204 0.970825
0.000000 0.283783 0.970825
0.108002 0.283783 0.970825
0.255646 0.283783 0.970825
0.414429 0.283783 0.970825
0.577454 0.283783 0.970825
0.758881 0.283783 0.970825
0.927979 0.283783 0.970825
0.000000 0.442566 0.970825
0.108002 0.442566 0.970825
0.255646 0.442566 0.970825
0.414429 0.442566 0.970825
0.577454 0.442566 0.970825
0.758881 0.442566 0.970825
0.927979 0.442566 0.970825
0.000000 0.603271 0.970825
0.108002 0.603271 0.970825
0.255646 0.603271 0.970825
0.414429 0.603271 0.970825
0.577454 0.603271 0.970825
0.758881 0.603271 0.970825
0.927979 0.603271 0.970825
0.000000 0.777374 0.970825
0.108002 0.777374 0.970825
0.255646 0.777374 0.970825
0.414429 0.777374 0.970825
0.577454 0.777374 0.970825
0.758881 0.777374 0.970825
0.927979 0.777374 0.970825
0.000000 0.933960 0.970825
0.108002 0.933960 0.970825
0.255646 0.933960 0.970825
0.414429 0.933960 0.970825
0.577454 0.933960 0.970825
0.758881 0.933960 0.970825
0.927979 0.933960 0.970825
