lut/黑白纪实.cube
#Created by: Adobe Photoshop Export Color Lookup Plugin
#Copyright: (C) Copyright 2026 汉图
TITLE "mint本征源文件-适配lut筛选-恢复的.psd"
#LUT size
LUT_3D_SIZE 34
#data domain
DOMAIN_MIN 0.0 0.0 0.0
DOMAIN_MAX 1.0 1.0 1.0
#LUT data points
0.157776 0.157776 0.157776
0.157776 0.157776 0.157776
0.157776 0.157776 0.157776
0.157776 0.157776 0.157776
0.157776 0.157776 0.157776
0.157776 0.157776 0.157776
0.157776 0.157776 0.157776
0.157776 0.157776 0.157776
0.157776 0.157776 0.157776
0.157776 0.157776 0.157776
0.157776 0.157776 0.157776
0.162750 0.162750 0.162750
0.182678 0.182678 0.182678
0.203125 0.203125 0.203125
0.223969 0.223969 0.223969
0.245270 0.245270 0.245270
0.267059 0.267059 0.267059
0.289185 0.289185 0.289185
0.311829 0.311829 0.311829
0.334808 0.334808 0.334808
0.358215 0.358215 0.358215
0.382050 0.382050 0.382050
0.406250 0.406250 0.406250
0.430786 0.430786 0.430786
0.455780 0.455780 0.455780
0.480896 0.480896 0.480896
0.506165 0.506165 0.506165
0.531372 0.531372 0.531372
0.556610 0.556610 0.556610
0.581787 0.581787 0.581787
0.606720 0.606720 0.606720
0.631500 0.631500 0.631500
0.655945 0.655945 0.655945
0.680115 0.680115 0.680115
0.157776 0.157776 0.157776
0.157776 0.157776 0.157776
0.157776 0.157776 0.157776
0.157776 0.157776 0.157776
0.157776 0.157776 0.157776
0.157776 0.157776 0.157776
0.157776 0.157776 0.157776
0.157776 0.157776 0.157776
0.157776 0.157776 0.157776
0.157776 0.157776 0.157776
0.157776 0.157776 0.157776
0.166412 0.166412 0.166412
0.186401 0.186401 0.186401
0.206940 0.206940 0.206940
0.227875 0.227875 0.227875
0.249268 0.249268 0.249268
0.271088 0.271088 0.271088
0.293335 0.293335 0.293335
0.316040 0.316040 0.316040
0.339111 0.339111 0.339111
0.362549 0.362549 0.362549
0.386475 0.386475 0.386475
0.410767 0.410767 0.410767
0.435425 0.435425 0.435425
0.460419 0.460419 0.460419
0.485565 0.485565 0.485565
0.510834 0.510834 0.510834
0.536072 0.536072 0.536072
0.561279 0.561279 0.561279
0.586395 0.586395 0.586395
0.611298 0.611298 0.611298
0.635986 0.635986 0.635986
0.660461 0.660461 0.660461
0.684509 0.684509 0.684509
0.157776 0.157776 0.157776
0.157776 0.157776 0.157776
0.157776 0.157776 0.157776
0.157776 0.157776 0.157776
0.157776 0.157776 0.157776
0.157776 0.157776 0.157776
0.157776 0.157776 0.157776
0.157776 0.157776 0.157776
0.157776 0.157776 0.157776
0.157776 0.157776 0.157776
0.157776 0.157776 0.157776
0.170044 0.170044 0.170044
0.190186 0.190186 0.190186
0.210785 0.210785 0.210785
0.231781 0.231781 0.231781
0.253265 0.253265 0.253265
0.275208 0.275208 0.275208
0.297516 0.297516 0.297516
0.320221 0.320221 0.320221
0.343414 0.343414 0.343414
0.366943 0.366943 0.366943
0.390930 0.390930 0.390930
0.415253 0.415253 0.415253
0.440002 0.440002 0.440002
0.465057 0.465057 0.465057
0.490234 0.490234 0.490234
0.515472 0.515472 0.515472
0.540710 0.540710 0.540710
0.565887 0.565887 0.565887
0.591003 0.591003 0.591003
0.615906 0.615906 0.615906
0.640503 0.640503 0.640503
0.664917 0.664917 0.664917
0.688934 0.688934 0.688934
0.157776 0.157776 0.157776
0.157776 0.157776 0.157776
0.157776 0.157776 0.157776
0.157776 0.157776 0.157776
0.157776 0.157776 0.157776
0.157776 0.157776 0.157776
0.157776 0.157776 0.157776
0.157776 0.157776 0.157776
0.157776 0.157776 0.157776
0.157776 0.157776 0.157776
0.157776 0.157776 0.157776
0.173676 0.173676 0.173676
0.193939 0.193939 0.193939
0.214600 0.214600 0.214600
0.235718 0.235718 0.235718
0.257233 0.257233 0.257233
0.279297 0.279297 0.279297
0.301636 0.301636 0.301636
0.324493 0.324493 0.324493
0.347687 0.347687 0.347687
0.371368 0.371368 0.371368
0.395386 0.395386 0.395386
0.419800 0.419800 0.419800
0.444580 0.444580 0.444580
0.469696 0.469696 0.469696
0.494873 0.494873 0.494873
0.520142 0.520142 0.520142
0.545410 0.545410 0.545410
0.570526 0.570526 0.570526
0.595581 0.595581 0.595581
0.620453 0.620453 0.620453
0.645081 0.645081 0.645081
0.669373 0.669373 0.669373
0.693268 0.693268 0.693268
0.157776 0.157776 0.157776
0.157776 0.157776 0.157776
0.157776 0.157776 0.157776
0.157776 0.157776 0.157776
0.157776 0.157776 0.157776
0.157776 0.157776 0.157776
0.157776 0.157776 0.157776
0.157776 0.157776 0.157776
0.157776 0.157776 0.157776
0.157776 0.157776 0.157776
0.157776 0.157776 0.157776
0.177399 0.177399 0.177399
0.197693 0.197693 0.197693
0.218445 0.218445 0.218445
0.239624 0.239624 0.239624
0.261292 0.261292 0.261292
0.283356 0.283356 0.283356
0.305817 0.305817 0.305817
0.328766 0.328766 0.328766
0.352051 0.352051 0.352051
0.375793 0.375793 0.375793
0.399841 0.399841 0.399841
0.424316 0.424316 0.424316
0.449249 0.449249 0.449249
0.474335 0.474335 0.474335
0.499512 0.499512 0.499512
0.524811 0.524811 0.524811
0.550049 0.550049 0.550049
0.575195 0.575195 0.575195
0.600189 0.600189 0.600189
0.625000 0.625000 0.625000
0.649536 0.649536 0.649536
0.673828 0.673828 0.673828
0.697723 0.697723 0.697723
0.157776 0.157776 0.157776
0.157776 0.157776 0.157776
0.157776 0.157776 0.157776
0.157776 0.157776 0.157776
0.157776 0.157776 0.157776
0.157776 0.157776 0.157776
0.157776 0.157776 0.157776
0.157776 0.157776 0.157776
0.157776 0.157776 0.157776
0.157776 0.157776 0.157776
0.161224 0.161224 0.161224
0.181122 0.181122 0.181122
0.201477 0.201477 0.201477
0.222351 0.222351 0.222351
0.243622 0.243622 0.243622
0.265320 0.265320 0.265320
0.287506 0.287506 0.287506
0.310059 0.310059 0.310059
0.333008 0.333008 0.333008
0.356384 0.356384 0.356384
0.380188 0.380188 0.380188
0.404327 0.404327 0.404327
0.428894 0.428894 0.428894
0.453827 0.453827 0.453827
0.478943 0.478943 0.478943
0.504181 0.504181 0.504181
0.529510 0.529510 0.529510
0.554657 0.554657 0.554657
0.579773 0.579773 0.579773
0.604828 0.604828 0.604828
0.629547 0.629547 0.629547
0.654022 0.654022 0.654022
0.678223 0.678223 0.678223
0.702057 0.702057 0.702057
0.157776 0.157776 0.157776
0.157776 0.157776 0.157776
0.157776 0.157776 0.157776
0.157776 0.157776 0.157776
0.157776 0.157776 0.157776
0.157776 0.157776 0.157776
0.157776 0.157776 0.157776
0.157776 0.157776 0.157776
0.157776 0.157776 0.157776
0.157776 0.157776 0.157776
0.164856 0.164856 0.164856
0.184814 0.184814 0.184814
0.205292 0.205292 0.205292
0.226227 0.226227 0.226227
0.247620 0.247620 0.247620
0.269379 0.269379 0.269379
0.291626 0.291626 0.291626
0.314270 0.314270 0.314270
0.337341 0.337341 0.337341
0.360718 0.360718 0.360718
0.384613 0.384613 0.384613
0.408844 0.408844 0.408844
0.433472 0.433472 0.433472
0.458466 0.458466 0.458466
0.483582 0.483582 0.483582
0.508850 0.508850 0.508850
0.534119 0.534119 0.534119
0.559326 0.559326 0.559326
0.584412 0.584412 0.584412
0.609375 0.609375 0.609375
0.634094 0.634094 0.634094
0.658569 0.658569 0.658569
0.682648 0.682648 0.682648
0.706390 0.706390 0.706390
0.157776 0.157776 0.157776
0.157776 0.157776 0.157776
0.157776 0.157776 0.157776
0.157776 0.157776 0.157776
0.157776 0.157776 0.157776
0.157776 0.157776 0.157776
0.157776 0.157776 0.157776
0.157776 0.157776 0.157776
0.157776 0.157776 0.157776
0.157776 0.157776 0.157776
0.168488 0.168488 0.168488
0.188568 0.188568 0.188568
0.209106 0.209106 0.209106
0.230133 0.230133 0.230133
0.251587 0.251587 0.251587
0.273468 0.273468 0.273468
0.295807 0.295807 0.295807
0.318481 0.318481 0.318481
0.341614 0.341614 0.341614
0.365112 0.365112 0.365112
0.389069 0.389069 0.389069
0.413361 0.413361 0.413361
0.438049 0.438049 0.438049
0.463104 0.463104 0.463104
0.488281 0.488281 0.488281
0.513458 0.513458 0.513458
0.538757 0.538757 0.538757
0.563965 0.563965 0.563965
0.589020 0.589020 0.589020
0.613983 0.613983 0.613983
0.638611 0.638611 0.638611
0.663055 0.663055 0.663055
0.687073 0.687073 0.687073
0.710724 0.710724 0.710724
0.157776 0.157776 0.157776
0.157776 0.157776 0.157776
0.157776 0.157776 0.157776
0.157776 0.157776 0.157776
0.157776 0.157776 0.157776
0.157776 0.157776 0.157776
0.157776 0.157776 0.157776
0.157776 0.157776 0.157776
0.157776 0.157776 0.157776
0.157776 0.157776 0.157776
0.172180 0.172180 0.172180
0.192322 0.192322 0.192322
0.213013 0.213013 0.213013
0.234070 0.234070 0.234070
0.255585 0.255585 0.255585
0.277527 0.277527 0.277527
0.299927 0.299927 0.299927
0.322723 0.322723 0.322723
0.345886 0.345886 0.345886
0.369476 0.369476 0.369476
0.393524 0.393524 0.393524
0.417908 0.417908 0.417908
0.442657 0.442657 0.442657
0.467712 0.467712 0.467712
0.492889 0.492889 0.492889
0.518158 0.518158 0.518158
0.543396 0.543396 0.543396
0.568542 0.568542 0.568542
0.593689 0.593689 0.593689
0.618530 0.618530 0.618530
0.643127 0.643127 0.643127
0.667480 0.667480 0.667480
0.691467 0.691467 0.691467
0.715027 0.715027 0.715027
0.157776 0.157776 0.157776
0.157776 0.157776 0.157776
0.157776 0.157776 0.157776
0.157776 0.157776 0.157776
0.157776 0.157776 0.157776
0.157776 0.157776 0.157776
0.157776 0.157776 0.157776
0.157776 0.157776 0.157776
0.157776 0.157776 0.157776
0.157776 0.157776 0.157776
0.175842 0.175842 0.175842
0.196075 0.196075 0.196075
0.216858 0.216858 0.216858
0.238007 0.238007 0.238007
0.259583 0.259583 0.259583
0.281677 0.281677 0.281677
0.304108 0.304108 0.304108
0.326965 0.326965 0.326965
0.350220 0.350220 0.350220
0.373901 0.373901 0.373901
0.397980 0.397980 0.397980
0.422394 0.422394 0.422394
0.447235 0.447235 0.447235
0.472382 0.472382 0.472382
0.497559 0.497559 0.497559
0.522797 0.522797 0.522797
0.548096 0.548096 0.548096
0.573242 0.573242 0.573242
0.598267 0.598267 0.598267
0.623077 0.623077 0.623077
0.647644 0.647644 0.647644
0.671967 0.671967 0.671967
0.695831 0.695831 0.695831
0.719299 0.719299 0.719299
0.157776 0.157776 0.157776
0.157776 0.157776 0.157776
0.157776 0.157776 0.157776
0.157776 0.157776 0.157776
0.157776 0.157776 0.157776
0.161224 0.161224 0.161224
0.164856 0.164856 0.164856
0.168488 0.168488 0.168488
0.172180 0.172180 0.172180
0.175842 0.175842 0.175842
0.179535 0.179535 0.179535
0.199890 0.199890 0.199890
0.220703 0.220703 0.220703
0.241943 0.241943 0.241943
0.263611 0.263611 0.263611
0.285767 0.285767 0.285767
0.308319 0.308319 0.308319
0.331207 0.331207 0.331207
0.354553 0.354553 0.354553
0.378296 0.378296 0.378296
0.402466 0.402466 0.402466
0.426941 0.426941 0.426941
0.451843 0.451843 0.451843
0.477020 0.477020 0.477020
0.502228 0.502228 0.502228
0.527527 0.527527 0.527527
0.552734 0.552734 0.552734
0.577850 0.577850 0.577850
0.602875 0.602875 0.602875
0.627655 0.627655 0.627655
0.652161 0.652161 0.652161
0.676392 0.676392 0.676392
0.700195 0.700195 0.700195
0.723602 0.723602 0.723602
0.162750 0.162750 0.162750
0.166412 0.166412 0.166412
0.170044 0.170044 0.170044
0.173676 0.173676 0.173676
0.177399 0.177399 0.177399
0.181122 0.181122 0.181122
0.184814 0.184814 0.184814
0.188568 0.188568 0.188568
0.192322 0.192322 0.192322
0.196075 0.196075 0.196075
0.199890 0.199890 0.199890
0.203705 0.203705 0.203705
0.224579 0.224579 0.224579
0.245911 0.245911 0.245911
0.267700 0.267700 0.267700
0.289886 0.289886 0.289886
0.312500 0.312500 0.312500
0.335510 0.335510 0.335510
0.358948 0.358948 0.358948
0.382721 0.382721 0.382721
0.406921 0.406921 0.406921
0.431519 0.431519 0.431519
0.456451 0.456451 0.456451
0.481628 0.481628 0.481628
0.506866 0.506866 0.506866
0.532166 0.532166 0.532166
0.557404 0.557404 0.557404
0.582458 0.582458 0.582458
0.607452 0.607452 0.607452
0.632202 0.632202 0.632202
0.656677 0.656677 0.656677
0.680786 0.680786 0.680786
0.704559 0.704559 0.704559
0.727875 0.727875 0.727875
0.182678 0.182678 0.182678
0.186401 0.186401 0.186401
0.190186 0.190186 0.190186
0.193939 0.193939 0.193939
0.197693 0.197693 0.197693
0.201477 0.201477 0.201477
0.205292 0.205292 0.205292
0.209106 0.209106 0.209106
0.213013 0.213013 0.213013
0.216858 0.216858 0.216858
0.220703 0.220703 0.220703
0.224579 0.224579 0.224579
0.228485 0.228485 0.228485
0.249908 0.249908 0.249908
0.271759 0.271759 0.271759
0.294037 0.294037 0.294037
0.316711 0.316711 0.316711
0.339813 0.339813 0.339813
0.363281 0.363281 0.363281
0.387177 0.387177 0.387177
0.411438 0.411438 0.411438
0.436096 0.436096 0.436096
0.461151 0.461151 0.461151
0.486328 0.486328 0.486328
0.511566 0.511566 0.511566
0.536804 0.536804 0.536804
0.562012 0.562012 0.562012
0.587097 0.587097 0.587097
0.612000 0.612000 0.612000
0.636719 0.636719 0.636719
0.661133 0.661133 0.661133
0.685242 0.685242 0.685242
0.708923 0.708923 0.708923
0.732117 0.732117 0.732117
0.203125 0.203125 0.203125
0.206940 0.206940 0.206940
0.210785 0.210785 0.210785
0.214600 0.214600 0.214600
0.218445 0.218445 0.218445
0.222351 0.222351 0.222351
0.226227 0.226227 0.226227
0.230133 0.230133 0.230133
0.234070 0.234070 0.234070
0.238007 0.238007 0.238007
0.241943 0.241943 0.241943
0.245911 0.245911 0.245911
0.249908 0.249908 0.249908
0.253906 0.253906 0.253906
0.275818 0.275818 0.275818
0.298187 0.298187 0.298187
0.320953 0.320953 0.320953
0.344086 0.344086 0.344086
0.367615 0.367615 0.367615
0.391571 0.391571 0.391571
0.415985 0.415985 0.415985
0.440674 0.440674 0.440674
0.465759 0.465759 0.465759
0.490936 0.490936 0.490936
0.516235 0.516235 0.516235
0.541504 0.541504 0.541504
0.566620 0.566620 0.566620
0.591705 0.591705 0.591705
0.616638 0.616638 0.616638
0.641266 0.641266 0.641266
0.665588 0.665588 0.665588
0.689636 0.689636 0.689636
0.713226 0.713226 0.713226
0.736359 0.736359 0.736359
0.223969 0.223969 0.223969
0.227875 0.227875 0.227875
0.231781 0.231781 0.231781
0.235718 0.235718 0.235718
0.239624 0.239624 0.239624
0.243622 0.243622 0.243622
0.247620 0.247620 0.247620
0.251587 0.251587 0.251587
0.255585 0.255585 0.255585
0.259583 0.259583 0.259583
0.263611 0.263611 0.263611
0.267700 0.267700 0.267700
0.271759 0.271759 0.271759
0.275818 0.275818 0.275818
0.279907 0.279907 0.279907
0.302338 0.302338 0.302338
0.325165 0.325165 0.325165
0.348419 0.348419 0.348419
0.372009 0.372009 0.372009
0.396057 0.396057 0.396057
0.420502 0.420502 0.420502
0.445312 0.445312 0.445312
0.470459 0.470459 0.470459
0.495605 0.495605 0.495605
0.520844 0.520844 0.520844
0.546143 0.546143 0.546143
0.571289 0.571289 0.571289
0.596283 0.596283 0.596283
0.621185 0.621185 0.621185
0.645752 0.645752 0.645752
0.670044 0.670044 0.670044
0.694031 0.694031 0.694031
0.717529 0.717529 0.717529
0.740540 0.740540 0.740540
0.245270 0.245270 0.245270
0.249268 0.249268 0.249268
0.253265 0.253265 0.253265
0.257233 0.257233 0.257233
0.261292 0.261292 0.261292
0.265320 0.265320 0.265320
0.269379 0.269379 0.269379
0.273468 0.273468 0.273468
0.277527 0.277527 0.277527
0.281677 0.281677 0.281677
0.285767 0.285767 0.285767
0.289886 0.289886 0.289886
0.294037 0.294037 0.294037
0.298187 0.298187 0.298187
0.302338 0.302338 0.302338
0.306549 0.306549 0.306549
0.329407 0.329407 0.329407
0.352753 0.352753 0.352753
0.376434 0.376434 0.376434
0.400574 0.400574 0.400574
0.425079 0.425079 0.425079
0.449921 0.449921 0.449921
0.475067 0.475067 0.475067
0.500275 0.500275 0.500275
0.525513 0.525513 0.525513
0.550751 0.550751 0.550751
0.575897 0.575897 0.575897
0.600922 0.600922 0.600922
0.625732 0.625732 0.625732
0.650269 0.650269 0.650269
0.674469 0.674469 0.674469
0.698364 0.698364 0.698364
0.721832 0.721832 0.721832
0.744751 0.744751 0.744751
0.267059 0.267059 0.267059
0.271088 0.271088 0.271088
0.275208 0.275208 0.275208
0.279297 0.279297 0.279297
0.283356 0.283356 0.283356
0.287506 0.287506 0.287506
0.291626 0.291626 0.291626
0.295807 0.295807 0.295807
0.299927 0.299927 0.299927
0.304108 0.304108 0.304108
0.308319 0.308319 0.308319
0.312500 0.312500 0.312500
0.316711 0.316711 0.316711
0.320953 0.320953 0.320953
0.325165 0.325165 0.325165
0.329407 0.329407 0.329407
0.333710 0.333710 0.333710
0.357056 0.357056 0.357056
0.380829 0.380829 0.380829
0.405060 0.405060 0.405060
0.429596 0.429596 0.429596
0.454559 0.454559 0.454559
0.479706 0.479706 0.479706
0.504913 0.504913 0.504913
0.530151 0.530151 0.530151
0.555420 0.555420 0.555420
0.580505 0.580505 0.580505
0.605530 0.605530 0.605530
0.630280 0.630280 0.630280
0.654785 0.654785 0.654785
0.678925 0.678925 0.678925
0.702728 0.702728 0.702728
0.726044 0.726044 0.726044
0.748993 0.748993 0.748993
0.289185 0.289185 0.289185
0.293335 0.293335 0.293335
0.297516 0.297516 0.297516
0.301636 0.301636 0.301636
0.305817 0.305817 0.305817
0.310059 0.310059 0.310059
0.314270 0.314270 0.314270
0.318481 0.318481 0.318481
0.322723 0.322723 0.322723
0.326965 0.326965 0.326965
0.331207 0.331207 0.331207
0.335510 0.335510 0.335510
0.339813 0.339813 0.339813
0.344086 0.344086 0.344086
0.348419 0.348419 0.348419
0.352753 0.352753 0.352753
0.357056 0.357056 0.357056
0.361420 0.361420 0.361420
0.385315 0.385315 0.385315
0.409576 0.409576 0.409576
0.434174 0.434174 0.434174
0.459167 0.459167 0.459167
0.484375 0.484375 0.484375
0.509552 0.509552 0.509552
0.534790 0.534790 0.534790
0.560059 0.560059 0.560059
0.585175 0.585175 0.585175
0.610107 0.610107 0.610107
0.634827 0.634827 0.634827
0.659271 0.659271 0.659271
0.683350 0.683350 0.683350
0.707092 0.707092 0.707092
0.730316 0.730316 0.730316
0.753082 0.753082 0.753082
0.311829 0.311829 0.311829
0.316040 0.316040 0.316040
0.320221 0.320221 0.320221
0.324493 0.324493 0.324493
0.328766 0.328766 0.328766
0.333008 0.333008 0.333008
0.337341 0.337341 0.337341
0.341614 0.341614 0.341614
0.345886 0.345886 0.345886
0.350220 0.350220 0.350220
0.354553 0.354553 0.354553
0.358948 0.358948 0.358948
0.363281 0.363281 0.363281
0.367615 0.367615 0.367615
0.372009 0.372009 0.372009
0.376434 0.376434 0.376434
0.380829 0.380829 0.380829
0.385315 0.385315 0.385315
0.389740 0.389740 0.389740
0.414062 0.414062 0.414062
0.438751 0.438751 0.438751
0.463776 0.463776 0.463776
0.489014 0.489014 0.489014
0.514252 0.514252 0.514252
0.539490 0.539490 0.539490
0.564697 0.564697 0.564697
0.589752 0.589752 0.589752
0.614655 0.614655 0.614655
0.639374 0.639374 0.639374
0.663696 0.663696 0.663696
0.687744 0.687744 0.687744
0.711395 0.711395 0.711395
0.734589 0.734589 0.734589
0.757202 0.757202 0.757202
0.334808 0.334808 0.334808
0.339111 0.339111 0.339111
0.343414 0.343414 0.343414
0.347687 0.347687 0.347687
0.352051 0.352051 0.352051
0.356384 0.356384 0.356384
0.360718 0.360718 0.360718
0.365112 0.365112 0.365112
0.369476 0.369476 0.369476
0.373901 0.373901 0.373901
0.378296 0.378296 0.378296
0.382721 0.382721 0.382721
0.387177 0.387177 0.387177
0.391571 0.391571 0.391571
0.396057 0.396057 0.396057
0.400574 0.400574 0.400574
0.405060 0.405060 0.405060
0.409576 0.409576 0.409576
0.414062 0.414062 0.414062
0.418610 0.418610 0.418610
0.443390 0.443390 0.443390
0.468475 0.468475 0.468475
0.493652 0.493652 0.493652
0.518890 0.518890 0.518890
0.544128 0.544128 0.544128
0.569336 0.569336 0.569336
0.594330 0.594330 0.594330
0.619202 0.619202 0.619202
0.643890 0.643890 0.643890
0.668213 0.668213 0.668213
0.692139 0.692139 0.692139
0.715698 0.715698 0.715698
0.738800 0.738800 0.738800
0.761383 0.761383 0.761383
0.358215 0.358215 0.358215
0.362549 0.362549 0.362549
0.366943 0.366943 0.366943
0.371368 0.371368 0.371368
0.375793 0.375793 0.375793
0.380188 0.380188 0.380188
0.384613 0.384613 0.384613
0.389069 0.389069 0.389069
0.393524 0.393524 0.393524
0.397980 0.397980 0.397980
0.402466 0.402466 0.402466
0.406921 0.406921 0.406921
0.411438 0.411438 0.411438
0.415985 0.415985 0.415985
0.420502 0.420502 0.420502
0.425079 0.425079 0.425079
0.429596 0.429596 0.429596
0.434174 0.434174 0.434174
0.438751 0.438751 0.438751
0.443390 0.443390 0.443390
0.447968 0.447968 0.447968
0.473053 0.473053 0.473053
0.498291 0.498291 0.498291
0.523560 0.523560 0.523560
0.548767 0.548767 0.548767
0.573975 0.573975 0.573975
0.598969 0.598969 0.598969
0.623810 0.623810 0.623810
0.648346 0.648346 0.648346
0.672607 0.672607 0.672607
0.696503 0.696503 0.696503
0.720032 0.720032 0.720032
0.743011 0.743011 0.743011
0.765472 0.765472 0.765472
0.382050 0.382050 0.382050
0.386475 0.386475 0.386475
0.390930 0.390930 0.390930
0.395386 0.395386 0.395386
0.399841 0.399841 0.399841
0.404327 0.404327 0.404327
0.408844 0.408844 0.408844
0.413361 0.413361 0.413361
0.417908 0.417908 0.417908
0.422394 0.422394 0.422394
0.426941 0.426941 0.426941
0.431519 0.431519 0.431519
0.436096 0.436096 0.436096
0.440674 0.440674 0.440674
0.445312 0.445312 0.445312
0.449921 0.449921 0.449921
0.454559 0.454559 0.454559
0.459167 0.459167 0.459167
0.463776 0.463776 0.463776
0.468475 0.468475 0.468475
0.473053 0.473053 0.473053
0.477692 0.477692 0.477692
0.502930 0.502930 0.502930
0.528198 0.528198 0.528198
0.553436 0.553436 0.553436
0.578583 0.578583 0.578583
0.603546 0.603546 0.603546
0.628357 0.628357 0.628357
0.652893 0.652893 0.652893
0.677032 0.677032 0.677032
0.700897 0.700897 0.700897
0.724304 0.724304 0.724304
0.747162 0.747162 0.747162
0.769592 0.769592 0.769592
0.406250 0.406250 0.406250
0.410767 0.410767 0.410767
0.415253 0.415253 0.415253
0.419800 0.419800 0.419800
0.424316 0.424316 0.424316
0.428894 0.428894 0.428894
0.433472 0.433472 0.433472
0.438049 0.438049 0.438049
0.442657 0.442657 0.442657
0.447235 0.447235 0.447235
0.451843 0.451843 0.451843
0.456451 0.456451 0.456451
0.461151 0.461151 0.461151
0.465759 0.465759 0.465759
0.470459 0.470459 0.470459
0.475067 0.475067 0.475067
0.479706 0.479706 0.479706
0.484375 0.484375 0.484375
0.489014 0.489014 0.489014
0.493652 0.493652 0.493652
0.498291 0.498291 0.498291
0.502930 0.502930 0.502930
0.507629 0.507629 0.507629
0.532898 0.532898 0.532898
0.558075 0.558075 0.558075
0.583191 0.583191 0.583191
0.608185 0.608185 0.608185
0.632935 0.632935 0.632935
0.657349 0.657349 0.657349
0.681458 0.681458 0.681458
0.705292 0.705292 0.705292
0.728516 0.728516 0.728516
0.751312 0.751312 0.751312
0.773651 0.773651 0.773651
0.430786 0.430786 0.430786
0.435425 0.435425 0.435425
0.440002 0.440002 0.440002
0.444580 0.444580 0.444580
0.449249 0.449249 0.449249
0.453827 0.453827 0.453827
0.458466 0.458466 0.458466
0.463104 0.463104 0.463104
0.467712 0.467712 0.467712
0.472382 0.472382 0.472382
0.477020 0.477020 0.477020
0.481628 0.481628 0.481628
0.486328 0.486328 0.486328
0.490936 0.490936 0.490936
0.495605 0.495605 0.495605
0.500275 0.500275 0.500275
0.504913 0.504913 0.504913
0.509552 0.509552 0.509552
0.514252 0.514252 0.514252
0.518890 0.518890 0.518890
0.523560 0.523560 0.523560
0.528198 0.528198 0.528198
0.532898 0.532898 0.532898
0.537537 0.537537 0.537537
0.562683 0.562683 0.562683
0.587830 0.587830 0.587830
0.612762 0.612762 0.612762
0.637451 0.637451 0.637451
0.661804 0.661804 0.661804
0.685913 0.685913 0.685913
0.709595 0.709595 0.709595
0.732788 0.732788 0.732788
0.755493 0.755493 0.755493
0.777618 0.777618 0.777618
0.455780 0.455780 0.455780
0.460419 0.460419 0.460419
0.465057 0.465057 0.465057
0.469696 0.469696 0.469696
0.474335 0.474335 0.474335
0.478943 0.478943 0.478943
0.483582 0.483582 0.483582
0.488281 0.488281 0.488281
0.492889 0.492889 0.492889
0.497559 0.497559 0.497559
0.502228 0.502228 0.502228
0.506866 0.506866 0.506866
0.511566 0.511566 0.511566
0.516235 0.516235 0.516235
0.520844 0.520844 0.520844
0.525513 0.525513 0.525513
0.530151 0.530151 0.530151
0.534790 0.534790 0.534790
0.539490 0.539490 0.539490
0.544128 0.544128 0.544128
0.548767 0.548767 0.548767
0.553436 0.553436 0.553436
0.558075 0.558075 0.558075
0.562683 0.562683 0.562683
0.567413 0.567413 0.567413
0.592438 0.592438 0.592438
0.617310 0.617310 0.617310
0.641937 0.641937 0.641937
0.666321 0.666321 0.666321
0.690277 0.690277 0.690277
0.713867 0.713867 0.713867
0.737000 0.737000 0.737000
0.759644 0.759644 0.759644
0.781708 0.781708 0.781708
0.480896 0.480896 0.480896
0.485565 0.485565 0.485565
0.490234 0.490234 0.490234
0.494873 0.494873 0.494873
0.499512 0.499512 0.499512
0.504181 0.504181 0.504181
0.508850 0.508850 0.508850
0.513458 0.513458 0.513458
0.518158 0.518158 0.518158
0.522797 0.522797 0.522797
0.527527 0.527527 0.527527
0.532166 0.532166 0.532166
0.536804 0.536804 0.536804
0.541504 0.541504 0.541504
0.546143 0.546143 0.546143
0.550751 0.550751 0.550751
0.555420 0.555420 0.555420
0.560059 0.560059 0.560059
0.564697 0.564697 0.564697
0.569336 0.569336 0.569336
0.573975 0.573975 0.573975
0.578583 0.578583 0.578583
0.583191 0.583191 0.583191
0.587830 0.587830 0.587830
0.592438 0.592438 0.592438
0.597046 0.597046 0.597046
0.621887 0.621887 0.621887
0.646454 0.646454 0.646454
0.670746 0.670746 0.670746
0.694672 0.694672 0.694672
