lut/黑白老照片 1.cube
#Created by: Adobe Photoshop Export Color Lookup Plugin
#Copyright: (C) Copyright 2026 小米
TITLE "黑白-低对比"
#LUT size
LUT_3D_SIZE 36
#data domain
DOMAIN_MIN 0.0 0.0 0.0
DOMAIN_MAX 1.0 1.0 1.0
#LUT data points
0.000000 0.000000 0.000000
0.007172 0.007172 0.007172
0.014343 0.014343 0.014343
0.024445 0.024445 0.024445
0.035187 0.035187 0.035187
0.045929 0.045929 0.045929
0.056702 0.056702 0.056702
0.067444 0.067444 0.067444
0.078217 0.078217 0.078217
0.088501 0.088501 0.088501
0.097473 0.097473 0.097473
0.106659 0.106659 0.106659
0.119232 0.119232 0.119232
0.131775 0.131775 0.131775
0.142731 0.142731 0.142731
0.153503 0.153503 0.153503
0.165497 0.165497 0.165497
0.178040 0.178040 0.178040
0.190582 0.190582 0.190582
0.203125 0.203125 0.203125
0.216248 0.216248 0.216248
0.230591 0.230591 0.230591
0.245392 0.245392 0.245392
0.263306 0.263306 0.263306
0.281219 0.281219 0.281219
0.297485 0.297485 0.297485
0.313629 0.313629 0.313629
0.329742 0.329742 0.329742
0.345886 0.345886 0.345886
0.364044 0.364044 0.364044
0.383759 0.383759 0.383759
0.405487 0.405487 0.405487
0.430573 0.430573 0.430573
0.455017 0.455017 0.455017
0.476532 0.476532 0.476532
0.498047 0.498047 0.498047
0.014343 0.014343 0.014343
0.019714 0.019714 0.019714
0.026886 0.026886 0.026886
0.034058 0.034058 0.034058
0.044159 0.044159 0.044159
0.052643 0.052643 0.052643
0.062073 0.062073 0.062073
0.072845 0.072845 0.072845
0.083588 0.083588 0.083588
0.093445 0.093445 0.093445
0.101074 0.101074 0.101074
0.110382 0.110382 0.110382
0.124603 0.124603 0.124603
0.137146 0.137146 0.137146
0.148132 0.148132 0.148132
0.158875 0.158875 0.158875
0.170868 0.170868 0.170868
0.183411 0.183411 0.183411
0.197754 0.197754 0.197754
0.212097 0.212097 0.212097
0.225769 0.225769 0.225769
0.241333 0.241333 0.241333
0.255249 0.255249 0.255249
0.266876 0.266876 0.266876
0.284821 0.284821 0.284821
0.302765 0.302765 0.302765
0.319000 0.319000 0.319000
0.336456 0.336456 0.336456
0.353058 0.353058 0.353058
0.370209 0.370209 0.370209
0.389130 0.389130 0.389130
0.408844 0.408844 0.408844
0.430573 0.430573 0.430573
0.455017 0.455017 0.455017
0.476532 0.476532 0.476532
0.498047 0.498047 0.498047
0.028687 0.028687 0.028687
0.034058 0.034058 0.034058
0.039429 0.039429 0.039429
0.046600 0.046600 0.046600
0.053772 0.053772 0.053772
0.061615 0.061615 0.061615
0.068787 0.068787 0.068787
0.078217 0.078217 0.078217
0.088959 0.088959 0.088959
0.098816 0.098816 0.098816
0.105988 0.105988 0.105988
0.113953 0.113953 0.113953
0.128296 0.128296 0.128296
0.142517 0.142517 0.142517
0.153503 0.153503 0.153503
0.164246 0.164246 0.164246
0.176239 0.176239 0.176239
0.188782 0.188782 0.188782
0.203125 0.203125 0.203125
0.219269 0.219269 0.219269
0.234741 0.234741 0.234741
0.250854 0.250854 0.250854
0.265991 0.265991 0.265991
0.276733 0.276733 0.276733
0.288391 0.288391 0.288391
0.306335 0.306335 0.306335
0.324249 0.324249 0.324249
0.341858 0.341858 0.341858
0.359772 0.359772 0.359772
0.377380 0.377380 0.377380
0.395294 0.395294 0.395294
0.414215 0.414215 0.414215
0.433929 0.433929 0.433929
0.455017 0.455017 0.455017
0.476532 0.476532 0.476532
0.498047 0.498047 0.498047
0.043030 0.043030 0.043030
0.044037 0.044037 0.044037
0.049408 0.049408 0.049408
0.057709 0.057709 0.057709
0.064880 0.064880 0.064880
0.070923 0.070923 0.070923
0.077759 0.077759 0.077759
0.086517 0.086517 0.086517
0.097260 0.097260 0.097260
0.107574 0.107574 0.107574
0.115753 0.115753 0.115753
0.123138 0.123138 0.123138
0.134796 0.134796 0.134796
0.149139 0.149139 0.149139
0.160339 0.160339 0.160339
0.171082 0.171082 0.171082
0.184326 0.184326 0.184326
0.197083 0.197083 0.197083
0.208740 0.208740 0.208740
0.223175 0.223175 0.223175
0.239899 0.239899 0.239899
0.256927 0.256927 0.256927
0.272369 0.272369 0.272369
0.283142 0.283142 0.283142
0.293884 0.293884 0.293884
0.312836 0.312836 0.312836
0.330750 0.330750 0.330750
0.346008 0.346008 0.346008
0.363678 0.363678 0.363678
0.382629 0.382629 0.382629
0.401001 0.401001 0.401001
0.419617 0.419617 0.419617
0.439331 0.439331 0.439331
0.459747 0.459747 0.459747
0.482361 0.482361 0.482361
0.503876 0.503876 0.503876
0.057373 0.057373 0.057373
0.057373 0.057373 0.057373
0.058380 0.058380 0.058380
0.066681 0.066681 0.066681
0.075623 0.075623 0.075623
0.081696 0.081696 0.081696
0.087067 0.087067 0.087067
0.095459 0.095459 0.095459
0.106232 0.106232 0.106232
0.116516 0.116516 0.116516
0.125488 0.125488 0.125488
0.133911 0.133911 0.133911
0.144653 0.144653 0.144653
0.156311 0.156311 0.156311
0.167511 0.167511 0.167511
0.178253 0.178253 0.178253
0.191498 0.191498 0.191498
0.205841 0.205841 0.205841
0.217712 0.217712 0.217712
0.228455 0.228455 0.228455
0.243469 0.243469 0.243469
0.261414 0.261414 0.261414
0.277771 0.277771 0.277771
0.288513 0.288513 0.288513
0.299255 0.299255 0.299255
0.318451 0.318451 0.318451
0.337921 0.337921 0.337921
0.353149 0.353149 0.353149
0.367493 0.367493 0.367493
0.386230 0.386230 0.386230
0.405945 0.405945 0.405945
0.424988 0.424988 0.424988
0.444702 0.444702 0.444702
0.465118 0.465118 0.465118
0.488403 0.488403 0.488403
0.511047 0.511047 0.511047
0.072815 0.072815 0.072815
0.073944 0.073944 0.073944
0.073944 0.073944 0.073944
0.077881 0.077881 0.077881
0.086823 0.086823 0.086823
0.092438 0.092438 0.092438
0.097809 0.097809 0.097809
0.104767 0.104767 0.104767
0.115173 0.115173 0.115173
0.125488 0.125488 0.125488
0.134460 0.134460 0.134460
0.143646 0.143646 0.143646
0.155396 0.155396 0.155396
0.166168 0.166168 0.166168
0.178040 0.178040 0.178040
0.188782 0.188782 0.188782
0.202026 0.202026 0.202026
0.216370 0.216370 0.216370
0.229797 0.229797 0.229797
0.240784 0.240784 0.240784
0.252106 0.252106 0.252106
0.268341 0.268341 0.268341
0.285370 0.285370 0.285370
0.296143 0.296143 0.296143
0.306885 0.306885 0.306885
0.322693 0.322693 0.322693
0.342407 0.342407 0.342407
0.361450 0.361450 0.361450
0.375793 0.375793 0.375793
0.390137 0.390137 0.390137
0.409515 0.409515 0.409515
0.428558 0.428558 0.428558
0.447845 0.447845 0.447845
0.468933 0.468933 0.468933
0.493774 0.493774 0.493774
0.517090 0.517090 0.517090
0.088959 0.088959 0.088959
0.090759 0.090759 0.090759
0.091858 0.091858 0.091858
0.094788 0.094788 0.094788
0.099365 0.099365 0.099365
0.104980 0.104980 0.104980
0.108551 0.108551 0.108551
0.115509 0.115509 0.115509
0.124481 0.124481 0.124481
0.134460 0.134460 0.134460
0.143402 0.143402 0.143402
0.152618 0.152618 0.152618
0.165161 0.165161 0.165161
0.176910 0.176910 0.176910
0.189240 0.189240 0.189240
0.201324 0.201324 0.201324
0.214569 0.214569 0.214569
0.228912 0.228912 0.228912
0.242340 0.242340 0.242340
0.254883 0.254883 0.254883
0.266449 0.266449 0.266449
0.278992 0.278992 0.278992
0.294342 0.294342 0.294342
0.305084 0.305084 0.305084
0.315857 0.315857 0.315857
0.329987 0.329987 0.329987
0.346008 0.346008 0.346008
0.365723 0.365723 0.365723
0.384766 0.384766 0.384766
0.399109 0.399109 0.399109
0.413452 0.413452 0.413452
0.432159 0.432159 0.432159
0.450073 0.450073 0.450073
0.470703 0.470703 0.470703
0.497589 0.497589 0.497589
0.522461 0.522461 0.522461
0.105103 0.105103 0.105103
0.105316 0.105316 0.105316
0.107117 0.107117 0.107117
0.111145 0.111145 0.111145
0.114746 0.114746 0.114746
0.116760 0.116760 0.116760
0.120331 0.120331 0.120331
0.125488 0.125488 0.125488
0.134460 0.134460 0.134460
0.144318 0.144318 0.144318
0.153961 0.153961 0.153961
0.163025 0.163025 0.163025
0.174896 0.174896 0.174896
0.187469 0.187469 0.187469
0.199219 0.199219 0.199219
0.211761 0.211761 0.211761
0.224762 0.224762 0.224762
0.239105 0.239105 0.239105
0.253326 0.253326 0.253326
0.265869 0.265869 0.265869
0.279572 0.279572 0.279572
0.292572 0.292572 0.292572
0.304871 0.304871 0.304871
0.315643 0.315643 0.315643
0.326385 0.326385 0.326385
0.339722 0.339722 0.339722
0.354065 0.354065 0.354065
0.371643 0.371643 0.371643
0.391357 0.391357 0.391357
0.408875 0.408875 0.408875
0.423187 0.423187 0.423187
0.439545 0.439545 0.439545
0.457581 0.457581 0.457581
0.476532 0.476532 0.476532
0.502533 0.502533 0.502533
0.529419 0.529419 0.529419
0.121246 0.121246 0.121246
0.119446 0.119446 0.119446
0.119659 0.119659 0.119659
0.124359 0.124359 0.124359
0.129089 0.129089 0.129089
0.130432 0.130432 0.130432
0.131104 0.131104 0.131104
0.136261 0.136261 0.136261
0.143433 0.143433 0.143433
0.153290 0.153290 0.153290
0.165833 0.165833 0.165833
0.175568 0.175568 0.175568
0.186340 0.186340 0.186340
0.198212 0.198212 0.198212
0.209198 0.209198 0.209198
0.220734 0.220734 0.220734
0.233276 0.233276 0.233276
0.246277 0.246277 0.246277
0.260620 0.260620 0.260620
0.274841 0.274841 0.274841
0.288513 0.288513 0.288513
0.304657 0.304657 0.304657
0.317413 0.317413 0.317413
0.328186 0.328186 0.328186
0.338928 0.338928 0.338928
0.351379 0.351379 0.351379
0.364807 0.364807 0.364807
0.381836 0.381836 0.381836
0.400330 0.400330 0.400330
0.418060 0.418060 0.418060
0.433960 0.433960 0.433960
0.450317 0.450317 0.450317
0.470032 0.470032 0.470032
0.489075 0.489075 0.489075
0.512390 0.512390 0.512390
0.538391 0.538391 0.538391
0.136932 0.136932 0.136932
0.136475 0.136475 0.136475
0.134674 0.134674 0.134674
0.137360 0.137360 0.137360
0.142731 0.142731 0.142731
0.145203 0.145203 0.145203
0.145203 0.145203 0.145203
0.147888 0.147888 0.147888
0.155060 0.155060 0.155060
0.162689 0.162689 0.162689
0.175232 0.175232 0.175232
0.187683 0.187683 0.187683
0.198425 0.198425 0.198425
0.209198 0.209198 0.209198
0.220398 0.220398 0.220398
0.231140 0.231140 0.231140
0.242706 0.242706 0.242706
0.255249 0.255249 0.255249
0.268219 0.268219 0.268219
0.282562 0.282562 0.282562
0.297485 0.297485 0.297485
0.313629 0.313629 0.313629
0.329529 0.329529 0.329529
0.340729 0.340729 0.340729
0.351471 0.351471 0.351471
0.363922 0.363922 0.363922
0.376465 0.376465 0.376465
0.391693 0.391693 0.391693
0.409637 0.409637 0.409637
0.427002 0.427002 0.427002
0.443146 0.443146 0.443146
0.460175 0.460175 0.460175
0.479889 0.479889 0.479889
0.500641 0.500641 0.500641
0.524048 0.524048 0.524048
0.547333 0.547333 0.547333
0.151245 0.151245 0.151245
0.154846 0.154846 0.154846
0.154388 0.154388 0.154388
0.154053 0.154053 0.154053
0.157074 0.157074 0.157074
0.160217 0.160217 0.160217
0.161346 0.161346 0.161346
0.163696 0.163696 0.163696
0.169403 0.169403 0.169403
0.177032 0.177032 0.177032
0.185974 0.185974 0.185974
0.198425 0.198425 0.198425
0.209198 0.209198 0.209198
0.219940 0.219940 0.219940
0.232269 0.232269 0.232269
0.243683 0.243683 0.243683
0.254456 0.254456 0.254456
0.265991 0.265991 0.265991
0.278534 0.278534 0.278534
0.291534 0.291534 0.291534
0.306458 0.306458 0.306458
0.322571 0.322571 0.322571
0.338470 0.338470 0.338470
0.352814 0.352814 0.352814
0.364014 0.364014 0.364014
0.376465 0.376465 0.376465
0.389008 0.389008 0.389008
0.401550 0.401550 0.401550
0.416809 0.416809 0.416809
0.434753 0.434753 0.434753
0.452087 0.452087 0.452087
0.468903 0.468903 0.468903
0.487061 0.487061 0.487061
0.507782 0.507782 0.507782
0.532898 0.532898 0.532898
0.556305 0.556305 0.556305
0.165833 0.165833 0.165833
0.169525 0.169525 0.169525
0.173126 0.173126 0.173126
0.173798 0.173798 0.173798
0.173798 0.173798 0.173798
0.174927 0.174927 0.174927
0.176697 0.176697 0.176697
0.179962 0.179962 0.179962
0.185333 0.185333 0.185333
0.191254 0.191254 0.191254
0.200226 0.200226 0.200226
0.209198 0.209198 0.209198
0.219940 0.219940 0.219940
0.230713 0.230713 0.230713
0.242920 0.242920 0.242920
0.255463 0.255463 0.255463
0.266907 0.266907 0.266907
0.277649 0.277649 0.277649
0.289185 0.289185 0.289185
0.301727 0.301727 0.301727
0.315308 0.315308 0.315308
0.331421 0.331421 0.331421
0.347351 0.347351 0.347351
0.361694 0.361694 0.361694
0.376007 0.376007 0.376007
0.388794 0.388794 0.388794
0.401337 0.401337 0.401337
0.414246 0.414246 0.414246
0.426788 0.426788 0.426788
0.442352 0.442352 0.442352
0.460297 0.460297 0.460297
0.478210 0.478210 0.478210
0.496124 0.496124 0.496124
0.515320 0.515320 0.515320
0.540405 0.540405 0.540405
0.565491 0.565491 0.565491
0.183746 0.183746 0.183746
0.189148 0.189148 0.189148
0.192841 0.192841 0.192841
0.193512 0.193512 0.193512
0.193512 0.193512 0.193512
0.194641 0.194641 0.194641
0.196411 0.196411 0.196411
0.199005 0.199005 0.199005
0.203247 0.203247 0.203247
0.208191 0.208191 0.208191
0.212769 0.212769 0.212769
0.221741 0.221741 0.221741
0.230713 0.230713 0.230713
0.241455 0.241455 0.241455
0.252228 0.252228 0.252228
0.264435 0.264435 0.264435
0.276978 0.276978 0.276978
0.288422 0.288422 0.288422
0.299164 0.299164 0.299164
0.310699 0.310699 0.310699
0.323822 0.323822 0.323822
0.338593 0.338593 0.338593
0.354523 0.354523 0.354523
0.368835 0.368835 0.368835
0.383179 0.383179 0.383179
0.397552 0.397552 0.397552
0.410309 0.410309 0.410309
0.426880 0.426880 0.426880
0.441132 0.441132 0.441132
0.456696 0.456696 0.456696
0.474640 0.474640 0.474640
0.492554 0.492554 0.492554
0.510468 0.510468 0.510468
0.529419 0.529419 0.529419
0.552948 0.552948 0.552948
0.578033 0.578033 0.578033
0.201691 0.201691 0.201691
0.207062 0.207062 0.207062
0.212433 0.212433 0.212433
0.213226 0.213226 0.213226
0.213226 0.213226 0.213226
0.214355 0.214355 0.214355
0.216125 0.216125 0.216125
0.218719 0.218719 0.218719
0.222290 0.222290 0.222290
0.226105 0.226105 0.226105
0.229706 0.229706 0.229706
0.234283 0.234283 0.234283
0.243256 0.243256 0.243256
0.252228 0.252228 0.252228
0.262970 0.262970 0.262970
0.273712 0.273712 0.273712
0.285950 0.285950 0.285950
0.298492 0.298492 0.298492
0.309906 0.309906 0.309906
0.320679 0.320679 0.320679
0.332794 0.332794 0.332794
0.347107 0.347107 0.347107
0.361694 0.361694 0.361694
0.376007 0.376007 0.376007
0.390350 0.390350 0.390350
0.404724 0.404724 0.404724
0.419037 0.419037 0.419037
0.435852 0.435852 0.435852
0.453766 0.453766 0.453766
0.471039 0.471039 0.471039
0.488953 0.488953 0.488953
0.506897 0.506897 0.506897
0.524811 0.524811 0.524811
0.543762 0.543762 0.543762
0.567078 0.567078 0.567078
0.590576 0.590576 0.590576
0.222748 0.222748 0.222748
0.226563 0.226563 0.226563
0.231934 0.231934 0.231934
0.234406 0.234406 0.234406
0.234497 0.234497 0.234497
0.235626 0.235626 0.235626
0.237427 0.237427 0.237427
0.238434 0.238434 0.238434
0.240448 0.240448 0.240448
0.245361 0.245361 0.245361
0.252319 0.252319 0.252319
0.255676 0.255676 0.255676
0.257355 0.257355 0.257355
0.266327 0.266327 0.266327
0.273712 0.273712 0.273712
0.284485 0.284485 0.284485
0.296478 0.296478 0.296478
0.309021 0.309021 0.309021
0.321564 0.321564 0.321564
0.332977 0.332977 0.332977
0.344330 0.344330 0.344330
0.357635 0.357635 0.357635
0.371552 0.371552 0.371552
0.383179 0.383179 0.383179
0.397522 0.397522 0.397522
0.415009 0.415009 0.415009
0.429352 0.429352 0.429352
0.445038 0.445038 0.445038
0.462738 0.462738 0.462738
0.479675 0.479675 0.479675
0.497040 0.497040 0.497040
0.517639 0.517639 0.517639
0.539154 0.539154 0.539154
0.558441 0.558441 0.558441
0.582977 0.582977 0.582977
0.606262 0.606262 0.606262
0.244263 0.244263 0.244263
0.247833 0.247833 0.247833
0.251648 0.251648 0.251648
0.254120 0.254120 0.254120
0.255890 0.255890 0.255890
0.257141 0.257141 0.257141
0.258911 0.258911 0.258911
0.259949 0.259949 0.259949
0.259949 0.259949 0.259949
0.263306 0.263306 0.263306
0.272247 0.272247 0.272247
0.278992 0.278992 0.278992
0.278992 0.278992 0.278992
0.280670 0.280670 0.280670
0.288055 0.288055 0.288055
0.295227 0.295227 0.295227
0.307220 0.307220 0.307220
0.319763 0.319763 0.319763
0.332306 0.332306 0.332306
0.344879 0.344879 0.344879
0.356873 0.356873 0.356873
0.369415 0.369415 0.369415
0.382294 0.382294 0.382294
0.393036 0.393036 0.393036
0.404694 0.404694 0.404694
0.422424 0.422424 0.422424
0.440094 0.440094 0.440094
0.455780 0.455780 0.455780
0.471924 0.471924 0.471924
0.488617 0.488617 0.488617
0.504761 0.504761 0.504761
0.524811 0.524811 0.524811
0.549896 0.549896 0.549896
0.572784 0.572784 0.572784
0.597870 0.597870 0.597870
0.622406 0.622406 0.622406
0.263306 0.263306 0.263306
0.268127 0.268127 0.268127
0.271729 0.271729 0.271729
0.273834 0.273834 0.273834
0.275635 0.275635 0.275635
0.277435 0.277435 0.277435
0.279236 0.279236 0.279236
0.280243 0.280243 0.280243
0.280243 0.280243 0.280243
0.281128 0.281128 0.281128
0.287720 0.287720 0.287720
0.296265 0.296265 0.296265
0.297363 0.297363 0.297363
0.297363 0.297363 0.297363
0.302399 0.302399 0.302399
0.309570 0.309570 0.309570
0.317993 0.317993 0.317993
0.330536 0.330536 0.330536
0.343079 0.343079 0.343079
0.355621 0.355621 0.355621
0.367615 0.367615 0.367615
0.379517 0.379517 0.379517
0.392273 0.392273 0.392273
0.405029 0.405029 0.405029
0.415802 0.415802 0.415802
0.430817 0.430817 0.430817
0.448730 0.448730 0.448730
0.466553 0.466553 0.466553
0.482697 0.482697 0.482697
0.499847 0.499847 0.499847
0.516205 0.516205 0.516205
0.533661 0.533661 0.533661
0.557068 0.557068 0.557068
0.582214 0.582214 0.582214
0.607300 0.607300 0.607300
0.632385 0.632385 0.632385
0.281219 0.281219 0.281219
0.286621 0.286621 0.286621
0.291443 0.291443 0.291443
0.293549 0.293549 0.293549
0.295349 0.295349 0.295349
0.297150 0.297150 0.297150
0.298950 0.298950 0.298950
0.299957 0.299957 0.299957
0.299957 0.299957 0.299957
0.300842 0.300842 0.300842
0.304413 0.304413 0.304413
0.310577 0.310577 0.310577
0.312378 0.312378 0.312378
0.313507 0.313507 0.313507
0.318207 0.318207 0.318207
0.323914 0.323914 0.323914
0.332336 0.332336 0.332336
0.341278 0.341278 0.341278
0.353851 0.353851 0.353851
0.366394 0.366394 0.366394
0.378387 0.378387 0.378387
0.389130 0.389130 0.389130
0.401245 0.401245 0.401245
0.415558 0.415558 0.415558
0.428345 0.428345 0.428345
0.442474 0.442474 0.442474
0.457703 0.457703 0.457703
0.475616 0.475616 0.475616
0.493439 0.493439 0.493439
0.510590 0.510590 0.510590
0.528534 0.528534 0.528534
0.546204 0.546204 0.546204
0.565948 0.565948 0.565948
0.589355 0.589355 0.589355
0.614471 0.614471 0.614471
0.639557 0.639557 0.639557
0.301849 0.301849 0.301849
0.305420 0.305420 0.305420
0.310822 0.310822 0.310822
0.314178 0.314178 0.314178
0.315979 0.315979 0.315979
0.315063 0.315063 0.315063
0.316864 0.316864 0.316864
0.318665 0.318665 0.318665
0.318756 0.318756 0.318756
0.319672 0.319672 0.319672
0.323242 0.323242 0.323242
0.326935 0.326935 0.326935
0.330292 0.330292 0.330292
0.332092 0.332092 0.332092
0.335236 0.335236 0.335236
0.340607 0.340607 0.340607
0.344879 0.344879 0.344879
0.353851 0.353851 0.353851
0.364594 0.364594 0.364594
0.377136 0.377136 0.377136
0.390259 0.390259 0.390259
0.401672 0.401672 0.401672
0.412445 0.412445 0.412445
0.425415 0.425415 0.425415
0.439758 0.439758 0.439758
0.455017 0.455017 0.455017
0.469360 0.469360 0.469360
0.484589 0.484589 0.484589
0.502502 0.502502 0.502502
0.521362 0.521362 0.521362
0.539276 0.539276 0.539276
0.558533 0.558533 0.558533
0.578491 0.578491 0.578491
0.599213 0.599213 0.599213
0.624329 0.624329 0.624329
0.649414 0.649414 0.649414
0.325134 0.325134 0.325134
0.326935 0.326935 0.326935
0.330536 0.330536 0.330536
0.334442 0.334442 0.334442
0.337463 0.337463 0.337463
0.335907 0.335907 0.335907
0.332977 0.332977 0.332977
0.334778 0.334778 0.334778
0.336578 0.336578 0.336578
0.337585 0.337585 0.337585
0.341156 0.341156 0.341156
0.344879 0.344879 0.344879
0.350250 0.350250 0.350250
0.353607 0.353607 0.353607
0.355408 0.355408 0.355408
0.358521 0.358521 0.358521
0.361450 0.361450 0.361450
0.364594 0.364594 0.364594
0.375336 0.375336 0.375336
0.387878 0.387878 0.387878
0.401001 0.401001 0.401001
0.415344 0.415344 0.415344
0.426788 0.426788 0.426788
0.437531 0.437531 0.437531
0.450531 0.450531 0.450531
0.466553 0.466553 0.466553
0.481903 0.481903 0.481903
0.496246 0.496246 0.496246
0.511475 0.511475 0.511475
0.530426 0.530426 0.530426
0.550018 0.550018 0.550018
0.569305 0.569305 0.569305
0.590790 0.590790 0.590790
0.611786 0.611786 0.611786
0.636871 0.636871 0.636871
0.661957 0.661957 0.661957
0.347900 0.347900 0.347900
0.350250 0.350250 0.350250
0.352051 0.352051 0.352051
0.354736 0.354736 0.354736
0.358337 0.358337 0.358337
0.358551 0.358551 0.358551
0.354980 0.354980 0.354980
0.352631 0.352631 0.352631
0.354401 0.354401 0.354401
0.357086 0.357086 0.357086
0.360779 0.360779 0.360779
0.364258 0.364258 0.364258
0.368744 0.368744 0.368744
0.374115 0.374115 0.374115
0.375793 0.375793 0.375793
0.377594 0.377594 0.377594
0.380524 0.380524 0.380524
0.382294 0.382294 0.382294
0.386658 0.386658 0.386658
0.399231 0.399231 0.399231
0.411774 0.411774 0.411774
0.426117 0.426117 0.426117
0.440674 0.440674 0.440674
0.452454 0.452454 0.452454
0.463196 0.463196 0.463196
0.477875 0.477875 0.477875
0.494019 0.494019 0.494019
0.508789 0.508789 0.508789
0.523132 0.523132 0.523132
0.539948 0.539948 0.539948
0.559662 0.559662 0.559662
0.579498 0.579498 0.579498
0.601013 0.601013 0.601013
0.623199 0.623199 0.623199
0.648315 0.648315 0.648315
0.673401 0.673401 0.673401
0.369415 0.369415 0.369415
0.372986 0.372986 0.372986
0.375366 0.375366 0.375366
0.377136 0.377136 0.377136
0.379822 0.379822 0.379822
0.381195 0.381195 0.381195
0.380066 0.380066 0.380066
0.377258 0.377258 0.377258
0.375916 0.375916 0.375916
0.378601 0.378601 0.378601
0.383972 0.383972 0.383972
0.387573 0.387573 0.387573
0.389374 0.389374 0.389374
0.393829 0.393829 0.393829
0.394501 0.394501 0.394501
0.395508 0.395508 0.395508
0.399780 0.399780 0.399780
0.403809 0.403809 0.403809
0.406494 0.406494 0.406494
0.411774 0.411774 0.411774
0.424316 0.424316 0.424316
0.436859 0.436859 0.436859
0.451416 0.451416 0.451416
0.467560 0.467560 0.467560
0.479340 0.479340 0.479340
0.491760 0.491760 0.491760
0.506561 0.506561 0.506561
0.521332 0.521332 0.521332
0.535675 0.535675 0.535675
0.552063 0.552063 0.552063
0.570435 0.570435 0.570435
0.590149 0.590149 0.590149
0.609955 0.609955 0.609955
0.632172 0.632172 0.632172
0.657257 0.657257 0.657257
0.682343 0.682343 0.682343
0.391357 0.391357 0.391357
0.394745 0.394745 0.394745
0.398315 0.398315 0.398315
0.399994 0.399994 0.399994
0.401794 0.401794 0.401794
0.402679 0.402679 0.402679
0.402679 0.402679 0.402679
0.402344 0.402344 0.402344
0.400574 0.400574 0.400574
0.399872 0.399872 0.399872
0.405273 0.405273 0.405273
0.410522 0.410522 0.410522
0.412445 0.412445 0.412445
0.414215 0.414215 0.414215
0.414673 0.414673 0.414673
0.414673 0.414673 0.414673
0.417938 0.417938 0.417938
0.423309 0.423309 0.423309
0.428009 0.428009 0.428009
0.431580 0.431580 0.431580
0.437103 0.437103 0.437103
0.449646 0.449646 0.449646
0.462402 0.462402 0.462402
0.478546 0.478546 0.478546
0.494659 0.494659 0.494659
0.507690 0.507690 0.507690
0.520233 0.520233 0.520233
0.534119 0.534119 0.534119
0.548462 0.548462 0.548462
0.564819 0.564819 0.564819
0.582733 0.582733 0.582733
0.601105 0.601105 0.601105
0.620819 0.620819 0.620819
0.641357 0.641357 0.641357
0.666443 0.666443 0.666443
0.691528 0.691528 0.691528
0.416473 0.416473 0.416473
0.418243 0.418243 0.418243
0.421631 0.421631 0.421631
0.420837 0.420837 0.420837
0.421509 0.421509 0.421509
0.423309 0.423309 0.423309
0.424194 0.424194 0.424194
0.424988 0.424988 0.424988
0.425659 0.425659 0.425659
0.424316 0.424316 0.424316
0.424988 0.424988 0.424988
0.430237 0.430237 0.430237
0.433838 0.433838 0.433838
0.435730 0.435730 0.435730
0.437531 0.437531 0.437531
0.437988 0.437988 0.437988
0.439209 0.439209 0.439209
0.443024 0.443024 0.443024
0.448395 0.448395 0.448395
0.453094 0.453094 0.453094
0.457245 0.457245 0.457245
0.463989 0.463989 0.463989
0.476746 0.476746 0.476746
0.491089 0.491089 0.491089
0.507202 0.507202 0.507202
0.521667 0.521667 0.521667
0.534576 0.534576 0.534576
0.548462 0.548462 0.548462
0.562805 0.562805 0.562805
0.579163 0.579163 0.579163
0.597076 0.597076 0.597076
0.615021 0.615021 0.615021
0.633392 0.633392 0.633392
0.653778 0.653778 0.653778
0.677216 0.677216 0.677216
0.702301 0.702301 0.702301
0.441559 0.441559 0.441559
0.443359 0.443359 0.443359
0.445129 0.445129 0.445129
0.444122 0.444122 0.444122
0.442352 0.442352 0.442352
0.443024 0.443024 0.443024
0.444794 0.444794 0.444794
0.446503 0.446503 0.446503
0.448273 0.448273 0.448273
0.449402 0.449402 0.449402
0.449402 0.449402 0.449402
0.449951 0.449951 0.449951
0.453552 0.453552 0.453552
0.457123 0.457123 0.457123
0.459045 0.459045 0.459045
0.460815 0.460815 0.460815
0.462524 0.462524 0.462524
