lut/黑白老照片 2.cube
#Created by: Adobe Photoshop Export Color Lookup Plugin
#Copyright: (C) Copyright 2026 汉图
TITLE "mint本征源文件-适配lut筛选-恢复的.psd"
#LUT size
LUT_3D_SIZE 34
#data domain
DOMAIN_MIN 0.0 0.0 0.0
DOMAIN_MAX 1.0 1.0 1.0
#LUT data points
0.132233 0.133118 0.132507
0.132965 0.134155 0.133484
0.134094 0.135559 0.134735
0.135651 0.137604 0.136536
0.137634 0.140137 0.138794
0.140137 0.143066 0.141388
0.143036 0.146332 0.144409
0.146332 0.150024 0.147888
0.150238 0.154327 0.151978
0.155060 0.159393 0.156860
0.160797 0.165283 0.162628
0.167572 0.172089 0.169312
0.175476 0.179993 0.177185
0.184601 0.188965 0.186279
0.195038 0.199005 0.196594
0.206543 0.210144 0.208191
0.219116 0.222290 0.221069
0.232605 0.235565 0.235046
0.247101 0.249695 0.250000
0.262543 0.264801 0.265900
0.278839 0.280975 0.282715
0.295990 0.298157 0.300323
0.314178 0.316437 0.318756
0.333649 0.335968 0.338287
0.354736 0.356903 0.359009
0.377747 0.379730 0.381470
0.403107 0.404846 0.406067
0.430908 0.432281 0.432953
0.461243 0.462097 0.462341
0.494171 0.494446 0.494507
0.529419 0.529083 0.529388
0.566315 0.565338 0.566345
0.604340 0.602783 0.604584
0.643158 0.641083 0.643372
0.135040 0.137024 0.135986
0.134888 0.136566 0.135590
0.135986 0.138000 0.136963
0.137909 0.140381 0.139008
0.140167 0.142944 0.141388
0.142609 0.145782 0.144043
0.145447 0.149078 0.147064
0.148804 0.152802 0.150543
0.152771 0.157135 0.154694
0.157715 0.162201 0.159637
0.163605 0.168152 0.165497
0.170471 0.175110 0.172333
0.178558 0.183075 0.180298
0.187836 0.192108 0.189484
0.198273 0.202179 0.199890
0.209778 0.213318 0.211517
0.222290 0.225403 0.224274
0.235809 0.238586 0.238281
0.250244 0.252716 0.253296
0.265594 0.267853 0.269073
0.281799 0.283966 0.285767
0.299011 0.301178 0.303345
0.317230 0.319427 0.321777
0.336670 0.338898 0.341187
0.357697 0.359833 0.361877
0.380707 0.382751 0.384369
0.406097 0.407837 0.408997
0.433929 0.435272 0.435913
0.464294 0.465088 0.465332
0.497192 0.497437 0.497498
0.532349 0.531921 0.532288
0.569061 0.568024 0.569122
0.606934 0.605347 0.607239
0.645569 0.643463 0.645721
0.139343 0.142181 0.140747
0.139130 0.141876 0.140320
0.138641 0.141174 0.139771
0.140076 0.142975 0.141327
0.142548 0.145782 0.143890
0.145386 0.148956 0.146912
0.148407 0.152374 0.150116
0.151947 0.156097 0.153687
0.156036 0.160370 0.157928
0.161041 0.165558 0.162933
0.167053 0.171570 0.168854
0.174133 0.178589 0.175842
0.182312 0.186615 0.183929
0.191650 0.195709 0.193176
0.202087 0.205872 0.203705
0.213623 0.217010 0.215454
0.226044 0.229126 0.228241
0.239532 0.242157 0.242096
0.253876 0.256195 0.256958
0.269196 0.271393 0.272766
0.285339 0.287506 0.289398
0.302490 0.304688 0.306915
0.320709 0.322968 0.325287
0.340088 0.342346 0.344574
0.361084 0.363220 0.365204
0.384125 0.386078 0.387665
0.409546 0.411194 0.412292
0.437378 0.438629 0.439209
0.467743 0.468506 0.468689
0.500610 0.500793 0.500885
0.535675 0.535217 0.535614
0.572296 0.571198 0.572327
0.609985 0.608307 0.610260
0.648376 0.646271 0.648529
0.145752 0.149506 0.147430
0.145660 0.149261 0.147247
0.144836 0.148407 0.146393
0.143799 0.147186 0.145294
0.145477 0.149139 0.147095
0.148407 0.152374 0.150055
0.151978 0.156219 0.153748
0.156036 0.160431 0.157837
0.160583 0.165039 0.162415
0.165802 0.170288 0.167572
0.172028 0.176422 0.173706
0.179199 0.183533 0.180847
0.187500 0.191650 0.189087
0.196869 0.200775 0.198486
0.207336 0.210907 0.209045
0.218842 0.222015 0.220764
0.231171 0.234131 0.233521
0.244507 0.247101 0.247345
0.258820 0.261169 0.262115
0.274048 0.276245 0.277802
0.290192 0.292297 0.294281
0.307251 0.309418 0.311707
0.325348 0.327606 0.329956
0.344696 0.346985 0.349152
0.365692 0.367828 0.369751
0.388763 0.390717 0.392212
0.414215 0.415833 0.416840
0.442139 0.443298 0.443817
0.472504 0.473175 0.473297
0.505310 0.505432 0.505524
0.540253 0.539703 0.540192
0.576660 0.575500 0.576721
0.614105 0.612366 0.614380
0.652252 0.650116 0.652313
0.154663 0.158875 0.156433
0.154785 0.158966 0.156525
0.153748 0.157928 0.155487
0.152283 0.156494 0.154144
0.150604 0.154755 0.152344
0.152527 0.156738 0.154327
0.156067 0.160461 0.157898
0.160583 0.165070 0.162415
0.165771 0.170349 0.167603
0.171753 0.176300 0.173492
0.178589 0.182922 0.180176
0.186066 0.190216 0.187622
0.194427 0.198395 0.195984
0.203766 0.207520 0.205475
0.214233 0.217590 0.216125
0.225647 0.228638 0.227783
0.237915 0.240662 0.240417
0.251160 0.253540 0.254150
0.265320 0.267578 0.268799
0.280426 0.282623 0.284363
0.296417 0.298615 0.300751
0.313507 0.315735 0.317993
0.331512 0.333771 0.336090
0.350830 0.353058 0.355194
0.371826 0.373932 0.375732
0.394989 0.396820 0.398193
0.420471 0.421997 0.422882
0.448395 0.449463 0.449890
0.478790 0.479340 0.479462
0.511505 0.511475 0.511627
0.546234 0.545593 0.546173
0.582367 0.581146 0.582489
0.619476 0.617706 0.619751
0.657318 0.655121 0.657288
0.166260 0.170563 0.167938
0.166718 0.171112 0.168396
0.165558 0.170013 0.167358
0.163910 0.168427 0.165771
0.161926 0.166443 0.163818
0.159546 0.164093 0.161407
0.161682 0.166138 0.163513
0.166016 0.170563 0.167847
0.171539 0.176117 0.173370
0.178131 0.182648 0.179871
0.185760 0.190063 0.187378
0.194122 0.198151 0.195709
0.203033 0.206757 0.204681
0.212463 0.215942 0.214325
0.222809 0.225983 0.224945
0.234161 0.236938 0.236572
0.246277 0.248810 0.249084
0.259369 0.261658 0.262634
0.273438 0.275604 0.277130
0.288422 0.290619 0.292572
0.304413 0.306549 0.308777
0.321259 0.323486 0.325806
0.339264 0.341522 0.343689
0.358521 0.360748 0.362762
0.379547 0.381592 0.383240
0.402740 0.404480 0.405701
0.428314 0.429718 0.430450
0.456299 0.457214 0.457520
0.486664 0.487061 0.487152
0.519226 0.519073 0.519287
0.553650 0.552887 0.553650
0.589447 0.588135 0.589600
0.626190 0.624329 0.626465
0.663605 0.661346 0.663422
0.180695 0.184967 0.182281
0.181671 0.186005 0.183289
0.180634 0.184937 0.182251
0.178864 0.183258 0.180573
0.176666 0.181183 0.178467
0.174133 0.178619 0.175842
0.171082 0.175659 0.172913
0.173370 0.177765 0.175079
0.178589 0.183044 0.180298
0.185333 0.189697 0.187012
0.193298 0.197418 0.194946
0.202332 0.206116 0.203979
0.212189 0.215637 0.214020
0.222473 0.225647 0.224640
0.233215 0.236023 0.235596
0.244415 0.246948 0.247162
0.256409 0.258728 0.259583
0.269318 0.271545 0.272888
0.283234 0.285370 0.287231
0.298126 0.300293 0.302460
0.313995 0.316193 0.318481
0.330780 0.332947 0.335266
0.348602 0.350830 0.352966
0.367920 0.369995 0.371857
0.388977 0.390961 0.392426
0.412170 0.413849 0.414856
0.437805 0.439056 0.439606
0.465820 0.466614 0.466827
0.496185 0.496399 0.496521
0.528595 0.528259 0.528595
0.562683 0.561737 0.562683
0.597992 0.596527 0.598145
0.634216 0.632263 0.634399
0.671082 0.668793 0.670746
0.198151 0.202026 0.199738
0.199829 0.203644 0.201477
0.198944 0.202698 0.200500
0.197144 0.201019 0.198792
0.194885 0.198853 0.196533
0.192139 0.196320 0.193817
0.188995 0.193207 0.190613
0.185394 0.189728 0.187073
0.187805 0.191895 0.189301
0.194000 0.198090 0.195618
0.201965 0.205780 0.203613
0.210999 0.214508 0.212830
0.221130 0.224274 0.223206
0.232178 0.235077 0.234619
0.243958 0.246552 0.246735
0.256012 0.258362 0.259186
0.268219 0.270447 0.271790
0.281036 0.283173 0.285004
0.294861 0.296997 0.299164
0.309631 0.311798 0.314117
0.325287 0.327515 0.329834
0.341949 0.344116 0.346344
0.359680 0.361847 0.363831
0.378967 0.381042 0.382690
0.400146 0.401917 0.403198
0.423462 0.424927 0.425781
0.449066 0.450165 0.450531
0.477081 0.477692 0.477814
0.507385 0.507416 0.507538
0.539551 0.539032 0.539520
0.573181 0.572083 0.573273
0.607971 0.606354 0.608185
0.643585 0.641571 0.643707
0.679718 0.677429 0.679199
0.218475 0.221741 0.220490
0.220917 0.224121 0.222992
0.220154 0.223297 0.222137
0.218384 0.221649 0.220398
0.216156 0.219513 0.218170
0.213470 0.216919 0.215332
0.210297 0.213806 0.212067
0.206604 0.210236 0.208313
0.202515 0.206207 0.204132
0.204773 0.208435 0.206451
0.211914 0.215424 0.213776
0.220856 0.224091 0.222931
0.230896 0.233826 0.233276
0.241913 0.244598 0.244659
0.253937 0.256409 0.257111
0.266998 0.269196 0.270538
0.280365 0.282471 0.284302
0.294281 0.296417 0.298584
0.308228 0.310425 0.312744
0.322906 0.325134 0.327484
0.338440 0.340668 0.342926
0.354950 0.357086 0.359161
0.372620 0.374695 0.376465
0.391876 0.393799 0.395233
0.413147 0.414764 0.415771
0.436493 0.437744 0.438354
0.462158 0.463013 0.463287
0.490204 0.490601 0.490631
0.520325 0.520142 0.520355
0.552124 0.551392 0.552094
0.585205 0.583954 0.585358
0.619385 0.617676 0.619659
0.654327 0.652222 0.654327
0.689453 0.687195 0.688782
0.241760 0.244415 0.244476
0.244812 0.247528 0.247681
0.244293 0.246948 0.247101
0.242645 0.245300 0.245392
0.240479 0.243195 0.243164
0.237793 0.240601 0.240387
0.234619 0.237488 0.237061
0.230957 0.233887 0.233307
0.226776 0.229767 0.228943
0.222198 0.225281 0.224213
0.224182 0.227234 0.226318
0.232025 0.234924 0.234467
0.241882 0.244568 0.244629
0.252777 0.255249 0.255859
0.264648 0.266937 0.268158
0.277649 0.279755 0.281464
0.291595 0.293671 0.295807
0.306641 0.308838 0.311157
0.322021 0.324280 0.326599
0.337769 0.339996 0.342255
0.353455 0.355591 0.357697
0.369904 0.371979 0.373810
0.387604 0.389526 0.391052
0.406921 0.408661 0.409760
0.428162 0.429565 0.430298
0.451569 0.452576 0.452942
0.477264 0.477844 0.477997
0.505188 0.505310 0.505432
0.535004 0.534576 0.535004
0.566315 0.565338 0.566345
0.598785 0.597321 0.598999
0.632263 0.630341 0.632477
0.666321 0.664124 0.666138
0.700165 0.698029 0.699463
0.267853 0.270142 0.271423
0.271118 0.273468 0.274811
0.271332 0.273651 0.275024
0.269775 0.272034 0.273376
0.267609 0.269897 0.271149
0.264984 0.267334 0.268433
0.261810 0.264191 0.265167
0.258118 0.260529 0.261383
0.253937 0.256348 0.256989
0.249146 0.251648 0.252075
0.244080 0.246643 0.246826
0.245575 0.248199 0.248444
0.254089 0.256531 0.257233
0.264771 0.267029 0.268219
0.276520 0.278656 0.280273
0.289337 0.291382 0.293427
0.303162 0.305237 0.307556
0.318085 0.320282 0.322632
0.334259 0.336517 0.338806
0.351593 0.353790 0.355896
0.368988 0.371063 0.372894
0.386475 0.388397 0.389923
0.404480 0.406219 0.407410
0.423920 0.425415 0.426208
0.445190 0.446350 0.446808
0.468658 0.469360 0.469543
0.494293 0.494537 0.494659
0.521942 0.521729 0.522003
0.551270 0.550568 0.551300
0.581940 0.580719 0.582031
0.613708 0.612030 0.613922
0.646362 0.644287 0.646423
0.679352 0.677124 0.678925
0.711670 0.709808 0.711121
0.296783 0.299011 0.301025
0.300079 0.302277 0.304382
0.301117 0.303406 0.305481
0.299805 0.302002 0.304108
0.297668 0.299835 0.301910
0.294983 0.297180 0.299194
0.291840 0.294037 0.295990
0.288116 0.290314 0.292206
0.283813 0.286041 0.287811
0.279053 0.281219 0.282867
0.273712 0.275970 0.277435
0.267914 0.270203 0.271515
0.268768 0.271118 0.272400
0.277863 0.280060 0.281677
0.289337 0.291473 0.293457
0.301971 0.304108 0.306335
0.315643 0.317810 0.320190
0.330566 0.332764 0.335114
0.346710 0.348938 0.351105
0.364075 0.366211 0.368134
0.382599 0.384552 0.386169
0.402008 0.403778 0.404999
0.421967 0.423462 0.424316
0.442505 0.443695 0.444214
0.464172 0.464996 0.465210
0.487579 0.488007 0.488068
0.513092 0.513000 0.513153
0.540161 0.539673 0.540222
0.568909 0.567871 0.568970
0.598877 0.597382 0.599030
0.629791 0.627930 0.629944
0.661438 0.659271 0.661285
0.693115 0.691010 0.692566
0.723846 0.722321 0.723602
0.328888 0.331116 0.333313
0.332275 0.334503 0.336731
0.334259 0.336517 0.338715
0.333160 0.335449 0.337646
0.331055 0.333252 0.335510
0.328308 0.330505 0.332764
0.325073 0.327271 0.329529
0.321289 0.323517 0.325745
0.316864 0.319061 0.321289
0.311829 0.314087 0.316284
0.306366 0.308533 0.310730
0.300262 0.302490 0.304596
0.293701 0.295898 0.297913
0.293732 0.295990 0.298004
0.303314 0.305542 0.307739
0.315735 0.317932 0.320251
0.329315 0.331604 0.333923
0.344269 0.346436 0.348663
0.360382 0.362518 0.364502
0.377625 0.379700 0.381348
0.396057 0.397919 0.399261
0.415863 0.417450 0.418427
0.437347 0.438599 0.439178
0.460052 0.460938 0.461212
0.483582 0.484070 0.484161
0.508057 0.508087 0.508209
0.533447 0.533051 0.533447
0.560028 0.559143 0.560028
0.587830 0.586548 0.588013
0.616943 0.615204 0.617096
0.646912 0.644867 0.646881
0.677338 0.675171 0.677002
0.707458 0.705597 0.706970
0.736481 0.735535 0.736786
0.364288 0.366394 0.368256
0.367767 0.369873 0.371704
0.370667 0.372772 0.374542
0.370056 0.372162 0.373932
0.367859 0.369934 0.371765
0.365051 0.367126 0.369019
0.361664 0.363800 0.365723
0.357758 0.359924 0.361877
0.353180 0.355347 0.357361
0.347931 0.350128 0.352234
0.342163 0.344360 0.346527
0.335846 0.338043 0.340271
0.328949 0.331177 0.333435
0.321655 0.323822 0.326141
0.320740 0.322998 0.325317
0.330933 0.333191 0.335480
0.344299 0.346558 0.348785
0.359161 0.361328 0.363342
0.375275 0.377289 0.379059
0.392456 0.394318 0.395721
0.410797 0.412445 0.413513
0.430573 0.431976 0.432678
0.452118 0.453156 0.453522
0.475616 0.476227 0.476349
0.500946 0.501099 0.501160
0.527283 0.526978 0.527252
0.554169 0.553406 0.554169
0.580963 0.579773 0.581116
0.608063 0.606476 0.608246
0.636108 0.634155 0.636169
0.664764 0.662659 0.664551
0.693817 0.691772 0.693359
0.722168 0.720734 0.722046
0.749512 0.749207 0.750519
0.402740 0.404510 0.405701
0.406158 0.407898 0.409058
0.409637 0.411316 0.412354
0.409851 0.411530 0.412598
0.407806 0.409424 0.410553
0.404907 0.406586 0.407776
0.401428 0.403198 0.404419
0.397369 0.399200 0.400513
0.392700 0.394531 0.395966
0.387360 0.389252 0.390747
0.381378 0.383331 0.384949
0.374817 0.376862 0.378571
0.367737 0.369843 0.371674
0.360138 0.362274 0.364258
0.351990 0.354187 0.356293
0.350098 0.352325 0.354431
0.360901 0.363037 0.365021
0.375397 0.377472 0.379181
0.391418 0.393311 0.394714
0.408417 0.410156 0.411255
0.426727 0.428162 0.428925
0.446594 0.447723 0.448151
0.468201 0.468964 0.469147
0.491669 0.492004 0.492065
0.517029 0.516907 0.517059
0.544037 0.543427 0.543945
0.572174 0.571106 0.572235
0.600586 0.599091 0.600830
0.628693 0.626831 0.628845
0.656067 0.653992 0.655975
0.683380 0.681335 0.683044
0.710571 0.708832 0.710236
0.737152 0.736298 0.737579
0.762756 0.763214 0.764526
0.443817 0.444946 0.445435
0.447144 0.448242 0.448700
0.450714 0.451782 0.452148
0.451996 0.453064 0.453430
0.450470 0.451508 0.451874
0.447662 0.448700 0.449127
0.444183 0.445312 0.445801
0.440063 0.441284 0.441864
0.435303 0.436584 0.437225
0.429901 0.431244 0.431976
0.423859 0.425323 0.426117
0.417206 0.418762 0.419708
0.409943 0.411621 0.412689
0.402161 0.403900 0.405182
0.393860 0.395721 0.397125
0.384949 0.386932 0.388489
0.381836 0.383881 0.385437
0.393219 0.395111 0.396484
0.408813 0.410492 0.411591
0.425720 0.427155 0.427917
0.443939 0.445099 0.445557
0.463837 0.464630 0.464844
0.485565 0.485962 0.486023
0.509003 0.509003 0.509094
0.534088 0.533661 0.534027
0.560608 0.559753 0.560608
0.588348 0.587036 0.588501
0.617004 0.615295 0.617249
0.646271 0.644257 0.646301
0.675110 0.672974 0.674774
0.702271 0.700378 0.701874
0.727600 0.726410 0.727661
0.752197 0.752075 0.753357
0.776154 0.777435 0.778687
0.487366 0.487732 0.487762
0.490692 0.490997 0.491028
0.494263 0.494537 0.494537
0.496613 0.496887 0.496826
0.495605 0.495880 0.495850
0.492767 0.493073 0.493073
0.489380 0.489746 0.489746
0.485352 0.485809 0.485840
0.480682 0.481232 0.481262
0.475281 0.475861 0.475952
0.469208 0.469910 0.470062
0.462585 0.463379 0.463593
0.455261 0.456207 0.456512
0.447327 0.448395 0.448822
0.438843 0.440094 0.440613
0.429840 0.431305 0.431946
0.420258 0.421814 0.422638
0.415710 0.417267 0.418243
0.427917 0.429321 0.430023
0.444275 0.445465 0.445892
0.462433 0.463287 0.463531
0.482391 0.482880 0.482971
0.504150 0.504211 0.504272
0.527466 0.527100 0.527374
0.552155 0.551392 0.552063
0.578094 0.576904 0.578186
0.605164 0.603577 0.605408
0.633118 0.631195 0.633301
0.661621 0.659454 0.661469
0.690155 0.688049 0.689667
0.718018 0.716461 0.717773
0.744293 0.743774 0.745056
0.767303 0.768066 0.769348
0.789520 0.791718 0.792664
0.532440 0.532013 0.532349
0.535492 0.535034 0.535370
0.538940 0.538452 0.538849
0.542328 0.541809 0.542236
0.541931 0.541382 0.541809
0.539307 0.538788 0.539185
0.536102 0.535645 0.536011
0.532288 0.531860 0.532166
0.527771 0.527435 0.527679
0.522614 0.522400 0.522552
0.516785 0.516663 0.516785
0.510223 0.510254 0.510284
0.503052 0.503204 0.503174
0.495239 0.495483 0.495483
0.486786 0.487183 0.487213
0.477722 0.478333 0.478363
0.468079 0.468811 0.468964
0.457947 0.458862 0.459076
0.451874 0.452881 0.453186
0.464996 0.465851 0.465973
0.482635 0.483124 0.483154
0.502350 0.502472 0.502502
0.523834 0.523621 0.523804
0.546783 0.546173 0.546722
0.570984 0.569977 0.571045
0.596344 0.594910 0.596558
0.622711 0.620911 0.623016
0.649902 0.647797 0.649933
0.677307 0.675110 0.676910
0.704346 0.702423 0.703888
0.730804 0.729675 0.730957
0.756561 0.756653 0.757965
0.780823 0.782410 0.783569
0.802734 0.805664 0.806213
0.576843 0.575714 0.576965
0.579590 0.578339 0.579651
0.582642 0.581421 0.582825
0.586456 0.585144 0.586609
0.587006 0.585663 0.587128
0.584900 0.583618 0.585022
0.581970 0.580750 0.582092
0.578491 0.577332 0.578613
0.574463 0.573364 0.574554
0.569794 0.568787 0.569855
0.564514 0.563538 0.564514
0.558563 0.557709 0.558563
0.551941 0.551208 0.551910
0.544647 0.544067 0.544617
0.536743 0.536255 0.536682
0.528198 0.527893 0.528229
0.519012 0.518829 0.519043
0.509277 0.509216 0.509369
0.498749 0.498901 0.498962
0.491272 0.491608 0.491669
0.505249 0.505341 0.505402
0.523865 0.523621 0.523865
0.544647 0.544037 0.544586
0.567078 0.566101 0.567108
0.590698 0.589325 0.590881
0.615356 0.613647 0.615631
0.640869 0.638855 0.640991
0.666931 0.664764 0.666687
0.693024 0.690979 0.692566
0.718628 0.717102 0.718414
0.743561 0.743011 0.744293
0.767914 0.768738 0.769989
0.791382 0.793610 0.794495
0.813446 0.816895 0.816956
0.620941 0.619202 0.621185
0.623413 0.621613 0.623596
0.626221 0.624359 0.626404
0.629761 0.627869 0.629913
0.631439 0.629547 0.631592
0.629974 0.628082 0.630157
0.627380 0.625549 0.627594
0.624329 0.622498 0.624542
0.620789 0.618988 0.621002
0.616638 0.614929 0.616882
0.611969 0.610291 0.612183
0.606750 0.605133 0.606934
0.600830 0.599304 0.601013
0.594269 0.592865 0.594452
0.587097 0.585815 0.587219
0.579346 0.578186 0.579468
0.570953 0.569916 0.571014
0.561951 0.561035 0.561951
0.552277 0.551575 0.552277
0.542053 0.541504 0.542023
0.533539 0.533142 0.533539
0.547607 0.546967 0.547577
0.566681 0.565704 0.566711
0.588074 0.586761 0.588226
0.611023 0.609375 0.611267
0.634888 0.632935 0.635071
0.659454 0.657318 0.659302
0.684235 0.682159 0.683838
0.708832 0.707092 0.708527
0.732941 0.731964 0.733276
0.756439 0.756592 0.757843
0.779449 0.780975 0.782043
0.801697 0.804504 0.805054
0.822998 0.826752 0.826385
0.664215 0.662140 0.664062
0.666321 0.664246 0.666107
0.668793 0.666687 0.668579
0.671997 0.669891 0.671722
0.674469 0.672333 0.674133
0.673706 0.671600 0.673431
0.671509 0.669403 0.671234
0.668884 0.666779 0.668640
0.665833 0.663696 0.665649
0.662323 0.660187 0.662170
0.658264 0.656158 0.658142
0.653748 0.651642 0.653656
0.648651 0.646576 0.648621
0.642944 0.640961 0.642975
0.636627 0.634705 0.636719
0.629761 0.627930 0.629913
0.622314 0.620544 0.622437
0.614227 0.612579 0.614410
0.605621 0.604065 0.605774
0.596375 0.594971 0.596527
0.586578 0.585297 0.586700
0.577515 0.576355 0.577606
0.591217 0.589844 0.591339
0.610168 0.608521 0.610382
0.631714 0.629791 0.631897
0.654755 0.652618 0.654694
0.678192 0.676025 0.677826
0.701599 0.699707 0.701202
0.724640 0.723389 0.724731
0.747223 0.746918 0.748230
0.769348 0.770233 0.771423
0.791077 0.793243 0.794067
0.812195 0.815460 0.815582
0.832397 0.836365 0.835541
0.705109 0.703339 0.704834
0.706848 0.705109 0.706573
0.708893 0.707184 0.708649
0.711609 0.709991 0.711426
0.714417 0.712891 0.714294
0.714508 0.712921 0.714294
0.712677 0.711060 0.712494
0.710541 0.708893 0.710327
0.708008 0.706299 0.707764
0.705109 0.703339 0.704865
0.701843 0.699982 0.701538
0.698090 0.696167 0.697754
0.693878 0.691925 0.693542
0.689178 0.687164 0.688843
0.683899 0.681854 0.683594
0.678040 0.675995 0.677826
0.671661 0.669617 0.671417
0.664734 0.662689 0.664581
0.657288 0.655273 0.657196
0.649292 0.647278 0.649292
0.640594 0.638672 0.640656
0.631378 0.629486 0.631470
0.622498 0.620728 0.622650
0.635223 0.633301 0.635345
0.653534 0.651459 0.653503
0.674744 0.672546 0.674377
0.696899 0.694885 0.696442
0.718842 0.717346 0.718719
0.740387 0.739746 0.741058
0.761444 0.761902 0.763153
0.782196 0.783875 0.784851
0.802704 0.805511 0.805969
0.822693 0.826385 0.826019
0.841827 0.845917 0.844696
0.742371 0.741821 0.743073
0.743774 0.743286 0.744537
0.745422 0.744995 0.746277
0.747620 0.747345 0.748627
0.750183 0.750031 0.751282
0.751099 0.751007 0.752258
0.749786 0.749603 0.750854
0.748047 0.747803 0.749054
0.746094 0.745728 0.746979
0.743774 0.743317 0.744568
0.741180 0.740570 0.741852
0.738220 0.737457 0.738770
0.734863 0.733978 0.735291
0.731140 0.730103 0.731415
0.726959 0.725800 0.727142
0.722260 0.720978 0.722351
0.717041 0.715576 0.717010
0.711395 0.709808 0.711304
0.705261 0.703552 0.705078
0.698669 0.696838 0.698425
0.691559 0.689606 0.691254
0.683746 0.681702 0.683472
0.675415 0.673309 0.675140
0.667267 0.665192 0.667084
0.678558 0.676453 0.678223
0.695557 0.693542 0.695099
0.715332 0.713715 0.715057
0.735809 0.734924 0.736237
0.755920 0.756042 0.757324
0.775635 0.776917 0.778015
0.795074 0.797485 0.798126
0.814362 0.817688 0.817688
0.833221 0.837158 0.836334
0.851257 0.855408 0.853851
0.775757 0.777039 0.778107
0.776917 0.778229 0.779297
0.778290 0.779663 0.780731
0.780060 0.781616 0.782623
0.782257 0.783905 0.784882
0.783508 0.785248 0.786163
0.782806 0.784515 0.785522
0.781525 0.783112 0.784119
0.779938 0.781464 0.782471
0.778137 0.779572 0.780609
0.776062 0.777374 0.778442
0.773712 0.774872 0.775970
0.771088 0.772095 0.773224
0.768127 0.768951 0.770142
0.764893 0.765533 0.766724
0.761261 0.761719 0.762939
0.757172 0.757355 0.758606
0.752716 0.752686 0.753937
0.747894 0.747681 0.748901
0.742706 0.742188 0.743469
0.737091 0.736298 0.737579
0.730957 0.729919 0.731262
0.724304 0.723022 0.724396
0.717133 0.715637 0.717010
0.710052 0.708405 0.709839
0.719482 0.718048 0.719391
0.734436 0.733521 0.734802
0.752411 0.752380 0.753632
0.771210 0.772217 0.773376
0.789673 0.791779 0.792603
0.807922 0.810974 0.811188
0.826019 0.829742 0.829224
0.843750 0.847809 0.846527
0.860687 0.864838 0.862946
0.805634 0.808594 0.808929
0.806641 0.809601 0.809937
0.807739 0.810760 0.811035
0.809204 0.812347 0.812531
0.811066 0.814270 0.814392
0.812439 0.815704 0.815765
0.812317 0.815582 0.815674
0.811279 0.814514 0.814636
0.810089 0.813232 0.813416
0.808655 0.811768 0.811981
0.807007 0.810059 0.810333
0.805145 0.808136 0.808472
0.803101 0.805939 0.806366
0.800781 0.803497 0.804016
0.798218 0.800812 0.801392
0.795410 0.797821 0.798523
0.792267 0.794495 0.795258
0.788818 0.790863 0.791687
0.785095 0.786957 0.787842
0.781036 0.782654 0.783630
0.776642 0.777985 0.779053
0.771912 0.772980 0.774109
0.766785 0.767517 0.768707
0.761261 0.761658 0.762909
0.755249 0.755371 0.756622
0.749390 0.749207 0.750458
0.756836 0.757050 0.758301
0.769897 0.770844 0.772034
0.786224 0.788147 0.789062
0.803497 0.806335 0.806763
0.820648 0.824219 0.823944
0.837677 0.841644 0.840637
0.854218 0.858337 0.856659
0.870026 0.874207 0.872009
0.832184 0.836090 0.835327
0.832977 0.836884 0.836060
0.833893 0.837799 0.836945
0.835083 0.838989 0.838135
0.836639 0.840607 0.839661
0.838104 0.842072 0.841034
0.838318 0.842346 0.841309
0.837524 0.841553 0.840546
0.836609 0.840607 0.839661
0.835541 0.839478 0.838562
0.834290 0.838196 0.837341
0.832855 0.836761 0.835968
0.831238 0.835114 0.834381
0.829468 0.833282 0.832642
0.827484 0.831238 0.830688
0.825287 0.828979 0.828522
0.822906 0.826538 0.826172
0.820282 0.823822 0.823578
0.817444 0.820892 0.820740
0.814301 0.817627 0.817627
0.810913 0.814117 0.814240
0.807251 0.810303 0.810547
0.803345 0.806183 0.806580
0.799103 0.801697 0.802277
0.794525 0.796906 0.797577
0.789703 0.791809 0.792664
0.784943 0.786774 0.787689
0.790894 0.793060 0.793854
0.802307 0.805115 0.805573
0.817108 0.820557 0.820435
