lut/黑白老照片 1.cube
#Created by: Adobe Photoshop Export Color Lookup Plugin
#Copyright: (C) Copyright 2026 小米
TITLE "黑白-低对比"
#LUT size
LUT_3D_SIZE 8
#data domain
DOMAIN_MIN 0.0 0.0 0.0
DOMAIN_MAX 1.0 1.0 1.0
#LUT data points
0.000000 0.000000 0.000000
0.045929 0.045929 0.045929
0.097473 0.097473 0.097473
0.153503 0.153503 0.153503
0.216248 0.216248 0.216248
0.297485 0.297485 0.297485
0.383759 0.383759 0.383759
0.498047 0.498047 0.498047
0.072815 0.072815 0.072815
0.092438 0.092438 0.092438
0.134460 0.134460 0.134460
0.188782 0.188782 0.188782
0.252106 0.252106 0.252106
0.322693 0.322693 0.322693
0.409515 0.409515 0.409515
0.517090 0.517090 0.517090
0.151245 0.151245 0.151245
0.160217 0.160217 0.160217
0.185974 0.185974 0.185974
0.243683 0.243683 0.243683
0.306458 0.306458 0.306458
0.376465 0.376465 0.376465
0.452087 0.452087 0.452087
0.556305 0.556305 0.556305
0.244263 0.244263 0.244263
0.257141 0.257141 0.257141
0.272247 0.272247 0.272247
0.295227 0.295227 0.295227
0.356873 0.356873 0.356873
0.422424 0.422424 0.422424
0.504761 0.504761 0.504761
0.622406 0.622406 0.622406
0.347900 0.347900 0.347900
0.358551 0.358551 0.358551
0.360779 0.360779 0.360779
0.377594 0.377594 0.377594
0.411774 0.411774 0.411774
0.477875 0.477875 0.477875
0.559662 0.559662 0.559662
0.673401 0.673401 0.673401
0.466675 0.466675 0.466675
0.466125 0.466125 0.466125
0.472839 0.472839 0.472839
0.484039 0.484039 0.484039
0.503082 0.503082 0.503082
0.548462 0.548462 0.548462
0.622406 0.622406 0.622406
0.725494 0.725494 0.725494
0.613464 0.613464 0.613464
0.603912 0.603912 0.603912
0.608978 0.608978 0.608978
0.619049 0.619049 0.619049
0.639771 0.639771 0.639771
0.662750 0.662750 0.662750
0.709259 0.709259 0.709259
0.783752 0.783752 0.783752
0.792145 0.792145 0.792145
0.777588 0.777588 0.777588
0.782074 0.782074 0.782074
0.794952 0.794952 0.794952
0.809540 0.809540 0.809540
0.838654 0.838654 0.838654
0.864441 0.864441 0.864441
0.905884 0.905884 0.905884
0.062744 0.062744 0.062744
0.098602 0.098602 0.098602
0.127716 0.127716 0.127716
0.187683 0.187683 0.187683
0.245392 0.245392 0.245392
0.319885 0.319885 0.319885
0.404480 0.404480 0.404480
0.513153 0.513153 0.513153
0.111481 0.111481 0.111481
0.141174 0.141174 0.141174
0.174225 0.174225 0.174225
0.218475 0.218475 0.218475
0.281799 0.281799 0.281799
0.343994 0.343994 0.343994
0.426880 0.426880 0.426880
0.526062 0.526062 0.526062
0.196075 0.196075 0.196075
0.199432 0.199432 0.199432
0.221283 0.221283 0.221283
0.267212 0.267212 0.267212
0.326599 0.326599 0.326599
0.390472 0.390472 0.390472
0.463318 0.463318 0.463318
0.564697 0.564697 0.564697
0.271149 0.271149 0.271149
0.283478 0.283478 0.283478
0.290741 0.290741 0.290741
0.319885 0.319885 0.319885
0.373108 0.373108 0.373108
0.433624 0.433624 0.433624
0.514832 0.514832 0.514832
0.624634 0.624634 0.624634
0.359100 0.359100 0.359100
0.379272 0.379272 0.379272
0.386017 0.386017 0.386017
0.397217 0.397217 0.397217
0.432495 0.432495 0.432495
0.487396 0.487396 0.487396
0.566406 0.566406 0.566406
0.671722 0.671722 0.671722
0.469482 0.469482 0.469482
0.484039 0.484039 0.484039
0.487396 0.487396 0.487396
0.498047 0.498047 0.498047
0.513184 0.513184 0.513184
0.556305 0.556305 0.556305
0.624084 0.624084 0.624084
0.734467 0.734467 0.734467
0.600006 0.600006 0.600006
0.608978 0.608978 0.608978
0.614014 0.614014 0.614014
0.627441 0.627441 0.627441
0.640350 0.640350 0.640350
0.667786 0.667786 0.667786
0.714294 0.714294 0.714294
0.793274 0.793274 0.793274
0.773682 0.773682 0.773682
0.781525 0.781525 0.781525
0.787689 0.787689 0.787689
0.798889 0.798889 0.798889
0.817352 0.817352 0.817352
0.840332 0.840332 0.840332
0.866669 0.866669 0.866669
0.908691 0.908691 0.908691
0.131653 0.131653 0.131653
0.165833 0.165833 0.165833
0.203918 0.203918 0.203918
0.226318 0.226318 0.226318
0.279541 0.279541 0.279541
0.347351 0.347351 0.347351
0.424103 0.424103 0.424103
0.523254 0.523254 0.523254
0.155731 0.155731 0.155731
0.191589 0.191589 0.191589
0.233612 0.233612 0.233612
0.257690 0.257690 0.257690
0.313721 0.313721 0.313721
0.376465 0.376465 0.376465
0.448730 0.448730 0.448730
0.548462 0.548462 0.548462
0.226898 0.226898 0.226898
0.246490 0.246490 0.246490
0.282898 0.282898 0.282898
0.316528 0.316528 0.316528
0.364136 0.364136 0.364136
0.416809 0.416809 0.416809
0.487396 0.487396 0.487396
0.585419 0.585419 0.585419
0.330505 0.330505 0.330505
0.340607 0.340607 0.340607
0.350128 0.350128 0.350128
0.364136 0.364136 0.364136
0.413452 0.413452 0.413452
0.471710 0.471710 0.471710
0.542297 0.542297 0.542297
0.639221 0.639221 0.639221
0.407837 0.407837 0.407837
0.419617 0.419617 0.419617
0.428009 0.428009 0.428009
0.438660 0.438660 0.438660
0.463318 0.463318 0.463318
0.518768 0.518768 0.518768
0.588806 0.588806 0.588806
0.682343 0.682343 0.682343
0.508118 0.508118 0.508118
0.509796 0.509796 0.509796
0.522125 0.522125 0.522125
0.529419 0.529419 0.529419
0.546783 0.546783 0.546783
0.579834 0.579834 0.579834
0.644836 0.644836 0.644836
0.736145 0.736145 0.736145
0.637543 0.637543 0.637543
0.631927 0.631927 0.631927
0.640900 0.640900 0.640900
0.648193 0.648193 0.648193
0.659943 0.659943 0.659943
0.679565 0.679565 0.679565
0.720459 0.720459 0.720459
0.803925 0.803925 0.803925
0.791595 0.791595 0.791595
0.784302 0.784302 0.784302
0.789368 0.789368 0.789368
0.799988 0.799988 0.799988
0.821289 0.821289 0.821289
0.843689 0.843689 0.843689
0.873383 0.873383 0.873383
0.909790 0.909790 0.909790
0.211212 0.211212 0.211212
0.243683 0.243683 0.243683
0.276733 0.276733 0.276733
0.322693 0.322693 0.322693
0.333313 0.333313 0.333313
0.377594 0.377594 0.377594
0.453217 0.453217 0.453217
0.547333 0.547333 0.547333
0.233032 0.233032 0.233032
0.266083 0.266083 0.266083
0.304749 0.304749 0.304749
0.349579 0.349579 0.349579
0.363586 0.363586 0.363586
0.413452 0.413452 0.413452
0.481781 0.481781 0.481781
0.582062 0.582062 0.582062
0.267792 0.267792 0.267792
0.294678 0.294678 0.294678
0.337799 0.337799 0.337799
0.384857 0.384857 0.384857
0.402802 0.402802 0.402802
0.450989 0.450989 0.450989
0.518768 0.518768 0.518768
0.608398 0.608398 0.608398
0.352356 0.352356 0.352356
0.371979 0.371979 0.371979
0.394958 0.394958 0.394958
0.433594 0.433594 0.433594
0.465546 0.465546 0.465546
0.508118 0.508118 0.508118
0.573669 0.573669 0.573669
0.654327 0.654327 0.654327
0.462189 0.462189 0.462189
0.479004 0.479004 0.479004
0.487396 0.487396 0.487396
0.496918 0.496918 0.496918
0.514282 0.514282 0.514282
0.559662 0.559662 0.559662
0.624084 0.624084 0.624084
0.710358 0.710358 0.710358
0.555756 0.555756 0.555756
0.565826 0.565826 0.565826
0.569733 0.569733 0.569733
0.575348 0.575348 0.575348
0.585999 0.585999 0.585999
0.614014 0.614014 0.614014
0.676758 0.676758 0.676758
0.755737 0.755737 0.755737
0.653778 0.653778 0.653778
0.663879 0.663879 0.663879
0.667786 0.667786 0.667786
0.674500 0.674500 0.674500
0.692993 0.692993 0.692993
0.705322 0.705322 0.705322
0.737244 0.737244 0.737244
0.808411 0.808411 0.808411
0.795532 0.795532 0.795532
0.801666 0.801666 0.801666
0.805054 0.805054 0.805054
0.807831 0.807831 0.807831
0.824097 0.824097 0.824097
0.846497 0.846497 0.846497
0.868896 0.868896 0.868896
0.913727 0.913727 0.913727
0.292450 0.292450 0.292450
0.320465 0.320465 0.320465
0.354614 0.354614 0.354614
0.393829 0.393829 0.393829
0.440338 0.440338 0.440338
0.459381 0.459381 0.459381
0.496368 0.496368 0.496368
0.587677 0.587677 0.587677
0.314301 0.314301 0.314301
0.344543 0.344543 0.344543
0.382629 0.382629 0.382629
0.417938 0.417938 0.417938
0.465546 0.465546 0.465546
0.477325 0.477325 0.477325
0.525482 0.525482 0.525482
0.610657 0.610657 0.610657
0.338379 0.338379 0.338379
0.363586 0.363586 0.363586
0.405060 0.405060 0.405060
0.445953 0.445953 0.445953
0.488525 0.488525 0.488525
0.503662 0.503662 0.503662
0.555756 0.555756 0.555756
0.637543 0.637543 0.637543
0.398315 0.398315 0.398315
0.415131 0.415131 0.415131
0.433624 0.433624 0.433624
0.485138 0.485138 0.485138
0.524933 0.524933 0.524933
0.549591 0.549591 0.549591
0.602234 0.602234 0.602234
0.674500 0.674500 0.674500
0.484619 0.484619 0.484619
0.500305 0.500305 0.500305
0.514862 0.514862 0.514862
0.539490 0.539490 0.539490
0.577057 0.577057 0.577057
0.611786 0.611786 0.611786
0.661621 0.661621 0.661621
0.729980 0.729980 0.729980
0.610657 0.610657 0.610657
0.622406 0.622406 0.622406
0.626343 0.626343 0.626343
0.636993 0.636993 0.636993
0.640350 0.640350 0.640350
0.662201 0.662201 0.662201
0.715973 0.715973 0.715973
0.788239 0.788239 0.788239
0.715973 0.715973 0.715973
0.721588 0.721588 0.721588
0.724945 0.724945 0.724945
0.721008 0.721008 0.721008
0.729980 0.729980 0.729980
0.745667 0.745667 0.745667
0.771423 0.771423 0.771423
0.839233 0.839233 0.839233
0.833069 0.833069 0.833069
0.831940 0.831940 0.831940
0.832489 0.832489 0.832489
0.836975 0.836975 0.836975
0.846497 0.846497 0.846497
0.864441 0.864441 0.864441
0.881805 0.881805 0.881805
0.924377 0.924377 0.924377
0.398315 0.398315 0.398315
0.424652 0.424652 0.424652
0.465546 0.465546 0.465546
0.493561 0.493561 0.493561
0.532227 0.532227 0.532227
0.579834 0.579834 0.579834
0.601685 0.601685 0.601685
0.646515 0.646515 0.646515
0.421295 0.421295 0.421295
0.443146 0.443146 0.443146
0.477325 0.477325 0.477325
0.513733 0.513733 0.513733
0.549042 0.549042 0.549042
0.596100 0.596100 0.596100
0.616821 0.616821 0.616821
0.666656 0.666656 0.666656
0.431946 0.431946 0.431946
0.455475 0.455475 0.455475
0.486847 0.486847 0.486847
0.537262 0.537262 0.537262
0.569183 0.569183 0.569183
0.613464 0.613464 0.613464
0.634735 0.634735 0.634735
0.684601 0.684601 0.684601
0.452087 0.452087 0.452087
0.477875 0.477875 0.477875
0.505310 0.505310 0.505310
0.559113 0.559113 0.559113
0.601135 0.601135 0.601135
0.637543 0.637543 0.637543
0.659393 0.659393 0.659393
0.714294 0.714294 0.714294
0.532227 0.532227 0.532227
0.552948 0.552948 0.552948
0.564728 0.564728 0.564728
0.580963 0.580963 0.580963
0.632507 0.632507 0.632507
0.678436 0.678436 0.678436
0.696381 0.696381 0.696381
0.761353 0.761353 0.761353
0.621307 0.621307 0.621307
0.635315 0.635315 0.635315
0.642029 0.642029 0.642029
0.659943 0.659943 0.659943
0.690765 0.690765 0.690765
0.722687 0.722687 0.722687
0.760803 0.760803 0.760803
0.812897 0.812897 0.812897
0.743408 0.743408 0.743408
0.757996 0.757996 0.757996
0.764709 0.764709 0.764709
0.777039 0.777039 0.777039
0.788788 0.788788 0.788788
0.791595 0.791595 0.791595
0.813446 0.813446 0.813446
0.867798 0.867798 0.867798
0.881226 0.881226 0.881226
0.884583 0.884583 0.884583
0.884583 0.884583 0.884583
0.882904 0.882904 0.882904
0.878998 0.878998 0.878998
0.890747 0.890747 0.890747
0.907562 0.907562 0.907562
0.933319 0.933319 0.933319
0.543427 0.543427 0.543427
0.565277 0.565277 0.565277
0.590485 0.590485 0.590485
0.626892 0.626892 0.626892
0.653229 0.653229 0.653229
0.691895 0.691895 0.691895
0.727173 0.727173 0.727173
0.760223 0.760223 0.760223
0.554626 0.554626 0.554626
0.573120 0.573120 0.573120
0.602234 0.602234 0.602234
0.639771 0.639771 0.639771
0.667236 0.667236 0.667236
0.702515 0.702515 0.702515
0.736145 0.736145 0.736145
0.771423 0.771423 0.771423
0.565277 0.565277 0.565277
0.580963 0.580963 0.580963
0.608398 0.608398 0.608398
0.652100 0.652100 0.652100
0.679565 0.679565 0.679565
0.710938 0.710938 0.710938
0.752380 0.752380 0.752380
0.777588 0.777588 0.777588
0.570313 0.570313 0.570313
0.585449 0.585449 0.585449
0.615112 0.615112 0.615112
0.656586 0.656586 0.656586
0.705322 0.705322 0.705322
0.733337 0.733337 0.733337
0.766937 0.766937 0.766937
0.791046 0.791046 0.791046
0.606171 0.606171 0.606171
0.617371 0.617371 0.617371
0.629150 0.629150 0.629150
0.656036 0.656036 0.656036
0.714844 0.714844 0.714844
0.757996 0.757996 0.757996
0.790466 0.790466 0.790466
0.819611 0.819611 0.819611
0.690216 0.690216 0.690216
0.698608 0.698608 0.698608
0.703644 0.703644 0.703644
0.718201 0.718201 0.718201
0.736694 0.736694 0.736694
0.785431 0.785431 0.785431
0.825775 0.825775 0.825775
0.851532 0.851532 0.851532
0.769196 0.769196 0.769196
0.777588 0.777588 0.777588
0.783752 0.783752 0.783752
0.792145 0.792145 0.792145
0.813995 0.813995 0.813995
0.835846 0.835846 0.835846
0.862762 0.862762 0.862762
0.899719 0.899719 0.899719
0.887390 0.887390 0.887390
0.896362 0.896362 0.896362
0.900269 0.900269 0.900269
0.909241 0.909241 0.909241
0.920441 0.920441 0.920441
0.930542 0.930542 0.930542
0.935577 0.935577 0.935577
0.950714 0.950714 0.950714
0.713715 0.713715 0.713715
0.731659 0.731659 0.731659
0.751831 0.751831 0.751831
0.782623 0.782623 0.782623
0.797760 0.797760 0.797760
0.824646 0.824646 0.824646
0.851532 0.851532 0.851532
0.886261 0.886261 0.886261
0.725494 0.725494 0.725494
0.739502 0.739502 0.739502
0.759674 0.759674 0.759674
0.787109 0.787109 0.787109
0.802795 0.802795 0.802795
0.829681 0.829681 0.829681
0.853790 0.853790 0.853790
0.893005 0.893005 0.893005
0.727173 0.727173 0.727173
0.738373 0.738373 0.738373
0.759674 0.759674 0.759674
0.791046 0.791046 0.791046
0.813446 0.813446 0.813446
0.842010 0.842010 0.842010
0.863861 0.863861 0.863861
0.898590 0.898590 0.898590
0.722687 0.722687 0.722687
0.734467 0.734467 0.734467
0.754608 0.754608 0.754608
0.789917 0.789917 0.789917
0.828003 0.828003 0.828003
0.845367 0.845367 0.845367
0.874512 0.874512 0.874512
0.904755 0.904755 0.904755
0.723816 0.723816 0.723816
0.732208 0.732208 0.732208
0.746765 0.746765 0.746765
0.780945 0.780945 0.780945
0.829132 0.829132 0.829132
0.866669 0.866669 0.866669
0.890747 0.890747 0.890747
0.914856 0.914856 0.914856
0.783752 0.783752 0.783752
0.793854 0.793854 0.793854
0.788239 0.788239 0.788239
0.797211 0.797211 0.797211
0.815704 0.815704 0.815704
0.875061 0.875061 0.875061
0.904205 0.904205 0.904205
0.931091 0.931091 0.931091
0.861633 0.861633 0.861633
0.864441 0.864441 0.864441
0.866669 0.866669 0.866669
0.871155 0.871155 0.871155
0.876740 0.876740 0.876740
0.885712 0.885712 0.885712
0.927734 0.927734 0.927734
0.953491 0.953491 0.953491
0.925476 0.925476 0.925476
0.932220 0.932220 0.932220
0.931091 0.931091 0.931091
0.940613 0.940613 0.940613
0.945648 0.945648 0.945648
0.950714 0.950714 0.950714
0.966400 0.966400 0.966400
0.984314 0.984314 0.984314
