lut/黑白老照片 2.cube
#Created by: Adobe Photoshop Export Color Lookup Plugin
#Copyright: (C) Copyright 2026 汉图
TITLE "mint本征源文件-适配lut筛选-恢复的.psd"
#LUT size
LUT_3D_SIZE 4
#data domain
DOMAIN_MIN 0.0 0.0 0.0
DOMAIN_MAX 1.0 1.0 1.0
#LUT data points
0.132233 0.133118 0.132507
0.167572 0.172089 0.169312
0.314178 0.316437 0.318756
0.643158 0.641083 0.643372
0.296783 0.299011 0.301025
0.267914 0.270203 0.271515
0.421967 0.423462 0.424316
0.723846 0.722321 0.723602
0.742371 0.741821 0.743073
0.738220 0.737457 0.738770
0.675415 0.673309 0.675140
0.851257 0.855408 0.853851
0.961792 0.967712 0.966309
0.959503 0.971405 0.968414
0.959259 0.971771 0.968384
0.955505 0.977966 0.967590
0.147491 0.151337 0.149170
0.172577 0.177155 0.174377
0.323273 0.325500 0.327820
0.674408 0.672119 0.674011
0.222473 0.225647 0.224609
0.318359 0.320526 0.322784
0.465668 0.466492 0.466705
0.742554 0.741852 0.743134
0.685638 0.683594 0.685303
0.747070 0.746735 0.748016
0.703949 0.702148 0.703674
0.862732 0.866882 0.864899
0.958069 0.964020 0.962402
0.959747 0.970947 0.968475
0.958405 0.973236 0.968201
0.954803 0.979126 0.967468
0.217712 0.220947 0.219666
0.242310 0.244934 0.245026
0.310822 0.312988 0.315338
0.503845 0.503937 0.503906
0.323303 0.325531 0.327881
0.385651 0.387573 0.389099
0.445892 0.447021 0.447510
0.657257 0.655121 0.657196
0.483856 0.484314 0.484375
0.563507 0.562561 0.563507
0.771942 0.772949 0.774048
0.882355 0.886688 0.884186
0.929718 0.935242 0.932526
0.942780 0.948669 0.946289
0.954834 0.979065 0.967468
0.954803 0.979156 0.967468
0.365936 0.368011 0.369934
0.387482 0.389465 0.390961
0.452606 0.453613 0.453918
0.606079 0.604462 0.606354
0.479401 0.479980 0.480011
0.494751 0.495026 0.495026
0.548401 0.547729 0.548340
0.700104 0.697998 0.699402
0.577393 0.576294 0.577545
0.636230 0.634369 0.636078
0.833618 0.837585 0.836731
0.867767 0.871887 0.869781
0.836029 0.840088 0.839111
0.862152 0.866302 0.864349
0.920349 0.925598 0.922760
0.954803 0.979156 0.967468
