lut/黑白老照片 1.cube
#Created by: Adobe Photoshop Export Color Lookup Plugin
#Copyright: (C) Copyright 2026 小米
TITLE "黑白-低对比"
#LUT size
LUT_3D_SIZE 6
#data domain
DOMAIN_MIN 0.0 0.0 0.0
DOMAIN_MAX 1.0 1.0 1.0
#LUT data points
0.000000 0.000000 0.000000
0.067444 0.067444 0.067444
0.142731 0.142731 0.142731
0.230591 0.230591 0.230591
0.345886 0.345886 0.345886
0.498047 0.498047 0.498047
0.105103 0.105103 0.105103
0.125488 0.125488 0.125488
0.199219 0.199219 0.199219
0.292572 0.292572 0.292572
0.391357 0.391357 0.391357
0.529419 0.529419 0.529419
0.222748 0.222748 0.222748
0.238434 0.238434 0.238434
0.273712 0.273712 0.273712
0.357635 0.357635 0.357635
0.462738 0.462738 0.462738
0.606262 0.606262 0.606262
0.369415 0.369415 0.369415
0.377258 0.377258 0.377258
0.394501 0.394501 0.394501
0.436859 0.436859 0.436859
0.535675 0.535675 0.535675
0.682343 0.682343 0.682343
0.554504 0.554504 0.554504
0.545868 0.545868 0.545868
0.556061 0.556061 0.556061
0.584290 0.584290 0.584290
0.643921 0.643921 0.643921
0.766266 0.766266 0.766266
0.792145 0.792145 0.792145
0.781189 0.781189 0.781189
0.791382 0.791382 0.791382
0.814911 0.814911 0.814911
0.855682 0.855682 0.855682
0.905884 0.905884 0.905884
0.088623 0.088623 0.088623
0.138062 0.138062 0.138062
0.183533 0.183533 0.183533
0.276093 0.276093 0.276093
0.377258 0.377258 0.377258
0.522339 0.522339 0.522339
0.156097 0.156097 0.156097
0.193726 0.193726 0.193726
0.243134 0.243134 0.243134
0.320007 0.320007 0.320007
0.414886 0.414886 0.414886
0.541962 0.541962 0.541962
0.274506 0.274506 0.274506
0.290985 0.290985 0.290985
0.312927 0.312927 0.312927
0.388245 0.388245 0.388245
0.477631 0.477631 0.477631
0.618835 0.618835 0.618835
0.391388 0.391388 0.391388
0.414124 0.414124 0.414124
0.425903 0.425903 0.425903
0.463531 0.463531 0.463531
0.550598 0.550598 0.550598
0.687836 0.687836 0.687836
0.549011 0.549011 0.549011
0.567047 0.567047 0.567047
0.577240 0.577240 0.577240
0.600769 0.600769 0.600769
0.651764 0.651764 0.651764
0.773315 0.773315 0.773315
0.777252 0.777252 0.777252
0.783539 0.783539 0.783539
0.796082 0.796082 0.796082
0.822754 0.822754 0.822754
0.854889 0.854889 0.854889
0.906677 0.906677 0.906677
0.196869 0.196869 0.196869
0.242340 0.242340 0.242340
0.301178 0.301178 0.301178
0.323914 0.323914 0.323914
0.410980 0.410980 0.410980
0.541962 0.541962 0.541962
0.225891 0.225891 0.225891
0.277649 0.277649 0.277649
0.337250 0.337250 0.337250
0.373352 0.373352 0.373352
0.459595 0.459595 0.459595
0.588226 0.588226 0.588226
0.325470 0.325470 0.325470
0.356873 0.356873 0.356873
0.403137 0.403137 0.403137
0.450989 0.450989 0.450989
0.527832 0.527832 0.527832
0.639984 0.639984 0.639984
0.471375 0.471375 0.471375
0.488617 0.488617 0.488617
0.494904 0.494904 0.494904
0.519226 0.519226 0.519226
0.600006 0.600006 0.600006
0.712952 0.712952 0.712952
0.600769 0.600769 0.600769
0.611755 0.611755 0.611755
0.624298 0.624298 0.624298
0.639984 0.639984 0.639984
0.683899 0.683899 0.683899
0.783508 0.783508 0.783508
0.793732 0.793732 0.793732
0.796875 0.796875 0.796875
0.807831 0.807831 0.807831
0.826660 0.826660 0.826660
0.861969 0.861969 0.861969
0.913727 0.913727 0.913727
0.312164 0.312164 0.312164
0.355316 0.355316 0.355316
0.401581 0.401581 0.401581
0.469025 0.469025 0.469025
0.489410 0.489410 0.489410
0.598419 0.598419 0.598419
0.341980 0.341980 0.341980
0.381195 0.381195 0.381195
0.438446 0.438446 0.438446
0.498840 0.498840 0.498840
0.520782 0.520782 0.520782
0.632172 0.632172 0.632172
0.392944 0.392944 0.392944
0.415680 0.415680 0.415680
0.481567 0.481567 0.481567
0.537262 0.537262 0.537262
0.575684 0.575684 0.575684
0.675293 0.675293 0.675293
0.516876 0.516876 0.516876
0.532562 0.532562 0.532562
0.559235 0.559235 0.559235
0.603912 0.603912 0.603912
0.661163 0.661163 0.661163
0.744324 0.744324 0.744324
0.694885 0.694885 0.694885
0.694122 0.694122 0.694122
0.701172 0.701172 0.701172
0.704315 0.704315 0.704315
0.735687 0.735687 0.735687
0.825867 0.825867 0.825867
0.850983 0.850983 0.850983
0.844696 0.844696 0.844696
0.842346 0.842346 0.842346
0.857269 0.857269 0.857269
0.877655 0.877655 0.877655
0.920776 0.920776 0.920776
0.477631 0.477631 0.477631
0.515289 0.515289 0.515289
0.563110 0.563110 0.563110
0.608612 0.608612 0.608612
0.669006 0.669006 0.669006
0.701172 0.701172 0.701172
0.501160 0.501160 0.501160
0.526276 0.526276 0.526276
0.581177 0.581177 0.581177
0.629028 0.629028 0.629028
0.684692 0.684692 0.684692
0.722351 0.722351 0.722351
0.514496 0.514496 0.514496
0.545105 0.545105 0.545105
0.600769 0.600769 0.600769
0.658813 0.658813 0.658813
0.709778 0.709778 0.709778
0.742737 0.742737 0.742737
0.591370 0.591370 0.591370
0.607849 0.607849 0.607849
0.628235 0.628235 0.628235
0.694122 0.694122 0.694122
0.752930 0.752930 0.752930
0.789795 0.789795 0.789795
0.708221 0.708221 0.708221
0.720001 0.720001 0.720001
0.739594 0.739594 0.739594
0.767822 0.767822 0.767822
0.810974 0.810974 0.810974
0.866669 0.866669 0.866669
0.890198 0.890198 0.890198
0.899597 0.899597 0.899597
0.905090 0.905090 0.905090
0.912140 0.912140 0.912140
0.917633 0.917633 0.917633
0.942749 0.942749 0.942749
0.713715 0.713715 0.713715
0.738831 0.738831 0.738831
0.777252 0.777252 0.777252
0.803131 0.803131 0.803131
0.840790 0.840790 0.840790
0.886261 0.886261 0.886261
0.726288 0.726288 0.726288
0.746674 0.746674 0.746674
0.781189 0.781189 0.781189
0.811768 0.811768 0.811768
0.848633 0.848633 0.848633
0.890991 0.890991 0.890991
0.726288 0.726288 0.726288
0.740387 0.740387 0.740387
0.782745 0.782745 0.782745
0.830597 0.830597 0.830597
0.861969 0.861969 0.861969
0.901184 0.901184 0.901184
0.730988 0.730988 0.730988
0.740387 0.740387 0.740387
0.770966 0.770966 0.770966
0.834503 0.834503 0.834503
0.880005 0.880005 0.880005
0.918427 0.918427 0.918427
0.832153 0.832153 0.832153
0.835297 0.835297 0.835297
0.838440 0.838440 0.838440
0.850983 0.850983 0.850983
0.908234 0.908234 0.908234
0.942749 0.942749 0.942749
0.925476 0.925476 0.925476
0.930206 0.930206 0.930206
0.938812 0.938812 0.938812
0.947449 0.947449 0.947449
0.959229 0.959229 0.959229
0.984314 0.984314 0.984314
