lut/黑白纪实.cube
#Created by: Adobe Photoshop Export Color Lookup Plugin
#Copyright: (C) Copyright 2026 汉图
TITLE "mint本征源文件-适配lut筛选-恢复的.psd"
#LUT size
LUT_3D_SIZE 7
#data domain
#LUT data points
DOMAIN_MIN 0.000000 0.000000 0.000000
DOMAIN_MAX 0.909091 0.909091 0.909091
0.157776 0.157776 0.157776
0.157776 0.157776 0.157776
0.157776 0.157776 0.157776
0.245270 0.245270 0.245270
0.358215 0.358215 0.358215
0.480896 0.480896 0.480896
0.606720 0.606720 0.606720
0.157776 0.157776 0.157776
0.157776 0.157776 0.157776
0.161224 0.161224 0.161224
0.265320 0.265320 0.265320
0.380188 0.380188 0.380188
0.504181 0.504181 0.504181
0.629547 0.629547 0.629547
0.157776 0.157776 0.157776
0.161224 0.161224 0.161224
0.179535 0.179535 0.179535
0.285767 0.285767 0.285767
0.402466 0.402466 0.402466
0.527527 0.527527 0.527527
0.652161 0.652161 0.652161
0.245270 0.245270 0.245270
0.265320 0.265320 0.265320
0.285767 0.285767 0.285767
0.306549 0.306549 0.306549
0.425079 0.425079 0.425079
0.550751 0.550751 0.550751
0.674469 0.674469 0.674469
0.358215 0.358215 0.358215
0.380188 0.380188 0.380188
0.402466 0.402466 0.402466
0.425079 0.425079 0.425079
0.447968 0.447968 0.447968
0.573975 0.573975 0.573975
0.696503 0.696503 0.696503
0.480896 0.480896 0.480896
0.504181 0.504181 0.504181
0.527527 0.527527 0.527527
0.550751 0.550751 0.550751
0.573975 0.573975 0.573975
0.597046 0.597046 0.597046
0.718201 0.718201 0.718201
0.606720 0.606720 0.606720
0.629547 0.629547 0.629547
0.652161 0.652161 0.652161
0.674469 0.674469 0.674469
0.696503 0.696503 0.696503
0.718201 0.718201 0.718201
0.739471 0.739471 0.739471
0.157776 0.157776 0.157776
0.157776 0.157776 0.157776
0.173401 0.173401 0.173401
0.278961 0.278961 0.278961
0.395050 0.395050 0.395050
0.519775 0.519775 0.519775
0.644684 0.644684 0.644684
0.157776 0.157776 0.157776
0.157776 0.157776 0.157776
0.196808 0.196808 0.196808
0.304871 0.304871 0.304871
0.423279 0.423279 0.423279
0.548859 0.548859 0.548859
0.672729 0.672729 0.672729
0.157776 0.157776 0.157776
0.196808 0.196808 0.196808
0.215881 0.215881 0.215881
0.325928 0.325928 0.325928
0.446136 0.446136 0.446136
0.572144 0.572144 0.572144
0.694763 0.694763 0.694763
0.245270 0.245270 0.245270
0.304871 0.304871 0.304871
0.325928 0.325928 0.325928
0.347382 0.347382 0.347382
0.469299 0.469299 0.469299
0.595245 0.595245 0.595245
0.716492 0.716492 0.716492
0.358215 0.358215 0.358215
0.423279 0.423279 0.423279
0.446136 0.446136 0.446136
0.469299 0.469299 0.469299
0.492523 0.492523 0.492523
0.618164 0.618164 0.618164
0.737823 0.737823 0.737823
0.480896 0.480896 0.480896
0.548859 0.548859 0.548859
0.572144 0.572144 0.572144
0.595245 0.595245 0.595245
0.618164 0.618164 0.618164
0.640900 0.640900 0.640900
0.758636 0.758636 0.758636
0.606720 0.606720 0.606720
0.672729 0.672729 0.672729
0.694763 0.694763 0.694763
0.716492 0.716492 0.716492
0.737823 0.737823 0.737823
0.758636 0.758636 0.758636
0.778992 0.778992 0.778992
0.157776 0.157776 0.157776
0.157776 0.157776 0.157776
0.204681 0.204681 0.204681
0.313599 0.313599 0.313599
0.432709 0.432709 0.432709
0.558563 0.558563 0.558563
0.681946 0.681946 0.681946
0.157776 0.157776 0.157776
0.173462 0.173462 0.173462
0.228912 0.228912 0.228912
0.340210 0.340210 0.340210
0.461578 0.461578 0.461578
0.587555 0.587555 0.587555
0.709351 0.709351 0.709351
0.157776 0.157776 0.157776
0.196808 0.196808 0.196808
0.253662 0.253662 0.253662
0.367401 0.367401 0.367401
0.490692 0.490692 0.490692
0.616394 0.616394 0.616394
0.736115 0.736115 0.736115
0.245270 0.245270 0.245270
0.304871 0.304871 0.304871
0.367401 0.367401 0.367401
0.389496 0.389496 0.389496
0.513977 0.513977 0.513977
0.639099 0.639099 0.639099
0.756989 0.756989 0.756989
0.358215 0.358215 0.358215
0.423279 0.423279 0.423279
0.490692 0.490692 0.490692
0.513977 0.513977 0.513977
0.537231 0.537231 0.537231
0.661560 0.661560 0.661560
0.777435 0.777435 0.777435
0.480896 0.480896 0.480896
0.548859 0.548859 0.548859
0.616394 0.616394 0.616394
0.639099 0.639099 0.639099
0.661560 0.661560 0.661560
0.683746 0.683746 0.683746
0.797333 0.797333 0.797333
0.606720 0.606720 0.606720
0.672729 0.672729 0.672729
0.736115 0.736115 0.736115
0.756989 0.756989 0.756989
0.777435 0.777435 0.777435
0.797333 0.797333 0.797333
0.816742 0.816742 0.816742
0.173462 0.173462 0.173462
0.228912 0.228912 0.228912
0.287537 0.287537 0.287537
0.349213 0.349213 0.349213
0.471252 0.471252 0.471252
0.597107 0.597107 0.597107
0.718292 0.718292 0.718292
0.196808 0.196808 0.196808
0.253662 0.253662 0.253662
0.313660 0.313660 0.313660
0.376556 0.376556 0.376556
0.500366 0.500366 0.500366
0.625793 0.625793 0.625793
0.744843 0.744843 0.744843
0.220734 0.220734 0.220734
0.278992 0.278992 0.278992
0.340302 0.340302 0.340302
0.404449 0.404449 0.404449
0.529572 0.529572 0.529572
0.654083 0.654083 0.654083
0.770691 0.770691 0.770691
0.245270 0.245270 0.245270
0.304871 0.304871 0.304871
0.367401 0.367401 0.367401
0.432831 0.432831 0.432831
0.558655 0.558655 0.558655
0.682037 0.682037 0.682037
0.795807 0.795807 0.795807
0.358215 0.358215 0.358215
0.423279 0.423279 0.423279
0.490692 0.490692 0.490692
0.558655 0.558655 0.558655
0.581818 0.581818 0.581818
0.703949 0.703949 0.703949
0.815216 0.815216 0.815216
0.480896 0.480896 0.480896
0.548859 0.548859 0.548859
0.616394 0.616394 0.616394
0.682037 0.682037 0.682037
0.703949 0.703949 0.703949
0.725464 0.725464 0.725464
0.834045 0.834045 0.834045
0.606720 0.606720 0.606720
0.672729 0.672729 0.672729
0.736115 0.736115 0.736115
0.795807 0.795807 0.795807
0.815216 0.815216 0.815216
0.834045 0.834045 0.834045
0.852234 0.852234 0.852234
0.253662 0.253662 0.253662
0.313660 0.313660 0.313660
0.376556 0.376556 0.376556
0.442322 0.442322 0.442322
0.510010 0.510010 0.510010
0.635223 0.635223 0.635223
0.753479 0.753479 0.753479
0.278992 0.278992 0.278992
0.340240 0.340240 0.340240
0.404419 0.404419 0.404419
0.471283 0.471283 0.471283
0.539185 0.539185 0.539185
0.663422 0.663422 0.663422
0.779083 0.779083 0.779083
0.304840 0.304840 0.304840
0.367371 0.367371 0.367371
0.432831 0.432831 0.432831
0.500427 0.500427 0.500427
0.568268 0.568268 0.568268
0.691162 0.691162 0.691162
0.803925 0.803925 0.803925
0.331238 0.331238 0.331238
0.395111 0.395111 0.395111
0.461639 0.461639 0.461639
0.529602 0.529602 0.529602
0.597229 0.597229 0.597229
0.718353 0.718353 0.718353
0.827850 0.827850 0.827850
0.358215 0.358215 0.358215
0.423279 0.423279 0.423279
0.490692 0.490692 0.490692
0.558655 0.558655 0.558655
0.625916 0.625916 0.625916
0.744934 0.744934 0.744934
0.850800 0.850800 0.850800
0.480896 0.480896 0.480896
0.548859 0.548859 0.548859
0.616394 0.616394 0.616394
0.682037 0.682037 0.682037
0.744934 0.744934 0.744934
0.765594 0.765594 0.765594
0.868408 0.868408 0.868408
0.606720 0.606720 0.606720
0.672729 0.672729 0.672729
0.736115 0.736115 0.736115
0.795807 0.795807 0.795807
0.850800 0.850800 0.850800
0.868408 0.868408 0.868408
0.885315 0.885315 0.885315
0.340240 0.340240 0.340240
0.404419 0.404419 0.404419
0.471283 0.471283 0.471283
0.539185 0.539185 0.539185
0.606720 0.606720 0.606720
0.672699 0.672699 0.672699
0.787445 0.787445 0.787445
0.367371 0.367371 0.367371
0.432831 0.432831 0.432831
0.500427 0.500427 0.500427
0.568329 0.568329 0.568329
0.635254 0.635254 0.635254
0.700226 0.700226 0.700226
0.811920 0.811920 0.811920
0.395111 0.395111 0.395111
0.461639 0.461639 0.461639
0.529602 0.529602 0.529602
0.597229 0.597229 0.597229
0.663483 0.663483 0.663483
0.727264 0.727264 0.727264
0.835571 0.835571 0.835571
0.423279 0.423279 0.423279
0.490692 0.490692 0.490692
0.558655 0.558655 0.558655
0.625946 0.625946 0.625946
0.691193 0.691193 0.691193
0.753540 0.753540 0.753540
0.858185 0.858185 0.858185
0.451904 0.451904 0.451904
0.519806 0.519806 0.519806
0.587585 0.587585 0.587585
0.654175 0.654175 0.654175
0.718414 0.718414 0.718414
0.779175 0.779175 0.779175
0.879791 0.879791 0.879791
0.480896 0.480896 0.480896
0.548859 0.548859 0.548859
0.616394 0.616394 0.616394
0.682037 0.682037 0.682037
0.744934 0.744934 0.744934
0.803986 0.803986 0.803986
0.900299 0.900299 0.900299
0.606720 0.606720 0.606720
0.672729 0.672729 0.672729
0.736115 0.736115 0.736115
0.795807 0.795807 0.795807
0.850800 0.850800 0.850800
0.900299 0.900299 0.900299
0.915771 0.915771 0.915771
0.432831 0.432831 0.432831
0.500427 0.500427 0.500427
0.568329 0.568329 0.568329
0.635284 0.635284 0.635284
0.700226 0.700226 0.700226
0.762115 0.762115 0.762115
0.819885 0.819885 0.819885
0.461639 0.461639 0.461639
0.529602 0.529602 0.529602
0.597229 0.597229 0.597229
0.663483 0.663483 0.663483
0.727264 0.727264 0.727264
0.787476 0.787476 0.787476
0.843170 0.843170 0.843170
0.490692 0.490692 0.490692
0.558655 0.558655 0.558655
0.625946 0.625946 0.625946
0.691254 0.691254 0.691254
0.753540 0.753540 0.753540
0.811951 0.811951 0.811951
0.865448 0.865448 0.865448
0.519806 0.519806 0.519806
0.587616 0.587616 0.587616
0.654175 0.654175 0.654175
0.718414 0.718414 0.718414
0.779175 0.779175 0.779175
0.835602 0.835602 0.835602
0.886749 0.886749 0.886749
0.548859 0.548859 0.548859
0.616394 0.616394 0.616394
0.682037 0.682037 0.682037
0.744934 0.744934 0.744934
0.803986 0.803986 0.803986
0.858215 0.858215 0.858215
0.906860 0.906860 0.906860
0.577911 0.577911 0.577911
0.644745 0.644745 0.644745
0.709381 0.709381 0.709381
0.770721 0.770721 0.770721
0.827881 0.827881 0.827881
0.879852 0.879852 0.879852
0.925751 0.925751 0.925751
0.606720 0.606720 0.606720
0.672729 0.672729 0.672729
0.736115 0.736115 0.736115
0.795807 0.795807 0.795807
0.850800 0.850800 0.850800
0.900299 0.900299 0.900299
0.943359 0.943359 0.943359
