lut/黑白纪实.cube
#Created by: Adobe Photoshop Export Color Lookup Plugin
#Copyright: (C) Copyright 2026 汉图
TITLE "mint本征源文件-适配lut筛选-恢复的.psd"
#LUT size
LUT_3D_SIZE 4
#data domain
DOMAIN_MIN 0.0 0.0 0.0
DOMAIN_MAX 1.0 1.0 1.0
#LUT data points
0.157776 0.157776 0.157776
0.162750 0.162750 0.162750
0.406250 0.406250 0.406250
0.680115 0.680115 0.680115
0.162750 0.162750 0.162750
0.203705 0.203705 0.203705
0.456451 0.456451 0.456451
0.727875 0.727875 0.727875
0.406250 0.406250 0.406250
0.456451 0.456451 0.456451
0.507629 0.507629 0.507629
0.773651 0.773651 0.773651
0.680115 0.680115 0.680115
0.727875 0.727875 0.727875
0.773651 0.773651 0.773651
0.816925 0.816925 0.816925
0.157776 0.157776 0.157776
0.232117 0.232117 0.232117
0.490601 0.490601 0.490601
0.758667 0.758667 0.758667
0.162750 0.162750 0.162750
0.287567 0.287567 0.287567
0.554749 0.554749 0.554749
0.813599 0.813599 0.813599
0.406250 0.406250 0.406250
0.554749 0.554749 0.554749
0.605591 0.605591 0.605591
0.854309 0.854309 0.854309
0.680115 0.680115 0.680115
0.813599 0.813599 0.813599
0.854309 0.854309 0.854309
0.891815 0.891815 0.891815
0.287567 0.287567 0.287567
0.427032 0.427032 0.427032
0.575958 0.575958 0.575958
0.830872 0.830872 0.830872
0.345612 0.345612 0.345612
0.490723 0.490723 0.490723
0.639099 0.639099 0.639099
0.879791 0.879791 0.879791
0.406250 0.406250 0.406250
0.554749 0.554749 0.554749
0.700348 0.700348 0.700348
0.923279 0.923279 0.923279
0.680115 0.680115 0.680115
0.813599 0.813599 0.813599
0.923279 0.923279 0.923279
0.953674 0.953674 0.953674
0.490723 0.490723 0.490723
0.639099 0.639099 0.639099
0.777435 0.777435 0.777435
0.894806 0.894806 0.894806
0.554749 0.554749 0.554749
0.700409 0.700409 0.700409
0.830933 0.830933 0.830933
0.936371 0.936371 0.936371
0.618225 0.618225 0.618225
0.758759 0.758759 0.758759
0.879852 0.879852 0.879852
0.971680 0.971680 0.971680
0.680115 0.680115 0.680115
0.813599 0.813599 0.813599
0.923279 0.923279 0.923279
1.000000 1.000000 1.000000
