lut/黑白老照片 2.cube
#Created by: Adobe Photoshop Export Color Lookup Plugin
#Copyright: (C) Copyright 2026 汉图
TITLE "mint本征源文件-适配lut筛选-恢复的.psd"
#LUT size
LUT_3D_SIZE 7
#data domain
#LUT data points
DOMAIN_MIN 0.000000 0.000000 0.000000
DOMAIN_MAX 0.909091 0.909091 0.909091
0.132233 0.133118 0.132507
0.140137 0.143066 0.141388
0.160797 0.165283 0.162628
0.206543 0.210144 0.208191
0.278839 0.280975 0.282715
0.377747 0.379730 0.381470
0.529419 0.529083 0.529388
0.166260 0.170563 0.167938
0.159546 0.164093 0.161407
0.185760 0.190063 0.187378
0.234161 0.236938 0.236572
0.304413 0.306549 0.308777
0.402740 0.404480 0.405701
0.553650 0.552887 0.553650
0.267853 0.270142 0.271423
0.264984 0.267334 0.268433
0.244080 0.246643 0.246826
0.289337 0.291382 0.293427
0.368988 0.371063 0.372894
0.468658 0.469360 0.469543
0.613708 0.612030 0.613922
0.443817 0.444946 0.445435
0.447662 0.448700 0.449127
0.423859 0.425323 0.426117
0.384949 0.386932 0.388489
0.443939 0.445099 0.445557
0.560608 0.559753 0.560608
0.702271 0.700378 0.701874
0.664215 0.662140 0.664062
0.673706 0.671600 0.673431
0.658264 0.656158 0.658142
0.629761 0.627930 0.629913
0.586578 0.585297 0.586700
0.654755 0.652618 0.654694
0.769348 0.770233 0.771423
0.832184 0.836090 0.835327
0.838104 0.842072 0.841034
0.834290 0.838196 0.837341
0.825287 0.828979 0.828522
0.810913 0.814117 0.814240
0.789703 0.791809 0.792664
0.833099 0.837006 0.836212
0.923859 0.929230 0.926453
0.925934 0.931396 0.928619
0.926483 0.931946 0.929199
0.924927 0.930328 0.927551
0.922668 0.928009 0.925201
0.919403 0.924622 0.921814
0.915466 0.920593 0.917755
0.136200 0.138153 0.136993
0.140045 0.143005 0.141296
0.163086 0.167572 0.164917
0.225525 0.228516 0.227631
0.298096 0.300201 0.302399
0.395203 0.397064 0.398438
0.542969 0.542358 0.542908
0.151184 0.155396 0.153046
0.173492 0.178009 0.175293
0.202026 0.205811 0.203705
0.250916 0.253357 0.253906
0.320984 0.323212 0.325500
0.418518 0.420013 0.420959
0.565643 0.564667 0.565674
0.246307 0.248901 0.249207
0.273132 0.275360 0.276825
0.258179 0.260529 0.261414
0.306641 0.308838 0.311127
0.382355 0.384369 0.385956
0.481171 0.481720 0.481812
0.622681 0.620850 0.622864
0.419006 0.420563 0.421448
0.446350 0.447449 0.447906
0.434784 0.436066 0.436707
0.397614 0.399445 0.400757
0.459442 0.460327 0.460602
0.574799 0.573700 0.574890
0.707855 0.706085 0.707489
0.646881 0.644867 0.646912
0.665222 0.663116 0.665039
0.664337 0.662231 0.664154
0.637299 0.635376 0.637360
0.596069 0.594635 0.596222
0.664917 0.662781 0.664734
0.775055 0.776306 0.777374
0.826019 0.829773 0.829254
0.832733 0.836639 0.835846
0.836273 0.840240 0.839294
0.827606 0.831360 0.830811
0.813751 0.817047 0.817078
0.793243 0.795532 0.796265
0.836578 0.840515 0.839539
0.922180 0.927521 0.924713
0.924377 0.929749 0.926971
0.927216 0.932678 0.929962
0.925659 0.931091 0.928314
0.923401 0.928772 0.925964
0.919891 0.925171 0.922363
0.915710 0.920868 0.918030
0.144623 0.148346 0.146301
0.149933 0.154053 0.151672
0.164764 0.169373 0.166626
0.196503 0.200439 0.197998
0.288086 0.290161 0.292145
0.419159 0.420715 0.421600
0.568146 0.567169 0.568207
0.170868 0.175507 0.172729
0.187805 0.191986 0.189423
0.200928 0.204773 0.202606
0.237427 0.240173 0.239960
0.333038 0.335297 0.337524
0.446442 0.447540 0.447998
0.589142 0.587799 0.589294
0.206818 0.210480 0.208557
0.228729 0.231750 0.231049
0.287201 0.289398 0.291229
0.335815 0.338074 0.340332
0.406769 0.408417 0.409576
0.506561 0.506592 0.506714
0.641632 0.639648 0.641724
0.352783 0.354980 0.357025
0.384613 0.386536 0.388123
0.455200 0.456146 0.456482
0.427155 0.428558 0.429321
0.496216 0.496490 0.496521
0.604462 0.602875 0.604706
0.720123 0.718658 0.720001
0.600342 0.598877 0.600525
0.620026 0.618286 0.620209
0.669464 0.667358 0.669220
0.655975 0.653900 0.655853
0.618896 0.617157 0.619049
0.689117 0.687012 0.688660
0.789032 0.791107 0.791962
0.808044 0.811157 0.811432
0.815826 0.819244 0.819183
0.834625 0.838593 0.837708
0.833679 0.837585 0.836761
0.820923 0.824463 0.824188
0.801849 0.804596 0.805054
0.845428 0.849487 0.848145
0.917206 0.922424 0.919556
0.919647 0.924896 0.922058
0.925781 0.931244 0.928467
0.927673 0.933167 0.930450
0.925476 0.930908 0.928131
0.921967 0.927307 0.924500
0.917389 0.922577 0.919739
0.164185 0.168732 0.166016
0.170593 0.175262 0.172424
0.186829 0.191162 0.188385
0.212677 0.216095 0.214478
0.251099 0.253540 0.254059
0.342926 0.345154 0.347382
0.533722 0.533325 0.533691
0.203888 0.207581 0.205505
0.211029 0.214569 0.212891
0.224030 0.227142 0.226135
0.246185 0.248810 0.249084
0.283813 0.285980 0.287842
0.386627 0.388550 0.390045
0.575958 0.574829 0.576050
0.239746 0.242432 0.242340
0.261200 0.263519 0.264557
0.309265 0.311432 0.313721
0.329010 0.331268 0.333527
0.373871 0.375885 0.377655
0.503296 0.503387 0.503601
0.664215 0.662048 0.664001
0.296844 0.299072 0.301239
0.317047 0.319275 0.321594
0.372406 0.374512 0.376282
0.473938 0.474518 0.474701
0.541992 0.541443 0.541962
0.631561 0.629669 0.631805
0.735443 0.734528 0.735870
0.476746 0.477295 0.477600
0.507477 0.507538 0.507874
0.584991 0.583771 0.585083
0.679749 0.677643 0.679413
0.653320 0.651276 0.653259
0.724091 0.722717 0.723999
0.808441 0.811493 0.811737
0.767578 0.768402 0.769562
0.778015 0.779419 0.780457
0.802826 0.805634 0.806030
0.839111 0.843109 0.842041
0.832794 0.836700 0.835907
0.815216 0.818604 0.818573
0.858856 0.863007 0.861206
0.906097 0.910950 0.908112
0.909149 0.914093 0.911255
0.916779 0.921936 0.919098
0.928497 0.934052 0.931335
0.929169 0.934723 0.932037
0.925629 0.931061 0.928284
0.920837 0.926117 0.923279
0.198700 0.202667 0.200378
0.205017 0.208679 0.206696
0.220459 0.223633 0.222473
0.244812 0.247345 0.247589
0.277649 0.279846 0.281525
0.322662 0.324951 0.327332
0.420380 0.421936 0.422760
0.239319 0.242065 0.241943
0.243958 0.246582 0.246704
0.256256 0.258698 0.259491
0.277588 0.279785 0.281403
0.308777 0.310974 0.313232
0.354279 0.356506 0.358582
0.457672 0.458588 0.458893
0.290100 0.292206 0.294250
0.310577 0.312744 0.315033
0.340820 0.343048 0.345245
0.360718 0.362854 0.364838
0.390594 0.392517 0.393921
0.439545 0.440765 0.441315
0.561981 0.561096 0.562012
0.341522 0.343811 0.346039
0.361633 0.363770 0.365753
0.416504 0.418060 0.419006
0.504150 0.504272 0.504333
0.530548 0.530212 0.530487
0.583588 0.582306 0.583710
0.715759 0.714233 0.715607
0.423615 0.425049 0.425934
0.442902 0.444092 0.444580
0.494629 0.494904 0.494995
0.582550 0.581299 0.582642
0.697144 0.695221 0.696777
0.756348 0.756470 0.757751
0.820007 0.823547 0.823303
0.613220 0.611603 0.613312
0.637817 0.635956 0.637817
0.697571 0.695862 0.697510
0.780304 0.781830 0.782776
0.846802 0.850891 0.849518
0.833405 0.837341 0.836517
0.876038 0.880280 0.877930
0.875946 0.880219 0.877899
0.882172 0.886505 0.884064
0.895966 0.900574 0.897858
0.913239 0.918304 0.915466
0.932770 0.938385 0.935791
0.931305 0.936890 0.934235
0.926056 0.931519 0.928772
0.252319 0.254669 0.255280
0.258209 0.260529 0.261444
0.272156 0.274323 0.275848
0.295380 0.297455 0.299683
0.328644 0.330933 0.333252
0.372314 0.374359 0.376190
0.427399 0.428802 0.429535
0.286316 0.288391 0.290344
0.291260 0.293335 0.295410
0.303040 0.305237 0.307495
0.324280 0.326538 0.328888
0.357208 0.359406 0.361450
0.401733 0.403503 0.404724
0.456787 0.457703 0.458008
0.355957 0.358215 0.360260
0.373047 0.375153 0.376923
0.387024 0.388977 0.390472
0.405609 0.407349 0.408478
0.433655 0.434998 0.435608
0.474640 0.475250 0.475342
0.528870 0.528503 0.528778
0.400513 0.402283 0.403534
0.419983 0.421509 0.422394
0.475494 0.476105 0.476196
0.543976 0.543396 0.543884
0.567780 0.566803 0.567810
0.600922 0.599396 0.601166
0.644867 0.642822 0.644928
0.475281 0.475922 0.475983
0.493988 0.494293 0.494293
0.541382 0.540833 0.541290
0.622253 0.620422 0.622528
0.716919 0.715363 0.716705
0.736877 0.736023 0.737305
0.775391 0.776642 0.777710
0.574829 0.573669 0.574890
0.590942 0.589569 0.591125
0.631317 0.629425 0.631531
0.698059 0.695984 0.697479
0.777527 0.778900 0.779999
0.855438 0.859589 0.857880
0.890747 0.895233 0.892548
0.740417 0.740112 0.741364
0.754059 0.754364 0.755432
0.795288 0.797455 0.797852
0.851044 0.855072 0.853638
0.902771 0.907562 0.904816
0.937927 0.943726 0.941193
0.933197 0.938843 0.936218
0.320465 0.322693 0.325073
0.327148 0.329407 0.331757
0.338593 0.340820 0.343079
0.360779 0.362976 0.364960
0.392303 0.394196 0.395599
0.435455 0.436798 0.437347
0.487640 0.488037 0.488037
0.349152 0.351379 0.353516
0.353638 0.355804 0.357880
0.363464 0.365601 0.367554
0.383392 0.385376 0.386963
0.413055 0.414673 0.415680
0.456665 0.457611 0.457886
0.509125 0.509155 0.509277
0.420166 0.421722 0.422577
0.424866 0.426300 0.427094
0.435638 0.436920 0.437531
0.458221 0.459167 0.459412
0.483856 0.484344 0.484406
0.523438 0.523224 0.523438
0.569366 0.568359 0.569397
0.449341 0.450439 0.450806
0.467957 0.468719 0.468842
0.527679 0.527374 0.527588
0.564697 0.563721 0.564636
0.585144 0.583862 0.585266
0.617645 0.615875 0.617920
0.663910 0.661743 0.663757
0.495941 0.496246 0.496216
0.512482 0.512390 0.512451
0.554901 0.554108 0.554840
0.634247 0.632294 0.634491
0.719971 0.718506 0.719849
0.747223 0.746887 0.748138
0.780853 0.782410 0.783386
0.597778 0.596313 0.597992
0.611694 0.610016 0.611969
0.649231 0.647156 0.649261
0.712585 0.710815 0.712189
0.788391 0.790405 0.791260
0.861511 0.865662 0.863770
0.876282 0.880493 0.878174
0.716888 0.715240 0.716553
0.726959 0.725616 0.726929
0.754181 0.754181 0.755463
0.797974 0.800598 0.801239
0.848969 0.853088 0.851654
0.898102 0.902710 0.899933
0.939972 0.945801 0.943390
